P3
400 225
255
173 197 0
174 197 0
173 197 0
175 198 0
173 196 0
175 198 0
173 197 0
174 197 0
175 198 0
173 197 0
176 198 0
174 197 0
173 197 0
174 197 0
173 197 0
174 197 0
175 198 0
173 197 0
172 197 0
175 198 0
173 196 0
174 197 0
173 197 0
173 197 0
174 197 0
176 198 0
173 197 0
176 199 0
173 197 0
174 197 0
174 198 0
175 198 0
173 196 0
174 198 0
171 195 0
174 197 0
174 198 0
173 197 0
174 197 0
173 197 0
173 197 0
173 197 0
175 198 0
175 198 0
171 196 0
176 199 0
174 198 0
173 197 0
175 198 0
175 198 0
173 197 0
175 198 0
174 197 0
175 198 0
173 197 0
175 198 0
173 196 0
173 197 0
176 198 0
173 196 0
171 195 0
172 196 0
174 197 0
173 196 0
176 199 0
171 195 0
176 198 0
172 196 0
172 196 0
174 197 0
174 197 0
175 198 0
174 197 0
171 196 0
173 197 0
172 196 0
173 197 0
172 196 0
174 197 0
175 197 0
175 198 0
172 196 0
175 198 0
174 197 0
173 197 0
172 194 0
175 198 0
174 197 0
173 197 0
172 196 0
172 196 0
174 197 0
173 197 0
173 196 0
173 197 0
174 197 0
173 196 0
172 196 0
173 196 0
175 197 0
173 196 0
174 197 0
175 198 0
173 197 0
172 196 0
174 197 0
173 197 0
174 198 0
173 196 0
172 195 0
175 198 0
174 197 0
174 198 0
173 197 0
173 196 0
172 195 0
172 195 0
172 196 0
174 197 0
175 198 0
173 197 0
171 195 0
173 196 0
172 195 0
173 196 0
175 198 0
175 197 0
172 196 0
173 196 0
173 196 0
174 197 0
175 198 0
173 196 0
173 196 0
175 198 0
174 198 0
174 197 0
174 197 0
174 196 0
173 197 0
171 195 0
172 195 0
172 196 0
171 195 0
172 197 0
176 199 0
173 196 0
172 196 0
173 197 0
174 197 0
172 196 0
175 198 0
174 197 0
174 197 0
171 194 0
169 192 0
174 198 0
173 196 0
175 198 0
173 196 0
173 197 0
174 197 0
173 197 0
174 197 0
174 198 0
173 195 0
173 196 0
175 198 0
172 195 0
174 197 0
173 197 0
174 197 0
175 197 0
174 197 0
173 196 0
174 197 0
173 196 0
174 197 0
175 198 0
173 196 0
174 197 0
173 196 0
173 197 0
172 195 0
173 197 0
175 198 0
171 194 0
174 197 0
173 197 0
174 197 0
174 197 0
175 198 0
173 196 0
171 195 0
172 196 0
175 198 0
175 198 0
172 196 0
172 195 0
172 196 0
173 195 0
173 197 0
172 195 0
173 196 0
172 196 0
171 194 0
172 195 0
175 198 0
172 195 0
171 195 0
173 196 0
174 197 0
173 196 0
173 197 0
173 196 0
172 195 0
172 195 0
172 196 0
172 196 0
175 198 0
172 195 0
172 195 0
172 195 0
173 196 0
174 197 0
176 198 0
171 195 0
171 195 0
173 196 0
172 195 0
174 197 0
174 197 0
176 199 0
172 195 0
173 197 0
172 195 0
173 196 0
171 195 0
172 195 0
173 197 0
172 196 0
173 196 0
173 196 0
172 195 0
173 196 0
174 198 0
172 195 0
173 197 0
156 169 42
133 127 69
139 133 74
142 137 79
139 133 78
138 132 80
135 130 78
148 142 84
142 136 80
136 132 77
143 137 83
143 138 84
153 147 90
145 140 82
155 149 92
152 147 87
156 150 91
149 143 90
159 153 97
156 152 97
162 157 100
157 152 96
158 154 97
165 160 104
158 153 98
151 148 96
159 153 97
154 150 98
156 153 101
157 151 97
158 154 99
155 152 100
161 156 102
158 155 99
167 162 106
163 159 106
163 160 107
160 157 104
153 150 100
157 153 102
167 163 108
159 155 102
157 154 103
165 162 109
170 167 110
166 164 110
163 160 106
170 167 112
160 157 104
162 161 108
162 159 107
158 155 103
167 164 109
168 165 110
165 162 108
168 165 110
166 164 109
164 161 108
169 166 111
162 160 108
158 156 104
164 161 108
162 160 108
165 163 109
166 163 109
165 163 109
158 156 104
169 167 112
164 162 108
166 164 110
163 161 108
169 166 110
164 162 108
165 163 109
164 161 108
159 157 105
161 159 106
159 157 105
163 161 108
162 159 106
167 165 110
157 154 103
160 158 105
167 164 109
164 161 108
166 163 109
161 158 105
163 160 106
168 166 110
169 166 110
161 158 105
161 157 104
163 160 107
166 162 108
161 157 103
159 155 102
159 156 103
161 158 104
153 151 100
162 158 105
165 161 107
160 156 103
157 154 103
161 158 104
163 159 104
158 155 101
157 152 98
160 157 104
152 148 95
155 151 97
160 154 99
161 156 101
160 155 99
144 138 89
159 153 98
149 143 91
159 154 99
149 143 90
145 140 89
151 146 95
143 137 85
150 145 88
143 138 84
154 148 90
145 138 87
141 136 81
146 140 84
147 141 80
132 127 75
147 140 84
130 124 73
136 137 59
172 194 16
173 196 0
173 196 0
175 198 0
174 197 0
174 197 0
173 197 0
175 197 0
174 197 0
173 196 0
174 197 0
173 197 0
171 195 0
174 196 0
173 197 0
175 198 0
175 197 0
175 198 0
174 197 0
173 196 0
173 197 0
173 197 0
174 198 0
173 197 0
175 197 0
175 198 0
172 195 0
175 198 0
174 198 0
175 198 0
174 197 0
171 196 0
174 198 0
174 198 0
174 198 0
174 197 0
175 197 0
174 198 0
176 199 0
173 197 0
174 197 0
174 198 0
175 198 0
174 197 0
173 197 0
174 197 0
171 195 0
174 198 0
173 196 0
174 198 0
173 197 0
174 198 0
173 197 0
176 199 0
173 197 0
171 195 0
174 197 0
175 198 0
172 196 0
174 197 0
174 197 0
174 197 0
174 198 0
172 196 0
172 195 0
174 198 0
174 197 0
173 196 0
172 195 0
175 198 0
174 197 0
174 197 0
173 197 0
175 198 0
174 197 0
173 196 0
170 193 0
173 197 0
170 194 0
174 198 0
174 197 0
173 197 0
173 196 0
176 198 0
173 197 0
173 195 0
173 196 0
174 198 0
173 196 0
173 196 0
172 195 0
173 197 0
174 197 0
175 198 0
172 196 0
172 195 0
174 197 0
173 197 0
174 197 0
175 198 0
173 196 0
173 197 0
174 197 0
174 196 0
173 196 0
172 195 0
173 197 0
172 196 0
173 196 0
173 197 0
174 197 0
174 197 0
173 197 0
173 196 0
174 197 0
174 197 0
173 196 0
173 197 0
175 197 0
174 198 0
172 195 0
174 197 0
171 195 0
172 196 0
173 197 0
174 197 0
173 197 0
173 197 0
174 197 0
174 197 0
172 196 0
172 196 0
174 197 0
173 196 0
170 194 0
172 196 0
171 194 0
172 196 0
174 198 0
172 196 0
172 196 0
173 196 0
173 196 0
174 197 0
172 196 0
175 198 0
176 199 0
174 197 0
171 195 0
173 197 0
172 195 0
173 196 0
170 193 0
173 196 0
175 197 0
173 196 0
173 197 0
172 196 0
172 195 0
174 198 0
175 197 0
173 197 0
176 198 0
175 198 0
173 197 0
173 195 0
174 198 0
170 192 0
172 196 0
171 194 0
170 194 0
174 198 0
172 197 0
174 197 0
173 197 0
172 196 0
174 197 0
172 195 0
173 196 0
172 195 0
174 197 0
174 197 0
170 194 0
173 197 0
172 195 0
174 197 0
173 197 0
173 196 0
172 194 0
170 194 0
172 195 0
172 195 0
172 194 0
173 197 0
173 197 0
172 195 0
172 195 0
173 196 0
174 196 0
174 197 0
172 195 0
174 197 0
172 196 0
173 195 0
172 195 0
172 196 0
175 197 0
173 196 0
172 195 0
173 196 0
173 197 0
175 198 0
174 197 0
172 196 0
173 196 0
170 194 0
172 196 0
172 195 0
174 197 0
173 196 0
171 194 0
173 195 0
174 197 0
171 195 0
173 196 0
173 196 0
172 195 0
172 196 0
173 197 0
172 196 0
172 196 0
174 196 0
171 195 0
174 197 0
175 198 0
174 197 0
174 196 0
175 198 0
172 196 0
175 198 0
174 197 0
173 196 0
174 196 0
171 195 0
172 195 0
173 196 0
173 196 0
172 194 0
173 197 0
172 195 0
173 197 0
174 197 0
173 196 0
175 198 0
172 196 0
171 194 0
172 196 0
174 196 0
173 197 0
171 194 0
173 196 0
173 195 0
176 199 0
174 197 0
174 197 0
173 196 0
173 196 0
160 177 34
136 132 65
138 133 76
151 145 74
144 139 77
138 133 74
154 148 87
145 140 80
150 145 86
155 148 90
151 145 86
155 150 91
160 154 94
155 150 90
152 147 92
150 146 93
154 149 94
155 150 90
154 149 95
154 149 89
155 151 96
155 151 98
160 155 98
160 155 99
157 151 96
159 154 99
156 152 99
160 157 101
150 147 98
167 162 105
158 154 100
162 157 101
154 151 99
158 155 103
163 160 105
163 159 105
165 162 108
160 158 105
161 158 104
161 157 104
163 160 107
168 164 109
162 159 105
164 161 107
161 158 105
161 158 105
160 157 104
163 159 106
164 162 108
167 164 110
158 156 104
165 161 107
160 158 106
164 162 108
163 160 107
162 160 107
166 163 109
160 158 106
167 165 110
165 162 108
167 165 110
167 165 110
168 165 110
161 158 105
168 165 110
168 166 110
161 159 106
166 164 109
169 166 111
168 165 110
161 158 106
166 164 110
163 161 108
161 158 105
166 164 109
167 164 110
159 157 105
161 160 107
168 165 110
163 161 107
164 163 109
162 161 108
160 158 106
166 163 109
169 166 110
161 159 106
164 161 108
166 163 109
163 160 106
166 163 109
168 165 110
163 160 106
161 157 104
164 161 107
167 163 108
164 161 107
161 158 105
165 161 106
163 159 106
165 161 106
164 161 106
162 159 106
163 158 104
163 159 104
158 154 101
155 152 99
156 152 100
156 152 98
159 155 100
161 158 103
161 157 99
156 151 95
153 148 95
160 156 99
158 154 98
157 152 97
158 152 98
153 148 96
159 153 96
155 150 95
154 149 93
152 146 92
157 150 94
146 141 87
148 141 86
146 140 84
154 147 89
147 141 82
136 131 74
144 138 84
138 133 74
130 124 72
126 120 67
149 162 42
172 196 0
172 196 0
175 198 0
173 197 0
173 197 0
173 197 0
173 196 0
173 197 0
173 196 0
174 197 0
175 198 0
173 196 0
175 198 0
176 198 0
173 197 0
175 198 0
173 197 0
175 198 0
175 198 0
174 198 0
174 197 0
174 197 0
173 197 0
173 197 0
175 198 0
174 197 0
174 198 0
176 198 0
173 197 0
174 197 0
173 197 0
174 198 0
175 198 0
174 197 0
172 196 0
174 197 0
175 198 0
171 195 0
172 196 0
174 197 0
172 196 0
172 196 0
173 197 0
174 198 0
174 198 0
174 198 0
175 198 0
174 197 0
175 198 0
173 197 0
174 197 0
173 197 0
175 198 0
175 198 0
174 198 0
173 196 0
174 198 0
173 196 0
173 197 0
174 196 0
175 198 0
173 197 0
172 196 0
171 195 0
172 196 0
173 197 0
173 196 0
173 197 0
175 198 0
174 198 0
172 196 0
174 196 0
173 197 0
173 196 0
174 197 0
174 197 0
175 198 0
174 197 0
173 196 0
175 197 0
171 195 0
174 197 0
173 197 0
174 197 0
172 197 0
173 197 0
173 197 0
175 198 0
173 197 0
173 196 0
172 195 0
172 196 0
174 197 0
169 194 0
174 197 0
174 197 0
175 198 0
175 198 0
173 196 0
176 198 0
174 197 0
173 197 0
171 195 0
173 197 0
174 197 0
172 196 0
173 197 0
173 197 0
175 198 0
170 195 0
174 197 0
171 195 0
172 195 0
174 197 0
173 197 0
173 197 0
173 197 0
173 196 0
173 197 0
173 196 0
173 196 0
174 198 0
174 197 0
174 197 0
174 198 0
173 196 0
173 197 0
174 197 0
173 196 0
172 195 0
174 198 0
174 197 0
171 194 0
171 195 0
174 197 0
175 197 0
172 196 0
175 197 0
173 197 0
173 197 0
174 197 0
174 197 0
173 196 0
173 197 0
175 198 0
174 197 0
170 194 0
174 197 0
172 195 0
173 197 0
174 197 0
174 197 0
172 196 0
173 196 0
175 198 0
174 197 0
173 197 0
173 196 0
171 194 0
173 197 0
172 195 0
172 196 0
172 196 0
174 197 0
172 196 0
170 194 0
172 195 0
172 195 0
174 197 0
175 198 0
173 196 0
172 194 0
173 196 0
172 196 0
173 196 0
174 197 0
173 195 0
174 197 0
172 195 0
172 195 0
172 196 0
173 196 0
172 196 0
172 196 0
171 195 0
175 198 0
174 197 0
175 198 0
174 198 0
175 197 0
174 198 0
172 195 0
174 197 0
173 196 0
172 196 0
173 196 0
174 196 0
173 195 0
173 195 0
172 196 0
173 197 0
175 198 0
172 195 0
173 196 0
173 196 0
174 197 0
172 194 0
172 196 0
172 196 0
174 197 0
172 195 0
174 197 0
171 195 0
174 197 0
172 196 0
173 197 0
175 198 0
172 195 0
175 197 0
173 196 0
172 195 0
173 197 0
173 196 0
172 196 0
173 197 0
171 193 0
174 197 0
174 198 0
171 194 0
173 197 0
174 197 0
172 196 0
173 196 0
172 196 0
173 197 0
173 197 0
177 199 0
174 197 0
174 197 0
175 198 0
173 196 0
173 196 0
173 196 0
175 197 0
169 193 0
173 196 0
176 198 0
172 195 0
173 197 0
171 195 0
173 196 0
173 196 0
173 196 0
174 197 0
174 197 0
173 197 0
173 196 0
173 196 0
173 196 0
174 196 0
174 197 0
171 195 0
173 196 0
172 195 0
174 197 0
170 192 19
133 137 56
128 123 60
149 143 80
143 137 77
134 128 71
149 143 84
138 131 78
144 138 81
146 140 83
148 142 84
165 158 93
146 140 84
145 139 86
135 132 82
147 143 90
161 155 99
146 141 87
151 146 92
153 148 94
146 142 87
158 153 98
152 147 95
163 158 102
148 144 91
151 148 96
160 155 101
161 157 103
156 152 98
156 152 99
158 154 101
159 156 102
154 149 97
156 153 101
156 153 100
156 154 102
159 154 101
161 157 103
166 162 106
162 158 105
159 155 103
158 155 103
169 165 109
157 155 104
161 158 105
156 153 103
166 163 108
167 163 108
166 163 108
166 163 108
163 160 107
167 164 109
164 162 109
168 164 109
166 164 109
169 166 111
163 160 107
167 165 110
165 162 108
164 162 108
170 167 112
166 164 110
163 160 107
169 166 110
167 164 109
169 166 111
167 165 110
164 161 108
163 161 108
163 161 108
165 163 109
164 161 108
161 159 106
171 168 112
166 164 110
167 164 109
166 164 110
168 164 109
160 158 106
170 167 112
166 164 110
156 154 103
162 161 108
158 155 103
166 163 109
156 153 102
166 164 109
163 160 107
163 161 108
164 161 107
159 157 104
164 161 107
163 160 107
164 160 106
162 159 105
164 162 108
165 162 108
157 154 102
160 156 104
156 152 99
164 160 106
162 158 104
168 164 106
162 157 102
163 158 103
159 155 103
161 157 102
163 158 102
163 158 103
154 151 99
159 155 100
159 155 99
159 154 99
158 152 98
158 153 99
151 147 92
161 155 100
149 144 90
150 145 94
151 147 93
153 149 95
154 148 93
155 150 95
153 149 92
159 152 92
145 138 85
159 152 93
142 137 83
152 146 89
150 145 87
149 143 85
138 133 70
125 121 72
130 125 65
130 125 64
168 185 39
173 196 0
173 197 0
174 197 0
175 198 0
174 196 0
176 198 0
175 197 0
171 194 0
175 198 0
173 196 0
173 197 0
175 198 0
174 198 0
174 197 0
172 196 0
173 197 0
172 196 0
175 198 0
175 197 0
172 196 0
174 197 0
174 197 0
172 197 0
174 198 0
172 196 0
174 197 0
174 198 0
176 198 0
174 197 0
174 197 0
173 196 0
173 197 0
175 198 0
174 198 0
175 198 0
175 198 0
173 196 0
173 196 0
175 198 0
174 197 0
172 197 0
175 197 0
174 197 0
174 197 0
173 196 0
172 196 0
173 197 0
175 198 0
173 196 0
171 195 0
172 195 0
175 198 0
175 198 0
174 197 0
172 196 0
172 197 0
173 197 0
174 197 0
174 196 0
175 198 0
174 198 0
175 198 0
173 196 0
172 196 0
173 197 0
173 197 0
174 198 0
172 195 0
173 196 0
174 197 0
174 197 0
174 197 0
174 197 0
174 197 0
173 197 0
175 198 0
174 197 0
172 195 0
174 197 0
171 195 0
174 197 0
173 197 0
174 197 0
172 196 0
173 197 0
172 196 0
173 196 0
173 197 0
175 197 0
174 198 0
175 198 0
173 197 0
173 196 0
173 196 0
171 195 0
173 197 0
175 198 0
174 197 0
172 196 0
173 197 0
173 197 0
171 195 0
173 196 0
172 196 0
174 197 0
174 197 0
173 197 0
175 198 0
175 198 0
172 196 0
173 196 0
173 196 0
172 196 0
173 197 0
172 196 0
177 199 0
173 197 0
174 196 0
175 197 0
171 195 0
175 198 0
173 196 0
174 197 0
172 196 0
173 196 0
171 194 0
172 196 0
175 198 0
172 197 0
172 195 0
176 199 0
173 197 0
173 197 0
173 197 0
172 196 0
176 198 0
173 196 0
173 196 0
173 197 0
174 197 0
175 198 0
174 197 0
174 197 0
173 196 0
173 196 0
173 196 0
174 197 0
172 196 0
172 196 0
173 196 0
172 196 0
173 196 0
172 195 0
175 198 0
174 197 0
174 197 0
173 196 0
174 197 0
173 197 0
173 197 0
173 196 0
173 197 0
175 198 0
172 196 0
173 196 0
173 197 0
172 196 0
175 198 0
172 195 0
172 196 0
173 196 0
175 197 0
175 197 0
172 195 0
172 194 0
173 196 0
175 198 0
174 197 0
173 196 0
174 197 0
173 196 0
175 198 0
171 194 0
173 196 0
174 198 0
175 197 0
173 196 0
175 198 0
172 195 0
172 196 0
173 196 0
175 198 0
173 196 0
172 195 0
174 196 0
171 194 0
176 198 0
172 194 0
171 195 0
172 196 0
172 196 0
173 196 0
172 196 0
173 196 0
173 197 0
174 196 0
174 197 0
173 197 0
174 197 0
173 197 0
175 198 0
173 197 0
173 197 0
172 194 0
172 195 0
173 197 0
172 195 0
173 196 0
174 197 0
172 195 0
175 197 0
172 196 0
172 196 0
174 197 0
175 198 0
172 195 0
173 197 0
172 196 0
173 197 0
173 196 0
170 193 0
171 194 0
173 195 0
173 196 0
174 197 0
171 194 0
173 197 0
172 195 0
173 196 0
173 196 0
174 197 0
174 197 0
174 196 0
174 197 0
174 198 0
175 198 0
173 196 0
172 195 0
172 196 0
171 193 0
174 197 0
173 196 0
173 196 0
174 198 0
174 197 0
172 195 0
175 198 0
173 196 0
173 197 0
173 196 0
174 196 0
171 194 0
171 195 0
175 198 0
148 155 54
130 124 62
143 136 77
146 140 80
137 131 75
151 144 81
129 124 71
132 127 74
141 135 78
148 142 83
142 137 84
156 150 95
150 145 82
156 150 93
154 148 93
148 143 87
144 139 87
156 151 95
162 156 99
149 143 92
150 145 93
155 149 95
153 147 95
161 157 101
155 152 100
163 158 101
159 156 104
157 152 97
153 150 99
154 151 99
159 156 103
162 158 102
160 157 104
166 162 107
162 158 105
167 162 107
167 163 108
155 152 101
165 162 106
160 158 106
158 155 103
163 159 105
162 159 106
166 163 108
164 161 108
162 160 107
164 160 106
168 165 110
164 160 106
162 160 107
167 164 108
165 162 108
163 160 107
163 160 107
165 163 108
164 161 108
165 163 109
167 164 109
165 162 108
165 163 109
164 161 108
167 165 110
166 163 109
171 168 112
167 165 110
163 161 108
165 163 110
164 162 108
165 162 108
165 163 109
165 163 109
170 167 111
165 163 109
162 160 108
164 162 109
167 164 110
166 163 109
165 163 109
162 160 107
170 167 111
161 159 106
162 160 107
166 164 109
162 159 106
165 162 108
162 159 106
164 161 106
160 159 106
164 162 108
162 159 105
165 162 108
166 163 109
170 166 109
165 162 107
154 151 99
159 156 104
170 166 109
165 162 108
163 160 104
163 159 105
163 159 105
162 158 104
160 156 102
165 162 107
163 159 104
169 165 109
163 158 103
156 153 101
153 149 97
153 149 97
163 159 103
166 162 106
157 153 100
164 159 103
164 158 101
160 155 99
153 149 95
155 150 97
166 161 102
164 158 99
149 145 93
144 140 87
156 150 93
155 149 93
160 154 94
154 149 90
154 148 93
143 137 82
156 150 93
146 140 85
137 131 77
146 139 84
144 138 82
133 127 68
141 135 75
135 134 63
174 196 0
174 197 0
174 197 0
174 197 0
174 197 0
173 196 0
176 198 0
173 197 0
173 197 0
175 198 0
173 197 0
174 197 0
175 198 0
174 197 0
172 196 0
175 198 0
173 196 0
175 198 0
175 197 0
173 197 0
174 198 0
174 198 0
176 198 0
173 197 0
176 199 0
174 197 0
176 198 0
173 196 0
173 197 0
174 197 0
174 197 0
172 196 0
172 196 0
174 198 0
176 198 0
174 198 0
174 197 0
174 197 0
173 196 0
173 196 0
171 195 0
174 198 0
173 196 0
174 198 0
173 197 0
174 197 0
172 196 0
172 195 0
176 199 0
177 199 0
172 195 0
174 198 0
174 197 0
172 195 0
173 197 0
173 196 0
173 197 0
171 195 0
172 196 0
173 196 0
173 196 0
173 196 0
173 197 0
174 197 0
175 197 0
175 198 0
173 197 0
173 197 0
174 197 0
173 197 0
173 196 0
174 198 0
172 195 0
173 197 0
173 196 0
172 195 0
175 198 0
173 197 0
174 197 0
174 197 0
173 196 0
173 196 0
173 197 0
174 198 0
174 197 0
173 197 0
173 196 0
175 198 0
172 195 0
173 197 0
172 196 0
174 197 0
174 197 0
174 197 0
171 194 0
172 196 0
174 198 0
173 196 0
174 197 0
173 197 0
174 198 0
171 195 0
174 197 0
174 198 0
173 196 0
173 197 0
175 198 0
172 195 0
173 196 0
174 197 0
173 197 0
172 196 0
174 197 0
174 198 0
171 195 0
174 197 0
173 196 0
172 195 0
174 197 0
171 194 0
175 198 0
170 193 0
171 195 0
173 196 0
174 198 0
172 196 0
172 196 0
174 198 0
174 197 0
174 197 0
173 196 0
173 196 0
173 197 0
175 198 0
175 198 0
173 197 0
171 195 0
175 197 0
173 196 0
173 196 0
176 198 0
172 195 0
171 194 0
174 198 0
173 197 0
174 197 0
174 197 0
173 196 0
175 198 0
173 197 0
172 196 0
172 195 0
174 197 0
174 197 0
173 196 0
172 196 0
172 195 0
174 197 0
172 195 0
174 197 0
173 195 0
173 196 0
173 196 0
173 197 0
172 195 0
172 196 0
171 196 0
174 197 0
173 196 0
174 197 0
174 197 0
172 194 0
175 198 0
173 197 0
174 197 0
173 196 0
176 198 0
172 196 0
174 197 0
173 197 0
174 198 0
174 197 0
174 197 0
173 197 0
173 196 0
174 197 0
172 195 0
172 195 0
175 197 0
172 195 0
173 196 0
174 198 0
174 197 0
172 195 0
173 196 0
173 195 0
171 195 0
173 196 0
175 198 0
173 196 0
173 197 0
175 197 0
173 197 0
170 194 0
172 196 0
173 197 0
173 196 0
171 195 0
175 197 0
172 197 0
172 196 0
173 197 0
172 195 0
172 196 0
174 196 0
174 197 0
176 199 0
175 198 0
175 198 0
174 196 0
173 196 0
173 196 0
171 194 0
173 197 0
174 197 0
171 195 0
171 195 0
173 197 0
172 196 0
173 195 0
171 194 0
172 194 0
172 195 0
171 194 0
170 194 0
176 198 0
173 196 0
175 198 0
173 196 0
175 197 0
173 197 0
170 194 0
174 198 0
172 196 0
173 196 0
173 196 0
169 193 0
175 198 0
174 197 0
172 195 0
171 193 0
175 198 0
170 194 0
170 194 0
171 194 0
171 194 0
172 195 0
172 195 0
174 196 0
173 197 0
171 194 0
174 198 0
172 195 0
157 176 30
134 128 71
134 128 72
142 136 75
145 139 77
148 142 78
141 136 78
144 138 81
144 138 82
146 141 83
142 137 83
145 140 84
154 149 91
151 146 87
147 142 91
143 139 85
157 151 94
157 152 94
153 148 92
159 155 98
153 150 96
158 152 98
150 145 94
159 154 101
153 149 94
162 157 103
161 157 102
157 153 99
152 148 97
164 161 106
164 159 103
163 159 104
161 156 102
162 158 105
164 159 104
161 158 105
160 157 103
164 161 107
156 153 102
168 165 109
161 158 105
161 159 106
159 157 104
162 160 106
165 162 108
168 165 108
156 154 103
171 168 111
167 165 110
158 156 105
165 162 108
165 162 108
172 168 112
159 157 105
164 161 108
167 164 109
164 161 108
164 161 108
163 160 107
161 159 106
167 164 109
164 162 108
170 167 112
168 165 110
169 166 110
169 167 112
163 161 108
168 166 111
165 162 108
166 163 109
166 164 110
166 164 109
165 163 109
167 165 110
169 167 112
161 160 107
170 168 112
167 164 109
169 165 110
160 157 105
167 164 109
169 167 111
163 160 107
172 169 113
170 167 111
164 162 108
166 164 109
165 162 108
164 161 107
162 159 106
163 160 107
166 163 109
162 159 106
167 164 109
166 162 107
167 162 107
167 164 108
161 158 104
164 161 106
158 154 103
168 164 108
161 158 105
162 158 103
162 159 105
162 158 104
162 158 104
160 156 103
161 157 102
152 149 97
161 156 101
155 150 97
166 160 104
164 160 104
155 149 97
163 158 99
154 149 96
160 155 99
157 152 94
157 151 93
151 147 95
154 149 95
163 158 99
159 153 96
149 145 90
158 152 93
147 141 87
154 149 92
147 143 88
142 137 81
140 135 76
156 150 92
151 144 84
154 147 87
139 133 78
144 138 72
137 131 74
136 130 69
154 166 45
172 195 0
173 197 0
172 195 0
174 198 0
174 197 0
174 197 0
174 197 0
176 199 0
175 198 0
174 197 0
173 196 0
174 197 0
174 196 0
173 197 0
175 198 0
174 198 0
172 196 0
175 198 0
175 198 0
174 198 0
174 196 0
175 198 0
174 198 0
174 198 0
175 198 0
175 198 0
175 198 0
174 198 0
173 197 0
174 197 0
173 197 0
174 196 0
175 198 0
175 198 0
173 197 0
175 198 0
173 196 0
173 197 0
174 198 0
172 196 0
172 196 0
172 195 0
175 198 0
172 195 0
175 198 0
175 198 0
174 197 0
173 197 0
174 198 0
174 198 0
173 196 0
173 196 0
175 198 0
173 196 0
174 198 0
175 198 0
175 198 0
175 198 0
175 198 0
173 197 0
172 196 0
173 197 0
173 196 0
173 197 0
174 197 0
174 197 0
174 197 0
173 197 0
172 196 0
172 196 0
172 196 0
176 198 0
174 197 0
175 198 0
173 197 0
173 196 0
174 197 0
174 197 0
175 198 0
172 196 0
173 196 0
176 198 0
171 196 0
174 197 0
174 198 0
173 196 0
173 197 0
174 197 0
174 197 0
173 196 0
174 197 0
174 197 0
172 196 0
172 195 0
174 197 0
174 198 0
174 197 0
174 197 0
172 195 0
172 195 0
172 196 0
170 193 0
173 197 0
174 197 0
174 198 0
171 195 0
175 198 0
173 197 0
174 197 0
172 197 0
174 197 0
171 195 0
174 197 0
172 195 0
173 196 0
174 197 0
173 197 0
172 196 0
175 198 0
171 195 0
173 197 0
174 197 0
174 197 0
175 198 0
173 196 0
174 197 0
174 197 0
171 194 0
174 197 0
172 195 0
174 197 0
174 198 0
172 196 0
174 197 0
173 197 0
171 195 0
172 196 0
173 197 0
172 195 0
172 196 0
173 196 0
171 196 0
172 195 0
170 194 0
174 197 0
172 195 0
170 194 0
173 196 0
175 198 0
174 197 0
173 197 0
171 195 0
173 197 0
171 195 0
175 198 0
172 195 0
174 197 0
174 197 0
173 196 0
173 197 0
172 196 0
171 195 0
172 196 0
171 194 0
174 197 0
173 196 0
172 196 0
173 197 0
173 196 0
171 195 0
173 195 0
173 196 0
172 196 0
174 197 0
173 197 0
171 194 0
174 197 0
173 196 0
173 196 0
173 196 0
173 196 0
173 197 0
174 197 0
170 193 0
173 197 0
174 196 0
174 196 0
173 196 0
174 197 0
173 197 0
173 196 0
170 193 0
174 197 0
172 196 0
175 198 0
174 198 0
174 197 0
172 196 0
174 197 0
173 196 0
174 197 0
175 198 0
173 196 0
172 195 0
173 196 0
173 196 0
171 195 0
173 196 0
173 195 0
174 197 0
174 197 0
174 196 0
174 197 0
175 196 0
172 195 0
175 197 0
172 195 0
170 194 0
174 197 0
172 196 0
171 195 0
172 195 0
172 194 0
173 196 0
173 196 0
173 196 0
174 196 0
172 196 0
171 194 0
173 196 0
173 197 0
175 197 0
172 195 0
171 195 0
175 197 0
170 194 0
174 197 0
172 195 0
173 197 0
172 196 0
172 195 0
173 196 0
175 198 0
170 193 0
172 196 0
173 195 0
171 194 0
172 195 0
175 198 0
174 196 0
173 195 0
174 196 0
174 197 0
172 195 0
173 196 0
174 197 0
171 195 0
173 197 0
172 195 0
173 197 0
173 196 0
171 194 11
125 123 56
145 139 75
138 132 71
143 137 80
139 132 75
147 141 77
147 141 83
137 131 76
141 136 80
145 139 81
158 152 93
158 152 91
140 135 78
147 142 86
148 144 91
149 144 90
154 149 94
151 147 94
152 147 94
147 143 91
152 148 97
154 150 97
149 146 95
161 155 99
163 159 104
158 154 101
162 158 101
162 158 104
154 151 100
157 154 101
162 158 103
159 155 101
162 158 104
157 153 101
163 160 107
164 160 106
160 156 103
159 156 105
159 156 104
167 163 107
165 162 108
156 153 101
160 157 105
166 164 109
163 160 107
166 162 107
166 162 107
163 160 106
165 163 110
162 159 106
161 159 105
168 165 110
164 162 108
171 167 111
164 162 108
166 164 109
165 163 109
161 158 106
170 166 110
168 165 110
168 165 110
164 161 108
168 165 110
169 166 111
166 163 109
161 159 107
166 163 109
166 164 110
164 161 108
166 164 109
163 160 106
164 161 108
168 165 110
164 162 108
169 166 111
164 162 108
159 157 105
167 165 110
165 162 108
161 159 106
162 160 107
164 162 108
166 163 109
164 162 108
167 165 110
167 164 109
164 162 108
162 159 106
168 164 109
166 163 109
164 161 108
166 164 110
161 158 106
170 166 110
170 167 111
167 163 107
169 165 109
165 162 108
160 156 104
159 156 102
168 164 108
165 161 106
164 160 105
170 166 109
164 160 106
162 159 103
154 151 98
156 152 101
164 159 105
156 152 97
163 158 104
158 154 101
161 157 101
158 153 100
162 157 101
152 146 94
156 152 98
154 149 94
164 158 101
160 154 96
158 153 95
160 156 98
152 147 91
154 149 94
158 153 95
150 145 90
153 147 87
148 144 87
149 142 84
153 147 88
154 148 90
146 140 81
142 136 79
144 138 83
137 131 75
141 135 73
139 133 72
136 132 69
170 187 36
174 197 0
173 197 0
174 197 0
174 197 0
174 197 0
173 197 0
176 198 0
173 196 0
174 198 0
173 196 0
172 195 0
170 195 0
174 197 0
174 197 0
174 197 0
172 196 0
174 197 0
172 196 0
173 196 0
174 197 0
174 198 0
172 196 0
174 197 0
172 195 0
174 197 0
173 196 0
174 197 0
175 198 0
172 196 0
172 195 0
172 196 0
174 198 0
173 197 0
173 196 0
173 197 0
174 198 0
172 196 0
172 196 0
173 196 0
174 198 0
173 196 0
175 198 0
174 197 0
173 197 0
172 195 0
173 197 0
173 196 0
173 196 0
174 197 0
172 196 0
175 198 0
173 197 0
173 197 0
173 196 0
174 197 0
173 197 0
172 196 0
174 198 0
174 198 0
173 196 0
174 197 0
175 198 0
174 198 0
174 198 0
172 196 0
174 197 0
173 196 0
174 197 0
176 198 0
175 198 0
174 197 0
176 199 0
173 196 0
174 197 0
173 197 0
175 198 0
173 196 0
174 197 0
171 195 0
173 196 0
172 197 0
175 197 0
174 197 0
174 197 0
171 195 0
175 198 0
174 197 0
173 196 0
174 198 0
174 197 0
174 198 0
172 196 0
175 198 0
170 194 0
173 196 0
175 198 0
171 194 0
175 198 0
173 196 0
173 196 0
171 195 0
173 196 0
174 196 0
174 198 0
173 197 0
173 196 0
172 195 0
172 195 0
171 195 0
173 196 0
174 197 0
173 196 0
172 195 0
172 196 0
175 198 0
172 195 0
172 195 0
175 198 0
173 196 0
175 197 0
174 197 0
174 197 0
174 197 0
173 196 0
173 197 0
174 198 0
171 195 0
175 198 0
174 197 0
173 196 0
173 196 0
172 196 0
174 197 0
171 195 0
175 198 0
173 196 0
173 196 0
173 196 0
174 197 0
173 196 0
174 197 0
174 197 0
174 197 0
173 196 0
176 199 0
173 196 0
174 196 0
173 197 0
174 197 0
176 198 0
172 196 0
174 197 0
172 196 0
173 197 0
173 197 0
175 197 0
173 196 0
173 195 0
174 197 0
171 195 0
174 197 0
172 195 0
171 193 0
174 197 0
173 196 0
173 196 0
173 197 0
172 196 0
172 196 0
173 196 0
174 197 0
173 196 0
173 196 0
171 195 0
173 196 0
173 196 0
173 197 0
173 196 0
174 197 0
172 196 0
174 197 0
172 196 0
173 197 0
173 197 0
173 197 0
174 198 0
173 196 0
175 198 0
172 196 0
173 197 0
173 196 0
175 198 0
175 198 0
174 197 0
175 198 0
172 196 0
174 197 0
173 196 0
171 194 0
172 195 0
172 196 0
172 195 0
173 197 0
173 196 0
172 195 0
172 196 0
174 196 0
173 196 0
173 197 0
174 196 0
171 194 0
173 197 0
172 195 0
175 198 0
172 195 0
168 192 0
173 196 0
173 196 0
171 194 0
173 197 0
175 198 0
173 196 0
173 196 0
172 195 0
174 198 0
174 197 0
173 197 0
173 195 0
172 195 0
171 195 0
172 195 0
174 197 0
174 198 0
173 196 0
175 198 0
172 196 0
173 196 0
172 195 0
173 196 0
174 197 0
175 198 0
171 193 0
175 197 0
175 197 0
171 194 0
173 197 0
172 195 0
173 196 0
174 196 0
172 196 0
172 196 0
174 197 0
171 195 0
171 194 0
172 195 0
173 196 0
172 195 0
175 198 0
173 197 0
172 196 0
146 155 41
135 129 68
138 133 69
140 133 75
146 139 84
142 136 78
150 144 86
140 135 74
148 143 85
136 132 76
152 146 84
151 146 88
150 144 87
151 146 89
150 146 92
150 145 90
146 142 89
150 146 94
154 149 94
142 138 86
158 154 96
154 149 95
152 147 93
147 142 91
156 152 98
151 148 93
158 153 100
156 152 99
159 155 100
161 157 102
156 152 101
163 158 103
159 155 103
161 156 102
152 148 97
164 160 105
160 157 104
166 161 106
162 159 105
164 161 107
163 160 106
157 154 103
154 152 102
156 153 102
165 162 107
172 168 111
166 162 108
167 164 109
162 159 106
161 158 105
163 160 107
166 164 110
165 163 109
168 165 110
165 162 108
166 164 110
167 164 109
163 160 108
160 158 106
168 164 108
171 167 111
165 161 107
170 167 112
163 160 107
167 164 109
170 168 112
166 164 110
166 164 110
168 166 110
162 160 107
168 165 110
168 166 110
164 161 108
166 164 109
167 164 109
166 163 109
167 164 109
170 167 112
167 164 109
166 164 109
164 162 108
160 158 106
169 167 112
166 164 110
165 163 109
166 163 109
169 164 109
168 165 110
166 162 108
171 167 110
166 163 109
164 161 107
165 162 108
168 164 109
167 164 109
161 157 104
165 161 106
164 161 107
164 161 107
166 161 106
162 158 104
169 166 109
166 163 107
160 156 102
161 156 100
161 158 104
163 159 103
162 158 103
168 163 107
168 163 106
164 160 105
159 154 98
167 162 106
155 152 99
158 154 100
160 155 100
155 151 96
159 154 99
157 152 97
166 161 101
158 153 97
150 145 91
153 148 93
156 149 94
148 143 91
155 150 95
161 156 95
144 139 85
154 148 93
162 155 94
143 138 81
150 144 88
145 140 85
137 131 76
137 132 78
149 143 86
141 137 76
135 129 75
135 129 66
140 148 48
173 197 0
173 197 0
175 198 0
174 197 0
173 196 0
173 197 0
174 198 0
174 198 0
175 198 0
174 198 0
174 197 0
174 198 0
172 195 0
174 197 0
174 196 0
174 197 0
174 198 0
172 196 0
174 197 0
172 196 0
175 198 0
173 196 0
173 197 0
175 198 0
174 197 0
175 198 0
174 197 0
174 197 0
172 197 0
174 197 0
175 198 0
173 197 0
174 197 0
174 197 0
175 198 0
174 197 0
174 197 0
175 198 0
172 196 0
176 198 0
173 196 0
175 198 0
173 196 0
174 198 0
171 194 0
175 198 0
175 197 0
176 199 0
175 198 0
173 196 0
173 196 0
172 197 0
172 196 0
174 197 0
174 197 0
174 198 0
173 196 0
171 195 0
173 196 0
172 196 0
172 196 0
172 195 0
174 196 0
176 199 0
172 195 0
172 195 0
173 196 0
172 196 0
172 195 0
172 195 0
172 196 0
175 198 0
174 198 0
174 198 0
174 198 0
174 198 0
174 197 0
174 197 0
175 197 0
173 196 0
175 198 0
174 197 0
173 197 0
176 198 0
173 197 0
173 196 0
175 198 0
175 198 0
173 197 0
174 197 0
174 197 0
174 198 0
171 195 0
172 196 0
171 194 0
174 197 0
174 198 0
174 197 0
174 197 0
173 196 0
174 197 0
174 198 0
171 195 0
172 195 0
174 197 0
175 198 0
172 195 0
173 196 0
173 196 0
171 195 0
174 198 0
171 195 0
172 196 0
173 197 0
173 196 0
174 198 0
175 198 0
175 198 0
172 196 0
175 198 0
173 196 0
175 198 0
172 196 0
175 197 0
174 197 0
173 196 0
174 198 0
171 194 0
173 197 0
173 197 0
172 195 0
173 196 0
173 196 0
175 198 0
174 197 0
175 198 0
173 197 0
175 198 0
174 197 0
171 195 0
173 197 0
174 197 0
174 198 0
174 197 0
173 196 0
175 198 0
174 197 0
172 196 0
172 196 0
173 196 0
174 197 0
174 198 0
174 198 0
171 194 0
174 197 0
172 195 0
173 196 0
174 198 0
172 196 0
174 197 0
172 196 0
174 197 0
170 194 0
173 196 0
170 194 0
174 197 0
174 197 0
175 198 0
172 195 0
173 196 0
173 196 0
173 196 0
174 197 0
171 195 0
172 196 0
173 197 0
173 196 0
171 195 0
174 197 0
173 196 0
173 197 0
169 193 0
169 193 31
163 187 62
158 183 78
148 172 99
146 170 103
142 167 111
149 173 99
149 173 99
137 162 118
141 166 111
143 168 108
139 164 111
152 176 82
156 181 82
166 189 54
168 192 47
174 198 0
171 194 0
174 197 0
173 197 0
173 195 0
173 196 0
173 195 0
173 197 0
173 196 0
175 198 0
175 198 0
172 195 0
173 196 0
174 198 0
171 194 0
173 196 0
172 195 0
173 196 0
171 194 0
172 195 0
171 195 0
171 195 0
173 196 0
172 195 0
173 195 0
173 196 0
173 196 0
174 197 0
174 197 0
173 197 0
174 197 0
174 198 0
175 198 0
173 195 0
172 196 0
172 195 0
170 192 0
171 195 0
173 197 0
172 196 0
170 194 0
173 196 0
172 195 0
174 197 0
172 195 0
173 197 0
173 197 0
171 195 0
174 197 0
173 196 0
172 195 0
170 193 0
172 195 0
173 197 0
173 196 0
171 194 0
173 197 0
175 198 0
173 196 0
171 194 0
173 196 0
169 189 22
128 127 59
143 137 72
142 137 71
134 129 66
147 141 80
132 126 74
142 137 85
141 137 77
142 136 84
144 140 84
145 141 86
155 150 94
148 142 92
156 152 92
148 144 90
154 149 92
152 148 93
151 146 93
155 151 96
158 153 98
157 153 97
151 147 92
152 148 95
160 156 102
158 153 98
160 155 100
153 149 97
161 157 103
160 156 101
162 157 103
159 156 103
162 158 105
159 155 103
150 147 97
156 153 101
158 155 102
155 152 102
159 156 102
159 155 102
160 156 104
165 162 108
157 155 105
167 163 109
164 161 107
160 157 104
170 167 111
163 160 105
165 162 108
166 163 109
165 162 109
172 169 112
166 163 108
165 163 108
169 166 111
166 163 109
168 165 110
167 164 109
162 160 107
163 162 108
171 168 112
169 166 111
168 166 110
169 167 111
163 161 108
167 165 111
170 168 112
167 165 111
169 166 111
169 166 111
167 164 110
167 164 110
168 165 109
166 164 109
168 166 110
166 164 109
169 167 112
170 167 112
164 162 108
167 165 110
164 162 109
165 163 109
167 164 109
167 164 109
169 166 110
169 166 110
170 166 110
165 162 108
164 161 108
170 166 110
164 160 106
165 162 108
170 166 110
166 163 108
163 159 104
166 163 109
164 161 106
163 160 106
168 164 108
161 158 103
164 160 104
155 152 100
168 163 104
164 160 105
163 161 106
166 162 107
164 160 104
159 155 102
166 162 104
159 154 99
165 161 105
155 151 98
166 162 106
158 154 100
160 156 99
158 154 99
164 159 100
163 158 100
157 153 99
157 152 98
161 156 101
163 157 100
158 153 95
158 153 95
153 148 95
158 152 95
162 155 95
150 145 89
149 144 89
145 141 86
149 144 85
147 142 90
148 142 84
149 143 84
143 137 81
145 139 80
155 148 87
141 135 76
144 137 80
126 121 68
131 125 68
162 181 28
173 197 0
175 198 0
174 197 0
173 196 0
174 197 0
174 197 0
173 197 0
173 196 0
174 198 0
174 197 0
172 196 0
174 197 0
173 196 0
172 196 0
174 196 0
174 197 0
175 198 0
173 197 0
175 198 0
174 197 0
174 197 0
173 197 0
174 198 0
174 196 0
174 197 0
172 196 0
174 198 0
174 197 0
176 198 0
170 194 0
173 197 0
174 197 0
171 195 0
174 197 0
173 197 0
175 198 0
174 198 0
174 197 0
173 197 0
174 197 0
173 196 0
173 197 0
175 198 0
173 197 0
174 197 0
172 196 0
175 198 0
173 197 0
174 197 0
173 196 0
174 198 0
173 197 0
172 196 0
174 198 0
173 197 0
174 197 0
176 199 0
174 198 0
173 196 0
174 197 0
172 196 0
173 197 0
173 197 0
172 196 0
174 198 0
174 197 0
176 198 0
175 198 0
172 195 0
173 196 0
175 198 0
172 195 0
174 197 0
175 198 0
173 197 0
174 198 0
173 197 0
173 197 0
173 195 0
174 197 0
174 198 0
173 196 0
174 197 0
172 196 0
175 198 0
172 196 0
172 196 0
172 196 0
173 196 0
173 197 0
173 196 0
174 197 0
174 198 0
175 198 0
174 197 0
175 198 0
173 196 0
175 198 0
173 197 0
174 197 0
174 197 0
173 196 0
173 196 0
172 196 0
173 197 0
174 197 0
173 197 0
174 197 0
174 197 0
175 198 0
173 196 0
174 197 0
174 197 0
175 198 0
171 195 0
174 196 0
174 197 0
173 196 0
175 198 0
173 196 0
172 197 0
174 197 0
173 197 0
174 196 0
173 196 0
173 197 0
171 196 0
173 196 0
175 198 0
171 194 0
173 196 0
173 196 0
172 195 0
175 198 0
173 196 0
176 198 0
175 198 0
174 197 0
175 198 0
171 195 0
171 194 0
172 195 0
172 196 0
172 196 0
173 196 0
172 196 0
174 196 0
172 195 0
172 195 0
175 198 0
172 195 0
175 197 0
171 194 0
173 196 0
172 197 0
172 195 0
174 197 0
173 196 0
174 197 0
172 196 0
173 196 0
173 197 0
174 196 0
174 197 0
174 197 0
171 195 0
172 195 0
174 197 0
174 197 0
173 196 0
172 195 0
172 196 0
172 196 0
171 195 36
159 184 70
147 171 103
127 153 133
127 153 130
110 137 150
86 117 166
73 107 174
61 98 179
61 98 180
62 99 181
62 99 181
62 99 180
61 98 181
62 99 181
62 99 181
61 99 181
61 98 178
61 98 179
62 99 181
61 98 179
62 99 181
62 99 181
62 99 181
64 101 179
77 110 170
107 135 150
102 131 156
126 152 131
143 168 108
160 184 74
166 190 47
173 196 0
171 195 0
169 192 0
173 197 0
173 196 0
173 197 0
170 193 0
173 196 0
172 195 0
173 196 0
172 195 0
174 196 0
172 195 0
172 195 0
171 195 0
172 195 0
173 196 0
170 193 0
174 197 0
173 196 0
171 195 0
175 197 0
173 196 0
174 196 0
175 197 0
172 196 0
173 197 0
172 196 0
172 195 0
172 195 0
173 196 0
172 195 0
173 197 0
172 196 0
174 197 0
169 193 0
172 195 0
172 195 0
172 195 0
173 195 0
170 193 0
174 197 0
172 195 0
173 196 0
171 193 0
174 197 0
171 195 0
173 195 0
174 197 0
173 196 0
173 196 0
171 195 0
175 198 0
131 136 47
132 127 67
144 138 75
141 134 74
140 134 77
143 137 78
149 143 83
128 124 73
152 147 87
151 145 86
151 145 86
147 141 87
148 143 89
149 143 89
146 142 86
146 142 91
145 141 86
150 147 94
156 151 97
160 155 101
145 141 93
160 155 100
148 144 91
158 153 98
152 148 96
157 153 98
160 156 101
150 148 99
160 156 103
155 153 101
152 150 99
152 149 97
161 157 103
164 160 104
158 154 101
161 158 105
158 154 102
160 158 106
164 160 106
161 159 106
161 158 106
159 157 104
165 161 107
162 159 105
166 162 108
164 161 107
166 163 109
165 162 109
165 162 108
168 166 111
165 163 109
165 162 108
171 168 111
165 162 108
167 164 110
164 162 110
163 160 108
164 161 107
165 162 108
162 160 108
169 166 111
168 164 109
169 167 111
166 163 109
164 161 108
165 163 109
167 165 110
168 166 110
169 166 111
167 164 109
169 166 111
167 165 111
168 166 110
173 170 113
169 165 110
166 164 110
169 166 111
165 163 109
168 165 110
169 166 111
165 162 108
163 162 108
171 168 112
166 164 110
168 165 110
167 164 109
162 161 108
165 163 109
167 164 108
169 166 110
164 162 108
162 159 105
162 158 105
174 170 113
170 167 111
164 161 107
166 163 108
169 165 110
166 162 108
164 161 107
166 163 108
165 162 107
164 161 104
169 165 109
162 159 104
167 163 108
166 162 107
166 161 106
161 156 100
164 160 104
159 156 100
163 160 104
163 159 101
159 154 99
163 158 103
165 160 102
162 156 99
164 159 101
162 157 101
159 154 98
161 156 99
158 153 95
150 146 90
158 153 96
162 156 95
156 151 96
153 148 93
154 149 93
159 152 93
154 148 91
148 142 87
154 148 91
152 146 90
151 145 86
147 142 84
131 125 74
144 138 82
139 134 78
139 134 77
133 128 67
139 133 71
141 141 60
173 196 0
174 198 0
173 196 0
174 197 0
173 196 0
174 197 0
173 197 0
172 195 0
175 197 0
172 196 0
176 198 0
174 197 0
173 196 0
174 196 0
173 195 0
174 198 0
174 198 0
174 197 0
175 198 0
172 196 0
172 196 0
173 197 0
173 197 0
174 197 0
173 196 0
174 198 0
174 197 0
174 198 0
173 196 0
174 197 0
173 196 0
175 198 0
175 198 0
174 197 0
174 196 0
175 198 0
176 199 0
174 197 0
173 196 0
173 197 0
174 198 0
174 198 0
173 197 0
174 197 0
171 195 0
172 196 0
174 198 0
174 197 0
174 197 0
174 198 0
172 196 0
172 195 0
172 196 0
173 197 0
175 198 0
174 198 0
173 197 0
174 197 0
174 197 0
173 196 0
174 197 0
175 198 0
175 198 0
173 197 0
173 197 0
173 197 0
174 198 0
176 198 0
173 197 0
173 197 0
172 196 0
172 196 0
174 198 0
173 196 0
174 197 0
174 197 0
173 196 0
172 196 0
173 196 0
174 197 0
174 198 0
174 197 0
171 195 0
171 195 0
174 197 0
173 196 0
173 197 0
174 197 0
172 196 0
174 197 0
175 198 0
173 197 0
172 196 0
172 196 0
175 197 0
174 197 0
175 198 0
173 196 0
172 195 0
170 192 0
174 197 0
174 197 0
173 197 0
174 197 0
173 197 0
173 197 0
174 198 0
175 198 0
175 198 0
174 197 0
173 196 0
174 197 0
174 197 0
174 197 0
174 197 0
173 197 0
174 197 0
173 197 0
176 197 0
172 195 0
174 197 0
174 197 0
171 194 0
171 196 0
174 197 0
174 197 0
174 197 0
172 195 0
173 197 0
171 195 0
174 197 0
174 196 0
174 198 0
172 196 0
172 195 0
173 196 0
173 197 0
174 197 0
172 196 0
171 194 0
174 197 0
176 198 0
173 196 0
173 197 0
174 198 0
174 197 0
174 198 0
171 194 0
172 195 0
174 198 0
174 197 0
172 196 0
174 197 0
173 195 0
172 195 0
174 197 0
174 197 0
175 198 0
173 197 0
173 197 0
174 197 0
171 195 0
174 196 0
169 192 0
173 196 0
174 197 0
175 197 0
172 196 0
172 195 18
162 185 70
132 157 124
116 143 142
90 120 164
72 106 176
62 99 181
62 99 181
62 99 181
62 99 181
61 99 181
62 99 181
62 99 181
61 99 181
62 99 180
62 99 181
62 99 181
61 99 181
62 99 181
61 99 181
62 99 180
62 99 180
62 99 181
62 99 181
61 99 181
61 99 181
62 99 178
61 98 181
62 99 180
62 99 180
61 99 180
61 98 180
61 98 181
62 99 180
62 99 178
61 99 179
61 99 181
86 117 164
101 130 153
139 164 114
146 171 97
168 191 40
174 197 0
170 194 0
173 197 0
173 197 0
170 193 0
175 198 0
173 196 0
173 196 0
172 195 0
174 197 0
174 197 0
169 193 0
173 196 0
172 195 0
172 195 0
170 194 0
174 197 0
174 196 0
172 195 0
175 198 0
173 196 0
173 196 0
173 196 0
175 198 0
174 198 0
173 197 0
175 197 0
171 195 0
173 195 0
173 196 0
172 196 0
174 196 0
173 196 0
174 197 0
173 196 0
172 195 0
172 194 0
171 195 0
172 195 0
172 195 0
174 197 0
173 196 0
173 194 0
173 197 0
173 196 0
174 197 0
174 196 0
163 181 32
123 119 60
134 129 66
135 128 72
139 134 76
143 139 75
150 145 83
142 136 75
151 146 89
147 141 86
147 143 85
146 140 87
144 140 82
146 141 82
146 142 86
148 144 91
152 148 87
160 155 100
158 152 95
144 141 90
151 147 95
156 150 97
154 150 96
159 154 99
161 156 98
158 153 100
151 147 94
153 150 97
157 153 100
160 156 102
160 155 103
152 150 99
157 153 101
159 155 102
161 159 105
155 153 102
165 161 107
160 157 105
163 160 106
167 162 107
162 160 107
160 158 106
164 161 107
159 156 104
162 160 106
162 159 106
162 160 108
164 162 108
160 157 105
163 160 108
165 162 108
166 164 110
165 163 109
164 161 108
167 165 110
163 161 108
164 162 109
167 164 109
165 162 108
169 166 111
163 161 107
167 164 109
166 164 110
170 166 110
165 162 109
168 166 110
169 166 111
165 163 109
171 167 111
168 166 110
170 168 112
166 164 109
168 166 111
167 164 110
167 164 109
173 170 113
168 165 110
167 165 110
165 163 109
166 163 108
166 164 109
168 165 110
166 164 109
169 167 111
163 161 107
172 168 112
166 164 109
167 164 109
164 162 108
164 161 108
169 166 110
169 165 110
166 164 109
165 161 107
163 160 106
169 164 108
170 166 110
164 161 106
169 166 110
168 164 109
161 158 103
163 160 106
164 160 105
170 165 109
166 161 104
165 161 106
168 164 108
162 158 103
162 159 103
164 161 106
162 157 103
164 160 103
170 164 106
161 157 101
158 154 101
164 160 102
160 156 99
162 157 99
164 159 103
162 157 99
164 159 99
159 155 100
151 146 93
162 156 99
167 161 100
160 154 97
155 150 95
156 150 90
154 149 93
154 149 94
149 145 88
149 145 87
155 149 92
154 147 87
143 137 80
155 148 88
151 145 88
143 136 84
152 145 85
137 131 70
144 137 77
133 128 69
124 118 65
166 182 41
174 197 0
175 198 0
174 197 0
173 196 0
173 197 0
174 197 0
174 197 0
174 197 0
173 197 0
174 197 0
173 196 0
174 198 0
175 198 0
174 197 0
174 197 0
174 198 0
174 197 0
175 198 0
173 197 0
176 199 0
174 197 0
174 197 0
173 197 0
173 197 0
175 198 0
172 195 0
173 197 0
174 197 0
174 197 0
174 197 0
172 195 0
173 197 0
174 197 0
171 194 0
173 196 0
173 196 0
173 197 0
175 197 0
173 197 0
172 196 0
173 196 0
173 196 0
174 197 0
173 197 0
176 199 0
174 197 0
174 197 0
174 198 0
171 196 0
174 197 0
174 197 0
173 196 0
171 195 0
173 197 0
174 198 0
172 196 0
171 195 0
171 195 0
174 197 0
173 197 0
174 198 0
173 197 0
173 196 0
175 198 0
175 197 0
174 197 0
174 197 0
175 198 0
172 196 0
175 198 0
173 196 0
171 195 0
172 196 0
173 196 0
172 196 0
174 197 0
174 198 0
173 197 0
174 197 0
175 198 0
172 195 0
174 197 0
173 197 0
174 197 0
175 198 0
175 198 0
175 197 0
172 196 0
174 198 0
173 196 0
173 196 0
174 197 0
174 197 0
175 198 0
173 197 0
173 196 0
173 196 0
172 196 0
174 197 0
173 197 0
172 196 0
173 197 0
174 196 0
170 195 0
171 196 0
172 196 0
174 197 0
172 194 0
174 197 0
172 196 0
171 194 0
173 197 0
173 196 0
173 197 0
174 197 0
172 196 0
173 196 0
174 197 0
172 194 0
171 195 0
171 195 0
172 196 0
173 197 0
173 196 0
174 196 0
172 196 0
171 194 0
174 197 0
173 196 0
172 196 0
172 196 0
172 196 0
172 196 0
174 197 0
173 196 0
173 196 0
171 195 0
171 194 0
175 198 0
171 195 0
172 196 0
174 197 0
173 196 0
172 195 0
174 197 0
175 198 0
176 198 0
173 196 0
173 196 0
175 198 0
173 196 0
172 197 0
171 195 0
171 195 0
174 197 0
174 197 0
173 196 0
171 194 0
173 197 0
174 197 0
173 197 0
174 196 0
175 198 0
172 196 0
155 179 82
138 162 118
112 139 148
73 107 173
62 99 181
62 99 181
61 98 180
62 99 180
62 99 181
62 99 180
62 99 181
62 99 181
62 99 181
62 99 181
62 99 181
62 99 181
62 99 181
62 99 181
62 99 181
61 99 181
61 98 181
62 99 181
61 98 181
62 99 181
61 99 181
62 99 180
62 99 181
62 99 181
62 99 180
61 99 181
61 99 181
61 98 178
61 98 180
62 99 181
62 99 181
61 99 180
62 99 181
62 99 180
62 99 180
62 99 180
61 98 180
62 99 179
61 98 179
62 98 177
62 98 178
95 124 158
122 148 134
145 170 101
172 195 31
172 195 0
174 197 0
172 195 0
173 195 0
171 194 0
171 195 0
173 196 0
174 196 0
171 194 0
170 193 0
173 195 0
174 197 0
173 196 0
172 195 0
174 197 0
171 195 0
172 194 0
173 196 0
172 195 0
172 195 0
173 196 0
171 194 0
171 194 0
174 197 0
173 195 0
172 196 0
174 197 0
173 196 0
173 196 0
174 197 0
173 197 0
171 195 0
171 194 0
171 195 0
173 196 0
173 196 0
171 194 0
173 196 0
171 195 0
174 197 0
171 194 0
174 197 0
171 194 11
133 134 57
124 120 62
139 133 71
138 132 73
143 137 75
140 135 77
138 132 75
143 137 81
151 144 81
141 136 80
145 141 84
150 144 89
146 140 86
155 149 93
149 144 89
152 146 90
156 152 93
149 145 89
159 154 96
142 138 87
151 146 93
161 156 101
162 159 103
154 150 95
159 155 100
159 155 101
160 155 100
159 153 101
160 156 102
158 155 102
153 150 100
161 157 105
159 156 101
158 155 103
157 154 104
151 149 98
156 153 100
165 162 107
160 158 106
161 158 105
161 158 106
163 160 107
159 156 104
157 155 103
157 154 102
164 162 108
154 152 103
163 160 107
163 160 107
161 159 107
169 166 110
166 164 109
162 158 105
168 165 110
165 163 109
167 164 110
166 163 109
166 163 109
162 161 108
169 166 110
167 164 109
165 163 109
169 166 111
161 159 107
165 163 109
165 163 108
168 165 110
166 163 109
169 166 111
169 167 112
165 162 108
170 167 111
167 164 109
169 166 111
169 166 111
166 163 109
168 165 110
164 162 108
167 165 110
167 165 110
169 166 111
172 169 112
167 164 109
168 166 110
169 166 110
163 160 107
169 166 110
165 162 108
170 166 110
167 164 109
169 167 111
169 167 111
160 157 105
164 161 107
165 163 109
165 162 108
169 166 109
164 161 108
163 160 106
158 155 103
166 162 106
169 164 109
169 165 108
170 165 109
163 159 105
166 163 108
159 155 101
164 160 104
166 163 106
164 160 105
167 163 104
160 156 101
159 156 102
163 159 101
160 156 101
156 152 95
163 158 103
165 160 101
160 155 99
167 161 103
156 152 96
154 149 93
161 156 99
157 152 96
161 157 99
167 161 102
158 152 97
163 157 97
157 151 95
159 154 93
155 149 93
158 152 93
158 152 91
139 134 82
150 145 87
147 141 84
145 139 81
147 140 84
142 137 77
143 137 79
134 129 77
126 121 69
146 139 75
134 135 63
173 196 0
171 195 0
173 196 0
172 196 0
174 198 0
173 196 0
171 195 0
174 198 0
174 197 0
172 195 0
173 196 0
174 198 0
174 197 0
173 197 0
174 197 0
173 197 0
175 198 0
175 198 0
172 196 0
174 197 0
174 197 0
175 198 0
173 197 0
173 197 0
172 196 0
175 198 0
173 196 0
173 196 0
173 197 0
175 198 0
174 197 0
172 196 0
175 198 0
172 196 0
174 197 0
173 197 0
174 197 0
174 197 0
174 197 0
175 198 0
174 198 0
171 196 0
174 198 0
174 197 0
173 196 0
174 197 0
174 198 0
175 197 0
175 198 0
174 198 0
173 196 0
173 196 0
172 196 0
174 197 0
174 197 0
174 197 0
174 197 0
175 198 0
174 197 0
174 197 0
170 194 0
173 196 0
174 197 0
172 195 0
173 197 0
171 195 0
172 195 0
173 196 0
172 196 0
173 197 0
172 196 0
174 196 0
172 195 0
174 197 0
174 198 0
173 197 0
175 198 0
175 197 0
175 198 0
174 197 0
175 197 0
175 198 0
173 197 0
171 195 0
172 195 0
173 197 0
174 197 0
173 197 0
173 196 0
175 198 0
174 197 0
173 195 0
174 197 0
174 197 0
172 196 0
174 198 0
174 197 0
174 197 0
174 197 0
174 197 0
171 194 0
174 197 0
172 196 0
173 196 0
174 198 0
174 197 0
173 196 0
172 196 0
173 196 0
174 197 0
172 196 0
173 196 0
174 197 0
172 196 0
173 197 0
172 196 0
173 196 0
174 197 0
173 197 0
172 195 0
175 198 0
173 197 0
174 198 0
172 196 0
174 197 0
173 197 0
171 194 0
172 195 0
171 195 0
172 195 0
172 196 0
173 197 0
170 195 0
170 194 0
171 195 0
172 196 0
173 197 0
173 196 0
171 195 0
172 195 0
173 196 0
172 196 0
173 196 0
173 197 0
174 198 0
173 196 0
174 197 0
169 192 0
174 197 0
172 196 0
170 194 0
169 193 0
168 192 0
174 197 0
175 198 0
175 198 0
171 195 0
173 196 0
172 195 0
173 196 0
167 192 31
149 173 95
124 150 134
79 112 170
62 99 181
61 99 181
62 99 180
61 99 181
61 99 181
61 99 180
62 99 181
61 99 181
62 99 181
61 99 180
62 99 181
61 99 181
62 99 181
62 99 181
61 98 181
61 99 181
61 98 181
62 99 181
61 99 181
62 99 181
61 98 181
61 99 181
62 99 181
62 99 181
62 99 181
61 98 180
61 99 181
62 99 181
62 99 181
61 99 181
61 98 181
61 98 180
61 99 181
61 99 181
62 99 181
61 99 180
62 98 179
63 100 181
61 99 180
62 99 181
61 99 180
61 99 180
62 99 179
61 99 181
62 99 180
61 98 177
62 98 179
62 99 180
64 100 178
99 128 155
129 154 118
161 184 65
172 195 0
172 195 0
173 195 0
173 196 0
174 197 0
169 193 0
168 192 0
172 196 0
174 197 0
174 196 0
171 195 0
172 195 0
172 196 0
173 196 0
172 195 0
171 194 0
172 195 0
169 193 0
174 197 0
173 196 0
172 194 0
170 193 0
173 197 0
171 195 0
172 195 0
172 195 0
171 193 0
172 195 0
173 197 0
173 196 0
172 196 0
174 197 0
171 194 0
173 196 0
172 195 0
170 192 0
172 196 0
172 196 0
171 194 0
162 178 36
130 124 64
141 134 74
135 129 69
138 133 73
140 135 73
131 127 69
150 145 80
147 141 81
145 140 80
151 145 84
151 145 89
128 124 75
142 138 84
154 148 93
147 143 89
159 153 96
157 152 95
157 151 93
153 149 94
148 144 94
157 153 102
159 155 100
145 142 93
149 145 93
148 144 94
156 151 99
147 144 93
155 151 97
158 154 100
156 153 103
156 152 99
155 151 101
158 154 101
154 151 99
159 156 104
160 156 104
154 151 101
159 156 105
157 153 103
158 156 104
165 162 108
162 159 106
164 161 108
167 163 108
164 161 108
159 157 104
168 164 109
160 157 105
160 158 106
160 158 106
166 162 107
167 164 109
160 159 107
164 160 107
164 161 108
166 163 109
160 158 106
165 163 109
164 161 108
165 163 110
169 166 111
166 163 109
166 162 108
171 168 113
167 164 109
165 162 108
169 166 110
168 165 110
171 169 113
171 169 112
167 165 110
171 168 112
168 165 110
172 169 112
169 165 109
173 169 112
169 166 110
166 163 108
170 167 111
169 166 110
169 167 111
169 167 111
170 168 113
169 165 110
167 165 110
168 164 109
169 166 110
169 167 111
168 165 110
164 161 106
164 161 107
165 162 108
168 166 110
169 166 109
171 168 112
170 167 110
167 164 109
159 156 104
168 164 108
169 166 110
161 158 104
164 161 107
165 161 106
169 165 108
161 158 104
164 161 106
172 167 109
168 163 106
162 157 102
164 160 104
172 167 109
161 157 100
158 154 100
168 163 106
160 156 101
164 159 101
156 151 98
160 156 98
163 159 104
157 153 98
158 153 96
159 154 97
161 156 98
152 147 92
154 150 95
162 156 99
159 154 97
160 154 97
158 152 95
156 149 93
153 148 93
155 150 93
150 145 87
146 141 85
150 145 87
144 138 82
147 141 82
156 149 89
149 143 80
135 131 72
151 144 84
135 130 72
135 130 75
143 137 72
161 177 25
174 198 0
174 197 0
174 197 0
174 197 0
175 198 0
175 198 0
173 196 0
175 198 0
171 195 0
174 197 0
176 198 0
175 198 0
173 196 0
175 197 0
173 196 0
173 197 0
172 195 0
172 196 0
174 197 0
173 196 0
174 198 0
175 198 0
173 196 0
172 196 0
173 196 0
174 197 0
174 198 0
174 198 0
173 197 0
171 195 0
173 196 0
174 197 0
173 197 0
174 197 0
173 197 0
174 197 0
174 198 0
174 197 0
171 195 0
175 198 0
174 197 0
173 197 0
172 194 0
172 196 0
174 197 0
175 198 0
174 197 0
175 197 0
174 198 0
173 196 0
174 197 0
174 197 0
174 197 0
174 198 0
172 196 0
174 197 0
172 195 0
175 197 0
173 196 0
173 197 0
173 196 0
175 198 0
173 197 0
172 196 0
172 195 0
173 197 0
174 198 0
173 197 0
175 198 0
174 197 0
172 196 0
174 197 0
175 198 0
173 196 0
175 198 0
172 196 0
172 195 0
173 196 0
174 197 0
174 197 0
175 198 0
174 198 0
174 197 0
174 197 0
175 197 0
172 196 0
173 197 0
173 197 0
174 197 0
170 195 0
174 197 0
173 197 0
172 196 0
173 196 0
172 195 0
172 196 0
171 195 0
173 196 0
172 195 0
175 198 0
173 197 0
171 195 0
168 192 0
172 196 0
172 195 0
173 196 0
173 196 0
174 197 0
173 196 0
173 197 0
175 197 0
172 196 0
172 195 0
172 195 0
172 196 0
173 196 0
171 194 0
174 197 0
175 197 0
172 195 0
172 195 0
172 195 0
170 193 0
173 197 0
171 195 0
175 198 0
175 197 0
171 194 0
171 195 0
171 195 0
172 196 0
174 197 0
171 195 0
172 196 0
170 193 0
173 196 0
172 196 0
174 197 0
173 196 0
171 194 0
174 197 0
174 197 0
173 197 0
173 196 0
174 197 0
175 198 0
173 196 0
173 197 0
174 197 0
171 195 0
173 196 0
173 197 0
173 195 0
173 196 0
173 196 0
171 195 0
170 194 36
150 175 97
107 135 150
68 103 178
61 98 181
61 99 180
62 99 180
61 99 181
61 99 181
62 99 180
62 99 181
62 99 181
61 99 180
61 98 180
61 99 181
62 99 181
62 99 181
62 99 181
62 99 181
62 99 181
61 99 181
61 98 181
61 99 181
61 99 181
61 99 181
61 99 181
61 99 181
62 99 181
61 99 181
61 99 181
62 99 181
61 99 181
61 99 181
61 98 180
62 99 181
61 98 180
61 99 181
61 98 181
62 99 181
61 99 181
61 99 181
62 99 181
62 99 181
62 99 181
61 99 181
62 99 181
61 98 179
62 99 181
62 99 181
61 98 179
62 99 180
61 99 179
61 99 181
61 98 179
62 98 179
62 99 180
62 99 179
62 98 176
61 98 178
84 116 166
131 157 124
160 182 72
173 196 0
171 194 0
173 197 0
169 193 0
171 194 0
172 196 0
172 195 0
171 194 0
171 194 0
174 197 0
172 195 0
173 196 0
172 195 0
170 193 0
173 197 0
171 194 0
172 195 0
172 195 0
172 194 0
172 195 0
172 195 0
172 195 0
170 193 0
173 196 0
171 194 0
173 197 0
171 195 0
172 195 0
173 195 0
172 195 0
171 195 0
169 192 0
172 195 0
175 197 0
173 196 0
172 196 0
141 140 64
133 128 67
133 128 68
139 134 67
139 134 71
139 134 76
148 143 82
152 146 83
147 142 84
151 145 92
154 149 93
135 131 78
147 142 86
149 143 86
139 135 84
158 152 96
152 148 92
161 154 98
156 152 96
152 148 96
154 149 95
145 141 91
145 143 97
157 153 97
150 146 97
155 151 99
153 149 95
154 151 99
155 152 100
154 151 100
159 155 104
151 148 99
154 152 102
151 149 98
164 160 105
155 152 102
161 156 102
150 147 97
162 159 107
162 159 105
160 157 105
160 158 106
161 159 106
163 160 107
161 159 106
165 161 108
160 157 105
160 158 106
161 158 105
166 163 109
165 161 107
163 161 108
161 159 107
169 167 112
171 167 112
164 161 108
165 162 108
161 158 106
168 165 110
171 167 112
164 162 108
166 164 109
165 162 108
164 162 109
167 164 109
165 163 109
169 167 111
169 166 110
170 168 112
171 168 112
172 168 112
170 167 111
170 167 111
169 167 111
165 163 109
168 165 109
169 167 111
173 169 112
168 165 110
174 170 113
171 168 112
167 165 110
170 167 111
171 168 112
165 162 108
169 166 111
174 169 112
169 165 110
171 167 111
173 170 113
164 162 108
166 162 108
172 168 110
168 166 109
170 166 109
166 163 108
169 165 110
168 164 109
170 165 109
165 162 108
165 163 107
166 163 107
170 166 108
169 165 108
169 165 109
171 167 110
162 159 104
164 161 105
164 159 103
168 164 106
167 163 106
162 158 104
164 160 103
162 158 101
171 166 108
163 159 104
159 155 100
167 162 104
165 160 101
164 159 103
158 153 96
164 158 100
157 152 97
165 160 103
163 158 99
151 146 94
154 150 95
155 150 94
159 154 95
149 144 87
151 146 87
155 149 90
154 148 88
149 144 87
149 144 85
155 149 89
151 146 89
143 138 85
142 136 83
147 142 85
136 131 76
150 144 82
146 139 81
140 134 75
128 123 66
137 140 56
171 195 0
174 197 0
174 197 0
174 197 0
173 197 0
174 197 0
173 197 0
176 198 0
174 197 0
172 195 0
173 197 0
171 194 0
174 197 0
176 198 0
173 197 0
175 198 0
174 198 0
173 197 0
173 197 0
175 198 0
174 197 0
172 195 0
173 196 0
176 199 0
174 197 0
172 196 0
174 197 0
175 198 0
173 197 0
172 196 0
171 195 0
173 196 0
175 198 0
172 196 0
173 197 0
174 197 0
173 197 0
174 198 0
174 197 0
174 198 0
174 198 0
172 196 0
173 195 0
174 197 0
175 198 0
174 197 0
174 197 0
174 197 0
175 198 0
172 195 0
174 198 0
174 197 0
173 196 0
173 197 0
174 196 0
173 197 0
174 197 0
173 196 0
174 197 0
174 197 0
175 198 0
173 196 0
174 198 0
174 197 0
173 196 0
172 196 0
173 197 0
173 196 0
174 197 0
175 198 0
173 197 0
173 197 0
172 195 0
174 197 0
173 197 0
174 197 0
170 194 0
173 196 0
173 197 0
173 196 0
174 197 0
170 193 0
175 198 0
171 195 0
175 198 0
173 197 0
172 196 0
172 196 0
174 198 0
174 198 0
173 196 0
173 196 0
172 196 0
174 197 0
173 197 0
172 195 0
172 196 0
174 196 0
174 197 0
173 197 0
175 198 0
174 197 0
173 197 0
175 198 0
173 196 0
174 197 0
172 196 0
175 198 0
173 196 0
173 196 0
173 196 0
173 197 0
174 197 0
174 197 0
174 197 0
175 198 0
172 195 0
173 197 0
171 196 0
173 196 0
170 194 0
175 198 0
172 195 0
174 197 0
174 197 0
171 195 0
171 195 0
174 197 0
172 196 0
171 195 0
173 196 0
170 194 0
172 195 0
171 195 0
175 198 0
173 196 0
170 193 0
173 197 0
174 197 0
173 196 0
173 196 0
172 196 0
173 197 0
174 198 0
175 198 0
173 197 0
170 194 0
173 196 0
172 196 0
174 197 0
175 197 0
173 196 0
173 195 0
170 194 0
156 180 84
128 153 130
79 112 172
62 99 181
62 99 181
62 99 181
61 99 181
61 99 181
61 98 179
62 99 181
61 99 181
62 99 181
62 99 181
61 99 180
61 99 181
61 98 181
62 99 181
62 99 181
62 99 181
62 99 181
62 99 181
61 99 181
61 99 181
61 99 181
62 99 181
61 98 181
61 99 181
61 99 181
62 99 181
61 99 181
61 99 180
61 99 181
62 99 181
61 98 181
61 99 181
61 99 181
61 98 181
61 99 181
62 99 181
61 98 181
62 99 181
61 98 181
62 99 181
62 99 181
61 99 181
62 99 181
61 99 181
61 99 181
62 99 181
62 99 180
61 98 180
62 99 180
62 99 181
61 99 180
61 98 181
61 98 180
62 99 179
61 98 179
61 98 180
62 99 180
61 97 177
62 99 180
61 98 176
63 99 175
101 129 151
146 170 102
164 188 47
169 193 0
170 194 0
173 195 0
171 194 0
173 196 0
172 194 0
174 197 0
175 197 0
172 195 0
173 197 0
173 197 0
172 195 0
175 198 0
169 193 0
172 195 0
170 194 0
172 195 0
170 192 0
172 196 0
170 194 0
170 193 0
169 193 0
171 194 0
173 196 0
171 194 0
175 198 0
173 196 0
172 196 0
172 194 0
173 197 0
174 197 0
172 195 0
156 173 33
133 127 70
127 121 63
137 132 71
147 141 75
144 137 79
141 136 80
143 137 81
151 145 86
151 145 84
150 145 85
144 139 80
147 143 85
151 146 86
150 146 90
155 149 94
153 148 93
147 142 85
152 148 89
149 145 92
141 138 89
149 146 95
150 147 94
143 140 93
147 144 95
149 146 92
158 153 99
159 155 102
155 150 98
158 154 101
158 155 101
156 152 100
150 147 99
157 155 104
154 150 99
156 153 102
155 152 100
156 153 101
163 160 106
162 159 106
158 155 103
157 154 102
158 155 104
161 159 107
161 157 105
156 154 103
156 154 104
156 155 104
163 160 107
161 158 107
168 165 110
163 159 106
162 160 107
162 159 107
162 160 107
170 167 112
165 162 108
168 165 110
167 164 109
165 163 110
170 166 110
162 161 108
164 161 108
174 171 113
168 165 110
168 166 111
171 168 112
168 166 111
169 166 110
166 163 109
171 167 111
170 167 112
168 165 110
169 166 111
168 165 110
171 168 112
171 168 112
173 169 112
170 167 112
169 165 110
171 168 112
171 168 112
169 165 110
167 164 109
174 169 112
172 168 112
171 168 110
170 167 111
170 166 110
169 164 109
172 167 110
167 163 108
168 165 108
170 167 111
168 165 109
173 169 111
164 161 106
171 167 111
171 167 110
163 160 105
171 167 110
165 162 108
171 167 111
163 160 105
169 165 108
169 164 106
163 159 104
165 162 106
167 162 103
169 164 106
168 163 106
172 167 109
167 163 106
163 159 104
165 161 103
164 160 104
164 159 103
162 158 102
161 157 97
168 162 104
171 165 104
162 156 96
159 155 99
164 158 100
158 153 98
167 162 103
160 155 97
164 158 100
149 144 88
150 145 88
162 156 95
147 142 86
152 146 90
143 138 84
159 153 93
150 144 88
153 148 87
153 147 92
148 142 84
133 128 77
136 131 72
145 140 79
137 132 75
145 140 78
139 133 72
136 131 66
132 126 66
163 181 19
174 197 0
173 197 0
172 194 0
173 196 0
174 197 0
172 195 0
174 197 0
173 196 0
174 198 0
174 197 0
174 197 0
174 197 0
174 197 0
174 198 0
173 197 0
172 197 0
175 198 0
174 197 0
175 197 0
175 198 0
175 198 0
175 198 0
175 198 0
172 196 0
175 198 0
173 196 0
174 198 0
174 197 0
174 197 0
174 197 0
175 198 0
174 197 0
173 197 0
175 198 0
173 197 0
174 198 0
173 197 0
174 197 0
173 197 0
174 197 0
175 197 0
174 197 0
174 198 0
173 197 0
172 195 0
171 194 0
174 197 0
173 196 0
174 197 0
172 196 0
172 196 0
174 197 0
174 197 0
172 196 0
174 197 0
173 197 0
174 197 0
174 197 0
174 198 0
174 197 0
173 197 0
172 196 0
173 196 0
173 197 0
172 195 0
172 196 0
174 197 0
175 198 0
173 197 0
175 198 0
173 196 0
173 197 0
174 197 0
172 196 0
176 199 0
174 197 0
174 198 0
174 197 0
171 195 0
174 198 0
173 196 0
171 194 0
172 196 0
170 193 0
174 197 0
171 195 0
172 195 0
173 196 0
173 197 0
171 195 0
173 196 0
174 196 0
173 197 0
172 195 0
174 197 0
174 197 0
173 197 0
173 197 0
174 197 0
174 197 0
172 195 0
171 194 0
171 195 0
172 195 0
174 197 0
171 194 0
174 198 0
174 197 0
174 198 0
173 197 0
175 198 0
173 197 0
174 197 0
170 194 0
170 192 0
173 196 0
173 197 0
171 195 0
171 195 0
171 195 0
173 196 0
173 196 0
173 197 0
173 197 0
174 197 0
173 196 0
172 196 0
170 194 0
170 194 0
173 196 0
173 197 0
173 197 0
173 196 0
174 198 0
175 197 0
171 194 0
172 195 0
173 196 0
172 195 0
168 191 0
172 196 0
174 197 0
169 193 0
174 197 0
173 196 0
173 197 0
173 196 0
171 194 0
171 194 0
174 197 0
172 195 31
135 161 118
95 124 160
62 99 180
61 98 180
61 99 181
62 99 181
61 99 181
62 99 180
61 98 181
62 99 179
62 99 181
62 99 181
62 99 181
62 99 181
61 98 181
62 99 181
62 99 181
62 99 181
62 99 181
62 99 181
61 99 181
62 99 181
61 98 181
62 99 181
62 99 181
61 99 181
61 99 181
62 99 181
61 99 181
62 99 181
61 98 181
61 98 181
62 99 181
60 98 181
61 98 181
61 99 181
62 99 181
61 98 181
61 99 181
62 99 181
61 99 181
62 99 181
61 99 181
61 98 181
61 99 181
61 98 181
61 99 181
61 99 181
61 99 181
61 98 180
62 99 181
62 99 180
62 99 181
61 99 181
61 99 181
62 99 181
62 99 180
61 98 181
62 99 180
61 98 179
62 99 180
61 98 177
62 99 179
61 98 179
62 99 180
61 97 176
60 97 176
61 97 176
78 110 166
123 149 130
161 185 68
175 197 0
172 195 0
173 196 0
173 196 0
174 197 0
170 193 0
172 195 0
172 196 0
172 196 0
174 197 0
174 197 0
174 196 0
173 196 0
173 196 0
170 193 0
170 194 0
171 194 0
172 194 0
173 196 0
174 198 0
173 196 0
168 191 0
173 197 0
173 195 0
171 194 0
172 195 0
173 196 0
170 193 0
174 197 0
174 197 0
132 134 49
134 127 63
127 121 65
137 131 70
135 130 72
143 137 81
140 135 74
146 140 82
135 130 74
144 139 81
144 139 84
151 146 89
138 133 76
150 145 86
147 141 87
146 142 86
145 141 90
153 148 91
148 142 90
142 138 86
146 142 90
143 140 92
151 146 94
148 145 95
142 139 92
145 142 93
151 148 99
154 151 97
161 157 102
160 156 102
157 154 102
156 152 100
156 153 102
149 146 96
152 149 98
162 158 105
159 156 104
164 161 106
159 156 105
156 154 103
157 156 105
152 150 101
161 158 105
166 162 107
159 157 106
162 159 107
154 152 101
151 150 102
160 158 107
158 157 106
161 158 106
164 161 108
165 162 108
161 159 108
168 165 110
164 161 108
164 162 108
164 162 110
169 166 110
169 166 110
167 164 109
166 163 109
166 163 109
168 165 110
164 162 109
170 166 111
168 165 110
169 166 111
167 165 110
168 166 110
170 167 111
172 168 112
170 167 111
174 171 113
171 168 112
167 165 110
171 167 110
170 167 111
168 165 110
170 167 110
168 164 109
170 168 112
171 168 111
173 169 112
166 164 109
169 166 110
166 163 108
170 166 110
170 167 110
173 169 112
163 160 106
166 163 108
170 166 109
169 165 109
173 170 112
168 165 109
166 164 109
170 166 109
170 167 109
163 159 105
171 167 110
171 168 110
172 168 110
166 162 106
169 165 109
164 160 104
166 163 108
168 164 106
165 161 106
168 163 106
164 160 104
162 159 104
169 164 108
160 156 100
163 157 102
168 163 106
163 159 101
167 162 105
168 163 106
165 160 103
163 158 99
157 153 97
160 156 99
156 151 97
158 154 94
159 155 96
162 157 98
160 155 95
150 146 90
170 163 103
163 157 99
155 150 94
147 143 87
154 149 93
157 151 91
149 143 87
151 145 84
154 148 90
151 145 86
144 138 79
142 135 78
150 144 80
142 136 77
145 138 75
143 137 76
140 134 72
137 132 66
149 153 59
174 197 0
173 196 0
174 197 0
173 196 0
174 197 0
173 196 0
174 197 0
171 194 0
176 198 0
172 197 0
175 198 0
174 198 0
174 197 0
173 196 0
174 197 0
174 197 0
174 198 0
173 197 0
174 198 0
174 198 0
172 195 0
174 197 0
174 196 0
172 195 0
172 196 0
173 196 0
174 198 0
173 197 0
176 198 0
175 198 0
172 196 0
173 196 0
174 198 0
173 197 0
173 196 0
173 196 0
174 196 0
173 197 0
174 197 0
173 196 0
175 198 0
174 197 0
174 197 0
172 195 0
173 196 0
173 196 0
173 197 0
173 196 0
174 198 0
173 197 0
174 198 0
173 197 0
173 197 0
173 196 0
172 196 0
174 198 0
173 196 0
175 198 0
175 198 0
176 198 0
172 196 0
174 198 0
172 196 0
174 197 0
174 197 0
175 197 0
173 196 0
175 198 0
174 197 0
173 197 0
174 197 0
174 197 0
174 197 0
173 197 0
174 196 0
175 198 0
174 197 0
173 195 0
175 198 0
174 197 0
173 197 0
172 195 0
173 197 0
171 194 0
173 197 0
172 195 0
172 196 0
174 196 0
173 197 0
173 197 0
175 198 0
173 196 0
174 198 0
173 197 0
173 197 0
168 192 0
173 196 0
174 197 0
173 196 0
172 195 0
175 198 0
171 194 0
173 195 0
173 197 0
173 197 0
174 197 0
173 197 0
172 195 0
171 195 0
173 197 0
173 196 0
173 197 0
171 194 0
170 194 0
172 196 0
174 197 0
170 193 0
173 197 0
172 196 0
173 196 0
173 196 0
175 198 0
174 197 0
172 196 0
172 195 0
170 194 0
172 195 0
172 196 0
172 195 0
175 198 0
174 197 0
174 197 0
174 197 0
172 196 0
171 194 0
172 195 0
174 196 0
174 196 0
171 194 0
174 197 0
173 196 0
171 195 0
173 196 0
172 196 0
172 194 0
174 198 0
173 196 0
173 197 0
157 181 80
129 155 124
76 109 174
62 99 180
62 99 180
61 99 181
61 99 181
62 99 181
61 99 181
62 99 181
61 99 181
62 99 181
61 99 180
61 99 181
61 98 181
61 98 181
61 99 181
61 99 181
61 99 181
61 99 181
61 99 181
62 99 181
62 99 181
62 99 181
62 99 181
61 99 181
61 99 181
61 99 181
61 99 181
61 98 181
61 98 181
62 99 181
62 99 181
61 99 181
62 99 181
61 98 181
62 99 181
61 99 181
61 99 181
62 99 181
62 99 181
62 99 181
61 99 181
61 98 181
61 98 181
61 99 181
61 99 181
61 99 181
62 99 181
61 98 180
62 99 181
62 99 181
62 99 181
61 99 181
61 99 180
62 99 181
62 99 181
61 98 180
62 99 181
61 98 180
61 99 180
60 97 177
61 98 180
62 99 181
61 99 180
61 99 180
62 99 180
62 99 178
61 98 179
62 99 178
62 99 177
61 98 177
62 98 175
61 98 179
99 128 154
151 175 91
173 196 19
173 196 0
172 195 0
172 195 0
174 197 0
170 193 0
174 196 0
172 195 0
171 194 0
172 195 0
169 193 0
173 196 0
172 195 0
172 195 0
174 197 0
171 194 0
172 195 0
172 196 0
174 196 0
171 195 0
173 196 0
171 195 0
173 196 0
172 195 0
172 195 0
173 196 0
173 196 0
155 171 32
122 118 56
136 131 69
140 135 76
134 129 69
138 132 72
135 130 75
142 137 80
150 144 82
144 139 83
135 132 80
140 137 84
142 138 83
147 141 84
144 140 85
139 136 84
151 147 93
156 152 97
141 138 87
151 147 92
152 147 94
139 137 88
153 149 98
153 149 97
145 143 95
143 140 90
153 150 100
155 151 100
157 153 102
159 155 101
157 154 101
147 144 97
160 155 101
155 153 103
149 146 97
157 154 103
156 153 102
156 153 103
159 157 105
158 155 105
158 156 104
161 158 105
154 152 103
155 153 103
158 156 105
161 158 106
163 161 108
159 156 104
156 155 105
158 157 106
165 162 108
163 160 107
163 159 107
158 155 104
162 159 105
163 161 108
169 166 110
159 158 107
167 164 110
162 159 106
175 170 113
163 161 108
164 162 108
171 168 112
170 165 109
170 167 112
167 164 110
165 162 108
167 165 111
168 165 110
169 166 110
171 168 112
167 164 109
169 166 111
171 168 112
169 166 111
172 168 112
170 167 111
168 167 111
172 168 112
172 169 113
173 169 110
170 166 110
171 168 111
172 168 111
169 166 110
168 166 110
171 167 111
172 168 111
168 165 109
174 170 112
170 167 110
174 170 112
170 166 109
171 168 111
169 164 108
167 164 108
169 165 109
174 170 111
170 166 109
166 162 106
168 164 108
163 159 104
168 165 106
170 166 108
168 164 106
168 163 107
164 160 104
173 169 110
163 159 104
167 163 106
161 157 101
165 160 104
170 166 107
169 164 107
165 161 104
166 161 104
164 159 100
166 161 104
162 157 100
167 162 102
157 154 100
161 156 97
169 163 104
164 158 97
154 149 93
160 154 97
159 153 96
163 156 97
152 146 86
159 155 96
161 155 98
163 158 98
161 154 96
150 144 87
150 145 82
151 146 89
158 152 93
149 143 82
151 145 87
147 141 84
146 140 83
147 142 80
148 142 83
141 135 74
141 136 75
137 131 72
138 132 73
131 125 62
169 189 16
175 198 0
173 196 0
171 195 0
174 197 0
173 196 0
175 198 0
173 196 0
174 196 0
173 196 0
175 198 0
173 196 0
172 196 0
174 197 0
174 197 0
174 197 0
172 196 0
174 197 0
174 197 0
174 197 0
173 196 0
174 197 0
174 197 0
174 198 0
174 198 0
174 197 0
175 198 0
173 197 0
174 197 0
173 196 0
174 197 0
173 197 0
175 197 0
174 197 0
174 197 0
173 195 0
173 196 0
173 197 0
175 198 0
172 195 0
174 196 0
172 195 0
173 197 0
174 197 0
174 197 0
174 197 0
172 195 0
175 198 0
173 197 0
172 197 0
174 198 0
173 196 0
174 197 0
174 198 0
174 196 0
174 197 0
173 197 0
175 198 0
172 195 0
173 196 0
173 196 0
172 196 0
173 197 0
172 196 0
174 197 0
173 197 0
172 196 0
174 197 0
173 196 0
173 197 0
173 196 0
172 196 0
172 195 0
173 196 0
173 197 0
174 197 0
173 197 0
174 198 0
174 197 0
173 196 0
172 195 0
172 196 0
170 194 0
173 197 0
171 194 0
172 195 0
174 197 0
175 198 0
171 194 0
174 197 0
172 196 0
170 194 0
173 196 0
174 197 0
173 196 0
173 196 0
176 199 0
173 196 0
173 197 0
173 197 0
173 196 0
173 196 0
174 198 0
171 195 0
175 198 0
175 198 0
174 198 0
172 196 0
174 197 0
172 195 0
172 196 0
173 196 0
174 197 0
175 198 0
173 196 0
173 196 0
172 195 0
172 195 0
174 196 0
171 195 0
174 197 0
174 197 0
174 197 0
173 196 0
172 194 0
173 197 0
174 198 0
174 197 0
175 198 0
173 196 0
173 197 0
172 195 0
172 196 0
174 197 0
176 198 0
172 195 0
172 196 0
173 197 0
174 196 0
172 196 0
171 195 0
173 196 0
174 197 0
173 196 0
174 197 0
172 195 0
162 185 67
115 142 144
69 104 177
62 99 181
61 99 180
62 99 180
62 99 180
61 99 181
62 99 181
62 99 179
62 99 181
61 99 181
61 99 181
61 99 181
62 99 181
61 98 181
61 99 181
61 99 181
61 99 181
61 99 181
61 99 181
61 99 181
61 98 181
62 99 181
61 98 181
62 99 181
61 98 181
61 98 181
61 98 181
61 99 181
62 99 181
61 99 181
61 98 181
61 99 181
62 99 181
62 99 181
62 99 181
62 99 181
61 98 181
61 99 181
62 99 181
61 99 181
62 99 181
61 99 181
62 99 181
61 99 181
62 99 181
61 99 181
61 99 181
62 99 181
61 98 181
61 98 180
61 98 181
61 99 181
61 99 180
61 98 181
62 99 180
61 98 179
61 98 179
61 99 181
61 99 181
61 98 180
62 99 180
62 99 181
62 99 179
62 99 181
62 99 180
61 98 177
62 99 180
61 98 177
62 99 180
62 99 180
61 98 178
62 99 179
62 99 180
62 99 179
62 99 178
62 98 177
95 124 155
133 158 119
171 194 26
172 196 0
170 194 0
171 195 0
171 195 0
172 194 0
171 194 0
169 192 0
172 194 0
171 195 0
172 194 0
170 194 0
173 196 0
171 195 0
174 197 0
171 193 0
170 194 0
171 196 0
170 192 0
172 195 0
172 194 0
173 196 0
171 194 0
173 196 0
172 195 0
136 144 44
133 127 64
136 130 70
144 139 74
147 141 77
147 140 82
138 132 76
143 138 81
139 134 76
140 135 78
136 132 77
137 133 81
133 129 77
149 145 88
139 135 82
149 144 89
149 145 91
144 141 88
147 144 90
146 143 93
148 144 89
148 143 92
149 145 95
148 144 93
156 152 97
147 144 94
150 145 92
156 152 99
141 139 92
153 150 98
154 151 101
151 148 98
151 148 97
156 154 103
151 148 100
155 153 102
151 148 98
156 155 104
155 153 103
156 154 102
154 151 103
161 158 106
156 153 103
157 155 104
158 156 105
157 155 103
158 155 103
160 157 105
161 157 105
160 158 106
152 150 101
161 159 107
167 164 109
163 160 108
161 159 106
165 163 109
168 164 109
166 163 109
167 164 109
166 163 109
166 163 109
169 166 111
166 162 108
168 165 110
169 166 111
166 163 108
171 168 112
171 168 112
168 165 110
170 167 111
168 165 110
167 164 110
172 169 113
169 167 111
173 170 113
171 168 112
172 169 112
169 166 111
169 167 112
171 168 112
172 169 112
169 166 110
170 167 111
168 166 111
173 168 111
170 167 112
170 167 111
171 167 110
172 168 111
173 169 112
169 165 109
169 166 110
172 168 112
170 166 110
172 168 110
174 170 112
169 164 109
173 169 111
168 164 109
168 164 106
173 169 111
169 165 108
167 163 108
170 167 110
172 167 106
168 164 107
165 162 107
167 163 105
169 165 108
170 166 106
167 163 107
171 166 106
170 164 106
163 159 101
169 164 106
162 157 101
169 164 104
167 161 104
162 158 101
161 157 99
162 158 102
152 148 94
166 160 103
159 155 100
165 160 99
161 157 98
166 160 97
158 153 93
159 153 95
162 157 97
155 150 93
157 151 92
154 148 93
152 148 91
155 150 91
152 146 88
144 139 85
150 144 84
149 143 80
148 141 83
143 139 76
145 139 81
151 144 86
148 142 84
146 140 79
146 140 81
142 135 76
136 130 69
144 138 70
153 163 52
172 195 0
172 196 0
172 196 0
174 197 0
171 195 0
175 198 0
173 197 0
175 197 0
173 196 0
173 196 0
174 197 0
176 198 0
173 197 0
174 198 0
174 197 0
171 195 0
174 197 0
175 198 0
174 197 0
175 198 0
173 197 0
173 197 0
175 198 0
175 198 0
173 197 0
174 198 0
174 197 0
175 198 0
174 198 0
170 194 0
175 198 0
174 198 0
174 197 0
173 196 0
174 197 0
174 198 0
172 195 0
175 198 0
175 198 0
173 197 0
174 198 0
172 196 0
173 196 0
174 198 0
172 195 0
174 198 0
171 195 0
172 196 0
173 197 0
174 198 0
175 198 0
174 196 0
175 198 0
175 197 0
174 196 0
174 197 0
174 197 0
175 198 0
172 195 0
173 197 0
176 199 0
172 196 0
175 198 0
172 196 0
175 198 0
173 196 0
174 197 0
173 197 0
175 198 0
172 195 0
172 195 0
175 198 0
175 198 0
173 197 0
175 198 0
174 197 0
171 194 0
172 196 0
173 197 0
171 195 0
168 192 0
173 196 0
170 194 0
174 197 0
173 196 0
172 196 0
171 195 0
173 197 0
173 197 0
172 196 0
171 195 0
172 196 0
174 197 0
174 197 0
173 196 0
172 195 0
174 197 0
173 197 0
171 195 0
173 195 0
172 196 0
172 196 0
172 196 0
173 197 0
174 198 0
174 197 0
173 196 0
175 198 0
172 195 0
173 197 0
171 195 0
173 196 0
171 196 0
175 197 0
174 197 0
173 197 0
173 196 0
173 197 0
172 195 0
174 197 0
173 196 0
173 196 0
172 195 0
172 196 0
173 196 0
172 195 0
174 196 0
175 198 0
173 196 0
173 195 0
173 197 0
173 196 0
173 197 0
172 196 0
173 196 0
174 197 0
171 194 0
173 196 0
173 197 0
174 197 0
171 196 0
174 197 0
171 194 0
156 180 78
117 143 139
68 103 176
61 98 179
62 99 180
62 99 181
61 98 180
61 98 181
61 98 180
62 99 181
62 99 181
61 98 181
61 98 181
61 99 181
62 99 181
62 99 181
62 99 181
61 98 181
62 99 181
62 99 181
62 99 181
62 99 181
61 99 181
61 99 181
62 99 181
62 99 181
62 99 181
61 99 181
61 99 181
61 99 181
62 99 181
61 98 181
61 99 181
61 99 181
62 99 181
61 98 181
61 98 181
61 99 181
62 99 181
61 99 181
61 98 181
61 99 181
62 99 181
61 99 181
61 98 181
61 98 181
62 99 181
61 99 181
62 99 181
62 99 181
61 98 181
62 99 181
61 98 181
62 99 181
61 99 181
61 99 180
61 99 181
62 99 181
61 99 181
61 99 181
61 98 181
62 99 181
62 99 181
62 99 180
62 99 180
61 98 179
61 98 180
62 98 178
61 98 180
62 99 180
61 99 179
62 99 178
62 99 180
62 99 180
61 98 177
62 98 177
62 99 181
60 97 176
61 98 178
62 99 177
61 98 176
62 99 178
92 121 157
141 165 107
172 195 0
171 194 0
171 195 0
171 194 0
173 196 0
174 198 0
172 195 0
173 196 0
170 194 0
175 197 0
170 193 0
170 193 0
172 195 0
173 196 0
173 196 0
173 197 0
174 197 0
172 197 0
174 196 0
170 193 0
174 197 0
172 196 0
168 190 22
120 115 60
137 131 66
129 124 66
121 117 60
142 137 75
141 137 76
151 145 78
143 138 76
149 144 86
138 134 80
156 151 90
149 143 87
151 147 86
134 130 80
139 135 87
136 133 85
155 151 93
148 143 90
144 140 86
155 150 94
148 145 90
154 149 95
143 142 95
146 142 90
140 138 92
145 142 93
151 148 99
148 145 95
152 148 98
156 153 103
150 148 98
150 148 100
154 152 102
159 156 104
150 148 101
154 152 103
152 150 101
149 147 100
149 147 101
147 145 97
163 159 106
156 153 102
161 158 104
155 153 103
159 155 104
163 159 107
160 158 107
166 163 108
162 159 105
160 158 107
167 164 110
160 158 106
167 164 110
166 163 108
163 161 107
164 162 110
167 164 110
165 162 110
166 164 110
169 166 111
168 165 110
168 165 110
163 161 107
164 162 108
170 167 112
169 166 110
168 165 110
170 167 112
170 167 111
169 166 110
171 167 110
171 168 112
171 167 111
172 168 111
172 169 112
169 166 110
169 166 110
169 166 109
171 168 111
171 168 111
172 168 111
172 168 110
172 169 112
169 166 110
170 168 112
175 170 110
173 169 111
175 171 113
171 167 110
172 168 111
170 167 110
171 167 111
173 169 112
171 168 110
171 167 110
169 165 109
171 168 110
170 166 109
171 167 110
171 166 109
170 167 109
167 163 106
168 164 108
169 165 108
172 168 111
171 167 109
173 168 108
166 161 104
169 166 108
169 165 108
165 160 105
170 166 109
166 162 104
169 164 106
163 160 103
168 163 105
166 161 105
166 162 104
170 165 104
167 163 104
160 156 97
161 157 99
162 157 99
160 154 97
156 152 96
159 154 97
157 152 95
163 158 100
156 152 94
161 155 95
159 152 96
156 151 93
148 144 82
159 153 93
156 151 93
156 151 89
148 142 84
155 149 86
149 144 89
155 148 87
154 148 85
150 145 87
132 127 74
152 145 87
141 135 77
139 134 81
143 137 75
137 132 69
126 121 62
138 136 57
173 195 11
175 198 0
173 196 0
172 195 0
172 196 0
174 198 0
173 196 0
174 197 0
173 197 0
173 196 0
173 196 0
173 196 0
171 195 0
174 198 0
175 198 0
173 196 0
175 198 0
174 198 0
175 198 0
174 198 0
174 198 0
174 198 0
173 197 0
172 196 0
175 198 0
175 197 0
175 198 0
174 198 0
175 198 0
172 195 0
175 198 0
171 195 0
173 197 0
174 197 0
173 196 0
172 195 0
174 197 0
173 197 0
176 199 0
176 199 0
175 198 0
173 196 0
174 197 0
173 197 0
175 198 0
169 193 0
174 197 0
175 198 0
172 196 0
174 198 0
172 196 0
174 197 0
172 196 0
172 196 0
173 196 0
172 195 0
171 195 0
173 197 0
173 197 0
172 196 0
174 197 0
173 197 0
173 197 0
176 198 0
173 196 0
172 195 0
173 197 0
173 196 0
172 196 0
173 197 0
174 196 0
175 198 0
172 195 0
174 197 0
172 196 0
175 198 0
172 195 0
174 198 0
172 195 0
175 198 0
173 196 0
173 197 0
172 195 0
171 196 0
175 197 0
173 197 0
175 198 0
173 197 0
172 195 0
174 197 0
170 194 0
174 197 0
173 196 0
173 196 0
174 196 0
173 196 0
173 196 0
173 196 0
171 195 0
171 195 0
174 197 0
173 197 0
173 196 0
173 195 0
174 197 0
173 197 0
175 198 0
173 196 0
173 196 0
173 196 0
171 195 0
172 195 0
173 196 0
173 195 0
173 196 0
170 194 0
174 197 0
172 195 0
173 196 0
172 195 0
173 197 0
175 198 0
174 196 0
173 197 0
173 196 0
174 197 0
172 195 0
175 198 0
173 196 0
173 197 0
175 198 0
175 198 0
172 195 0
175 198 0
172 195 0
170 193 0
172 196 0
174 196 0
173 196 0
174 197 0
173 195 0
165 189 47
115 142 141
64 101 180
61 98 179
61 99 181
62 99 181
61 99 181
62 99 181
62 99 179
61 99 180
62 99 181
61 99 181
62 99 181
61 99 181
62 99 181
62 99 181
61 99 181
62 99 181
61 98 181
61 98 181
61 99 181
61 99 181
61 99 181
61 99 181
61 99 181
62 99 181
62 99 181
61 98 181
62 99 181
61 98 181
62 99 181
62 99 181
62 99 181
62 99 181
61 99 181
62 99 181
62 99 181
61 98 181
61 98 181
62 99 181
61 99 181
62 99 181
61 99 181
62 99 181
61 99 181
61 99 181
61 99 181
62 99 181
61 98 181
61 98 181
61 99 181
62 99 181
61 98 181
62 99 181
61 99 181
62 99 181
62 99 181
61 99 181
61 98 181
61 98 181
62 99 181
61 98 180
61 99 181
61 99 181
61 99 181
62 99 181
61 99 181
61 99 181
62 99 180
62 99 180
62 99 180
61 99 178
62 99 179
61 98 180
61 98 180
62 98 178
62 99 180
61 98 178
61 98 178
62 99 181
61 98 179
62 99 177
61 98 178
62 98 177
62 98 176
62 98 177
88 118 161
140 165 100
173 196 0
174 196 0
171 193 0
173 196 0
173 197 0
172 196 0
171 194 0
172 195 0
171 194 0
174 196 0
170 194 0
173 196 0
173 196 0
174 197 0
174 196 0
172 195 0
172 195 0
172 195 0
175 198 0
169 193 0
144 154 42
126 121 64
135 129 72
138 132 76
139 134 74
147 142 82
134 129 71
144 139 77
131 127 72
135 130 69
132 127 75
143 138 80
145 141 85
144 140 85
143 139 85
145 141 90
142 137 86
143 141 88
142 138 90
138 134 85
139 136 88
149 145 91
147 143 89
152 148 96
146 143 95
143 142 95
151 148 96
156 153 101
151 148 97
150 148 99
151 148 99
152 149 98
144 143 97
155 152 100
147 145 99
156 153 102
147 146 100
153 150 101
152 150 101
154 152 102
158 154 102
160 157 104
156 153 102
152 150 103
159 157 106
157 155 105
166 163 109
162 160 108
160 158 107
159 157 105
161 159 107
165 162 108
164 162 109
163 161 107
166 162 108
167 165 109
169 165 110
163 160 106
170 167 111
162 159 107
166 164 109
162 159 106
171 167 111
161 159 106
172 169 112
168 165 110
170 167 111
171 168 111
171 168 112
174 171 113
168 166 111
168 165 110
169 166 111
172 169 113
165 163 109
171 168 112
171 168 112
169 165 110
170 168 111
166 163 109
169 165 108
174 170 113
175 171 113
172 168 112
170 167 110
171 169 112
171 169 113
170 166 110
165 162 108
170 167 109
175 170 113
171 168 112
175 171 113
168 165 108
172 168 111
170 165 108
170 167 108
171 167 109
170 166 110
171 167 109
170 166 109
170 167 109
167 163 107
169 165 109
162 158 102
169 164 107
170 165 107
170 166 108
172 168 111
169 164 106
166 163 107
169 164 104
168 164 106
164 160 104
166 162 105
163 158 103
172 167 109
172 166 106
163 158 102
165 161 101
167 162 104
158 153 97
162 158 102
172 166 106
162 157 98
158 154 97
163 158 99
165 159 99
162 156 97
158 153 96
151 145 87
153 148 91
158 152 93
156 150 91
154 148 91
156 151 90
156 150 87
152 146 86
149 142 83
158 152 90
150 144 87
156 149 90
155 148 82
139 133 74
144 138 80
142 137 79
144 139 75
143 137 74
131 126 69
140 134 73
125 119 62
166 181 42
174 197 0
175 198 0
174 196 0
174 197 0
173 197 0
173 197 0
174 198 0
175 197 0
173 197 0
173 196 0
173 196 0
174 198 0
171 195 0
175 198 0
172 197 0
174 197 0
173 197 0
172 196 0
175 198 0
174 197 0
172 196 0
172 195 0
173 197 0
174 197 0
173 196 0
174 197 0
174 197 0
173 196 0
175 198 0
173 196 0
173 197 0
173 197 0
172 196 0
174 197 0
174 197 0
173 196 0
174 198 0
173 196 0
173 196 0
174 197 0
173 196 0
172 196 0
174 198 0
173 197 0
173 196 0
174 197 0
174 198 0
174 198 0
173 197 0
173 197 0
174 197 0
175 198 0
173 196 0
171 195 0
175 198 0
175 198 0
173 196 0
174 197 0
174 197 0
175 198 0
174 197 0
172 195 0
172 196 0
168 192 0
172 196 0
169 193 0
171 195 0
174 198 0
174 197 0
177 199 0
170 194 0
176 199 0
173 197 0
171 195 0
174 197 0
174 197 0
172 195 0
174 198 0
174 197 0
172 195 0
172 195 0
173 197 0
175 198 0
172 196 0
173 195 0
172 196 0
172 195 0
172 196 0
176 198 0
173 196 0
172 196 0
171 195 0
174 198 0
172 196 0
174 197 0
171 195 0
172 195 0
174 197 0
172 196 0
174 196 0
171 195 0
174 197 0
174 198 0
173 197 0
172 196 0
173 195 0
173 197 0
175 197 0
171 195 0
174 197 0
173 197 0
172 196 0
174 196 0
173 196 0
174 197 0
174 197 0
173 197 0
172 195 0
172 195 0
175 198 0
174 197 0
174 196 0
173 196 0
173 196 0
172 196 0
173 195 0
173 197 0
175 198 0
174 197 0
172 196 0
173 196 0
175 198 0
174 197 0
172 195 0
174 197 0
173 197 0
173 197 0
171 195 0
174 197 18
127 153 131
64 100 179
62 99 180
62 99 180
62 100 181
62 99 181
62 99 181
61 99 181
61 99 181
62 99 181
61 98 180
61 98 181
61 99 181
61 99 181
62 99 181
62 99 181
61 99 181
62 99 181
61 98 181
62 99 181
62 99 181
61 99 181
62 99 181
61 98 181
61 99 181
62 99 181
61 99 181
61 99 181
62 99 181
61 99 181
61 99 181
62 99 181
62 99 181
61 99 181
61 99 181
61 99 181
61 98 181
61 99 181
62 99 181
62 99 181
61 98 181
61 99 181
62 99 181
61 98 181
62 99 181
61 99 181
62 99 181
61 99 181
62 99 181
61 99 181
62 99 181
62 99 181
62 99 181
61 98 181
61 99 181
61 98 181
62 99 181
62 99 181
61 99 181
62 99 181
62 99 180
62 99 181
61 99 181
61 99 181
61 99 181
61 98 180
62 99 181
62 99 180
61 98 180
62 99 179
62 99 180
61 99 181
62 99 180
62 99 181
61 98 180
61 99 181
61 98 179
62 99 180
62 99 180
62 98 178
61 98 178
62 99 179
62 99 178
62 99 180
62 98 177
62 98 176
61 97 175
61 97 173
61 98 173
110 137 146
157 181 74
173 196 0
171 193 0
172 196 0
172 194 0
171 194 0
172 193 0
174 197 0
172 195 0
170 193 0
171 194 0
168 193 0
172 195 0
175 197 0
170 193 0
173 197 0
173 197 0
170 193 0
172 195 0
128 125 51
125 118 62
126 121 61
137 132 69
134 129 72
133 129 69
143 138 79
136 132 75
147 142 84
133 129 76
140 136 80
144 141 88
140 136 83
156 150 93
146 142 86
148 144 91
146 142 85
143 139 89
139 135 87
143 139 88
155 150 96
151 147 93
158 154 99
146 144 94
153 148 96
157 153 97
150 147 96
151 147 96
138 136 91
155 151 98
149 146 95
147 144 96
161 158 105
142 140 95
157 155 104
145 143 96
143 142 96
149 146 98
158 156 104
162 159 105
151 149 99
150 148 101
155 153 104
164 160 106
152 150 101
159 156 105
150 148 100
169 165 110
160 157 106
160 158 105
161 159 107
164 161 108
161 159 107
162 159 108
164 160 108
166 162 109
163 160 106
163 160 108
168 164 109
167 165 111
166 164 110
166 163 108
161 159 106
169 166 109
171 168 111
164 162 109
167 164 110
163 161 107
170 166 111
171 168 112
166 164 110
171 167 111
171 167 110
169 167 111
173 169 112
168 165 109
170 167 110
171 168 111
172 168 111
171 168 111
172 169 112
172 169 112
168 165 108
169 165 109
173 170 113
173 170 112
172 168 111
172 168 110
172 169 110
171 168 109
174 169 111
171 167 110
170 166 108
173 169 112
172 168 110
176 171 112
173 169 110
174 169 110
172 167 108
167 164 108
171 167 110
172 168 109
170 165 109
174 170 112
171 167 109
174 169 110
173 169 109
170 165 108
168 164 105
167 163 106
163 159 103
168 163 105
164 159 102
167 163 104
166 163 105
166 162 103
165 160 104
165 161 103
168 163 101
167 161 99
165 160 103
164 159 101
164 160 101
162 158 100
163 158 101
161 156 97
160 156 97
165 160 99
158 152 94
149 145 90
161 157 96
158 153 92
162 156 95
161 154 96
151 146 93
161 155 94
153 148 89
152 147 88
151 146 90
154 147 84
153 146 84
154 148 87
156 149 86
160 154 92
136 131 75
152 145 81
143 137 79
147 141 75
140 134 75
139 133 68
135 129 69
139 144 53
173 196 0
173 196 0
174 198 0
174 196 0
172 196 0
174 197 0
172 195 0
174 197 0
172 196 0
174 197 0
175 198 0
175 198 0
175 197 0
176 198 0
175 198 0
174 197 0
172 196 0
172 196 0
171 195 0
175 198 0
173 197 0
172 196 0
173 196 0
174 196 0
174 197 0
172 196 0
173 197 0
175 198 0
174 197 0
172 196 0
172 196 0
173 197 0
174 196 0
174 197 0
174 198 0
170 194 0
172 195 0
175 197 0
173 197 0
172 195 0
174 198 0
174 198 0
174 197 0
173 197 0
173 197 0
175 198 0
174 197 0
171 196 0
173 196 0
173 197 0
175 198 0
174 197 0
172 196 0
173 197 0
174 197 0
174 198 0
172 196 0
172 196 0
173 196 0
171 194 0
173 196 0
173 197 0
171 195 0
172 196 0
173 196 0
173 196 0
173 197 0
173 197 0
172 196 0
171 194 0
172 195 0
173 196 0
173 197 0
171 195 0
173 196 0
174 197 0
174 198 0
172 196 0
174 198 0
173 197 0
173 197 0
174 197 0
175 198 0
174 198 0
172 197 0
172 196 0
174 197 0
171 195 0
173 197 0
174 197 0
173 197 0
174 197 0
172 196 0
175 197 0
171 195 0
174 197 0
175 197 0
174 196 0
172 195 0
170 194 0
174 197 0
172 195 0
173 197 0
174 197 0
173 197 0
172 195 0
172 195 0
173 196 0
172 197 0
174 197 0
173 196 0
170 194 0
174 197 0
173 197 0
172 195 0
171 194 0
173 197 0
174 197 0
172 196 0
173 196 0
173 196 0
172 196 0
171 195 0
172 195 0
174 197 0
172 195 0
171 195 0
172 195 0
174 197 0
173 197 0
173 196 0
174 198 0
175 197 0
173 196 0
174 197 0
172 196 0
173 197 0
146 170 100
82 114 169
61 98 180
61 98 178
62 99 179
62 99 181
62 99 181
62 99 181
61 98 181
62 99 181
61 99 181
61 99 181
62 100 181
62 99 181
61 98 181
62 99 181
61 99 181
62 99 181
62 99 181
61 99 181
62 99 181
61 98 181
61 99 181
61 99 181
61 99 181
61 99 181
62 99 181
62 99 181
61 99 181
62 99 181
61 99 180
61 98 181
62 99 181
61 99 181
61 98 181
62 99 181
61 98 181
61 99 181
62 99 181
61 99 181
61 99 181
61 98 181
61 99 181
62 99 181
61 99 181
62 99 181
61 98 181
61 99 181
62 99 181
61 99 181
61 99 181
62 99 181
61 99 181
61 99 181
61 98 181
62 99 181
61 98 181
61 99 181
61 99 181
61 98 181
61 99 181
61 99 181
61 99 181
61 99 181
61 99 181
61 99 181
61 99 180
61 99 181
62 99 181
62 99 181
61 99 180
61 99 181
61 98 180
62 99 180
62 99 181
62 99 179
62 99 180
62 100 181
61 98 180
62 99 180
62 99 180
61 98 178
62 99 180
61 98 178
61 98 178
62 98 178
61 98 177
61 97 175
62 98 177
61 97 175
61 98 177
61 97 175
65 100 171
118 145 137
168 191 36
167 190 0
169 190 0
172 195 0
171 194 0
171 193 0
169 192 0
171 194 0
171 195 0
171 195 0
174 197 0
169 192 0
172 195 0
172 195 0
171 194 0
172 196 0
160 178 25
126 121 61
121 116 61
125 120 60
140 135 75
140 135 75
146 140 73
136 130 77
139 134 76
145 141 81
141 136 79
146 141 87
146 141 85
141 137 83
145 141 82
150 146 91
131 128 77
148 144 91
149 146 91
144 141 89
145 140 89
142 139 88
143 140 91
146 142 88
148 145 95
144 141 94
152 149 96
140 138 90
141 139 94
152 148 96
144 142 96
148 146 98
143 140 93
152 150 100
151 149 101
150 148 100
152 149 100
159 156 103
150 149 102
148 146 99
148 146 100
160 157 105
158 155 105
158 155 103
164 161 107
163 159 105
152 151 102
158 156 105
165 162 108
161 158 105
155 154 104
157 155 104
168 164 109
162 160 107
160 158 107
159 156 105
167 164 110
162 159 107
163 161 107
168 166 111
167 165 110
165 162 108
162 160 107
171 167 111
160 158 106
168 165 110
171 168 111
171 168 111
168 165 109
170 167 111
167 165 109
168 164 108
167 165 110
171 168 112
174 170 112
172 168 112
174 170 113
170 167 111
173 169 112
172 169 112
173 170 113
173 169 112
173 170 112
169 167 110
169 167 112
173 168 110
172 168 109
170 166 109
171 168 112
169 165 109
168 165 109
169 165 109
172 168 110
173 170 110
168 165 109
172 169 111
171 167 108
169 165 108
170 167 110
171 167 109
172 168 109
170 167 109
167 163 107
167 164 108
172 168 109
170 166 108
175 170 108
171 167 108
169 165 108
163 160 106
168 164 106
166 162 106
167 164 105
164 160 103
168 164 106
170 166 108
168 164 104
164 159 100
163 158 101
166 162 104
164 160 101
165 159 103
165 159 101
166 161 101
165 159 100
161 156 99
158 154 98
164 159 99
161 156 97
167 161 103
158 153 95
157 152 95
166 159 98
160 154 96
159 155 93
159 153 95
151 146 87
155 148 86
158 152 91
154 148 90
160 153 92
155 149 90
158 151 90
161 155 91
153 147 86
151 145 81
152 146 83
149 142 82
136 130 70
143 137 74
132 128 71
143 138 72
126 123 62
172 191 25
176 198 0
174 197 0
173 196 0
174 197 0
174 197 0
171 194 0
173 196 0
173 196 0
174 197 0
171 194 0
174 197 0
173 196 0
171 195 0
173 196 0
174 198 0
173 197 0
175 198 0
172 196 0
174 197 0
173 196 0
171 195 0
173 195 0
175 198 0
173 197 0
172 196 0
174 197 0
173 197 0
175 198 0
173 196 0
172 196 0
172 195 0
172 196 0
174 197 0
172 196 0
174 198 0
173 197 0
172 196 0
173 196 0
172 196 0
174 197 0
175 198 0
172 195 0
173 196 0
173 197 0
173 196 0
174 197 0
175 197 0
174 197 0
173 197 0
173 196 0
173 197 0
171 195 0
172 196 0
172 195 0
173 196 0
174 198 0
172 195 0
171 195 0
172 196 0
173 197 0
174 197 0
172 195 0
172 195 0
172 196 0
172 196 0
171 195 0
172 195 0
175 198 0
174 198 0
173 197 0
171 194 0
174 197 0
174 197 0
175 198 0
172 196 0
173 196 0
173 196 0
175 198 0
173 196 0
175 198 0
173 196 0
175 198 0
174 198 0
173 197 0
173 197 0
174 197 0
172 196 0
172 196 0
174 197 0
174 198 0
173 196 0
174 197 0
172 196 0
174 197 0
174 196 0
173 196 0
174 197 0
171 194 0
170 194 0
174 197 0
172 195 0
173 196 0
171 195 0
173 195 0
174 197 0
172 195 0
173 196 0
175 197 0
171 194 0
174 196 0
172 195 0
173 196 0
172 196 0
171 194 0
171 195 0
172 196 0
174 197 0
171 195 0
173 197 0
173 196 0
172 195 0
172 195 0
171 195 0
173 195 0
172 196 0
173 197 0
174 196 0
174 197 0
173 195 0
173 197 0
167 190 0
173 197 0
174 197 0
171 194 0
160 183 74
114 140 143
62 99 180
62 99 180
61 98 178
62 99 180
62 99 179
61 99 181
61 98 181
61 99 180
61 99 181
61 99 181
62 99 181
62 99 181
62 99 181
61 98 181
62 99 181
62 99 181
62 99 181
61 98 181
61 99 181
61 98 181
62 99 181
61 99 181
62 99 181
62 99 181
61 99 181
61 99 181
62 99 181
62 99 181
61 98 181
62 99 181
62 99 181
62 99 181
61 99 181
61 99 181
61 99 181
61 99 181
62 99 181
61 98 181
61 98 181
61 98 181
61 99 181
61 99 181
61 99 181
61 99 181
61 99 181
62 99 181
61 98 181
61 99 181
61 99 181
62 99 181
61 98 181
62 99 181
62 99 181
61 99 181
61 98 181
61 99 181
61 99 181
61 99 181
62 99 181
61 99 181
61 99 181
62 99 181
62 99 181
62 99 181
61 99 181
61 99 181
61 99 181
61 99 180
61 99 181
61 99 180
61 99 181
62 99 181
61 99 181
62 99 180
61 98 178
61 99 179
62 99 181
62 99 180
61 98 176
62 99 181
62 99 181
62 99 179
62 99 180
62 98 179
61 98 178
62 99 178
62 99 178
61 97 172
61 98 178
62 99 179
61 97 174
62 99 179
62 99 179
61 98 176
76 108 166
148 171 99
171 195 0
172 195 0
174 197 0
173 196 0
172 195 0
172 195 0
172 195 0
173 196 0
172 195 0
174 196 0
173 196 0
173 197 0
173 197 0
171 195 0
130 136 41
131 125 62
138 132 72
132 127 65
129 124 67
138 132 73
145 140 78
138 134 75
146 141 82
135 131 73
142 138 80
144 138 81
139 135 79
143 138 83
145 140 88
143 140 91
143 139 88
140 137 85
148 145 92
138 135 86
142 138 90
137 135 87
143 141 89
136 134 86
148 144 94
149 145 94
152 148 96
149 146 97
147 144 95
150 147 99
143 141 94
143 142 94
151 148 98
141 140 94
155 152 99
152 149 101
154 152 102
156 154 104
158 154 102
155 152 103
157 154 103
151 148 101
155 153 104
159 157 106
153 151 101
158 155 104
159 156 104
149 148 102
156 154 105
157 155 104
157 155 104
163 161 108
162 160 106
162 159 107
158 157 107
164 161 107
162 159 107
163 159 106
165 162 108
168 165 110
168 164 109
167 164 109
170 168 112
165 161 107
164 161 107
170 167 112
172 168 112
171 168 112
170 166 110
163 160 108
168 166 112
166 163 109
163 161 108
170 167 111
165 162 107
172 168 112
171 168 111
174 170 113
172 168 111
171 168 112
174 170 113
171 167 109
172 169 113
175 171 112
176 171 112
170 167 110
174 170 111
169 166 110
173 169 111
174 169 110
170 166 110
171 167 111
174 170 112
172 167 109
169 166 108
174 170 110
174 169 109
170 166 107
173 168 109
170 166 106
168 164 106
169 165 106
170 165 106
174 169 110
171 168 110
168 164 108
174 169 110
171 167 109
172 168 108
170 165 105
170 166 105
169 164 106
168 164 106
169 165 107
167 163 106
167 163 106
163 159 101
167 163 101
167 161 103
163 158 100
171 166 104
166 162 105
161 156 99
161 155 95
165 160 99
162 156 95
168 163 102
164 158 97
160 155 97
165 159 97
162 156 97
160 154 95
153 149 90
165 159 99
165 159 97
162 157 95
162 156 95
153 148 85
154 149 90
151 146 87
160 155 93
154 148 88
155 149 86
160 153 91
149 143 84
147 141 75
143 138 78
137 131 72
135 130 72
133 126 70
138 133 71
124 118 64
129 125 64
162 177 32
174 197 0
173 195 0
171 194 0
172 196 0
174 196 0
173 195 0
174 197 0
171 195 0
174 197 0
172 196 0
172 196 0
175 198 0
171 195 0
174 197 0
173 197 0
173 196 0
172 195 0
172 196 0
172 196 0
174 197 0
173 196 0
170 192 0
173 196 0
175 198 0
174 197 0
175 197 0
174 197 0
174 197 0
171 195 0
172 196 0
173 196 0
175 198 0
175 198 0
174 197 0
173 197 0
170 194 0
174 197 0
172 195 0
174 197 0
172 196 0
171 195 0
173 196 0
173 197 0
174 198 0
172 196 0
173 196 0
173 197 0
174 197 0
173 196 0
173 196 0
174 198 0
173 197 0
172 196 0
173 197 0
174 197 0
173 197 0
173 196 0
174 197 0
175 198 0
174 198 0
173 197 0
172 196 0
171 195 0
171 194 0
173 197 0
172 195 0
174 197 0
174 197 0
175 198 0
172 196 0
173 196 0
173 197 0
174 197 0
173 197 0
176 198 0
173 197 0
175 198 0
171 194 0
174 198 0
173 196 0
171 194 0
171 193 0
174 197 0
173 196 0
173 197 0
171 195 0
173 196 0
174 197 0
174 197 0
171 195 0
175 198 0
170 194 0
174 197 0
173 197 0
171 195 0
171 194 0
172 196 0
176 198 0
173 197 0
171 194 0
174 197 0
172 196 0
172 195 0
171 194 0
173 196 0
173 197 0
171 195 0
171 195 0
171 194 0
172 195 0
170 194 0
173 196 0
173 196 0
172 195 0
172 195 0
173 197 0
170 194 0
171 195 0
174 197 0
175 198 0
170 193 0
172 196 0
173 196 0
170 192 0
174 197 0
172 196 0
172 195 0
173 197 0
172 195 0
171 195 0
173 197 0
171 194 0
172 195 18
135 161 113
73 107 175
61 98 179
62 99 181
62 99 181
62 99 180
61 99 181
63 100 181
62 99 180
61 98 180
62 99 181
61 98 181
61 99 181
62 99 181
62 99 181
61 99 181
61 99 181
61 99 181
61 99 181
61 99 181
62 99 181
61 99 181
61 99 181
61 99 181
61 98 181
62 99 181
61 98 181
61 99 181
61 99 181
61 99 181
62 99 181
61 99 181
61 99 181
62 99 181
61 99 181
61 99 181
61 99 181
62 99 181
62 99 181
61 99 181
61 99 181
61 99 181
61 98 181
62 99 181
61 99 181
61 99 181
61 98 181
62 99 181
62 99 181
61 99 181
61 99 181
61 99 181
61 98 181
61 99 181
61 99 181
62 99 181
62 99 181
62 99 181
61 99 181
61 98 181
61 99 181
62 99 181
62 99 181
61 98 180
61 99 181
61 98 180
61 99 180
61 99 181
62 99 181
61 98 181
61 99 181
62 99 181
61 99 181
62 99 181
62 99 181
61 99 181
62 99 179
62 99 181
61 98 180
62 99 180
61 99 181
62 99 180
61 98 178
62 99 179
61 98 178
61 98 180
62 99 181
62 99 178
62 98 177
62 98 178
62 99 179
61 98 178
62 99 180
61 97 173
62 98 176
61 98 175
62 98 176
62 99 180
62 98 175
115 140 135
167 191 45
173 196 0
174 197 0
171 193 0
171 194 0
172 195 0
172 194 0
173 195 0
172 195 0
173 196 0
174 196 0
172 195 0
165 187 16
131 127 54
125 121 56
135 130 63
135 131 69
142 137 75
141 134 76
141 136 74
145 140 82
138 134 78
143 138 79
150 145 86
143 139 81
143 138 88
139 136 82
136 133 77
140 136 85
145 141 89
141 137 86
145 141 90
148 145 94
149 145 94
138 136 89
143 140 90
145 142 93
142 139 92
143 142 93
140 138 92
148 145 96
144 141 95
150 147 98
153 150 101
153 151 102
150 148 99
146 145 98
154 151 102
152 151 102
150 148 100
153 150 102
155 152 102
154 152 103
150 148 100
151 149 102
158 156 105
159 156 105
154 152 103
162 159 106
158 156 105
155 154 104
163 161 108
162 159 106
159 158 107
159 157 106
165 162 107
164 161 108
169 166 110
156 154 105
164 161 107
162 159 107
164 162 110
164 162 108
163 160 106
170 167 110
165 163 109
173 169 112
170 167 110
164 161 107
168 164 110
168 165 109
173 169 111
166 164 108
167 164 110
171 167 111
169 166 110
169 165 109
173 169 110
171 167 110
170 167 110
170 166 109
175 170 113
173 169 110
171 168 111
172 169 113
172 169 111
170 166 109
170 166 108
173 169 112
171 167 110
175 171 112
169 165 108
171 167 110
173 170 110
176 171 110
171 167 111
171 167 109
169 165 108
174 170 110
169 165 107
168 164 107
171 167 109
172 168 108
168 164 106
171 166 107
172 167 109
175 170 109
172 168 110
172 168 110
169 165 108
172 167 109
173 168 108
169 165 107
164 159 102
169 164 105
171 166 108
163 158 102
165 161 104
171 165 104
164 159 101
168 164 105
168 163 104
171 166 104
173 168 108
168 163 103
166 161 102
170 164 102
161 156 97
169 163 101
157 151 94
162 157 98
153 149 93
164 159 100
160 154 93
161 156 95
153 148 90
157 152 95
154 149 86
160 155 93
153 148 87
157 151 89
164 157 97
147 142 82
147 141 80
155 149 86
152 146 87
154 147 87
150 145 82
143 138 74
151 146 82
156 150 84
139 133 75
139 134 70
136 129 70
137 132 72
127 122 62
145 152 44
174 197 0
173 195 0
174 197 0
173 196 0
173 197 0
172 195 0
173 195 0
173 197 0
174 196 0
174 197 0
173 197 0
172 196 0
173 197 0
174 197 0
175 198 0
174 198 0
172 196 0
173 196 0
173 197 0
175 198 0
173 196 0
172 195 0
173 196 0
175 198 0
174 197 0
174 196 0
172 196 0
172 196 0
173 197 0
174 197 0
173 196 0
174 198 0
174 197 0
173 196 0
173 197 0
174 197 0
171 195 0
174 198 0
172 196 0
174 197 0
172 196 0
171 195 0
171 195 0
172 196 0
173 196 0
172 195 0
172 196 0
174 197 0
169 193 0
173 197 0
174 197 0
173 197 0
172 196 0
173 197 0
174 197 0
174 197 0
171 195 0
174 197 0
174 198 0
170 193 0
173 196 0
172 195 0
173 196 0
172 195 0
172 196 0
173 196 0
172 196 0
173 197 0
174 198 0
172 196 0
172 196 0
173 197 0
171 194 0
172 196 0
175 198 0
175 198 0
173 196 0
174 197 0
172 196 0
174 198 0
174 197 0
173 196 0
173 197 0
173 196 0
170 192 0
171 195 0
174 197 0
173 196 0
172 196 0
174 197 0
176 198 0
172 196 0
173 196 0
173 196 0
174 197 0
172 196 0
174 196 0
173 196 0
173 197 0
172 196 0
171 195 0
171 194 0
172 196 0
175 198 0
172 196 0
172 196 0
172 196 0
172 195 0
174 197 0
173 197 0
171 195 0
171 195 0
171 195 0
172 196 0
172 196 0
174 197 0
171 194 0
174 197 0
170 193 0
171 194 0
173 196 0
173 196 0
173 196 0
171 193 0
172 196 0
170 194 0
171 195 0
169 192 0
170 194 0
173 196 0
172 195 0
166 189 57
100 129 157
62 99 181
62 99 180
62 99 180
61 99 180
62 99 181
62 99 181
62 99 180
61 98 179
62 99 181
62 99 181
61 98 181
62 99 180
61 99 181
62 99 181
61 98 181
62 99 180
61 99 180
61 98 181
62 99 181
61 98 181
62 99 181
61 99 181
62 99 181
61 99 181
61 99 181
61 99 181
62 99 181
62 99 181
62 99 181
62 99 181
61 98 181
62 99 181
61 99 181
62 99 181
62 99 181
62 99 181
61 98 181
61 99 181
62 99 181
62 99 181
61 99 181
61 99 181
62 99 181
61 98 181
61 98 181
61 99 181
61 98 181
62 99 181
61 99 181
61 98 181
62 99 181
61 98 181
62 99 181
61 99 181
61 99 181
61 99 181
61 99 181
62 99 181
61 99 181
61 98 181
61 99 181
62 99 181
61 98 181
61 99 181
62 99 181
62 99 181
61 98 181
62 99 181
61 99 181
62 99 181
61 98 179
61 99 181
61 99 180
62 99 180
62 99 179
61 98 179
62 99 181
61 99 180
61 99 181
61 98 179
62 99 180
62 99 179
61 98 178
62 99 181
61 98 178
62 99 180
61 98 179
62 99 179
62 99 178
62 98 179
62 99 180
62 99 180
62 98 176
61 96 172
62 98 176
62 99 179
62 98 175
61 97 174
61 98 176
61 97 176
67 101 169
143 167 103
174 197 0
170 192 0
171 194 0
173 195 0
172 195 0
170 193 0
172 195 0
172 195 0
172 195 0
171 193 0
147 161 32
128 123 62
136 129 73
142 136 75
141 135 65
134 130 71
138 133 75
132 127 67
136 131 72
131 129 76
131 126 71
143 138 82
133 130 78
145 141 85
141 138 85
149 145 88
146 143 89
142 139 88
138 135 87
145 142 87
131 129 84
141 139 90
151 147 95
135 133 88
142 140 92
144 141 94
140 137 89
147 144 93
152 148 98
145 143 94
154 150 99
144 141 94
139 138 93
142 140 94
147 144 96
148 146 98
149 147 99
146 143 97
154 151 101
159 156 104
149 147 99
146 145 99
156 153 103
160 157 106
154 152 102
156 153 102
158 155 103
157 155 104
159 156 105
162 158 106
154 151 101
158 157 106
159 156 105
161 159 107
163 161 108
156 154 105
165 162 109
173 169 112
166 162 107
165 162 109
168 164 109
166 163 109
160 157 105
166 163 109
161 158 106
166 164 110
168 165 110
163 161 108
170 167 111
167 164 110
166 163 109
170 167 111
171 168 111
169 167 111
170 166 110
165 162 108
175 171 113
169 166 109
173 170 112
176 171 113
174 170 113
169 166 110
175 171 111
174 170 112
174 170 111
173 169 110
171 168 111
175 171 113
174 169 109
175 170 111
170 167 110
175 170 110
174 169 110
170 166 108
171 168 109
165 162 106
171 167 108
168 164 106
173 169 110
171 167 109
175 170 112
168 165 108
174 169 108
172 168 108
175 171 110
170 167 109
169 165 107
175 170 109
166 163 105
172 167 109
173 168 108
169 164 105
170 166 106
172 167 107
167 162 106
163 159 100
165 161 101
168 164 106
168 163 104
167 162 101
165 160 104
161 157 95
166 161 103
164 160 99
170 164 103
162 158 101
157 153 98
164 159 99
160 155 97
162 156 96
166 160 103
165 158 95
163 157 99
163 158 96
160 155 97
159 152 93
159 154 93
156 151 90
154 149 86
153 148 87
155 149 88
156 150 89
147 142 84
155 149 84
149 143 85
162 154 90
147 140 82
152 145 80
141 136 77
145 139 75
146 140 80
144 139 77
140 134 73
133 127 70
137 134 61
173 196 0
171 195 0
173 197 0
173 195 0
172 196 0
173 197 0
173 196 0
174 197 0
170 194 0
172 195 0
173 196 0
175 197 0
172 196 0
173 197 0
175 197 0
172 196 0
172 196 0
173 197 0
172 196 0
174 197 0
175 198 0
172 196 0
172 196 0
173 196 0
173 197 0
172 196 0
171 195 0
174 197 0
173 197 0
173 196 0
174 197 0
171 195 0
173 197 0
173 197 0
174 197 0
173 196 0
174 197 0
173 197 0
173 197 0
174 197 0
172 195 0
173 197 0
172 196 0
173 196 0
174 197 0
174 197 0
175 197 0
175 198 0
174 197 0
173 197 0
174 197 0
171 194 0
174 198 0
173 197 0
173 197 0
173 196 0
173 196 0
174 197 0
174 197 0
174 197 0
170 194 0
173 195 0
170 194 0
175 198 0
172 195 0
172 195 0
173 196 0
172 195 0
173 197 0
173 197 0
172 196 0
174 197 0
173 196 0
172 196 0
172 196 0
172 196 0
171 195 0
172 196 0
171 195 0
175 198 0
174 198 0
175 198 0
173 197 0
170 193 0
173 196 0
174 197 0
173 196 0
171 195 0
171 194 0
173 197 0
173 196 0
169 193 0
171 194 0
173 197 0
173 197 0
169 193 0
173 197 0
174 196 0
174 197 0
171 194 0
170 193 0
174 197 0
169 193 0
173 196 0
175 198 0
174 197 0
173 196 0
172 196 0
173 196 0
173 196 0
172 196 0
172 195 0
174 197 0
174 196 0
173 197 0
172 195 0
173 196 0
173 196 0
170 193 0
174 197 0
174 197 0
174 197 0
171 194 0
174 197 0
169 194 0
172 195 0
172 195 0
173 196 0
174 197 0
173 196 0
142 167 108
78 111 172
62 99 181
62 99 179
61 99 180
61 98 179
62 99 181
61 99 180
62 99 181
62 99 181
62 99 181
62 99 181
62 99 181
62 99 181
61 98 181
62 99 181
61 99 181
62 99 181
61 98 181
62 99 181
62 99 181
61 99 181
61 99 181
62 99 181
61 99 181
61 99 181
62 99 181
61 99 181
61 99 181
61 98 181
62 99 181
61 98 181
61 99 181
61 98 181
61 98 181
62 99 181
62 99 181
62 99 181
62 99 181
62 99 181
61 99 181
61 98 181
61 99 181
61 98 181
61 99 181
61 99 181
61 99 181
61 98 181
62 99 181
61 99 181
62 99 181
62 99 181
61 99 181
62 99 181
62 99 181
61 99 181
61 98 181
62 99 181
61 98 181
61 99 181
62 99 181
61 99 181
62 99 181
62 99 181
62 99 181
61 99 181
62 99 181
61 99 181
62 99 181
62 99 180
61 99 181
62 99 181
62 99 181
62 99 181
62 99 181
62 99 180
61 99 181
62 99 180
62 99 181
61 98 178
62 99 180
60 98 179
61 98 179
62 99 178
62 99 178
61 98 178
61 98 177
62 99 181
62 99 180
62 99 180
61 98 180
62 98 176
62 99 180
62 99 179
62 98 177
62 99 180
62 98 177
61 98 174
61 98 174
61 98 175
62 98 175
61 98 176
60 96 170
61 96 172
61 97 174
122 146 130
166 189 36
170 193 0
171 195 0
170 193 0
169 191 0
174 197 0
170 193 0
172 195 0
171 193 0
143 148 49
127 121 60
139 134 67
128 124 62
148 142 75
145 138 79
138 133 73
139 134 75
141 136 76
144 139 81
141 136 80
134 129 79
135 131 79
133 129 79
151 145 89
141 137 85
137 134 85
140 137 91
137 135 85
142 139 90
146 144 95
136 135 86
144 141 91
137 135 89
134 132 87
149 145 96
133 132 87
141 140 96
143 141 94
140 138 94
147 143 95
142 140 95
146 145 98
146 144 97
145 142 94
147 145 97
151 148 100
134 132 89
148 147 101
150 148 100
147 145 99
153 150 102
147 146 99
153 151 102
152 151 103
156 154 105
152 151 102
157 154 104
159 157 105
154 152 103
157 155 104
161 158 106
155 154 105
160 158 106
160 158 105
165 162 108
157 155 104
161 159 106
161 158 106
168 165 110
165 163 109
168 164 108
167 163 107
169 166 111
168 165 109
167 164 110
172 168 110
164 161 108
170 167 110
168 165 110
169 166 111
173 169 111
168 165 110
168 165 108
173 169 110
173 168 111
171 168 111
171 168 111
174 170 113
171 167 108
172 169 111
174 170 112
175 170 112
169 166 109
174 170 111
175 170 110
173 169 110
173 169 112
176 170 110
172 168 109
175 170 110
176 171 112
174 170 110
173 168 110
174 170 112
174 169 109
174 169 110
173 168 109
173 169 110
171 166 109
174 170 109
175 170 110
172 168 109
168 164 104
170 165 108
175 170 108
168 163 103
169 165 107
175 170 112
166 162 104
166 161 104
169 163 104
168 163 101
164 160 104
164 159 104
168 163 105
172 167 108
164 160 103
166 161 102
157 153 97
176 170 106
167 162 101
166 161 101
168 162 101
168 162 100
158 153 95
163 158 100
162 156 95
171 165 101
171 165 104
166 161 98
169 163 101
160 155 93
162 157 95
160 154 97
165 159 97
161 155 92
157 151 91
165 159 96
147 141 87
158 151 89
153 148 90
159 153 90
150 144 83
153 147 85
149 143 85
147 142 79
150 144 84
147 141 78
147 141 72
147 140 81
137 132 69
133 127 71
134 128 69
135 129 70
162 177 34
175 197 0
173 196 0
172 195 0
175 198 0
172 195 0
172 195 0
173 197 0
175 198 0
174 197 0
173 197 0
173 197 0
174 198 0
175 198 0
173 197 0
172 197 0
174 197 0
173 196 0
174 197 0
175 198 0
174 197 0
173 197 0
173 196 0
173 197 0
174 198 0
174 198 0
174 198 0
174 197 0
174 198 0
172 196 0
174 196 0
172 196 0
175 198 0
172 195 0
171 194 0
171 195 0
173 196 0
173 196 0
174 197 0
172 196 0
173 197 0
175 197 0
173 196 0
174 197 0
172 196 0
175 198 0
174 198 0
171 195 0
174 197 0
173 197 0
172 195 0
172 195 0
173 197 0
174 198 0
173 197 0
172 196 0
173 197 0
174 198 0
174 197 0
173 196 0
170 194 0
174 197 0
171 194 0
173 196 0
173 196 0
172 196 0
174 198 0
171 195 0
174 197 0
172 196 0
174 198 0
173 197 0
172 196 0
173 196 0
175 198 0
170 194 0
172 195 0
172 195 0
170 193 0
171 195 0
171 194 0
171 195 0
171 195 0
172 195 0
172 195 0
175 198 0
170 194 0
175 198 0
174 197 0
173 196 0
173 196 0
172 195 0
173 196 0
174 197 0
173 197 0
173 197 0
173 196 0
173 197 0
172 196 0
173 197 0
173 197 0
172 194 0
173 195 0
175 198 0
171 194 0
170 193 0
170 193 0
171 194 0
172 195 0
172 195 0
171 195 0
172 196 0
173 196 0
172 196 0
173 196 0
172 196 0
173 195 0
172 195 0
172 196 0
172 196 0
173 196 0
172 195 0
172 195 0
173 196 0
172 194 0
171 194 0
170 194 0
173 196 0
174 197 18
113 140 145
61 99 181
62 99 179
62 99 180
62 99 180
62 99 179
62 99 180
62 99 179
62 99 181
62 99 181
62 99 181
62 99 181
62 100 181
62 99 181
61 99 181
61 99 181
61 99 181
61 99 181
61 99 181
62 99 181
61 99 181
61 98 181
62 99 181
61 99 181
61 98 181
61 99 181
61 99 181
61 99 181
61 99 181
62 99 181
62 99 181
61 98 181
62 99 181
61 98 181
61 99 181
61 99 181
61 99 181
61 99 181
61 99 181
61 98 181
62 99 181
61 99 181
61 99 181
61 99 181
62 99 181
61 99 181
61 99 181
61 99 181
61 99 181
61 99 181
61 99 181
61 99 181
61 98 181
61 98 181
62 99 181
62 99 181
62 99 181
61 99 181
62 99 181
61 99 181
61 98 180
61 99 181
62 99 181
61 99 181
61 99 181
62 99 181
62 99 181
62 99 181
62 99 181
62 99 181
62 99 181
61 99 181
62 99 181
62 99 181
62 99 181
62 99 180
61 99 181
61 98 181
62 99 180
61 98 178
61 98 179
62 99 180
62 99 179
62 99 179
62 99 181
61 98 179
62 98 177
62 99 181
61 99 180
62 99 180
62 99 180
62 99 179
61 98 176
62 99 180
61 98 179
62 99 179
62 99 178
61 98 176
61 98 177
62 99 180
61 98 174
62 99 178
62 99 177
62 99 179
61 98 177
62 98 174
60 95 169
83 113 162
149 172 91
173 196 0
170 191 0
172 195 0
171 194 0
171 194 0
173 196 0
172 194 0
131 126 57
132 127 65
126 122 62
134 128 71
130 126 66
133 128 67
127 124 69
137 132 70
135 131 73
141 137 79
140 134 78
129 127 76
135 132 82
134 132 75
131 128 83
148 144 89
138 135 83
126 125 81
135 133 81
138 136 91
136 134 88
139 136 85
131 130 88
141 139 90
141 138 92
132 130 88
149 146 97
142 141 96
139 137 92
132 131 88
144 142 97
143 141 94
147 146 99
148 146 98
152 149 99
148 146 98
146 144 97
145 144 100
149 148 100
156 153 102
161 158 106
147 145 100
152 149 101
152 150 101
148 147 102
151 149 101
148 147 101
157 155 105
161 158 105
157 155 105
154 152 104
159 157 105
161 159 107
158 156 106
162 159 107
157 156 106
157 155 105
162 160 107
166 162 108
170 166 110
165 163 108
167 164 109
167 165 110
169 166 109
165 162 107
170 165 109
165 163 110
167 164 108
168 165 110
166 163 108
169 165 109
169 165 108
170 167 110
172 168 110
173 169 112
173 169 111
173 169 111
175 171 113
173 168 111
170 167 109
172 168 110
173 168 109
176 171 111
175 170 110
177 172 113
172 168 111
173 169 110
172 168 110
174 170 110
173 169 110
174 169 109
176 171 111
172 168 110
174 169 109
175 171 112
173 169 109
168 165 108
174 170 110
168 163 106
171 167 110
175 169 109
170 165 108
171 166 108
173 168 108
171 167 107
171 166 108
169 165 106
173 168 107
169 164 106
168 164 107
170 165 104
171 166 105
164 160 104
168 164 105
166 161 104
170 166 106
171 166 106
171 166 106
170 164 103
172 167 106
172 166 106
166 161 101
166 160 101
169 164 103
165 160 101
161 157 99
169 163 100
165 159 97
163 158 98
157 152 95
161 157 95
158 152 91
165 159 99
162 156 93
166 160 98
158 152 95
157 151 95
169 162 99
162 156 92
164 157 95
148 143 82
159 153 92
158 151 87
162 156 92
158 152 90
139 135 78
154 149 89
147 141 84
139 134 76
144 138 77
137 132 72
147 142 76
140 134 73
134 128 67
126 120 61
156 167 45
174 198 0
174 197 0
175 198 0
171 195 0
173 196 0
173 196 0
172 196 0
173 196 0
175 198 0
173 196 0
172 196 0
174 197 0
172 196 0
173 196 0
170 194 0
175 198 0
174 197 0
173 197 0
173 197 0
172 195 0
173 197 0
173 196 0
174 198 0
173 195 0
171 195 0
172 196 0
173 197 0
172 196 0
173 196 0
173 196 0
174 198 0
174 197 0
172 196 0
175 197 0
174 197 0
174 197 0
175 197 0
171 194 0
174 197 0
173 197 0
173 196 0
174 197 0
173 197 0
173 196 0
174 197 0
174 197 0
173 197 0
174 197 0
172 195 0
173 196 0
174 197 0
169 194 0
173 196 0
175 198 0
173 197 0
174 197 0
175 198 0
173 196 0
175 197 0
172 196 0
174 197 0
174 197 0
176 199 0
174 196 0
175 198 0
174 197 0
172 196 0
172 196 0
172 196 0
175 198 0
174 197 0
172 196 0
174 197 0
173 197 0
172 197 0
170 194 0
175 198 0
172 196 0
173 197 0
174 197 0
170 195 0
171 194 0
175 197 0
172 195 0
170 194 0
173 196 0
172 196 0
172 196 0
173 196 0
171 195 0
173 197 0
173 196 0
172 195 0
173 196 0
174 197 0
172 196 0
172 195 0
174 198 0
172 195 0
171 195 0
171 195 0
171 193 0
171 194 0
171 195 0
174 197 0
173 196 0
175 198 0
172 196 0
173 196 0
171 195 0
172 196 0
174 197 0
173 196 0
171 196 0
171 196 0
172 196 0
173 196 0
173 196 0
171 195 0
174 196 0
172 195 0
174 197 0
171 195 0
172 195 0
172 195 0
174 197 0
165 190 51
87 118 167
61 99 179
62 99 179
62 99 181
62 99 180
62 99 181
62 99 180
63 100 181
61 99 181
62 99 181
61 98 181
62 99 181
62 99 181
62 99 181
62 99 181
62 99 181
61 99 181
61 98 181
61 99 181
62 99 181
62 99 181
61 99 181
61 99 181
61 98 181
62 99 181
62 99 181
61 99 181
61 98 180
61 99 181
61 99 181
62 99 181
62 99 181
62 99 181
62 99 181
62 99 181
62 99 181
61 99 181
61 99 181
61 99 181
61 99 181
62 99 181
62 99 181
61 99 181
61 99 181
61 99 181
61 99 181
62 99 181
61 98 181
62 99 181
62 99 181
62 99 181
61 99 181
61 98 181
61 99 181
61 98 181
62 99 181
61 98 181
61 98 181
61 99 181
61 99 181
61 99 181
61 98 181
61 99 181
61 99 181
61 99 181
61 99 181
62 99 181
62 99 181
61 99 181
61 99 181
62 99 181
62 99 181
61 99 180
62 99 180
62 99 181
62 99 181
62 99 181
62 99 181
62 99 181
62 99 179
62 99 179
62 99 180
61 99 178
61 98 178
62 99 180
62 99 181
62 99 181
61 99 179
61 98 176
60 97 179
62 99 180
61 98 178
62 99 178
61 99 180
62 99 179
61 98 178
62 99 178
61 98 175
62 98 176
62 99 177
62 99 178
61 98 178
62 98 176
61 97 173
61 97 173
61 98 175
60 96 172
62 99 177
61 97 172
65 99 170
140 163 99
168 190 0
173 197 0
169 193 0
173 196 0
173 195 0
154 170 36
121 116 57
135 128 67
142 136 68
125 122 61
140 136 74
142 137 75
140 135 77
138 134 75
139 135 81
142 138 84
144 140 82
134 131 80
142 137 83
137 134 83
135 133 83
132 129 82
142 138 86
137 134 82
142 139 90
131 130 83
143 140 93
136 132 85
123 122 81
131 130 86
143 140 92
134 133 89
133 132 92
143 142 96
138 137 93
140 138 94
147 146 97
132 131 90
139 138 95
153 150 100
138 138 93
152 150 101
146 144 99
147 145 98
149 148 101
146 145 98
139 138 95
157 155 103
155 152 103
162 158 105
150 148 99
148 146 100
147 147 101
154 152 102
156 154 104
154 153 104
158 156 105
155 154 105
159 157 105
167 163 109
161 158 106
162 159 106
167 164 109
170 167 110
164 162 107
165 161 107
164 161 108
162 160 106
168 165 108
166 163 108
163 161 108
165 163 107
166 163 108
169 166 110
165 162 107
168 165 110
171 167 109
172 168 111
171 167 110
169 165 109
166 163 106
171 168 110
172 169 111
175 171 112
173 168 110
171 167 108
168 166 110
173 169 109
173 168 109
173 169 109
176 171 112
173 169 109
174 170 109
172 169 111
169 165 108
172 168 110
172 168 110
172 169 110
175 170 108
172 168 109
173 169 110
173 169 109
175 170 110
171 166 107
170 166 107
171 166 108
173 169 109
174 169 107
171 167 109
168 165 108
174 169 110
175 170 109
171 166 107
170 166 108
172 167 109
174 169 109
172 167 108
170 165 105
173 168 108
165 160 103
168 163 101
172 166 104
169 163 102
166 161 103
169 162 103
168 163 102
165 160 99
167 162 101
159 155 97
171 165 104
169 164 102
161 156 98
166 161 101
166 160 97
157 153 97
165 161 102
167 160 97
162 158 97
163 158 97
152 147 91
153 148 90
156 151 92
158 153 94
160 153 90
166 159 93
156 151 91
157 150 90
160 154 92
156 150 89
149 143 87
148 143 80
153 147 85
156 149 89
147 142 77
153 147 79
146 140 78
154 147 82
141 135 69
146 139 75
133 128 66
131 126 67
132 137 45
173 197 0
172 196 0
174 196 0
173 197 0
175 197 0
173 196 0
172 196 0
170 192 0
172 196 0
173 196 0
172 196 0
174 198 0
172 196 0
172 196 0
174 197 0
173 196 0
172 196 0
175 198 0
173 196 0
172 195 0
175 198 0
174 197 0
172 196 0
173 196 0
174 198 0
174 196 0
174 197 0
173 195 0
173 196 0
172 196 0
172 196 0
174 197 0
171 195 0
174 196 0
172 195 0
174 196 0
175 198 0
173 196 0
174 198 0
172 196 0
174 197 0
176 199 0
171 195 0
171 195 0
173 196 0
172 196 0
172 195 0
174 197 0
174 197 0
171 195 0
174 196 0
171 195 0
173 197 0
174 197 0
172 195 0
171 195 0
174 197 0
175 197 0
173 196 0
174 197 0
171 195 0
175 198 0
172 196 0
172 195 0
175 198 0
172 195 0
174 196 0
172 196 0
171 195 0
173 196 0
171 194 0
173 195 0
174 197 0
173 197 0
174 197 0
173 197 0
175 198 0
174 197 0
173 196 0
172 196 0
172 197 0
171 195 0
171 195 0
171 195 0
174 198 0
175 198 0
173 196 0
173 196 0
173 196 0
173 196 0
174 197 0
173 196 0
172 195 0
171 195 0
172 196 0
173 196 0
172 195 0
174 196 0
172 195 0
171 193 0
172 194 0
171 195 0
172 196 0
173 196 0
173 195 0
174 197 0
172 195 0
175 197 0
169 192 0
172 195 0
171 195 0
173 196 0
172 195 0
170 194 0
176 198 0
176 199 0
173 196 0
170 193 0
172 196 0
172 196 0
172 196 0
174 197 0
169 192 0
170 194 0
172 196 0
140 166 107
74 108 175
62 99 180
62 99 181
62 99 180
62 99 181
62 99 180
62 99 180
61 99 181
62 99 181
61 99 181
61 98 180
62 99 181
61 99 181
62 99 181
61 99 181
62 99 181
61 99 181
61 99 181
62 99 181
62 99 181
61 99 181
62 99 181
61 99 181
61 99 181
62 99 181
61 98 180
62 99 181
61 99 181
61 98 180
62 99 181
62 99 181
61 99 181
62 99 181
61 99 181
61 99 181
61 98 181
62 99 181
61 99 181
62 99 181
61 98 181
61 98 181
61 99 180
62 99 181
62 99 181
62 99 181
62 99 181
61 98 181
62 99 181
62 99 181
61 99 181
61 98 181
61 99 181
61 99 181
61 98 181
61 99 181
61 99 181
62 99 181
61 98 181
62 99 181
61 99 181
62 99 181
61 99 181
61 99 181
62 99 181
61 98 181
62 99 181
62 99 181
62 99 181
62 99 181
62 99 181
62 99 181
62 99 181
61 99 181
61 99 181
62 99 181
62 99 181
62 99 181
62 99 180
62 99 180
62 99 181
62 99 181
62 99 181
61 99 181
62 99 181
62 99 180
61 98 179
61 98 180
61 99 181
62 99 179
62 99 179
61 98 178
61 99 179
61 98 176
61 98 179
61 98 179
62 99 179
62 98 176
61 98 179
62 99 179
62 99 180
61 98 177
62 98 177
62 99 176
61 97 175
62 99 175
61 98 175
61 97 172
62 99 177
61 98 175
62 97 171
61 97 172
61 97 172
122 147 132
168 191 31
172 194 0
174 196 0
171 194 0
150 157 45
129 124 64
128 123 57
137 132 60
140 135 74
124 120 64
146 141 80
125 121 71
132 129 76
136 132 76
137 133 82
128 126 76
140 136 83
136 131 80
140 138 87
138 135 84
144 140 85
140 137 88
128 127 79
133 130 81
138 135 84
134 132 85
133 132 85
131 130 87
137 135 88
141 139 93
134 133 88
141 139 93
133 132 89
147 144 95
140 140 96
148 145 96
135 135 94
139 138 95
137 136 93
151 148 99
145 143 97
144 143 98
151 149 101
132 131 88
140 139 95
144 143 97
143 142 95
145 144 98
150 148 101
153 150 102
155 153 104
156 154 103
162 159 106
157 154 102
150 148 100
150 149 102
168 165 108
158 155 104
157 156 106
160 157 106
166 163 108
160 158 105
172 168 111
160 157 104
163 160 107
165 162 107
159 157 106
168 164 108
162 159 107
166 164 109
165 162 106
168 165 108
167 164 109
169 165 108
167 164 108
171 167 111
170 167 109
166 163 106
171 168 109
172 168 111
169 165 110
175 170 112
172 168 111
171 167 109
175 170 111
172 168 108
172 168 110
175 171 111
175 171 111
175 171 111
175 170 112
174 169 112
172 168 111
172 167 108
174 170 111
176 172 114
177 171 112
173 168 109
171 167 108
174 170 112
174 169 110
172 168 108
173 170 112
174 169 108
175 170 109
174 170 109
172 168 108
176 171 110
173 169 107
174 170 109
173 167 106
173 167 106
173 167 107
170 165 106
172 168 108
168 163 104
170 164 104
169 165 108
171 165 103
174 170 106
161 157 99
172 167 104
168 164 101
168 162 102
167 162 101
169 163 102
166 162 102
167 163 103
167 162 101
158 153 95
165 158 97
166 160 97
167 163 101
165 158 95
167 161 101
166 161 100
160 155 96
167 161 101
169 162 101
157 152 93
164 159 95
159 153 93
151 145 87
157 151 90
155 150 91
160 154 88
150 144 84
158 152 90
149 143 86
147 141 78
153 148 82
156 149 84
152 146 86
142 136 76
145 140 77
146 140 76
147 140 80
132 127 63
137 131 69
136 130 66
128 124 58
170 191 0
173 196 0
175 197 0
172 195 0
172 195 0
176 198 0
174 197 0
173 196 0
175 197 0
174 198 0
172 196 0
171 195 0
174 198 0
174 197 0
173 196 0
172 195 0
172 196 0
171 195 0
173 197 0
174 198 0
171 195 0
172 195 0
174 196 0
174 197 0
173 197 0
173 196 0
174 197 0
171 195 0
173 197 0
173 196 0
174 198 0
172 196 0
174 198 0
170 193 0
175 198 0
174 197 0
171 193 0
174 197 0
175 198 0
173 197 0
171 195 0
173 196 0
174 198 0
172 196 0
171 194 0
176 198 0
175 197 0
171 195 0
174 197 0
175 198 0
173 196 0
171 195 0
174 197 0
173 196 0
174 197 0
173 196 0
173 196 0
174 197 0
173 197 0
171 194 0
173 197 0
174 198 0
171 195 0
172 196 0
173 196 0
174 198 0
174 197 0
174 197 0
173 195 0
173 196 0
172 195 0
173 196 0
174 197 0
170 194 0
172 194 0
173 197 0
173 196 0
174 198 0
170 194 0
174 197 0
173 195 0
173 196 0
173 197 0
174 197 0
172 195 0
172 196 0
173 195 0
173 197 0
174 197 0
174 197 0
174 197 0
171 195 0
174 198 0
172 196 0
173 196 0
174 197 0
171 194 0
172 196 0
171 194 0
174 196 0
172 195 0
174 196 0
173 196 0
171 194 0
170 193 0
174 198 0
172 195 0
171 195 0
173 197 0
171 194 0
173 196 0
172 196 0
171 194 0
172 196 0
173 196 0
173 195 0
172 196 0
172 196 0
171 195 0
170 193 0
171 195 0
170 192 0
173 196 0
175 197 0
144 168 108
62 99 179
62 99 181
62 99 181
62 99 180
62 99 181
62 99 181
62 99 181
61 98 181
62 99 181
62 99 181
61 99 181
62 99 181
62 99 181
62 100 181
62 99 181
62 99 181
61 99 181
62 99 181
61 99 181
61 98 181
61 99 181
61 99 181
62 99 181
61 99 181
61 98 181
62 99 181
62 99 181
61 98 181
62 99 181
62 99 181
62 99 181
61 99 181
61 99 181
61 99 181
61 99 181
61 99 181
61 99 181
62 99 181
62 99 181
62 99 180
62 99 181
61 98 180
61 99 180
61 99 181
62 99 181
62 99 181
61 99 181
61 99 180
61 99 181
62 99 181
62 99 181
62 99 181
61 99 181
61 98 181
62 99 181
61 99 181
62 99 181
61 99 181
62 99 181
62 99 181
61 98 180
61 98 181
61 99 181
62 99 181
62 99 181
61 99 181
61 99 181
62 99 181
62 99 181
62 99 181
62 99 181
62 99 181
62 99 181
62 99 180
61 99 181
62 99 180
62 99 181
61 99 181
61 99 180
62 99 181
61 99 181
62 99 179
62 99 180
61 99 181
62 99 181
61 98 179
62 99 181
62 99 181
62 99 178
61 98 179
62 99 179
62 100 181
62 99 179
62 99 177
62 99 177
62 98 176
62 99 179
62 99 180
62 99 179
61 99 180
61 98 179
62 99 180
62 98 176
61 98 178
61 98 177
61 97 174
61 98 176
62 98 175
61 98 177
61 96 172
62 98 174
60 97 173
61 97 173
60 96 172
91 119 149
165 188 47
171 193 0
171 194 0
137 135 57
128 122 61
132 127 60
135 129 68
131 127 70
136 131 72
132 128 67
131 127 68
127 123 65
139 135 77
139 135 79
131 127 77
141 136 85
139 135 83
141 137 83
141 137 89
133 129 79
117 116 75
127 126 80
133 132 84
135 132 86
144 142 93
135 133 90
136 134 88
128 126 84
136 135 90
131 130 88
139 138 90
141 140 94
140 138 93
141 140 94
141 139 91
141 140 95
145 143 97
148 147 99
151 148 98
135 135 93
152 151 103
143 142 97
141 139 94
149 147 100
145 143 98
139 138 93
152 151 101
151 149 99
155 152 102
154 152 102
152 151 102
156 154 104
148 146 99
157 155 104
149 148 101
157 155 104
157 154 102
152 150 102
158 156 105
160 158 107
161 158 106
164 160 107
160 158 107
162 159 108
172 167 109
164 159 105
165 162 108
165 162 107
164 161 107
165 162 106
171 167 110
168 164 108
168 164 108
171 167 109
166 163 107
168 165 109
171 168 111
163 160 106
173 168 109
165 162 105
168 165 109
170 166 108
173 168 110
174 170 111
176 171 111
171 168 108
172 168 110
172 168 108
174 170 112
166 163 107
172 168 108
171 168 109
176 171 112
173 169 109
171 167 106
172 168 108
178 172 111
175 170 110
174 169 110
174 169 109
175 169 110
172 168 106
172 168 109
175 169 109
176 170 109
174 170 110
177 171 111
176 170 110
176 171 109
170 164 103
174 169 109
168 163 103
173 168 109
168 164 103
168 164 107
168 163 103
171 166 105
172 167 104
167 162 101
167 161 102
174 167 104
171 166 106
169 164 104
166 161 100
169 164 99
172 166 103
164 159 95
161 156 96
167 161 102
166 160 101
161 157 97
162 157 96
164 159 96
168 161 100
165 160 97
152 148 93
162 156 90
166 160 96
161 155 93
159 153 93
157 152 89
160 155 90
158 152 87
157 150 88
160 153 91
162 156 92
156 151 84
147 141 81
156 150 90
153 147 82
152 146 84
155 149 83
148 142 78
153 146 81
147 140 77
145 139 74
134 128 73
138 132 63
145 139 71
133 127 68
158 176 32
171 195 0
174 197 0
174 197 0
173 197 0
172 195 0
173 196 0
173 196 0
172 195 0
174 197 0
173 197 0
173 197 0
173 197 0
176 199 0
173 197 0
172 196 0
174 197 0
174 197 0
171 195 0
175 198 0
173 197 0
174 197 0
172 197 0
171 195 0
175 198 0
171 195 0
172 196 0
172 196 0
172 196 0
173 197 0
170 194 0
173 197 0
174 197 0
173 196 0
170 193 0
172 196 0
174 196 0
173 197 0
173 197 0
174 196 0
173 197 0
173 197 0
171 195 0
170 193 0
175 198 0
172 196 0
175 198 0
172 195 0
173 197 0
172 196 0
172 197 0
169 192 0
173 197 0
173 196 0
173 197 0
173 197 0
172 196 0
172 195 0
174 198 0
174 197 0
171 194 0
174 196 0
173 195 0
173 196 0
174 197 0
174 197 0
175 197 0
169 192 0
172 196 0
172 196 0
171 194 0
173 197 0
174 197 0
172 196 0
175 198 0
174 197 0
172 195 0
173 196 0
171 194 0
173 196 0
173 196 0
173 196 0
172 194 0
170 194 0
171 194 0
172 196 0
170 194 0
170 193 0
175 197 0
173 196 0
170 194 0
175 198 0
174 197 0
171 195 0
170 194 0
173 196 0
171 195 0
171 194 0
173 196 0
172 195 0
174 197 0
173 196 0
171 195 0
172 195 0
171 194 0
173 197 0
173 196 0
172 196 0
173 196 0
170 194 0
173 196 0
171 194 0
171 193 0
172 196 0
174 197 0
170 194 0
172 195 0
173 196 0
171 194 0
173 196 0
173 196 0
174 196 0
172 195 0
130 155 125
62 99 179
62 99 180
62 99 179
62 99 181
62 99 179
61 99 181
62 99 181
62 99 180
62 99 181
62 99 181
62 99 181
62 99 181
62 100 181
61 99 181
62 99 180
62 99 181
62 99 181
61 99 180
61 99 181
62 99 181
61 98 180
61 99 181
61 98 181
62 99 181
62 99 181
61 99 181
62 99 181
62 99 181
62 99 181
62 99 181
61 98 181
61 98 181
62 99 181
61 99 181
61 99 181
61 99 181
61 98 181
62 99 181
62 99 181
62 99 181
62 99 181
62 99 181
61 99 180
61 98 180
62 99 181
62 99 181
62 99 181
61 98 181
62 99 181
62 99 181
62 99 180
62 99 181
62 99 181
62 99 181
61 99 181
61 99 180
62 99 181
62 99 180
61 99 181
62 99 181
62 99 181
62 99 181
61 99 181
62 99 181
62 99 180
61 99 181
62 99 181
62 99 180
62 99 179
62 99 181
62 99 181
62 99 181
62 99 181
62 99 181
61 98 180
61 99 181
61 99 180
62 99 181
62 99 181
62 99 181
61 99 181
62 99 181
61 99 180
61 98 179
61 99 181
62 99 181
61 98 181
62 99 180
62 99 181
61 98 179
62 99 181
61 98 178
62 99 180
61 98 180
62 99 181
61 98 173
62 99 179
62 98 176
62 99 180
61 98 178
62 99 179
61 98 176
61 97 174
62 98 175
62 99 176
62 98 177
61 98 176
61 99 180
62 99 177
61 97 171
62 98 176
61 98 175
60 96 171
61 97 171
61 97 173
61 96 170
74 106 161
167 189 57
168 189 11
125 121 53
131 126 64
133 128 69
129 124 57
143 137 73
136 131 70
133 129 69
133 128 74
138 133 77
123 121 67
143 138 79
130 127 77
128 125 72
129 126 77
131 127 79
133 129 79
136 133 85
133 131 85
134 132 87
134 132 86
119 119 82
138 136 91
121 121 80
121 121 85
129 128 89
134 134 88
130 128 87
145 142 94
131 130 90
135 134 93
129 128 90
140 138 94
137 136 94
140 140 95
131 130 89
146 145 100
145 143 97
148 145 99
142 141 99
140 138 93
148 147 101
148 147 100
157 155 104
148 147 102
157 155 104
142 140 94
148 147 102
149 147 100
157 155 103
145 144 98
158 155 104
156 153 103
151 149 100
161 158 105
158 155 105
163 161 107
163 160 106
159 156 105
165 162 107
167 163 108
165 162 108
162 159 106
167 164 110
160 158 105
169 165 108
168 164 107
167 164 108
165 162 108
167 163 108
169 165 110
165 163 108
172 167 109
169 166 109
169 164 108
168 165 109
168 165 109
164 162 107
168 165 106
170 166 108
174 170 111
172 169 111
171 167 107
171 168 109
172 169 109
173 169 108
172 168 110
174 169 109
176 170 110
173 169 107
173 168 109
175 170 109
173 169 109
177 172 113
173 169 108
174 169 108
175 171 112
171 166 103
172 168 110
170 167 108
168 165 105
174 169 108
174 169 108
174 169 109
173 169 108
170 166 107
173 168 106
171 166 104
173 168 107
178 171 108
170 165 106
171 166 108
171 165 104
171 165 103
173 168 104
167 162 101
168 163 102
172 167 105
168 163 101
165 160 101
168 161 99
167 162 101
168 162 104
169 163 101
168 163 99
163 157 99
163 158 97
165 161 97
171 165 99
163 158 97
167 161 100
163 157 95
162 156 93
170 163 100
157 152 89
161 156 93
163 158 96
161 154 95
158 152 95
157 153 89
161 154 89
150 144 85
155 148 85
153 147 81
152 146 85
147 142 79
146 139 76
153 148 87
145 139 76
138 133 71
151 145 83
138 132 70
141 135 75
136 131 72
137 132 73
138 133 74
144 138 71
126 121 59
149 161 41
174 196 0
173 196 0
173 195 0
173 197 0
174 197 0
174 197 0
176 199 0
173 197 0
175 198 0
175 197 0
171 194 0
172 195 0
175 198 0
175 198 0
175 197 0
173 196 0
174 197 0
174 197 0
173 197 0
173 196 0
173 197 0
173 197 0
174 197 0
171 195 0
172 195 0
175 197 0
172 195 0
174 197 0
173 196 0
173 196 0
173 196 0
174 198 0
175 198 0
175 197 0
174 197 0
173 197 0
174 197 0
174 197 0
175 198 0
174 197 0
171 195 0
172 195 0
173 196 0
172 197 0
173 197 0
174 197 0
174 196 0
174 198 0
173 197 0
175 197 0
173 196 0
174 196 0
171 195 0
172 195 0
171 195 0
172 196 0
174 198 0
173 196 0
174 197 0
174 197 0
174 197 0
173 195 0
173 196 0
173 197 0
173 196 0
173 196 0
171 194 0
173 196 0
172 195 0
171 194 0
172 195 0
170 193 0
171 194 0
175 197 0
171 195 0
174 197 0
170 194 0
173 197 0
171 195 0
173 196 0
174 197 0
172 195 0
173 197 0
172 195 0
173 196 0
171 195 0
169 192 0
171 194 0
173 195 0
170 193 0
173 196 0
175 197 0
171 195 0
172 196 0
170 194 0
175 198 0
170 193 0
173 196 0
169 192 0
173 197 0
174 197 0
170 194 0
171 194 0
171 195 0
170 194 0
171 192 0
171 194 0
170 192 0
173 196 0
173 196 0
174 196 0
172 195 0
174 196 0
172 196 0
170 194 0
172 195 0
170 193 0
172 194 0
173 196 0
173 197 0
167 191 40
110 137 148
63 100 181
62 99 181
62 99 181
62 99 181
62 99 181
62 99 180
61 99 181
62 99 180
62 99 181
62 99 180
62 99 181
62 99 180
62 99 181
62 99 180
61 99 181
62 99 181
61 98 181
61 98 181
61 99 181
62 99 181
62 99 181
61 98 181
62 99 181
62 99 181
62 99 181
61 99 181
62 99 181
61 98 180
61 99 180
62 99 181
62 99 181
61 99 181
62 99 181
62 99 181
62 99 181
62 99 181
61 99 181
61 98 180
61 99 181
62 99 181
61 99 181
62 99 181
62 99 181
61 99 181
63 100 181
62 99 181
61 99 181
62 99 181
61 99 181
61 98 181
61 99 181
62 99 181
61 99 180
62 99 181
62 99 181
62 99 181
61 99 181
61 99 181
62 99 180
61 99 181
62 99 181
61 99 181
61 99 181
61 98 181
61 99 181
61 98 181
62 99 181
61 98 181
62 99 181
61 99 181
61 99 181
61 99 181
61 99 181
62 99 180
62 99 179
61 98 181
62 99 181
62 99 181
62 99 181
62 99 180
62 99 181
62 99 181
61 99 181
62 99 179
62 99 181
62 99 180
61 98 178
62 99 178
62 99 181
61 99 180
62 99 181
62 99 179
61 99 180
61 99 179
62 99 177
61 98 177
62 99 181
62 99 178
62 99 178
62 99 178
61 98 176
62 99 178
62 98 176
61 98 177
62 98 172
62 99 176
62 98 177
62 99 177
62 99 177
60 97 171
61 97 173
62 98 176
61 98 176
62 98 175
62 98 177
60 95 165
61 96 171
60 96 172
71 103 163
130 143 88
121 116 54
138 132 66
128 123 65
138 132 69
129 125 60
134 130 67
131 127 75
129 124 69
143 138 79
137 132 74
128 124 76
131 129 78
143 139 85
123 121 74
112 111 71
127 125 79
136 133 84
135 133 82
136 133 87
135 134 87
138 136 89
138 136 91
132 129 86
135 134 90
125 123 81
143 140 92
139 137 93
128 126 85
123 122 83
145 143 97
148 146 97
139 137 92
135 134 90
127 126 86
135 134 92
133 131 88
131 131 92
145 144 98
142 141 98
142 140 95
146 144 98
141 141 99
140 139 94
144 143 97
149 149 102
144 142 98
153 151 102
155 153 101
152 151 102
152 150 103
161 158 105
150 148 101
156 154 104
164 161 108
155 153 104
163 160 107
163 161 107
162 159 107
165 162 107
160 157 104
166 162 107
157 155 104
163 160 107
163 160 105
164 162 106
162 160 102
166 163 108
167 164 109
172 168 111
169 165 109
167 164 107
166 163 108
170 166 110
167 164 106
174 169 110
169 164 106
172 168 110
170 166 106
172 168 110
172 168 108
173 169 109
173 169 109
169 166 110
176 171 110
171 167 109
178 172 113
176 171 111
176 171 110
173 167 107
171 167 108
174 170 110
174 170 111
173 169 109
174 170 109
171 167 109
175 169 106
178 172 112
173 168 109
176 170 109
170 165 105
175 169 108
174 168 108
175 169 106
171 167 108
175 170 108
170 166 106
172 167 106
173 168 106
166 162 101
173 168 106
170 166 103
173 167 103
177 170 108
171 165 104
169 164 104
168 163 101
171 165 102
169 164 103
165 160 99
171 166 107
171 165 105
169 163 103
169 163 102
172 166 104
168 162 100
168 161 99
161 155 93
172 166 104
162 157 95
160 155 95
165 159 97
156 151 90
160 154 97
152 147 87
160 154 87
165 158 95
155 150 87
162 156 95
160 154 90
158 152 90
154 149 87
151 147 86
149 143 83
147 141 79
153 145 83
154 149 84
152 146 80
154 148 81
145 139 75
146 141 83
154 147 83
143 137 78
145 139 71
125 121 61
142 136 65
141 135 66
132 127 61
140 146 41
173 196 0
172 195 0
172 196 0
172 194 0
174 197 0
174 196 0
170 192 0
174 197 0
173 197 0
173 197 0
174 197 0
174 197 0
174 197 0
174 197 0
173 196 0
173 196 0
173 196 0
174 197 0
175 198 0
173 197 0
174 197 0
172 196 0
173 197 0
175 198 0
172 196 0
171 194 0
171 195 0
173 197 0
175 198 0
172 196 0
173 196 0
172 196 0
172 196 0
173 197 0
171 194 0
174 197 0
172 197 0
173 196 0
173 197 0
173 197 0
174 197 0
173 196 0
172 196 0
172 195 0
173 197 0
173 196 0
173 196 0
172 196 0
173 197 0
173 196 0
172 197 0
175 198 0
174 197 0
175 198 0
174 197 0
173 196 0
173 197 0
175 198 0
170 195 0
172 195 0
173 196 0
173 197 0
170 193 0
172 195 0
176 198 0
176 198 0
172 195 0
173 197 0
173 197 0
172 196 0
174 197 0
175 198 0
172 196 0
172 196 0
174 197 0
172 195 0
173 197 0
171 195 0
172 194 0
174 197 0
171 194 0
173 196 0
173 196 0
171 194 0
174 197 0
173 196 0
174 197 0
172 195 0
171 195 0
173 196 0
171 195 0
171 194 0
171 195 0
173 196 0
172 195 0
175 197 0
170 193 0
174 197 0
172 196 0
172 196 0
172 196 0
174 197 0
171 195 0
173 195 0
172 195 0
173 197 0
170 193 0
171 194 0
172 195 0
171 195 0
172 195 0
172 195 0
170 194 0
171 195 0
171 194 0
172 196 0
173 196 0
172 195 0
172 194 0
162 186 65
97 127 159
62 99 181
62 99 180
62 99 181
62 99 180
62 99 181
61 99 181
61 99 180
62 99 181
62 99 181
62 99 181
62 99 181
62 99 181
62 99 181
61 99 181
62 99 181
61 99 181
62 99 181
61 99 181
61 99 181
62 99 181
61 99 180
61 99 181
61 99 180
62 99 181
61 99 181
61 98 181
62 99 181
61 99 181
63 100 181
61 99 181
61 99 181
61 99 181
61 99 181
61 99 181
61 99 181
62 99 181
62 99 181
61 99 181
62 99 181
62 99 181
63 100 181
62 99 181
62 99 181
62 99 181
61 98 181
61 99 181
61 98 180
62 99 181
61 99 181
62 99 181
61 99 180
62 99 181
61 98 181
61 99 181
62 99 181
62 99 181
61 99 180
61 99 181
61 99 181
61 98 181
62 99 181
62 99 181
62 99 181
62 99 179
62 99 181
62 99 181
62 99 181
62 99 181
62 99 181
62 99 179
62 99 181
62 99 181
62 99 181
62 99 181
62 99 181
61 98 180
62 99 181
61 98 181
61 99 181
61 98 180
61 98 178
62 99 180
62 99 181
61 98 180
62 99 179
61 99 179
62 99 181
61 99 181
61 98 179
62 99 180
62 99 179
62 99 178
61 99 179
62 99 181
62 99 177
62 99 177
61 98 177
62 99 178
62 99 179
62 99 180
62 99 174
62 99 178
62 99 180
62 99 178
61 98 177
62 98 177
62 99 181
62 99 176
61 98 175
60 96 174
61 98 176
62 98 177
61 97 171
61 97 169
62 98 176
62 98 175
62 98 176
61 96 170
60 95 167
61 98 175
63 98 173
105 111 110
124 120 57
121 116 60
147 141 74
131 127 69
135 131 64
124 120 68
125 121 70
135 132 77
127 123 74
129 126 77
139 134 79
122 121 76
135 132 80
125 122 75
131 127 78
129 127 83
133 130 81
121 121 81
126 125 83
143 141 88
135 133 89
123 123 83
122 122 83
119 119 83
144 142 93
134 133 90
130 130 90
133 131 89
139 137 92
138 137 93
138 136 92
128 129 88
135 134 91
140 139 93
141 140 97
143 142 96
147 145 98
144 143 98
137 137 93
149 147 99
143 142 98
159 156 105
145 143 98
148 145 99
151 149 100
155 153 101
148 146 100
146 145 97
148 148 101
155 151 101
153 151 102
160 157 105
160 158 105
165 161 106
157 155 105
157 154 102
157 155 105
166 163 109
162 158 104
164 162 106
163 160 106
163 160 106
168 165 107
164 161 106
167 164 110
164 160 103
162 159 104
165 161 106
171 168 111
167 164 109
170 166 108
173 168 110
173 168 108
170 165 107
171 167 109
173 168 110
168 165 108
173 168 109
173 169 109
173 168 108
172 168 110
172 169 109
173 168 108
171 167 108
173 168 109
173 169 109
176 171 111
173 169 108
173 169 109
172 168 109
175 170 109
171 167 109
172 167 106
174 170 108
172 167 107
174 169 108
176 171 110
175 171 109
173 169 105
175 170 108
174 169 106
174 169 103
173 168 106
172 167 104
169 165 107
175 169 108
176 170 109
170 165 104
174 168 108
172 167 106
171 166 103
170 164 99
167 163 104
173 167 106
164 159 101
172 166 103
171 166 104
165 161 101
170 165 104
173 167 104
173 167 103
171 165 104
166 161 101
167 161 100
167 162 100
167 162 100
165 160 96
161 155 95
164 159 97
161 155 93
166 160 96
164 158 95
166 162 97
157 151 84
156 151 93
158 152 90
163 157 93
157 152 90
155 150 89
158 151 87
157 152 87
158 152 89
154 149 80
150 144 83
147 142 83
138 133 76
146 140 82
157 150 84
145 139 76
138 133 73
142 136 73
144 137 71
146 140 72
138 132 68
125 120 62
133 128 63
143 143 59
173 197 0
174 197 0
170 193 0
173 196 0
171 194 0
173 196 0
174 197 0
175 198 0
174 197 0
174 197 0
174 198 0
174 197 0
173 196 0
173 196 0
173 196 0
174 197 0
173 197 0
173 196 0
173 197 0
171 194 0
173 197 0
173 196 0
173 196 0
172 196 0
173 197 0
170 194 0
174 197 0
174 197 0
172 196 0
173 196 0
173 197 0
173 196 0
173 196 0
172 196 0
172 195 0
174 197 0
174 197 0
172 195 0
172 195 0
172 196 0
172 195 0
175 198 0
172 195 0
171 195 0
173 196 0
173 197 0
171 194 0
173 196 0
173 196 0
174 197 0
174 197 0
172 196 0
172 196 0
171 195 0
173 196 0
174 197 0
173 196 0
171 195 0
172 195 0
174 196 0
173 197 0
173 196 0
174 197 0
172 196 0
173 196 0
172 196 0
173 196 0
173 197 0
173 197 0
173 196 0
173 197 0
172 196 0
172 196 0
173 197 0
173 196 0
172 195 0
171 194 0
173 197 0
172 196 0
173 196 0
173 195 0
175 198 0
173 196 0
173 195 0
170 193 0
174 196 0
172 195 0
174 196 0
170 194 0
172 195 0
170 193 0
173 197 0
173 196 0
172 196 0
172 195 0
174 196 0
170 194 0
172 196 0
172 195 0
173 195 0
168 192 0
173 196 0
175 198 0
173 196 0
174 197 0
170 193 0
173 197 0
172 196 0
173 196 0
171 194 0
174 197 0
172 196 0
172 195 0
172 195 0
172 195 0
173 196 0
171 194 0
171 195 0
164 188 54
98 127 156
62 99 181
62 99 181
62 99 179
62 99 181
63 100 179
62 99 181
62 99 181
62 99 180
62 99 181
61 98 180
62 99 181
62 99 181
62 99 181
62 99 181
62 99 181
61 99 181
62 99 181
61 99 180
62 99 181
62 99 181
62 99 180
62 99 181
61 99 181
62 99 181
61 99 181
61 99 181
61 99 181
62 99 181
62 99 181
61 98 181
62 99 181
62 99 181
61 99 181
61 99 181
62 99 181
61 99 181
62 99 181
61 99 180
62 99 181
61 99 180
62 99 181
62 99 181
62 99 181
61 98 181
62 99 181
61 98 180
61 99 181
61 99 180
62 99 181
62 99 181
61 99 181
61 99 181
62 99 181
62 99 181
62 99 181
61 99 181
62 99 181
62 99 181
62 99 180
62 99 181
62 99 181
61 98 181
61 99 181
61 98 180
62 99 181
62 99 180
62 99 179
62 99 181
62 99 181
62 99 181
62 99 181
62 99 180
61 99 181
61 99 181
62 100 181
62 99 181
61 99 180
62 99 181
62 99 180
61 98 181
62 99 181
62 99 180
61 99 180
61 99 181
61 99 180
62 99 179
62 99 180
62 99 179
62 99 180
61 99 180
62 99 180
61 98 176
61 98 178
61 98 180
61 98 178
62 99 179
61 98 177
61 99 179
62 99 181
62 99 180
62 99 181
61 98 180
61 98 179
62 99 180
62 99 176
61 98 177
61 98 177
62 99 177
62 99 180
62 99 176
62 99 177
62 98 176
62 99 174
61 98 173
61 97 171
62 98 175
61 97 174
62 98 175
62 99 179
61 97 172
61 96 167
61 96 170
60 95 167
111 118 123
134 130 66
137 132 73
138 132 72
136 131 74
129 126 65
140 135 80
123 120 69
129 128 78
121 118 67
132 129 78
127 124 78
115 113 69
133 131 78
116 114 72
130 128 77
127 125 80
126 124 79
131 130 87
134 131 86
128 127 84
128 126 84
128 128 81
132 131 91
126 124 84
126 126 88
131 130 88
134 132 89
138 137 94
134 135 93
129 127 86
136 135 92
134 134 92
133 132 90
140 139 93
146 144 98
135 135 93
146 144 97
147 146 100
147 145 98
150 147 100
141 141 98
148 146 99
147 145 100
150 148 100
154 152 103
155 153 102
147 145 99
149 147 100
155 153 101
154 152 103
149 147 98
151 150 102
153 151 103
159 157 106
153 150 101
164 161 107
165 162 108
162 159 105
160 157 104
158 156 105
165 161 105
164 160 103
167 164 109
166 163 108
166 162 103
167 164 107
168 165 108
170 165 105
173 169 110
167 163 105
169 164 108
171 166 107
173 168 110
178 172 110
175 170 110
171 167 108
173 169 110
171 168 110
173 168 109
173 168 108
173 169 111
176 172 112
177 171 112
173 168 111
173 168 108
176 171 109
172 168 108
174 169 111
175 170 108
174 169 110
176 172 111
174 170 107
175 169 106
176 171 110
174 169 109
173 168 107
175 170 108
173 168 106
175 169 107
175 170 107
172 168 106
171 166 106
169 164 101
174 169 108
171 165 104
174 169 108
173 168 106
170 166 103
171 166 104
174 169 108
170 166 103
171 165 103
171 166 103
169 163 105
171 166 101
168 162 104
170 165 101
169 164 100
168 163 101
169 164 101
170 163 100
174 167 104
166 160 97
166 159 99
167 161 101
164 159 98
164 158 98
159 153 95
166 160 97
154 149 87
163 158 97
168 162 97
154 149 90
165 158 95
158 152 88
163 156 97
152 147 86
154 149 88
162 155 94
161 155 90
155 149 86
160 153 90
158 151 90
146 140 82
158 151 87
151 145 83
154 147 84
154 147 80
145 139 76
149 144 83
144 138 75
135 129 67
142 136 70
145 139 65
126 120 58
129 124 62
174 196 11
175 198 0
173 196 0
173 196 0
173 196 0
173 196 0
173 195 0
173 196 0
173 197 0
172 196 0
173 196 0
173 197 0
172 195 0
170 194 0
174 197 0
173 196 0
174 197 0
175 198 0
175 198 0
175 198 0
172 195 0
174 197 0
174 197 0
173 197 0
172 196 0
173 196 0
173 196 0
174 197 0
173 197 0
172 196 0
174 198 0
174 198 0
170 195 0
173 197 0
173 196 0
172 195 0
174 198 0
171 195 0
173 196 0
174 197 0
173 197 0
172 195 0
174 197 0
175 198 0
173 196 0
174 197 0
172 196 0
171 195 0
173 196 0
175 198 0
172 195 0
173 197 0
172 195 0
173 196 0
173 196 0
173 196 0
175 198 0
173 197 0
172 196 0
171 195 0
172 196 0
174 197 0
170 195 0
172 196 0
174 197 0
173 196 0
172 195 0
172 195 0
174 196 0
172 195 0
173 196 0
172 196 0
175 198 0
171 194 0
174 197 0
175 198 0
174 197 0
174 197 0
172 195 0
170 193 0
174 197 0
173 196 0
172 195 0
171 195 0
172 194 0
172 196 0
173 195 0
173 197 0
173 196 0
168 191 0
169 193 0
173 197 0
171 193 0
170 194 0
173 197 0
169 193 0
172 195 0
173 196 0
171 194 0
173 196 0
171 194 0
169 192 0
175 198 0
173 196 0
173 196 0
172 194 0
170 193 0
173 196 0
172 197 0
174 197 0
171 194 0
171 194 0
174 196 0
171 195 0
172 196 0
172 195 0
172 195 0
163 186 62
94 123 158
62 99 179
62 99 179
62 99 181
62 99 181
61 99 180
62 99 181
62 99 181
62 99 180
62 99 180
61 99 180
61 99 181
62 99 181
62 99 181
62 99 181
61 99 181
62 99 181
61 99 181
62 99 181
61 99 181
61 99 181
62 99 181
61 99 180
61 98 181
63 100 181
62 99 181
61 99 181
62 99 181
61 99 181
61 99 181
61 98 181
62 99 181
62 99 181
61 99 181
62 99 180
62 99 180
62 99 181
62 99 180
62 99 181
61 98 181
61 99 180
61 99 181
61 99 181
61 99 181
61 98 181
61 99 181
61 99 181
61 99 181
62 99 181
62 99 181
62 99 181
61 98 181
61 99 181
61 98 181
61 99 181
61 99 179
63 100 181
62 99 181
61 99 181
62 99 181
62 99 181
62 99 181
62 99 181
61 99 180
61 98 181
62 99 181
61 99 181
62 99 180
62 99 181
61 99 180
62 99 180
62 99 180
62 99 180
61 98 180
62 99 180
62 99 181
62 99 180
62 99 181
62 99 180
62 99 180
62 99 180
62 99 181
62 99 181
62 99 181
61 99 180
62 99 181
61 98 179
62 99 180
61 99 181
62 99 181
62 99 180
62 99 180
61 99 181
61 98 178
62 99 179
62 98 178
62 99 178
62 99 180
61 98 177
62 98 179
62 99 181
62 99 178
62 99 180
62 98 177
62 99 180
62 98 178
62 99 178
62 99 177
62 99 177
61 98 173
62 98 176
61 97 176
61 98 175
62 98 176
62 99 177
61 98 173
63 99 176
61 97 172
62 98 176
62 98 174
62 98 173
62 98 175
61 96 169
61 97 173
61 97 173
60 95 165
94 106 130
136 130 66
130 126 71
139 135 75
123 120 67
131 127 78
123 120 71
128 125 76
132 130 82
138 135 82
136 133 84
116 115 72
131 128 83
129 127 83
132 129 80
118 116 79
128 125 79
118 118 72
122 122 84
119 120 81
121 120 81
125 123 83
131 131 90
129 128 88
136 136 92
126 126 87
137 135 91
135 134 93
122 123 87
125 124 83
135 135 92
135 135 92
135 134 92
139 138 95
139 138 95
135 135 94
128 127 87
144 143 97
140 139 93
144 143 97
146 145 98
142 142 95
144 143 97
142 140 96
146 144 97
148 146 96
145 145 98
150 148 100
149 148 99
144 143 97
153 152 104
157 155 102
157 155 106
154 152 101
156 153 100
153 153 104
157 155 104
156 155 102
157 155 103
163 160 105
159 157 104
163 160 106
160 157 104
158 156 105
160 158 103
170 166 108
171 167 109
166 163 108
165 162 108
170 166 108
167 164 107
171 166 108
167 164 104
170 166 108
168 166 109
171 166 109
174 169 108
173 168 108
174 170 110
172 168 110
171 166 108
174 170 111
172 168 108
170 166 105
177 172 110
170 166 107
175 170 108
176 172 113
174 169 110
177 172 113
175 170 110
170 166 103
171 167 107
174 169 108
174 169 107
177 171 107
170 166 108
171 166 106
174 170 109
175 170 109
174 169 108
175 169 107
171 167 108
174 168 108
175 170 108
174 169 107
174 168 105
175 168 108
170 166 103
168 162 101
172 166 103
168 164 103
167 162 103
167 162 103
163 159 97
167 162 103
170 165 103
172 166 104
168 162 100
165 160 97
169 163 99
165 159 99
165 159 97
165 160 97
159 155 92
165 159 101
161 155 93
168 161 99
163 157 93
168 162 95
163 157 94
166 160 97
167 160 95
166 160 97
161 156 92
160 155 91
156 150 89
159 153 90
160 154 87
158 152 89
157 151 80
148 143 83
157 151 86
154 148 86
145 140 73
151 144 83
150 144 81
150 144 80
155 149 85
150 144 82
141 136 68
146 139 75
149 141 79
136 130 71
135 130 66
130 124 63
164 184 11
174 197 0
173 196 0
172 195 0
174 197 0
175 198 0
174 197 0
173 196 0
170 194 0
171 194 0
174 197 0
172 196 0
174 197 0
174 197 0
174 197 0
171 195 0
173 195 0
172 196 0
174 196 0
174 198 0
174 197 0
172 196 0
173 196 0
173 197 0
174 197 0
172 195 0
172 195 0
172 196 0
173 197 0
171 196 0
173 196 0
173 196 0
173 196 0
173 196 0
172 195 0
175 197 0
175 198 0
174 197 0
173 197 0
173 196 0
173 196 0
172 196 0
173 197 0
172 195 0
173 196 0
173 197 0
173 197 0
174 196 0
170 195 0
173 196 0
173 196 0
173 197 0
171 195 0
170 194 0
172 195 0
174 198 0
174 197 0
172 195 0
172 195 0
173 197 0
173 197 0
172 195 0
173 197 0
170 194 0
171 195 0
174 197 0
172 195 0
173 196 0
172 195 0
174 197 0
174 197 0
173 196 0
174 198 0
172 196 0
172 196 0
174 197 0
172 194 0
171 195 0
173 196 0
172 195 0
171 196 0
172 195 0
173 196 0
170 194 0
168 192 0
173 196 0
173 196 0
170 193 0
172 194 0
172 195 0
173 195 0
171 194 0
170 194 0
173 196 0
173 195 0
172 194 0
174 197 0
172 195 0
173 196 0
172 196 0
172 195 0
170 194 0
171 194 0
173 196 0
173 196 0
167 190 0
171 193 0
172 195 0
171 194 0
173 197 0
171 194 0
174 198 0
173 195 0
172 195 0
174 198 0
174 197 0
165 189 51
96 124 158
62 99 180
62 99 178
62 99 178
63 100 181
62 99 180
62 99 181
63 100 181
62 99 181
62 99 181
61 99 181
62 99 181
62 99 181
61 99 180
62 99 181
62 99 180
61 99 181
62 99 181
62 99 181
61 99 181
62 99 181
62 99 181
62 99 180
62 99 181
62 99 181
62 99 181
62 99 181
62 99 180
61 99 181
61 98 181
62 99 181
61 99 181
62 99 181
61 98 181
62 99 181
62 99 181
62 99 181
62 99 180
62 99 181
61 99 181
61 98 181
62 99 181
61 99 180
62 99 181
61 99 181
61 99 181
62 99 181
61 99 181
61 99 181
61 99 181
62 99 181
62 99 181
62 99 181
61 99 180
62 99 181
62 99 180
61 99 181
61 99 181
62 99 181
61 98 181
61 99 181
61 99 181
62 99 181
61 99 180
62 99 180
61 99 181
61 99 180
61 99 181
61 99 181
62 99 181
62 99 181
62 99 181
62 99 181
61 99 181
61 99 180
62 99 181
62 99 181
61 99 181
62 99 181
62 99 181
62 99 180
62 99 181
62 99 180
62 99 179
61 99 181
62 99 181
62 99 180
62 99 180
62 99 179
62 99 181
62 99 180
62 99 181
61 98 179
62 99 178
62 99 179
62 99 177
61 98 177
61 99 180
62 99 178
62 99 179
62 98 177
62 99 180
61 98 179
61 99 180
61 98 177
62 99 176
62 99 176
62 98 175
61 99 179
61 98 177
62 99 177
61 98 177
62 99 179
61 97 172
62 98 176
62 98 174
62 99 174
61 97 174
61 98 176
61 98 174
62 98 174
61 97 172
61 97 170
61 96 170
61 96 168
61 96 169
61 97 170
59 94 166
115 119 116
123 120 59
132 128 66
129 125 69
131 128 74
134 129 79
125 123 73
129 125 75
121 120 70
129 126 80
116 115 75
126 124 76
117 116 80
139 135 87
125 123 78
130 128 83
125 123 79
125 124 82
127 126 84
112 112 76
124 122 81
125 124 84
125 124 85
121 122 84
122 122 84
131 131 90
138 137 93
129 129 89
128 127 87
136 136 92
134 133 92
130 130 90
139 138 95
129 128 87
133 133 93
133 133 94
150 148 101
146 144 98
133 133 92
142 141 97
150 148 100
140 140 97
149 147 100
144 143 99
144 142 97
152 150 103
149 149 100
150 148 100
149 148 99
150 149 101
150 149 101
156 153 102
157 154 102
157 155 104
161 159 106
154 152 101
158 156 102
166 162 106
160 158 107
164 161 106
162 159 104
167 163 106
168 164 105
170 166 108
163 160 101
172 167 107
168 164 108
163 160 105
173 168 108
165 162 104
171 166 106
173 168 110
168 164 106
173 168 107
172 168 110
173 169 110
171 167 108
166 163 105
173 169 108
171 167 108
171 167 108
172 168 109
172 167 110
172 167 108
176 170 109
176 171 109
172 168 108
175 170 110
174 170 109
173 168 106
173 168 105
178 172 109
173 169 107
175 170 107
176 170 108
174 169 106
175 169 105
174 169 107
170 166 105
173 168 104
177 171 106
176 170 105
173 168 107
168 164 104
170 166 103
173 168 108
173 166 104
173 167 103
169 164 102
175 170 108
168 162 104
173 167 104
168 163 100
171 164 104
170 165 99
167 162 101
161 156 96
170 165 103
167 163 103
161 157 95
173 167 101
167 162 96
169 164 101
169 163 99
174 167 101
162 157 96
168 162 94
165 159 98
163 156 93
164 157 93
160 154 90
160 155 91
153 148 83
162 156 92
162 156 89
163 157 92
163 156 94
154 148 84
159 152 92
156 150 84
160 154 90
147 142 73
162 156 92
157 151 86
155 148 85
146 140 83
149 142 80
141 136 73
152 147 78
143 137 74
144 139 74
136 130 68
136 130 72
140 134 66
133 127 61
149 164 32
173 196 0
172 195 0
173 196 0
172 195 0
173 196 0
175 197 0
171 195 0
174 198 0
173 197 0
174 197 0
175 198 0
172 196 0
175 198 0
173 197 0
173 196 0
175 198 0
172 195 0
171 195 0
173 197 0
171 194 0
173 197 0
175 198 0
171 195 0
173 196 0
171 195 0
174 198 0
172 196 0
174 197 0
172 196 0
172 196 0
175 198 0
172 196 0
172 196 0
173 196 0
172 195 0
171 194 0
174 197 0
172 196 0
173 197 0
172 196 0
173 196 0
172 195 0
172 196 0
173 196 0
172 196 0
172 195 0
175 198 0
171 195 0
172 195 0
174 198 0
173 196 0
174 197 0
171 195 0
174 196 0
175 198 0
173 197 0
173 196 0
173 196 0
172 196 0
172 196 0
172 195 0
173 196 0
170 193 0
175 198 0
174 197 0
174 197 0
173 196 0
171 195 0
175 198 0
173 197 0
171 194 0
175 198 0
172 196 0
172 195 0
173 196 0
174 197 0
171 194 0
173 196 0
173 197 0
173 196 0
171 195 0
172 196 0
171 195 0
170 194 0
171 196 0
172 196 0
172 196 0
172 195 0
172 195 0
172 195 0
174 197 0
173 197 0
171 194 0
171 194 0
172 195 0
171 195 0
171 194 0
173 196 0
174 197 0
172 195 0
170 193 0
168 191 0
173 197 0
171 194 0
171 195 0
173 196 0
171 194 0
169 192 0
171 195 0
170 194 0
173 196 0
171 195 0
171 194 0
170 192 0
165 188 57
96 125 159
62 99 181
61 99 180
62 99 180
62 99 180
62 99 179
61 98 180
62 99 181
62 99 180
62 99 180
61 99 181
62 99 181
62 99 180
62 99 181
62 99 180
62 99 181
62 99 181
62 99 181
62 99 181
62 99 181
62 99 180
62 99 181
61 99 181
62 99 181
61 99 181
62 99 181
62 99 180
62 99 181
62 99 180
62 99 181
61 99 180
62 99 181
62 99 180
61 98 181
61 99 181
62 99 181
62 99 181
61 99 181
62 99 181
62 99 181
62 99 181
62 99 180
62 99 181
61 99 181
62 99 181
61 99 181
61 98 180
61 98 181
62 99 180
62 99 181
61 98 181
61 98 181
63 100 181
62 99 180
62 99 181
61 99 180
62 99 181
61 99 181
62 99 181
62 99 180
62 99 180
62 99 180
62 99 180
61 99 180
62 99 181
62 99 181
62 99 181
61 99 180
62 99 181
62 99 180
62 99 178
61 98 180
62 99 180
61 98 179
61 98 181
62 99 180
61 99 181
61 99 180
62 99 180
62 99 181
62 99 181
62 99 180
61 99 180
62 99 180
61 99 181
62 99 179
62 99 181
62 99 181
61 99 181
61 99 180
62 99 178
62 99 180
61 99 180
62 99 180
62 99 179
62 99 177
61 99 181
62 99 179
62 99 180
61 98 177
62 99 179
61 98 179
62 99 179
62 99 180
62 99 180
62 99 178
62 99 178
62 99 178
62 99 175
61 98 174
61 98 176
61 98 176
62 99 178
61 99 178
62 98 176
62 98 176
62 99 177
62 99 177
61 98 174
61 97 176
62 99 176
61 97 170
61 97 173
61 97 170
62 98 175
61 97 170
62 98 174
60 95 166
61 96 165
61 96 169
103 112 118
135 131 74
121 117 69
134 129 76
114 111 63
127 124 76
127 124 71
121 118 75
123 121 68
115 114 69
126 124 79
122 120 75
124 123 78
115 114 72
123 121 77
128 127 84
121 121 81
123 121 78
126 126 83
129 128 85
125 125 86
128 127 87
117 119 83
119 121 83
128 127 87
129 129 89
130 129 87
141 139 93
125 126 89
131 131 90
127 128 90
125 126 89
129 130 92
135 135 93
132 132 92
147 145 97
136 136 94
138 137 94
136 136 93
142 141 97
151 150 101
147 145 100
145 144 98
149 147 97
146 145 98
152 150 101
158 157 104
154 152 101
164 161 106
148 146 98
161 158 104
157 154 103
161 157 103
157 154 103
153 151 102
160 157 106
160 157 102
166 163 108
153 152 101
165 161 106
163 159 104
159 156 104
164 160 104
166 163 107
168 165 106
169 164 105
167 162 106
169 165 106
169 165 105
168 164 106
169 166 110
173 169 108
170 166 108
173 168 106
175 170 109
173 169 108
171 167 108
171 168 109
173 168 103
174 169 105
174 169 108
175 170 111
173 168 109
172 167 106
177 171 109
174 170 109
175 170 109
177 172 109
175 170 110
176 171 109
173 169 108
176 171 111
176 171 109
169 165 101
172 167 103
174 170 108
171 167 105
175 169 106
172 167 105
174 169 106
170 164 101
171 166 103
175 169 105
170 165 103
177 170 108
170 165 104
175 169 105
175 168 104
173 167 106
164 160 101
172 166 105
170 165 102
172 166 103
167 161 99
166 161 99
161 156 93
173 166 100
169 164 102
168 162 101
160 156 90
169 163 95
167 162 97
167 162 100
166 161 96
165 160 99
168 162 98
162 156 96
163 157 90
161 155 90
162 156 92
161 155 90
158 153 86
163 155 93
162 156 93
166 159 93
161 155 87
163 156 93
161 155 87
142 137 73
157 151 84
144 139 78
156 151 84
149 144 76
153 146 76
152 144 82
152 146 79
145 139 77
145 141 66
138 132 72
143 136 75
135 129 66
140 134 73
137 131 65
140 134 71
157 170 42
170 194 0
172 195 0
173 195 0
174 197 0
171 194 0
174 197 0
174 198 0
170 194 0
174 197 0
175 198 0
174 197 0
175 198 0
174 197 0
173 196 0
173 197 0
170 194 0
174 197 0
175 198 0
174 197 0
173 196 0
172 195 0
174 198 0
174 197 0
174 197 0
172 195 0
173 196 0
172 196 0
175 197 0
174 197 0
173 195 0
173 196 0
173 196 0
170 194 0
171 194 0
173 196 0
173 196 0
173 196 0
171 195 0
173 196 0
174 198 0
173 196 0
172 196 0
174 197 0
171 195 0
174 197 0
174 197 0
173 197 0
169 193 0
172 196 0
174 198 0
174 197 0
172 195 0
171 195 0
172 195 0
175 198 0
174 197 0
173 196 0
171 195 0
173 197 0
173 197 0
174 196 0
171 194 0
171 195 0
172 195 0
172 195 0
173 197 0
170 193 0
171 196 0
174 197 0
173 196 0
173 196 0
175 198 0
173 197 0
172 196 0
171 194 0
174 197 0
170 194 0
172 196 0
173 197 0
174 197 0
173 197 0
174 196 0
173 196 0
173 196 0
169 192 0
171 195 0
168 191 0
172 196 0
172 195 0
171 196 0
172 195 0
174 197 0
172 195 0
173 196 0
171 195 0
171 195 0
172 197 0
172 195 0
173 197 0
175 198 0
173 195 0
170 194 0
169 192 0
171 195 0
170 194 0
172 195 0
170 193 0
171 194 0
170 193 0
172 196 0
171 195 0
171 195 0
172 195 0
171 195 18
97 126 157
62 99 181
62 99 180
62 99 181
63 100 181
62 99 181
62 99 180
62 99 181
62 99 180
62 99 180
62 99 181
62 99 181
62 99 181
62 99 181
62 99 181
62 99 180
62 99 181
61 99 181
62 99 181
62 99 181
62 99 181
62 99 181
61 99 181
61 99 181
62 99 180
62 99 180
62 99 181
61 99 181
62 99 181
61 99 181
62 99 181
61 99 181
62 99 181
62 99 181
62 99 180
62 99 181
61 99 181
62 99 181
63 100 181
61 99 181
61 99 181
61 98 181
61 99 181
62 99 181
61 99 181
62 99 181
61 98 180
62 99 181
61 99 181
62 99 181
61 99 181
62 99 181
61 99 181
62 99 180
61 99 181
62 99 181
62 99 180
62 99 181
61 99 181
62 99 180
62 99 181
61 98 180
62 99 181
62 99 181
61 99 181
62 99 181
62 99 178
62 99 181
62 99 181
62 99 181
62 99 181
61 98 179
61 99 181
61 99 180
62 99 178
61 99 180
62 99 180
61 99 179
61 99 180
62 99 181
62 99 180
62 99 181
62 99 181
62 99 180
62 99 181
62 99 181
61 99 180
61 98 178
62 99 180
62 99 180
61 98 180
62 99 177
61 99 180
62 99 179
62 99 177
62 99 180
62 99 179
61 99 176
62 99 180
61 99 179
62 99 179
62 99 180
62 99 180
61 98 179
62 99 178
62 99 177
62 99 176
62 99 180
62 99 178
62 99 179
62 99 179
61 98 179
62 99 177
61 97 172
62 99 177
62 99 181
62 99 176
62 98 176
62 98 176
61 98 177
62 98 177
61 97 174
62 98 172
61 97 174
61 98 174
61 98 174
61 97 172
61 96 163
61 97 173
62 98 172
60 96 169
60 94 165
108 113 112
131 127 71
118 114 62
131 129 74
119 116 67
129 125 73
126 123 74
134 131 79
129 126 77
112 111 66
126 125 80
123 122 77
109 109 72
130 128 84
117 117 79
108 108 72
119 119 80
130 128 83
129 128 87
122 122 84
121 121 85
124 125 87
121 122 86
120 121 85
137 136 93
129 129 89
133 132 92
126 126 85
130 130 90
124 124 85
126 126 88
141 140 96
136 135 93
129 129 89
134 133 93
135 134 92
143 142 97
138 136 91
134 133 91
147 146 100
134 135 94
153 151 102
146 145 97
148 146 99
152 150 102
148 145 97
145 143 97
156 154 103
152 149 99
157 155 104
153 150 100
165 162 107
153 151 102
161 158 105
159 156 103
160 157 103
161 158 106
166 162 106
157 155 104
164 161 103
163 160 104
166 162 108
172 168 109
166 162 105
165 162 107
168 165 109
164 161 105
165 162 106
166 163 103
167 163 105
170 166 107
170 165 105
171 167 106
171 167 108
174 169 112
171 168 106
177 171 108
173 169 108
173 169 108
170 166 107
175 171 108
177 171 108
172 167 107
172 167 108
174 169 106
174 169 107
173 169 108
173 169 109
174 169 109
176 171 106
175 169 107
172 168 107
170 166 103
176 171 109
177 172 110
171 165 105
174 169 105
174 169 108
176 171 108
175 168 105
176 171 110
175 170 109
175 169 109
171 166 106
175 168 103
171 164 100
172 167 104
171 166 104
169 164 101
175 170 106
168 163 97
173 167 103
175 168 104
171 164 100
168 163 100
170 165 102
170 165 99
165 160 99
170 164 96
174 168 103
165 159 95
163 158 96
166 160 99
163 158 95
167 160 98
162 156 93
164 158 95
168 161 101
164 158 88
160 153 92
164 157 90
166 160 95
163 156 95
158 153 87
158 153 87
160 154 87
154 148 87
160 154 83
166 159 93
151 144 80
164 157 90
154 148 87
143 137 75
153 147 82
151 146 77
140 135 68
146 140 76
138 133 71
147 141 73
145 139 75
133 127 65
139 133 63
123 118 57
152 164 39
172 194 0
174 197 0
173 196 0
170 193 0
173 196 0
172 195 0
174 197 0
173 196 0
171 195 0
174 197 0
174 197 0
175 198 0
175 198 0
173 197 0
174 197 0
174 197 0
174 197 0
174 198 0
173 196 0
174 197 0
173 196 0
172 195 0
174 197 0
174 198 0
174 198 0
172 196 0
174 197 0
174 195 0
173 196 0
174 197 0
171 195 0
172 195 0
173 196 0
173 197 0
170 194 0
174 197 0
171 194 0
172 195 0
174 197 0
172 196 0
172 196 0
171 195 0
172 196 0
174 197 0
172 196 0
175 198 0
171 193 0
172 196 0
170 194 0
172 196 0
172 195 0
174 197 0
172 195 0
173 196 0
169 192 0
174 197 0
173 196 0
175 198 0
175 198 0
173 197 0
175 197 0
170 193 0
169 192 0
170 193 0
170 193 0
174 197 0
171 194 0
171 195 0
175 198 0
172 196 0
174 197 0
174 197 0
171 195 0
172 195 0
173 197 0
173 196 0
172 196 0
168 192 0
173 195 0
172 195 0
172 195 0
174 197 0
174 196 0
170 194 0
170 193 0
168 192 0
173 197 0
169 193 0
173 196 0
173 196 0
172 196 0
175 198 0
173 196 0
172 194 0
171 195 0
170 194 0
172 196 0
169 192 0
172 196 0
172 196 0
172 195 0
175 197 0
173 197 0
173 195 0
170 194 0
172 195 0
174 196 0
172 195 0
172 196 0
173 196 0
170 194 0
174 197 0
168 191 36
94 124 159
63 100 181
62 99 180
63 100 181
62 99 180
62 99 180
62 99 179
62 99 180
62 99 180
62 99 181
62 99 180
62 99 181
61 99 178
62 99 180
62 99 180
61 99 181
62 99 181
62 99 181
62 99 181
61 99 181
62 99 181
62 99 181
61 99 181
62 99 180
62 99 181
62 99 181
61 99 181
61 99 181
62 99 181
61 99 181
62 99 181
62 99 180
62 99 181
62 99 181
62 99 181
61 99 180
61 98 181
62 99 181
62 99 181
62 99 181
62 99 181
62 99 181
62 99 181
62 99 180
61 99 181
61 99 181
61 98 181
61 99 181
62 99 181
62 99 181
62 99 181
61 99 180
62 99 181
62 99 180
62 99 180
61 98 179
62 99 181
61 99 181
62 99 181
62 99 181
62 99 181
62 99 180
62 99 180
61 98 180
62 99 181
62 99 180
62 99 181
62 99 180
61 99 181
62 99 180
61 98 179
61 99 180
62 99 179
62 99 181
61 99 180
62 99 181
62 99 180
61 99 181
61 98 179
62 99 181
62 99 179
61 98 179
62 99 180
61 99 180
62 99 179
62 99 178
61 99 181
62 99 181
62 99 179
61 99 179
62 99 180
62 99 180
62 99 181
62 99 179
62 99 176
62 99 180
62 99 177
61 99 178
62 99 178
61 98 177
62 99 178
62 99 180
62 99 180
62 99 180
62 98 174
61 99 178
62 99 176
62 99 179
61 98 176
62 99 179
62 99 177
62 99 179
61 98 176
61 98 176
61 98 176
62 99 177
62 99 176
62 99 175
62 99 178
62 99 177
61 98 172
62 99 177
62 99 177
61 97 171
62 99 174
62 98 173
61 97 172
61 98 172
61 96 171
61 97 171
60 95 164
60 96 172
60 95 169
64 94 155
97 102 98
123 121 64
130 128 75
122 120 74
116 116 67
124 121 69
117 116 68
117 115 75
118 117 74
115 114 71
122 120 78
114 114 75
113 112 74
118 118 77
117 116 75
110 111 78
109 110 77
119 118 79
120 120 84
130 129 87
114 115 81
125 126 88
131 131 91
133 132 91
120 120 86
128 128 89
124 124 86
135 135 92
125 127 90
125 126 89
125 125 88
137 136 93
132 131 91
138 138 94
137 136 94
144 142 96
137 136 93
133 133 90
153 151 101
146 144 96
142 141 97
142 141 97
148 146 99
148 146 99
143 143 98
139 138 94
157 155 103
150 147 97
159 156 103
156 154 103
156 154 102
157 154 102
154 152 102
163 159 103
165 161 106
161 159 104
166 162 107
160 157 103
156 154 101
164 160 105
160 158 102
163 161 105
169 165 108
168 163 106
166 161 104
169 165 108
165 162 103
167 163 103
171 167 105
172 168 108
171 167 107
171 167 108
171 166 104
173 168 104
173 168 109
170 166 103
179 173 112
172 167 107
174 170 108
175 169 108
174 169 109
175 170 109
173 168 103
178 172 108
174 169 108
170 166 103
176 170 108
175 170 105
175 169 106
174 168 106
176 170 109
176 170 106
177 171 110
172 168 102
178 172 106
176 170 108
176 170 108
173 167 106
170 165 102
171 166 104
175 170 108
172 167 104
170 165 102
170 164 100
171 165 105
172 166 104
169 165 101
170 165 104
170 165 100
177 171 103
171 165 100
176 170 104
172 166 103
167 162 99
166 161 100
169 163 103
173 167 102
169 164 102
167 161 99
164 158 96
169 162 93
168 162 99
162 157 93
168 161 98
160 155 88
165 159 90
164 158 93
167 161 98
162 156 91
159 153 88
153 147 87
158 153 87
155 150 87
160 153 89
156 150 87
155 148 90
155 149 81
154 148 85
165 158 89
160 153 85
151 145 84
146 141 74
149 144 75
148 142 75
142 136 74
153 147 73
145 140 72
140 134 69
142 136 75
142 135 71
130 125 56
125 120 53
136 144 44
174 197 0
173 196 0
175 197 0
173 197 0
174 197 0
173 196 0
173 197 0
173 196 0
174 198 0
174 197 0
174 197 0
174 197 0
175 198 0
172 196 0
172 196 0
171 195 0
174 197 0
173 197 0
174 197 0
173 195 0
174 196 0
173 196 0
174 197 0
172 196 0
172 195 0
172 196 0
172 195 0
172 195 0
174 197 0
172 195 0
174 197 0
174 196 0
175 198 0
175 198 0
172 195 0
174 197 0
173 197 0
171 193 0
174 198 0
172 195 0
173 197 0
172 195 0
172 196 0
175 198 0
175 197 0
170 193 0
174 197 0
174 197 0
172 195 0
172 195 0
173 197 0
172 195 0
171 195 0
173 196 0
173 196 0
172 195 0
171 195 0
172 196 0
171 193 0
172 195 0
174 198 0
174 197 0
172 196 0
173 196 0
173 196 0
171 195 0
172 195 0
173 196 0
173 196 0
173 197 0
174 196 0
174 197 0
174 198 0
173 197 0
170 194 0
171 195 0
171 194 0
173 196 0
172 195 0
171 195 0
171 194 0
173 197 0
171 196 0
173 196 0
173 196 0
174 197 0
171 195 0
171 195 0
172 196 0
171 194 0
174 196 0
173 196 0
173 197 0
169 192 0
174 197 0
173 196 0
173 197 0
173 197 0
172 196 0
171 195 0
171 195 0
172 195 0
171 194 0
170 194 0
172 196 0
172 196 0
172 196 0
170 193 0
171 195 0
172 195 0
174 197 0
172 194 0
122 148 135
62 99 180
62 99 181
62 99 180
62 99 180
62 99 181
62 99 178
61 99 180
62 99 181
63 100 181
62 99 181
61 99 180
62 99 181
62 99 181
62 99 181
61 99 181
62 99 181
61 99 180
62 99 181
62 99 181
62 99 181
62 99 181
62 99 181
62 99 180
62 99 180
62 99 181
62 99 179
62 99 181
61 99 181
61 99 181
62 99 181
62 99 181
62 99 180
61 99 181
61 99 181
62 99 181
62 99 181
62 99 181
62 99 181
62 99 181
61 99 180
62 99 181
61 98 180
61 99 181
61 99 179
62 99 181
61 99 180
61 99 181
62 99 181
61 99 181
62 99 180
62 99 181
61 99 181
62 99 180
61 98 180
62 99 180
62 99 181
62 99 181
61 98 180
61 99 181
61 99 181
62 99 180
62 99 181
61 99 180
62 99 180
62 99 179
62 99 181
62 99 181
61 99 180
62 99 181
62 99 181
61 99 180
62 99 180
62 99 180
62 99 180
62 99 180
62 99 180
62 99 179
62 99 180
61 99 179
62 99 178
61 99 181
61 99 179
61 99 180
62 99 181
61 99 178
62 99 181
62 99 180
62 99 180
61 99 179
62 99 181
61 99 180
62 99 180
61 99 178
62 99 181
63 100 179
62 99 179
62 99 179
61 98 173
62 99 180
62 99 181
62 99 180
62 99 177
61 98 176
61 98 177
62 99 178
62 99 178
62 99 178
62 99 179
61 98 177
61 99 177
62 98 177
61 98 176
62 99 178
62 99 175
62 99 178
61 98 174
61 99 178
62 99 174
61 98 177
62 98 173
62 99 174
63 99 177
62 98 174
62 98 174
61 98 174
61 97 172
63 99 177
62 98 174
62 99 175
61 97 174
61 97 171
62 98 174
60 96 170
61 96 164
69 99 161
107 108 87
131 128 72
116 115 71
110 108 64
123 120 74
127 124 73
123 120 77
111 111 68
121 119 74
119 119 75
114 112 72
120 120 82
118 117 77
111 110 76
115 115 78
109 110 76
113 113 80
113 114 80
129 128 85
116 115 79
116 116 82
122 122 87
120 121 84
127 127 89
118 117 82
123 124 88
119 121 85
129 129 89
125 124 85
131 131 90
129 129 90
136 136 94
134 134 93
133 134 92
130 130 88
144 142 96
148 146 99
146 144 96
143 142 96
145 144 98
143 142 95
143 142 97
152 149 100
149 146 99
145 144 93
149 147 99
152 149 100
151 150 100
156 153 101
153 151 100
155 153 100
157 155 102
155 153 103
161 158 103
160 157 104
159 156 104
163 160 105
169 165 108
165 161 103
167 163 104
155 153 99
162 159 102
169 164 104
164 161 105
164 160 102
170 165 105
166 162 105
168 165 106
173 168 108
170 166 108
167 163 103
172 168 110
171 167 104
172 168 107
170 166 106
169 165 106
177 171 110
174 169 106
170 166 105
172 168 107
174 168 104
173 169 105
176 171 109
179 172 108
177 171 108
175 170 109
175 170 109
175 169 104
178 172 108
174 169 109
173 167 102
178 172 110
176 170 108
173 168 107
178 172 109
175 170 108
175 169 103
175 170 106
175 170 106
170 165 101
172 166 102
169 164 102
174 168 104
176 169 106
171 166 104
175 169 104
170 166 103
176 169 104
174 169 104
168 163 100
169 164 101
169 164 97
171 164 100
170 164 99
164 158 94
171 164 103
164 159 97
168 162 99
164 160 99
161 155 90
169 163 99
164 158 94
165 159 95
171 165 97
172 164 99
164 158 91
161 156 89
164 158 91
158 154 90
159 153 90
157 151 86
154 149 80
152 147 84
158 152 89
157 151 86
161 156 87
155 147 84
149 143 81
163 156 85
146 141 78
152 146 79
148 142 76
149 143 79
151 145 79
141 136 69
144 139 75
131 127 61
135 129 70
132 127 60
143 136 74
128 123 56
136 139 48
171 192 0
173 195 0
173 196 0
171 193 0
173 196 0
173 196 0
174 198 0
174 197 0
174 197 0
172 196 0
175 198 0
174 197 0
174 197 0
172 196 0
171 194 0
173 196 0
170 194 0
172 197 0
172 196 0
173 196 0
173 196 0
174 197 0
171 194 0
173 196 0
173 196 0
174 197 0
169 193 0
174 197 0
172 196 0
171 195 0
176 198 0
172 194 0
172 195 0
173 197 0
173 196 0
174 197 0
172 195 0
170 193 0
171 195 0
173 197 0
173 196 0
175 198 0
170 194 0
174 198 0
173 197 0
173 197 0
172 196 0
174 197 0
172 195 0
171 195 0
173 197 0
174 198 0
172 196 0
175 198 0
174 198 0
172 195 0
173 196 0
172 196 0
174 197 0
174 196 0
173 196 0
173 197 0
171 194 0
171 194 0
171 194 0
171 193 0
171 195 0
174 197 0
171 195 0
173 196 0
173 196 0
174 197 0
175 197 0
171 194 0
171 194 0
172 196 0
170 194 0
173 196 0
171 195 0
170 194 0
174 197 0
171 194 0
172 196 0
173 196 0
170 192 0
172 195 0
173 196 0
174 198 0
171 194 0
172 196 0
173 197 0
170 193 0
170 193 0
172 196 0
169 193 0
171 195 0
170 193 0
170 193 0
171 194 0
171 195 0
171 194 0
168 191 0
172 196 0
172 195 0
172 195 0
171 194 0
172 196 0
169 192 0
170 194 0
169 193 0
170 194 0
137 162 115
62 99 176
62 99 175
62 99 180
63 100 181
63 99 179
62 99 181
62 99 179
62 99 181
62 99 180
62 99 179
61 99 180
62 99 180
62 99 181
62 99 181
62 99 180
62 99 181
61 99 181
62 99 181
62 99 181
61 99 181
61 98 181
61 99 181
62 99 181
62 99 181
62 99 179
62 99 181
62 99 179
62 99 180
61 98 180
62 99 180
61 99 180
61 98 178
62 99 180
62 99 181
61 99 181
62 99 180
63 99 179
62 99 180
61 99 181
62 99 181
62 99 181
61 98 180
62 99 181
62 99 180
62 99 181
61 98 180
61 99 181
61 98 180
62 99 181
61 99 181
61 99 180
62 99 181
62 99 181
62 99 180
61 99 181
62 99 181
62 99 180
61 99 181
61 98 180
61 99 181
62 99 180
62 99 181
62 99 181
62 99 181
61 99 179
62 99 180
62 99 180
62 99 181
62 99 178
61 99 180
62 99 180
62 99 180
62 99 181
62 99 181
62 99 180
62 99 180
62 99 179
62 99 181
61 99 180
62 99 180
61 99 178
62 99 179
62 99 180
62 99 177
62 99 181
62 99 179
61 99 181
61 99 179
62 99 180
62 99 180
62 99 179
62 99 179
62 99 178
62 99 180
62 99 179
62 99 178
62 99 178
61 98 179
62 99 179
62 99 180
61 98 177
62 99 179
61 99 180
62 99 178
62 99 180
62 99 178
62 99 177
62 99 180
62 99 177
62 99 176
63 100 179
62 99 177
61 98 177
62 99 177
62 98 177
62 99 178
62 99 179
62 99 178
62 99 175
62 99 176
62 99 177
61 98 174
62 98 174
62 98 174
62 98 174
61 97 171
62 99 178
61 97 170
62 98 174
61 97 169
63 98 175
61 96 172
61 97 171
61 97 168
60 95 165
60 95 162
67 96 160
121 122 85
104 103 64
114 113 71
112 110 66
123 121 71
119 116 72
111 110 70
117 114 74
126 125 82
115 114 77
108 109 76
122 121 79
125 124 83
114 115 78
126 125 85
111 113 81
105 106 74
120 119 81
123 123 85
114 115 79
106 107 77
118 118 83
126 126 87
118 120 84
119 121 88
131 131 91
126 127 91
134 134 92
129 130 91
129 129 91
133 133 93
129 130 91
135 135 91
139 138 94
130 131 90
147 145 99
134 134 94
147 145 99
135 135 92
148 146 96
143 142 96
146 144 95
141 141 94
151 148 98
154 151 100
148 146 96
157 154 100
150 149 100
154 151 101
164 161 106
160 157 104
157 154 102
152 151 96
161 158 103
159 156 101
153 150 98
164 161 106
167 163 105
167 163 106
171 166 109
164 161 104
168 164 104
169 165 109
164 161 104
164 160 102
168 165 107
172 168 109
172 167 108
168 164 106
169 164 106
172 167 106
168 164 104
173 169 107
173 168 106
171 167 107
171 167 106
175 170 106
174 168 104
174 169 110
175 170 108
176 171 104
174 169 107
174 169 106
173 169 104
176 170 108
173 167 106
174 168 105
176 171 108
173 168 106
174 169 106
176 170 109
175 169 105
174 169 107
174 169 103
177 171 105
174 169 109
170 165 100
172 166 104
172 168 103
173 169 103
173 167 103
171 166 102
168 163 97
170 165 103
167 162 99
169 164 98
173 167 102
171 165 97
169 164 101
162 157 97
170 164 101
168 162 94
169 163 103
172 165 100
174 168 102
164 159 100
162 156 92
166 160 96
163 158 95
164 158 95
168 162 95
169 162 100
164 159 95
166 160 97
159 153 93
160 155 93
161 154 93
163 157 87
161 156 89
165 160 89
158 153 81
156 149 83
157 151 85
160 154 87
152 146 81
153 147 84
149 143 80
158 152 82
150 144 85
150 144 74
149 143 79
136 131 69
153 146 77
149 143 74
145 139 77
145 139 71
137 131 66
140 135 68
134 129 61
125 120 58
128 129 49
173 196 0
170 193 0
173 196 0
173 197 0
172 196 0
174 197 0
172 196 0
175 197 0
172 195 0
174 197 0
173 197 0
175 198 0
174 197 0
172 196 0
173 196 0
173 197 0
175 198 0
171 195 0
172 196 0
170 194 0
174 197 0
174 197 0
174 198 0
174 197 0
175 198 0
173 196 0
172 196 0
173 196 0
172 195 0
174 197 0
173 196 0
173 197 0
173 196 0
173 196 0
173 196 0
174 197 0
173 196 0
173 197 0
172 196 0
170 193 0
169 193 0
174 197 0
172 195 0
174 197 0
175 198 0
174 197 0
172 195 0
170 194 0
171 195 0
174 197 0
173 196 0
174 197 0
174 197 0
172 195 0
171 194 0
174 197 0
173 195 0
172 195 0
172 195 0
172 195 0
172 195 0
171 194 0
172 196 0
171 194 0
172 196 0
170 194 0
172 195 0
174 197 0
174 197 0
171 195 0
173 195 0
172 195 0
172 196 0
173 196 0
173 197 0
169 193 0
171 194 0
171 194 0
176 198 0
171 194 0
174 197 0
174 195 0
172 196 0
172 195 0
170 193 0
172 196 0
174 196 0
171 196 0
173 196 0
173 195 0
170 194 0
173 197 0
171 194 0
173 196 0
170 194 0
171 195 0
170 194 0
173 196 0
172 196 0
172 195 0
170 194 0
171 194 0
175 198 0
172 196 0
171 194 0
172 195 0
172 195 0
172 196 0
170 194 0
170 195 0
143 168 103
62 99 179
62 99 181
62 99 180
62 99 180
62 99 180
62 99 181
62 99 181
62 99 181
62 99 181
61 99 181
62 99 180
62 99 180
62 99 181
62 99 180
62 99 181
61 99 180
62 99 181
61 99 181
61 99 180
62 99 181
62 99 181
62 99 181
62 99 180
62 99 181
62 99 180
62 99 180
61 99 179
61 99 180
62 99 181
62 99 181
61 99 180
62 99 180
61 98 181
61 98 180
62 99 181
61 99 181
62 99 181
62 99 180
61 99 181
61 99 181
61 99 181
62 99 181
62 99 181
61 99 181
62 99 181
62 99 181
62 99 181
62 99 181
61 99 180
62 99 181
62 99 181
62 99 181
62 99 180
62 99 181
62 99 180
62 99 181
62 99 180
62 99 181
62 99 180
62 99 181
61 99 180
62 99 181
62 99 179
61 99 180
62 99 180
61 99 180
62 99 181
63 100 181
62 99 181
62 99 179
62 99 180
62 99 181
62 99 181
61 99 180
61 99 180
62 99 180
62 99 180
62 99 180
61 99 179
62 99 177
62 99 181
62 99 181
62 99 179
62 99 181
63 100 181
62 99 179
62 99 181
62 99 180
62 99 180
62 99 181
62 99 180
62 99 181
63 100 181
62 99 181
62 99 176
62 99 180
61 99 179
62 99 181
61 98 176
62 99 176
62 99 178
62 99 178
62 99 178
62 99 181
61 99 178
62 99 178
62 99 179
62 99 178
62 99 178
61 98 177
62 99 180
62 99 177
62 99 177
61 98 175
61 98 176
62 99 180
62 99 178
62 99 177
62 98 177
62 98 176
62 98 178
62 98 174
62 99 176
62 98 176
62 98 172
62 98 172
61 98 173
62 98 176
62 98 173
61 98 175
62 98 173
62 98 173
60 96 170
61 97 168
61 97 172
61 97 171
61 97 168
60 95 166
77 99 145
123 121 76
98 98 60
110 108 69
104 104 64
116 114 71
136 132 85
110 110 68
112 111 73
116 117 79
106 108 72
102 103 71
122 121 82
102 103 72
111 112 77
111 111 77
114 114 80
113 114 79
119 119 84
105 107 76
115 117 83
117 118 85
121 123 86
127 126 87
116 117 83
117 118 82
131 131 90
124 125 88
124 124 85
130 129 90
137 136 93
132 132 91
127 127 88
133 133 93
137 136 94
129 130 89
136 136 94
148 146 98
137 137 95
150 148 98
136 137 95
159 156 102
145 143 97
152 150 99
150 148 97
156 153 98
154 152 98
149 148 99
162 158 101
160 158 105
150 148 97
158 155 100
156 154 100
161 158 102
164 160 102
162 159 104
164 161 104
163 160 104
164 161 104
168 163 105
163 160 103
169 165 107
171 166 106
171 167 109
167 163 104
171 167 105
167 163 105
172 167 102
173 168 109
170 166 106
170 166 102
170 166 103
172 167 105
175 170 103
175 170 107
173 169 105
171 167 109
174 169 106
172 167 104
172 168 109
170 166 105
173 168 106
177 171 106
175 170 107
170 165 104
173 167 101
173 169 104
174 169 107
177 172 108
174 169 108
174 169 106
175 169 107
175 169 106
170 166 101
174 169 103
176 170 106
174 168 104
174 169 104
173 168 105
172 167 104
173 168 101
174 169 103
176 170 105
168 163 99
173 167 98
171 165 101
169 164 95
171 166 102
170 165 102
175 169 103
169 163 99
165 159 97
167 161 98
170 165 100
165 160 97
170 164 99
171 164 101
168 162 96
171 164 96
161 155 91
162 156 94
166 160 94
170 163 97
158 152 89
164 157 93
168 162 90
163 157 91
164 157 95
160 154 91
158 152 87
158 153 91
166 159 91
158 152 82
162 155 90
163 156 93
151 145 80
163 157 88
151 144 83
152 146 79
152 146 81
151 145 80
150 144 74
153 146 75
147 141 76
151 144 79
148 143 71
144 138 67
128 123 60
141 135 72
127 121 62
132 128 53
172 196 0
173 195 0
175 197 0
172 194 0
173 196 0
174 197 0
175 198 0
171 196 0
172 196 0
173 196 0
175 198 0
174 198 0
174 197 0
176 198 0
170 194 0
174 198 0
173 196 0
173 197 0
173 196 0
172 195 0
175 198 0
172 196 0
174 197 0
175 198 0
173 197 0
171 195 0
171 195 0
173 196 0
167 191 0
172 196 0
174 198 0
175 197 0
172 196 0
174 197 0
172 196 0
173 197 0
173 196 0
172 196 0
174 197 0
174 197 0
173 196 0
173 196 0
170 193 0
172 195 0
172 195 0
170 194 0
173 196 0
174 196 0
171 196 0
173 196 0
174 197 0
171 195 0
172 195 0
172 195 0
174 196 0
172 196 0
173 196 0
172 196 0
172 196 0
172 196 0
171 194 0
169 192 0
171 195 0
168 192 0
173 196 0
174 197 0
170 194 0
171 194 0
171 194 0
172 195 0
174 197 0
172 195 0
173 196 0
172 195 0
173 197 0
173 197 0
173 196 0
173 196 0
173 196 0
172 196 0
171 195 0
173 196 0
171 194 0
172 196 0
172 196 0
170 194 0
170 193 0
171 194 0
172 196 0
171 195 0
171 195 0
175 198 0
173 196 0
172 196 0
170 193 0
170 194 0
174 196 0
173 196 0
172 195 0
171 195 0
174 197 0
171 194 0
173 197 0
171 195 0
169 192 0
171 194 0
173 196 0
173 197 0
171 195 0
158 181 72
72 106 173
62 99 180
62 99 180
62 99 181
63 100 180
62 99 179
62 99 181
62 99 180
62 99 180
62 99 181
62 99 181
62 99 180
62 99 181
62 99 181
62 99 181
62 99 181
62 99 181
61 98 180
61 98 180
62 99 180
61 99 181
62 99 181
62 99 180
61 99 181
62 99 181
62 99 179
61 99 181
62 99 181
62 99 181
61 99 181
61 99 180
61 99 181
62 99 181
62 99 181
61 98 180
62 99 178
61 99 179
62 99 180
62 99 181
62 99 180
61 99 180
62 99 181
61 99 179
62 99 179
62 99 181
62 99 181
61 99 180
61 99 180
62 99 178
63 99 179
62 99 181
61 99 181
62 99 181
62 99 180
62 99 179
61 99 181
62 99 181
62 99 181
62 99 179
61 98 180
61 99 179
61 99 181
63 100 181
61 99 179
62 99 178
62 99 179
61 99 179
62 99 180
62 99 180
62 99 180
61 99 181
61 98 180
61 99 181
62 99 179
62 99 179
61 99 179
62 99 180
61 98 180
62 99 178
62 99 180
61 99 181
62 99 179
62 99 179
61 99 180
62 99 177
62 99 178
62 99 180
62 99 180
62 99 178
61 99 180
61 99 181
62 99 181
61 99 180
62 99 178
62 99 178
62 99 180
62 99 179
62 99 180
61 99 177
62 99 177
62 99 176
62 99 178
61 99 179
62 99 180
62 99 180
62 99 178
62 99 180
62 98 174
62 99 178
62 99 176
62 99 177
62 99 179
62 99 176
62 99 178
62 98 174
62 99 179
62 99 179
62 98 174
61 98 177
62 99 175
61 98 174
62 98 177
62 99 179
62 98 173
62 98 175
62 99 176
62 99 176
61 98 170
63 99 178
61 98 175
62 98 176
62 98 174
62 98 173
62 98 175
61 97 174
61 97 173
61 96 167
60 94 163
61 96 166
60 95 166
69 90 134
111 110 66
125 123 75
110 110 69
121 119 75
112 111 70
115 113 71
118 118 78
112 111 74
108 108 71
101 102 71
109 110 76
107 107 72
109 109 76
108 109 76
114 115 81
111 113 79
121 122 85
105 106 72
111 113 80
113 114 80
116 118 82
107 109 80
135 135 92
116 118 86
124 125 86
131 130 91
125 126 88
123 125 87
128 128 89
131 130 89
130 130 90
131 131 91
135 135 92
137 137 92
132 132 91
140 139 92
137 137 92
134 134 93
141 139 94
144 142 96
147 146 100
142 141 95
145 143 96
146 145 97
150 149 100
151 148 98
151 150 98
154 152 100
161 158 101
163 160 104
161 158 102
160 157 103
150 149 99
162 159 102
159 157 100
154 152 97
163 159 105
163 160 101
166 162 105
165 161 105
166 162 101
167 163 102
171 166 106
170 165 105
168 164 102
168 163 101
173 168 110
172 168 106
167 163 104
170 166 106
171 166 105
172 167 104
168 164 106
175 169 106
175 170 109
171 165 104
171 167 105
173 168 106
173 168 105
175 169 104
176 171 106
173 168 103
172 168 102
175 170 109
176 171 104
174 168 104
177 171 106
174 169 104
171 165 102
175 170 104
174 169 108
175 169 106
175 169 106
171 166 100
169 164 100
172 166 103
176 169 103
168 164 99
177 171 107
172 166 101
173 168 101
174 167 101
172 166 100
169 163 98
170 164 103
175 168 100
170 164 101
169 163 103
174 168 103
164 160 92
164 159 95
166 161 96
169 162 97
166 160 95
170 165 99
164 158 93
168 162 97
163 158 93
162 156 96
168 161 99
162 156 93
169 163 93
157 151 87
159 154 90
161 155 91
161 155 93
160 154 88
155 150 88
153 147 80
165 158 87
162 156 91
157 150 85
151 146 81
157 150 84
155 148 81
144 139 72
153 147 87
148 143 80
153 146 79
151 145 80
141 136 72
148 142 71
141 136 66
142 137 70
142 137 65
144 138 70
125 121 52
127 123 51
125 119 59
174 196 0
174 196 0
171 194 0
172 195 0
173 196 0
173 196 0
173 196 0
172 196 0
172 196 0
175 198 0
173 197 0
174 198 0
171 195 0
173 197 0
173 196 0
173 197 0
172 195 0
172 195 0
175 198 0
173 197 0
171 195 0
172 196 0
174 198 0
175 198 0
172 197 0
173 196 0
174 197 0
174 198 0
171 194 0
175 198 0
171 194 0
171 194 0
171 195 0
174 197 0
173 196 0
172 196 0
174 197 0
173 197 0
174 197 0
173 196 0
171 196 0
171 194 0
172 196 0
174 198 0
174 197 0
172 195 0
173 196 0
171 195 0
172 194 0
172 195 0
171 195 0
173 196 0
174 197 0
173 197 0
172 196 0
172 196 0
171 195 0
175 198 0
173 196 0
171 194 0
170 193 0
175 198 0
170 195 0
172 194 0
174 197 0
172 195 0
173 196 0
171 195 0
172 194 0
171 195 0
174 197 0
173 197 0
172 197 0
173 197 0
172 195 0
173 196 0
173 196 0
170 194 0
172 196 0
172 195 0
172 195 0
173 196 0
170 194 0
171 194 0
171 195 0
171 195 0
172 195 0
174 197 0
169 193 0
172 195 0
170 194 0
171 195 0
168 190 0
169 193 0
173 196 0
172 195 0
174 197 0
170 193 0
173 197 0
172 195 0
172 196 0
170 193 0
169 192 0
175 198 0
169 191 0
170 193 0
174 197 0
171 194 0
167 191 47
83 115 168
63 100 180
63 100 181
62 99 179
62 99 180
62 99 179
62 99 179
62 99 181
63 100 181
62 99 181
62 100 181
61 98 179
62 99 181
62 99 180
62 99 180
62 99 181
62 99 181
62 99 180
61 99 180
62 99 180
62 99 181
62 99 181
62 99 181
61 98 180
62 99 180
62 99 181
62 99 181
62 99 181
61 98 180
62 99 181
62 99 180
62 99 180
62 99 179
62 99 179
62 99 181
62 99 180
62 99 180
62 99 180
62 99 180
62 99 181
61 99 180
62 99 179
62 99 181
62 99 181
61 99 181
62 99 181
62 99 178
62 99 181
61 99 181
62 99 180
62 99 179
61 99 180
61 99 180
61 99 179
62 99 181
61 99 179
62 99 180
62 99 180
61 99 179
61 98 179
61 99 179
62 99 180
61 99 181
62 99 179
62 99 181
62 99 181
62 99 177
61 98 180
61 99 181
62 99 181
62 99 180
61 98 180
62 99 180
62 99 179
62 99 180
62 99 181
61 98 178
62 99 180
62 99 181
61 98 178
62 99 181
62 99 181
61 98 181
62 99 179
62 99 179
62 99 179
62 99 181
62 99 178
62 99 178
62 99 178
62 99 179
62 99 181
62 99 178
62 99 180
61 98 178
62 99 180
62 99 180
63 100 180
62 99 179
62 99 180
62 99 179
62 99 180
62 99 180
62 99 178
62 99 181
62 99 178
62 99 180
63 99 174
61 98 178
62 99 176
61 98 173
62 99 175
62 99 180
62 99 179
62 99 176
62 99 178
62 99 179
62 99 176
61 98 174
62 99 176
62 98 175
61 98 177
61 98 171
62 98 175
63 99 177
61 98 174
62 98 176
63 99 177
62 98 172
62 98 176
61 98 173
62 98 175
62 98 175
61 96 166
61 97 169
62 98 175
60 96 166
60 96 164
60 95 162
61 97 166
60 95 162
61 95 165
95 105 120
123 120 73
124 122 79
103 102 65
114 113 71
110 108 72
103 104 69
100 101 66
101 101 68
103 103 69
109 109 75
108 108 75
102 105 74
101 103 73
116 116 78
115 116 80
105 106 74
112 112 79
116 117 83
122 123 85
115 116 83
127 127 87
123 124 87
118 119 85
121 121 86
119 120 87
123 124 86
118 119 84
127 127 88
121 122 82
136 135 92
144 143 97
134 134 90
126 127 88
134 133 89
146 143 96
146 145 98
139 138 95
151 148 100
149 147 97
156 152 100
149 146 96
144 143 96
146 145 98
150 149 99
156 153 101
163 159 102
151 148 97
155 153 100
157 155 99
154 150 97
151 149 100
154 152 95
160 157 101
166 162 106
162 159 103
165 162 103
167 163 107
163 160 102
170 165 107
164 160 103
172 167 108
170 166 104
170 165 101
167 163 101
169 164 102
172 167 106
174 168 105
166 163 103
175 169 101
172 168 108
169 165 104
173 168 108
173 168 105
174 169 107
173 168 107
174 169 106
174 169 108
174 169 102
176 170 105
173 167 100
173 168 101
175 170 105
174 168 101
172 168 99
176 170 105
173 168 103
174 169 103
174 169 105
176 170 103
176 170 103
171 167 103
173 169 103
172 166 102
177 170 107
173 167 101
174 168 102
173 169 104
174 167 103
171 165 103
177 170 107
171 166 102
168 163 99
172 166 103
167 163 94
173 167 102
169 164 98
170 164 101
164 159 92
172 164 99
167 161 99
170 164 101
162 157 89
170 164 94
161 156 94
169 164 99
158 152 85
170 164 96
159 153 90
169 162 100
165 158 93
159 152 92
161 156 87
159 154 87
166 159 97
161 155 93
161 155 88
157 151 84
165 158 88
158 152 83
156 149 80
159 152 88
159 153 82
155 149 80
153 147 81
156 150 80
147 141 75
150 144 77
154 147 76
145 139 72
144 138 75
146 140 75
148 142 75
140 134 67
136 130 63
137 132 64
139 134 64
126 121 53
130 124 54
166 186 0
174 197 0
172 194 0
173 195 0
172 194 0
174 196 0
174 197 0
174 197 0
175 198 0
173 196 0
173 197 0
175 197 0
175 198 0
172 195 0
173 196 0
174 197 0
175 198 0
172 196 0
173 196 0
173 197 0
174 197 0
172 195 0
173 197 0
174 197 0
172 195 0
170 193 0
173 196 0
172 195 0
173 197 0
172 196 0
173 196 0
175 197 0
172 196 0
173 195 0
173 196 0
168 192 0
173 197 0
174 198 0
173 196 0
172 196 0
172 195 0
173 196 0
173 196 0
174 197 0
171 194 0
174 197 0
174 197 0
173 196 0
173 196 0
171 195 0
174 196 0
172 196 0
176 198 0
174 197 0
170 194 0
171 195 0
173 196 0
171 195 0
171 194 0
173 196 0
171 193 0
171 195 0
172 195 0
170 193 0
169 192 0
173 196 0
172 194 0
171 194 0
172 196 0
175 197 0
171 195 0
172 196 0
170 193 0
173 196 0
172 195 0
171 193 0
172 195 0
171 194 0
173 196 0
172 196 0
172 195 0
174 198 0
171 194 0
171 195 0
172 196 0
168 192 0
166 189 0
173 197 0
172 194 0
171 195 0
171 195 0
170 193 0
172 195 0
168 192 0
172 196 0
170 194 0
174 197 0
170 194 0
172 195 0
173 195 0
173 196 0
171 194 0
172 195 0
173 196 0
170 194 0
169 193 0
170 193 0
172 196 0
111 138 147
63 100 180
62 99 180
62 99 178
62 99 178
62 99 181
63 100 181
62 99 180
62 99 180
62 99 179
62 99 180
62 99 180
62 99 179
62 99 180
62 99 180
62 99 181
62 99 180
62 99 179
62 99 180
62 99 181
62 99 180
61 99 181
61 98 179
62 99 180
62 99 181
61 99 181
62 99 180
61 98 180
62 99 179
62 99 180
61 99 181
62 99 179
62 99 181
62 99 180
62 99 181
61 99 180
62 99 180
62 99 181
62 99 180
62 99 181
62 99 181
62 99 180
62 99 181
62 99 178
62 99 180
62 99 181
61 99 179
62 99 179
62 99 181
62 99 180
62 99 180
61 99 180
62 99 180
62 99 180
62 99 178
62 99 180
62 99 181
61 99 179
62 99 181
61 98 181
62 99 180
62 99 179
62 99 180
62 99 179
62 99 180
62 99 181
62 99 181
62 99 181
63 100 181
62 99 181
62 99 181
61 99 179
61 98 177
61 99 179
61 98 178
62 99 178
63 100 181
62 99 181
62 99 181
62 99 179
62 99 180
61 99 180
62 99 180
62 99 180
62 99 180
62 99 178
61 99 178
61 99 181
62 99 179
62 99 180
61 99 180
62 99 179
62 99 177
62 99 180
62 99 180
61 98 175
62 99 177
62 99 181
62 99 177
62 99 180
62 99 180
62 99 179
61 98 177
63 100 178
62 99 179
62 99 177
62 99 180
62 99 179
62 99 179
62 99 177
62 99 176
62 99 180
62 99 176
62 99 176
62 99 178
61 98 173
62 99 174
62 98 175
61 98 178
62 99 177
62 98 172
62 99 176
62 99 174
63 99 176
62 98 177
61 98 176
61 98 174
62 99 173
62 99 173
60 96 167
61 98 172
62 99 172
62 98 172
63 99 174
62 97 170
60 96 173
61 96 168
62 98 172
60 95 163
61 97 170
61 95 167
60 94 160
61 96 168
62 94 159
116 118 96
116 114 67
117 116 76
112 111 69
101 102 70
103 104 67
109 109 72
103 103 65
115 114 74
92 95 67
103 105 71
108 110 76
115 115 79
99 101 72
107 109 77
97 101 73
98 101 71
104 107 74
110 110 77
120 121 85
125 126 89
127 127 90
123 123 85
110 112 81
118 119 82
126 126 87
130 129 87
122 124 87
123 124 87
126 127 86
134 134 92
124 124 86
135 133 88
146 145 100
140 139 95
146 145 97
133 133 89
143 141 96
144 143 94
144 142 95
141 140 95
145 144 97
142 141 95
154 151 97
151 150 101
155 152 100
152 150 96
146 145 97
155 153 100
163 160 101
159 155 99
157 155 101
157 155 100
165 161 105
166 162 102
160 157 102
162 159 103
168 163 104
163 160 99
168 163 103
166 163 103
170 166 108
165 161 104
161 159 97
161 158 101
174 169 108
169 165 106
173 168 105
169 165 104
171 166 105
176 169 106
174 168 105
173 168 105
171 167 105
174 168 106
177 171 106
176 170 105
168 164 100
175 170 105
174 169 107
177 170 108
172 167 105
175 169 103
176 170 108
175 169 104
173 168 103
175 169 104
172 167 103
177 172 108
169 165 95
175 169 106
171 166 102
171 166 101
172 167 103
178 170 105
174 169 103
172 166 97
172 167 97
172 167 103
173 168 101
178 171 108
166 161 95
172 167 103
172 166 99
172 166 101
171 165 101
172 166 98
173 167 95
165 159 90
168 162 97
167 160 97
171 165 97
173 166 96
170 164 96
171 164 98
169 163 95
167 159 97
167 162 95
162 157 93
172 165 101
166 159 91
160 154 91
166 160 96
168 161 91
156 150 87
156 150 81
161 155 84
162 156 86
149 144 77
161 155 84
159 152 89
159 152 85
151 146 78
152 146 81
150 144 80
153 147 80
157 150 81
155 148 82
153 146 75
142 137 74
142 137 69
148 142 75
146 141 74
130 125 63
147 140 74
134 129 60
133 128 59
129 124 63
168 187 22
173 197 0
175 197 0
175 198 0
172 195 0
173 196 0
173 195 0
172 195 0
173 196 0
170 194 0
171 195 0
172 196 0
174 198 0
173 196 0
175 198 0
172 196 0
171 195 0
173 196 0
170 193 0
171 195 0
173 197 0
172 195 0
171 195 0
171 195 0
172 195 0
174 197 0
172 195 0
173 196 0
173 196 0
171 194 0
171 195 0
173 195 0
173 197 0
174 197 0
172 196 0
168 192 0
174 196 0
172 195 0
172 196 0
171 194 0
173 196 0
173 197 0
172 196 0
174 198 0
175 198 0
171 195 0
173 197 0
174 198 0
172 196 0
170 193 0
167 191 0
173 195 0
173 196 0
173 195 0
171 195 0
175 198 0
174 197 0
172 195 0
174 197 0
172 195 0
172 195 0
172 196 0
173 197 0
173 197 0
170 193 0
172 195 0
174 197 0
173 197 0
172 196 0
171 195 0
173 197 0
173 197 0
171 195 0
172 195 0
169 192 0
172 196 0
173 196 0
174 196 0
174 197 0
171 193 0
170 194 0
170 193 0
172 195 0
171 195 0
173 196 0
173 197 0
168 192 0
172 195 0
173 197 0
170 194 0
173 196 0
173 196 0
172 195 0
170 194 0
169 193 0
171 195 0
172 195 0
169 191 0
173 196 0
167 190 0
172 195 0
170 193 0
169 192 0
173 196 0
173 196 0
174 196 0
172 194 0
134 159 121
63 100 179
62 99 179
62 99 179
62 99 177
61 99 178
62 99 181
62 99 181
62 99 180
62 99 181
63 100 181
62 99 180
62 99 181
62 99 179
62 99 180
61 99 180
61 99 179
62 99 181
62 99 180
63 100 181
62 99 180
62 99 181
62 99 181
62 99 181
62 99 180
62 99 181
62 99 181
61 99 181
62 99 181
61 99 179
62 99 181
62 99 181
61 99 180
61 98 180
62 99 180
62 99 181
62 99 181
62 99 180
62 99 179
62 99 180
62 99 180
61 99 181
61 99 178
62 99 180
62 99 181
61 99 180
62 99 181
61 99 180
61 99 180
63 100 181
62 99 181
62 99 181
62 99 181
61 99 180
62 99 181
62 99 177
61 99 181
62 99 181
63 100 180
62 99 181
62 99 181
61 99 181
62 99 178
62 99 181
61 99 180
61 99 180
62 99 180
61 98 181
62 99 180
62 99 180
61 98 179
62 99 180
62 99 179
62 99 178
61 99 180
62 99 181
62 99 178
62 99 177
62 99 178
61 99 181
62 99 179
62 99 181
61 99 180
62 99 179
62 99 179
62 99 180
62 99 181
62 99 177
62 99 178
62 99 179
62 99 179
61 98 180
62 99 179
62 99 175
61 98 179
62 99 178
61 99 181
63 100 180
62 99 177
61 99 179
62 99 175
62 99 181
63 100 180
61 99 180
62 99 180
62 99 179
62 99 178
62 99 177
63 100 179
62 99 179
62 99 178
62 98 176
62 99 179
62 99 178
62 99 177
62 99 178
61 98 177
62 99 178
62 99 175
62 99 177
62 98 174
62 99 177
62 99 178
61 97 175
61 98 176
62 99 178
62 99 179
62 98 174
62 99 177
61 98 176
61 97 169
62 98 172
62 98 171
62 98 171
61 98 174
61 97 168
60 96 165
61 97 171
61 97 170
61 96 168
61 97 171
60 95 164
61 96 167
59 93 159
60 95 165
72 97 149
109 109 77
113 112 69
108 106 69
114 113 72
98 99 63
95 97 65
109 110 74
103 103 69
103 104 73
108 107 71
99 100 70
100 102 70
98 101 72
106 108 78
103 105 76
104 106 76
106 108 77
109 111 80
111 113 80
117 117 81
104 106 75
115 116 80
125 125 86
125 126 88
117 119 82
112 114 80
134 133 91
110 114 82
129 129 88
126 126 84
130 130 91
139 138 92
134 134 92
128 128 88
144 142 95
134 134 92
141 140 95
150 149 97
143 142 94
143 142 96
151 149 96
147 145 97
155 152 102
147 145 98
151 150 98
153 150 97
149 146 93
151 149 95
154 151 98
157 154 101
154 151 100
158 155 100
162 158 101
166 162 106
165 161 103
156 154 100
166 161 99
164 160 99
166 162 105
168 164 103
164 160 101
167 163 104
164 160 100
168 164 103
171 167 104
167 164 103
168 164 103
170 165 104
172 168 104
170 165 100
175 169 105
174 169 106
169 165 102
175 170 105
175 170 107
174 169 104
172 166 103
172 167 101
171 166 103
172 167 104
173 168 105
174 169 107
175 169 103
177 171 106
175 170 104
173 168 99
172 167 99
175 168 102
174 168 101
173 168 101
173 167 99
171 166 103
174 168 101
174 168 101
173 168 103
171 166 98
174 169 104
169 163 99
171 165 101
175 169 103
172 165 99
169 162 95
172 167 98
174 167 100
169 164 96
167 163 99
169 163 97
168 162 96
165 160 92
166 159 95
162 156 92
166 159 95
168 162 98
172 166 101
166 161 90
167 162 94
165 160 94
166 159 95
169 163 97
161 156 92
160 154 85
163 157 90
161 155 90
155 149 82
165 159 90
164 158 84
165 158 92
160 154 84
155 149 83
156 150 81
161 154 92
156 149 78
161 155 92
152 145 81
158 152 85
153 146 80
153 147 80
153 146 78
148 142 73
147 141 78
133 127 69
143 136 73
147 141 69
127 122 59
139 132 62
133 126 66
132 126 58
171 192 16
172 194 0
173 196 0
173 196 0
173 196 0
174 195 0
174 198 0
173 196 0
173 197 0
169 192 0
169 192 0
173 196 0
173 196 0
170 193 0
173 197 0
171 195 0
172 195 0
174 197 0
172 195 0
173 196 0
170 193 0
172 196 0
172 195 0
171 195 0
173 197 0
175 198 0
171 195 0
174 197 0
171 194 0
174 197 0
171 194 0
171 195 0
174 197 0
172 196 0
172 195 0
174 197 0
174 197 0
174 196 0
169 194 0
173 197 0
170 194 0
173 197 0
171 195 0
174 197 0
172 195 0
172 195 0
173 196 0
173 196 0
172 196 0
174 197 0
174 197 0
172 196 0
173 195 0
173 196 0
172 195 0
173 196 0
174 197 0
171 194 0
171 195 0
171 195 0
172 195 0
172 195 0
173 196 0
172 195 0
173 196 0
170 194 0
172 196 0
171 196 0
173 196 0
173 196 0
170 194 0
173 196 0
172 196 0
173 196 0
170 193 0
172 196 0
171 195 0
168 191 0
174 197 0
174 197 0
172 196 0
168 192 0
172 196 0
172 196 0
170 193 0
171 195 0
167 190 0
170 193 0
172 196 0
172 195 0
173 197 0
169 192 0
172 195 0
172 195 0
170 194 0
169 193 0
170 193 0
171 195 0
173 196 0
173 196 0
170 194 0
171 195 0
173 196 0
174 196 0
172 195 0
173 195 0
160 185 67
74 108 173
63 100 180
62 99 179
62 99 179
62 99 181
62 99 181
62 99 181
62 99 181
62 99 181
62 99 179
62 99 180
62 99 178
62 99 181
62 99 180
62 99 180
62 99 180
62 99 180
62 99 179
61 98 179
62 99 179
62 99 179
62 99 180
62 99 179
62 99 180
61 98 179
62 99 180
62 99 179
61 99 179
62 99 181
61 98 180
62 99 181
62 99 181
62 99 181
62 99 180
62 99 181
62 99 181
61 99 181
61 99 181
61 98 180
62 99 181
62 99 180
62 99 181
61 99 181
62 99 180
62 99 180
61 99 181
63 100 180
62 99 177
62 99 181
62 99 181
61 99 181
62 99 180
62 99 181
62 99 180
62 99 179
61 99 179
62 99 178
62 99 180
62 99 181
62 99 179
61 99 181
62 99 179
62 99 180
62 99 180
62 99 180
61 99 179
62 99 179
61 99 179
62 99 181
62 99 180
62 99 180
62 99 180
62 99 181
62 99 180
62 99 179
62 99 181
62 99 181
62 99 178
63 100 180
61 99 180
62 99 178
62 99 177
62 99 181
62 99 180
62 99 180
62 99 181
63 100 181
63 100 180
62 99 179
62 99 180
62 99 181
62 99 180
62 99 178
62 99 180
62 99 180
62 99 179
62 99 178
62 99 179
62 99 178
62 99 178
63 100 180
62 99 178
62 99 178
62 99 174
62 99 179
62 99 178
62 99 178
62 99 176
63 100 180
62 99 180
62 99 177
61 98 176
62 99 180
62 99 177
61 98 175
62 99 174
62 99 178
62 99 179
62 99 179
61 98 177
62 99 178
63 100 179
62 99 178
63 99 177
61 98 175
63 99 175
62 98 174
61 98 174
62 98 176
61 98 170
61 97 169
62 98 174
61 97 167
61 97 173
61 97 169
61 98 171
61 98 174
61 98 170
61 97 170
61 97 167
62 98 173
60 95 164
61 96 164
60 94 164
60 95 163
59 92 160
74 96 145
87 90 57
90 91 55
100 100 64
98 98 66
98 100 66
88 89 60
95 97 68
107 108 73
114 115 79
92 94 68
91 94 67
104 105 73
106 107 75
101 104 74
108 110 78
107 108 75
101 105 76
116 118 84
112 113 80
111 113 78
113 115 80
130 131 89
108 110 78
117 118 84
100 104 77
129 129 88
119 121 84
124 125 84
134 133 92
132 131 90
133 133 90
123 124 85
137 134 89
146 145 98
141 139 94
148 145 96
149 148 97
143 142 92
138 138 91
148 146 97
154 152 100
147 146 95
150 147 94
153 151 99
158 154 102
151 148 97
156 153 97
152 149 94
158 155 102
156 154 97
160 157 101
160 157 99
165 161 101
167 163 105
156 154 97
158 156 101
167 163 102
157 154 98
163 159 101
166 162 103
170 164 104
168 164 101
166 161 98
174 169 105
171 165 100
166 162 98
165 161 103
172 166 99
176 170 107
173 168 103
171 166 103
171 167 105
172 167 103
178 172 107
170 166 102
174 169 103
175 169 103
175 169 105
176 169 104
174 168 102
173 168 101
174 168 97
172 167 98
173 167 101
173 168 102
175 169 104
172 167 101
172 166 99
175 169 102
175 169 104
174 168 102
175 169 103
176 170 103
171 166 100
174 167 99
170 165 97
170 163 99
178 170 103
178 171 106
169 164 95
172 165 99
171 165 98
170 163 97
177 170 104
165 161 94
172 166 97
173 165 99
168 162 97
172 164 98
163 158 93
163 157 93
168 163 97
169 162 95
168 162 97
169 162 93
167 162 93
166 160 90
167 161 96
165 159 96
163 157 93
161 154 87
162 155 93
157 152 89
160 154 87
159 153 86
165 158 90
161 154 86
153 148 77
153 146 80
146 140 73
151 145 77
158 151 80
160 153 87
158 151 81
145 138 74
156 149 82
153 147 77
154 149 77
149 143 71
144 138 70
143 137 70
149 142 74
138 131 60
134 129 58
141 135 64
113 108 48
169 189 11
173 196 0
172 193 0
173 196 0
174 196 0
173 196 0
172 194 0
174 198 0
174 197 0
173 197 0
171 195 0
175 198 0
173 196 0
174 197 0
172 196 0
176 198 0
172 196 0
175 197 0
171 195 0
173 196 0
172 196 0
173 197 0
176 199 0
173 197 0
174 197 0
172 195 0
173 196 0
171 194 0
174 198 0
173 197 0
172 195 0
173 197 0
172 196 0
171 194 0
174 197 0
173 196 0
174 197 0
170 194 0
173 196 0
171 195 0
172 195 0
173 196 0
173 197 0
172 196 0
173 196 0
174 197 0
172 196 0
172 195 0
169 193 0
171 194 0
172 195 0
174 197 0
173 196 0
171 194 0
172 195 0
173 196 0
174 197 0
174 198 0
168 191 0
170 194 0
176 198 0
172 195 0
172 196 0
171 194 0
172 196 0
174 196 0
173 196 0
171 195 0
169 192 0
171 195 0
171 194 0
169 191 0
170 193 0
167 191 0
172 195 0
172 195 0
174 198 0
169 192 0
172 196 0
171 194 0
170 193 0
172 195 0
170 193 0
169 193 0
172 195 0
172 195 0
171 195 0
171 193 0
169 194 0
171 194 0
173 196 0
172 194 0
172 194 0
171 193 0
170 194 0
172 196 0
170 193 0
169 191 0
175 198 0
173 195 0
171 195 0
172 195 0
170 192 0
172 195 0
170 194 0
170 193 18
88 119 163
62 99 180
62 99 181
62 99 179
62 99 181
62 99 180
62 99 180
62 99 180
61 98 179
62 99 180
62 99 181
62 99 181
62 99 180
62 99 180
62 99 181
62 99 181
62 99 181
62 99 181
62 99 180
62 99 179
62 99 179
62 99 181
62 99 181
62 99 181
62 99 180
61 98 179
61 99 179
61 99 180
62 99 180
62 99 181
62 99 179
62 99 180
62 99 179
62 99 181
62 99 181
62 99 181
62 99 179
61 98 179
62 99 181
62 99 178
61 99 181
61 98 180
62 99 179
61 98 177
61 99 180
62 99 179
62 99 181
62 99 181
62 99 180
62 99 181
62 99 181
62 99 180
62 99 180
62 99 180
62 99 180
62 99 180
62 99 181
61 99 180
62 99 179
62 99 178
62 99 180
62 98 177
62 99 181
62 99 179
62 99 180
61 98 179
62 99 179
62 99 180
62 99 181
62 99 179
61 98 179
62 99 180
61 98 180
62 99 179
62 99 179
62 99 178
62 99 180
62 99 177
62 99 180
62 99 180
62 99 180
62 99 181
62 99 178
62 99 178
62 99 179
62 99 179
62 99 181
62 99 176
62 99 178
62 99 178
62 99 178
62 99 177
62 99 178
62 99 178
62 99 179
62 99 179
63 100 180
62 99 175
63 100 180
62 99 180
62 99 181
61 99 178
62 99 175
63 100 177
63 99 178
62 99 180
62 99 178
63 100 181
62 99 179
62 99 176
62 98 174
62 99 177
63 100 178
62 99 178
62 99 172
62 99 179
62 98 173
61 99 178
62 99 177
62 99 177
61 97 170
62 99 177
62 99 176
62 98 174
62 99 177
62 99 168
62 99 178
62 99 175
62 99 178
62 99 179
61 98 174
61 97 168
62 99 174
62 98 171
61 98 171
61 97 170
62 98 173
61 97 168
62 99 174
62 98 170
62 98 174
62 98 169
61 97 168
60 95 165
62 98 170
62 98 172
60 94 155
58 91 158
84 93 96
99 100 65
95 97 65
90 93 64
107 108 69
82 86 60
110 110 75
100 100 67
94 97 70
94 98 71
101 103 73
111 112 78
98 100 69
102 105 75
103 105 76
114 116 81
110 112 80
116 117 83
114 115 81
108 110 78
119 120 87
115 117 82
128 128 89
112 113 79
118 119 83
111 113 81
125 125 86
122 124 88
127 129 89
136 136 93
124 125 89
127 127 87
131 132 88
142 141 95
150 148 97
146 145 95
144 142 93
140 140 91
133 133 88
144 143 95
142 141 95
152 150 98
150 146 94
145 144 94
151 148 99
152 150 95
156 153 99
151 149 99
153 149 94
156 153 100
164 161 102
159 155 100
159 155 99
152 149 95
163 160 100
157 155 100
165 160 102
167 162 100
163 159 97
163 160 98
164 161 98
167 162 100
167 162 100
169 164 104
164 160 100
168 164 103
166 161 98
169 164 100
168 163 103
170 166 105
172 167 104
175 169 103
171 166 100
171 166 101
168 164 98
171 167 104
174 167 101
172 167 102
176 170 103
175 168 101
171 167 97
172 166 98
176 170 104
172 167 103
173 168 100
177 170 108
176 170 104
176 170 106
174 168 103
175 169 100
177 171 105
172 167 99
174 168 99
176 170 103
173 167 103
174 168 99
177 170 106
174 167 102
170 164 96
172 166 101
172 165 102
176 169 102
176 169 99
172 166 100
173 167 101
173 167 98
171 164 95
168 163 99
165 159 90
167 162 96
165 160 92
162 157 90
163 158 93
162 157 94
166 159 92
158 153 85
166 161 90
164 158 92
161 155 91
167 162 93
170 163 94
167 161 93
156 150 79
154 149 84
160 154 83
163 157 90
156 150 84
157 150 83
156 150 80
159 153 83
161 154 84
156 151 77
155 148 77
155 149 80
161 155 87
142 137 68
146 141 72
146 140 77
148 142 69
139 133 68
153 145 78
148 141 75
131 125 61
140 134 71
128 122 58
123 117 51
168 189 11
172 195 0
172 195 0
172 193 0
173 197 0
172 195 0
174 197 0
173 196 0
172 195 0
174 197 0
170 194 0
175 198 0
175 198 0
176 198 0
174 198 0
172 195 0
174 197 0
172 196 0
170 194 0
172 197 0
173 197 0
171 194 0
174 197 0
174 197 0
171 196 0
174 197 0
170 194 0
173 197 0
173 197 0
171 194 0
174 196 0
174 197 0
171 195 0
173 196 0
173 196 0
173 196 0
171 195 0
170 195 0
173 196 0
174 197 0
172 195 0
174 197 0
173 196 0
172 195 0
171 195 0
174 197 0
174 196 0
171 194 0
173 196 0
172 196 0
172 195 0
170 194 0
174 197 0
172 195 0
174 197 0
174 197 0
172 196 0
173 196 0
171 195 0
172 195 0
171 195 0
170 193 0
172 195 0
170 193 0
172 196 0
171 195 0
174 197 0
171 195 0
172 196 0
169 193 0
173 196 0
172 195 0
172 196 0
172 195 0
171 194 0
173 196 0
171 195 0
173 197 0
172 195 0
170 194 0
172 196 0
173 196 0
171 194 0
170 193 0
172 196 0
175 198 0
173 197 0
173 196 0
172 194 0
173 196 0
172 195 0
170 195 0
170 193 0
173 196 0
167 190 0
170 193 0
174 196 0
174 197 0
171 194 0
173 196 0
168 191 0
172 194 0
170 193 0
170 193 0
174 197 0
129 155 127
62 99 180
62 99 180
62 99 180
62 99 177
62 99 180
62 99 179
62 99 180
62 99 180
62 99 179
63 100 179
62 99 181
62 99 179
62 99 179
62 99 180
62 99 181
61 99 181
62 99 181
62 99 181
62 99 181
62 99 179
61 99 180
61 99 179
61 98 179
61 99 180
62 99 179
62 99 177
61 99 181
62 99 180
62 99 181
62 99 180
62 99 181
62 99 179
61 99 181
62 99 181
62 99 181
62 99 180
63 100 180
62 99 181
61 98 178
62 99 180
62 99 180
62 99 181
62 99 181
62 99 181
62 99 181
61 98 180
63 99 179
62 99 179
62 99 180
61 99 180
62 99 180
62 99 177
62 99 179
61 99 180
62 99 177
62 99 180
61 99 179
62 99 178
62 99 181
61 99 180
62 99 181
61 99 181
62 99 178
62 99 179
62 99 179
62 99 180
62 99 179
62 99 178
62 99 180
62 99 180
62 99 180
62 99 180
62 99 178
62 99 179
63 99 178
62 99 180
62 99 178
62 99 180
62 99 180
62 99 181
62 99 179
62 99 178
62 99 180
62 99 178
63 99 180
62 99 177
62 99 181
61 99 181
62 99 179
62 99 179
62 99 178
62 99 181
62 99 179
62 99 181
61 99 179
62 99 180
62 99 177
62 99 176
62 99 178
62 99 179
62 99 177
62 99 179
62 99 176
62 99 175
62 99 177
62 99 177
62 99 179
62 99 177
62 99 176
62 99 174
61 98 175
62 99 176
63 99 177
62 99 177
62 99 178
62 99 177
62 99 176
62 99 178
61 98 175
62 99 176
62 98 174
62 99 173
62 99 175
62 98 172
62 98 174
62 99 179
62 99 174
61 98 174
62 99 173
61 98 173
62 99 174
62 99 177
61 98 174
62 99 174
62 99 175
62 98 174
61 96 167
62 98 171
61 97 169
62 98 169
60 96 168
60 96 167
61 96 169
61 97 166
61 96 164
61 96 163
58 92 159
59 93 157
60 91 152
90 93 73
96 97 67
79 82 55
82 86 61
93 94 65
109 109 73
97 98 68
86 89 64
91 94 68
96 98 69
98 99 70
90 93 68
102 103 72
97 102 77
95 98 69
107 110 78
105 106 71
118 119 83
111 113 81
120 120 84
109 112 80
119 122 87
120 121 85
118 119 83
120 120 83
114 116 82
131 131 88
123 123 84
116 118 81
118 120 84
127 127 85
134 133 88
125 126 88
132 132 90
134 135 90
137 137 91
146 144 94
149 147 93
137 136 90
147 145 93
146 144 92
148 146 96
142 141 93
152 149 93
157 154 97
154 151 98
151 148 96
153 150 98
154 151 96
158 154 98
156 153 100
163 159 103
155 153 99
159 155 96
162 158 95
166 162 102
165 161 102
166 163 103
165 162 99
165 160 104
169 164 99
168 164 103
165 161 102
173 168 105
172 167 104
169 164 103
173 167 100
173 167 103
169 164 98
175 170 107
172 167 103
169 165 100
174 168 102
173 168 104
174 169 103
171 166 99
173 168 97
172 167 101
171 165 94
173 168 104
175 169 102
174 168 103
171 165 101
172 166 98
174 169 103
172 166 98
175 169 101
175 168 101
175 168 99
172 167 97
177 170 106
171 166 101
173 167 100
174 168 100
171 164 98
173 166 100
174 168 102
174 167 99
175 169 102
174 167 98
174 167 95
173 167 97
173 167 97
169 164 97
170 163 97
166 160 96
169 163 95
169 162 97
168 162 97
168 161 92
160 156 92
174 165 98
168 162 93
164 157 93
167 161 92
172 165 95
166 160 94
165 160 88
167 160 91
160 153 91
159 154 90
159 152 86
156 150 83
162 156 90
156 151 78
159 153 84
155 149 80
158 151 87
157 151 80
150 145 75
159 152 83
156 151 74
148 142 81
145 139 72
140 135 66
143 138 69
145 139 70
141 136 65
148 142 72
142 135 65
149 142 73
136 130 62
140 133 67
123 118 53
132 127 56
171 193 19
174 196 0
174 197 0
173 195 0
174 197 0
175 197 0
175 198 0
169 192 0
172 195 0
172 195 0
173 197 0
170 194 0
171 195 0
171 193 0
173 196 0
175 198 0
172 195 0
173 196 0
172 196 0
172 196 0
174 197 0
173 197 0
171 195 0
174 197 0
174 197 0
172 195 0
171 194 0
173 196 0
174 198 0
174 197 0
174 196 0
171 194 0
173 197 0
176 199 0
171 194 0
174 197 0
171 194 0
172 196 0
173 196 0
173 197 0
173 195 0
169 192 0
173 196 0
174 197 0
172 196 0
171 195 0
172 196 0
170 195 0
173 196 0
171 195 0
173 196 0
172 195 0
174 197 0
174 197 0
171 194 0
173 197 0
173 197 0
170 194 0
172 196 0
173 195 0
172 195 0
172 196 0
172 196 0
169 193 0
172 195 0
171 194 0
171 194 0
174 197 0
170 193 0
171 195 0
173 196 0
172 196 0
173 196 0
166 190 0
173 196 0
172 195 0
172 195 0
173 196 0
173 196 0
173 197 0
172 194 0
173 196 0
171 194 0
172 195 0
173 196 0
173 196 0
171 194 0
173 197 0
171 195 0
172 196 0
170 193 0
172 194 0
170 193 0
173 196 0
172 195 0
170 193 0
174 196 0
173 195 0
170 194 0
170 193 0
170 193 0
168 192 0
171 196 0
172 195 0
149 173 92
68 103 174
62 99 179
62 99 179
62 99 179
63 100 181
62 99 180
62 99 181
62 99 180
62 99 179
62 99 179
62 99 180
62 99 180
62 99 177
62 99 180
62 99 180
62 99 180
62 99 179
63 100 180
62 99 181
62 99 180
61 99 181
62 99 178
62 99 181
62 99 178
62 99 180
62 99 180
62 99 179
62 99 180
61 98 179
62 99 179
61 99 181
62 100 181
61 99 180
62 99 181
61 99 178
62 99 179
62 99 180
62 99 180
61 98 180
62 99 178
62 99 178
62 99 181
62 99 181
62 99 179
62 99 181
62 99 181
62 99 181
61 99 180
62 99 180
62 99 179
62 99 178
62 99 180
62 99 180
62 99 179
62 99 179
62 99 181
62 99 177
62 99 180
62 99 180
61 99 181
62 99 178
62 99 180
62 99 180
61 98 179
62 99 180
62 99 179
62 99 180
62 99 178
62 99 180
62 99 180
62 99 180
62 99 181
61 99 180
62 99 178
62 99 179
62 99 176
62 99 180
62 99 180
62 99 181
62 99 177
62 99 179
62 99 178
62 99 177
61 99 179
61 98 178
62 99 179
62 99 179
62 99 180
62 99 180
62 99 176
62 99 180
62 99 178
62 99 178
62 99 178
62 99 174
62 99 178
62 99 180
61 98 171
62 99 181
63 100 181
62 99 178
62 99 179
62 99 179
62 99 181
61 98 177
62 99 176
61 98 175
62 99 177
61 99 178
62 99 174
62 99 177
63 99 177
61 98 178
62 99 177
62 99 177
62 99 174
62 99 179
62 99 176
62 99 174
61 99 179
61 99 177
62 99 179
62 99 177
62 99 174
62 99 177
61 98 171
61 97 173
61 98 175
62 99 179
62 99 177
61 97 172
62 98 176
62 98 172
61 98 172
61 98 172
62 98 169
62 98 171
62 98 171
61 97 167
61 97 169
62 98 170
61 97 169
62 97 170
62 98 171
61 96 163
62 98 171
61 97 169
61 96 167
60 96 164
60 95 163
69 93 136
106 104 68
92 93 60
86 87 57
102 102 70
86 88 58
85 88 61
96 97 68
97 100 70
91 94 66
86 89 63
100 102 75
95 98 72
115 115 80
103 105 77
97 99 71
96 98 70
106 109 79
97 100 72
118 120 85
126 127 90
115 117 81
112 113 79
103 105 73
111 112 76
123 124 84
119 120 84
128 128 85
124 125 83
134 132 85
132 132 89
123 124 87
135 134 90
135 135 92
144 142 90
140 141 96
135 135 90
137 138 91
148 146 95
141 139 89
149 146 93
141 141 91
136 135 90
156 154 97
146 144 95
154 151 95
154 151 98
150 147 92
153 150 92
155 152 97
162 158 95
163 159 102
156 153 94
164 159 100
169 164 104
159 157 100
165 160 98
166 162 102
163 159 97
164 160 99
162 159 101
165 160 95
166 162 100
172 166 99
171 166 104
167 163 101
169 164 101
175 170 105
169 165 102
171 166 103
174 167 101
170 165 99
173 167 101
173 167 96
174 168 102
176 170 106
173 168 100
173 167 101
176 170 102
175 169 103
172 167 102
172 166 102
177 170 101
174 168 99
173 168 100
173 166 96
175 169 101
176 169 104
175 169 102
175 169 100
172 166 94
177 170 104
172 166 96
168 162 94
173 166 103
174 167 99
171 165 98
171 166 99
167 162 93
175 168 101
167 162 95
173 167 100
168 162 95
170 164 99
169 163 97
166 160 91
170 163 97
170 163 101
167 161 91
167 161 93
168 162 95
172 166 100
164 158 91
171 165 94
166 160 90
161 155 88
163 157 90
166 159 89
162 156 89
160 155 85
163 157 87
159 153 86
163 156 91
158 152 87
167 160 93
156 150 82
156 150 84
152 147 77
159 152 81
150 143 75
158 152 83
158 151 85
157 151 76
150 144 73
146 139 69
150 143 76
146 140 80
147 141 75
136 130 63
148 142 75
145 139 69
141 135 65
140 134 63
133 127 65
143 136 63
169 191 11
172 196 0
173 196 0
170 192 0
175 198 0
171 194 0
174 197 0
176 199 0
173 196 0
175 196 0
172 196 0
174 197 0
175 198 0
170 193 0
170 193 0
173 197 0
173 196 0
173 196 0
170 194 0
170 194 0
174 197 0
173 196 0
171 195 0
174 197 0
173 197 0
171 195 0
173 196 0
173 196 0
171 195 0
174 197 0
174 197 0
172 196 0
175 198 0
174 197 0
172 195 0
174 197 0
171 194 0
171 194 0
175 197 0
174 197 0
170 194 0
174 197 0
172 195 0
173 196 0
174 197 0
171 195 0
174 197 0
174 197 0
171 195 0
172 194 0
173 196 0
173 196 0
172 195 0
170 193 0
172 195 0
172 195 0
173 196 0
173 197 0
170 193 0
173 196 0
172 194 0
172 195 0
171 195 0
167 191 0
172 195 0
172 195 0
171 194 0
172 196 0
173 196 0
169 191 0
169 192 0
172 196 0
173 197 0
172 196 0
171 195 0
172 196 0
173 196 0
172 195 0
171 194 0
169 191 0
169 193 0
173 196 0
172 194 0
171 194 0
169 193 0
174 198 0
170 192 0
172 195 0
171 195 0
169 193 0
170 194 0
170 194 0
172 195 0
173 196 0
173 196 0
171 194 0
173 196 0
173 196 0
172 195 0
172 196 0
171 195 0
173 196 0
171 195 0
171 195 0
89 119 165
63 100 178
63 100 179
62 99 180
62 99 181
62 99 180
62 99 181
62 99 180
63 100 180
62 99 179
62 99 180
62 99 180
62 99 179
62 99 181
62 99 177
62 99 180
62 99 180
62 99 180
62 99 181
62 99 180
62 99 181
62 99 181
62 99 178
62 99 181
61 98 179
62 99 179
61 99 180
62 99 180
63 100 180
62 99 180
61 99 181
62 99 181
62 99 177
62 99 180
62 99 179
62 99 180
62 99 181
63 99 178
62 99 178
62 99 181
61 98 179
61 99 178
62 99 181
62 99 181
62 99 179
61 99 181
61 98 180
61 99 179
62 99 181
62 99 180
62 99 179
62 99 179
61 99 179
63 99 179
61 99 180
62 99 180
62 99 178
62 99 180
62 99 180
62 99 179
62 99 180
62 99 180
61 98 179
62 99 178
62 99 178
62 99 180
62 99 180
61 98 179
62 99 179
62 99 180
62 99 181
62 99 181
62 99 178
62 99 179
61 98 175
61 98 180
62 99 180
62 99 180
62 99 178
62 99 179
62 99 181
62 99 179
62 99 178
62 99 178
62 99 180
62 99 179
62 99 180
62 99 178
62 99 178
62 99 179
62 99 178
62 99 179
61 99 179
61 99 181
62 99 179
62 99 179
62 99 178
62 99 176
62 99 177
63 99 175
61 98 177
62 98 174
62 99 176
62 99 178
62 99 176
61 98 176
62 99 177
62 99 181
62 99 179
62 99 176
62 99 178
62 99 175
62 99 178
61 98 177
62 99 177
62 98 172
61 98 174
62 99 177
62 99 178
62 99 178
62 99 174
62 98 176
62 99 176
61 98 174
62 99 176
62 99 176
62 99 176
61 98 174
62 99 175
62 99 175
62 99 176
62 99 175
62 98 172
62 98 175
63 99 173
63 99 171
60 96 162
62 98 171
62 99 174
62 98 169
62 98 169
61 97 169
62 98 167
62 99 174
59 95 164
61 97 168
61 97 166
61 95 159
60 94 160
61 97 169
62 97 171
60 94 160
88 97 108
88 90 60
105 105 68
93 94 65
90 93 66
80 84 60
87 90 65
99 100 70
105 106 71
98 100 71
87 90 64
104 106 78
95 98 72
96 97 69
107 109 77
115 116 81
110 111 77
103 106 76
97 101 74
101 104 75
109 110 76
106 108 76
106 108 76
118 119 81
110 111 77
130 130 89
114 117 84
128 127 85
129 129 87
133 132 87
136 135 90
127 127 87
131 131 86
130 130 86
135 135 92
136 136 88
138 138 91
146 144 94
142 140 92
144 143 92
140 139 90
148 145 93
155 152 97
158 154 101
157 154 99
155 153 98
154 151 97
159 155 97
157 155 99
164 159 99
160 156 97
161 158 99
158 155 98
165 160 101
159 156 95
163 159 97
165 162 101
162 159 101
167 163 95
158 154 97
167 162 97
169 163 101
167 162 100
167 162 101
172 166 102
170 166 104
172 166 103
172 167 103
170 164 101
174 169 105
171 166 100
169 164 98
170 165 97
169 164 98
177 170 104
172 166 96
175 168 101
173 167 99
173 167 99
176 170 103
173 167 101
173 167 99
176 169 100
177 170 104
175 169 102
174 167 100
175 169 103
176 170 103
174 168 99
169 163 95
174 168 98
174 168 97
172 166 101
171 165 96
173 168 103
172 165 100
169 164 95
174 167 101
177 170 99
171 165 96
168 162 97
162 157 84
169 162 95
169 164 96
168 162 93
173 166 97
170 163 97
165 160 93
168 162 87
169 162 94
166 160 96
171 164 97
164 158 93
162 156 85
165 158 91
154 148 82
160 154 86
164 158 88
156 152 81
167 159 88
159 153 87
164 156 89
157 151 84
162 156 88
158 151 87
159 152 84
154 148 84
151 145 73
151 145 76
152 147 79
153 147 77
148 143 75
154 149 75
156 149 77
149 144 72
144 139 68
156 149 75
140 135 65
131 127 61
135 130 63
142 136 66
140 134 65
135 130 60
119 114 48
172 195 11
173 195 0
171 194 0
172 195 0
173 196 0
171 194 0
173 196 0
173 196 0
173 196 0
171 196 0
172 196 0
174 197 0
175 198 0
170 194 0
170 193 0
172 195 0
173 197 0
173 197 0
172 195 0
173 197 0
173 197 0
171 195 0
174 197 0
170 195 0
173 197 0
171 194 0
171 194 0
175 198 0
171 194 0
172 196 0
172 195 0
172 196 0
171 195 0
173 197 0
174 196 0
172 196 0
173 197 0
174 197 0
172 195 0
172 196 0
174 197 0
170 193 0
170 193 0
170 193 0
173 196 0
169 193 0
175 198 0
167 190 0
172 195 0
173 196 0
173 196 0
172 195 0
173 197 0
170 194 0
173 196 0
172 194 0
173 196 0
167 191 0
172 195 0
173 196 0
173 196 0
173 196 0
169 193 0
173 196 0
173 197 0
169 193 0
169 193 0
167 191 0
171 194 0
173 197 0
171 195 0
172 195 0
169 193 0
172 195 0
172 196 0
173 196 0
171 195 0
170 193 0
171 194 0
170 194 0
170 193 0
170 194 0
170 194 0
171 194 0
171 194 0
169 193 0
168 192 0
172 196 0
170 194 0
174 197 0
173 196 0
172 195 0
171 195 0
170 193 0
173 195 0
170 192 0
171 195 0
172 196 0
172 195 0
174 197 0
170 194 0
172 195 0
171 194 0
145 169 110
63 99 178
62 99 179
62 99 179
62 99 180
62 99 180
62 99 179
62 99 180
62 99 180
62 99 179
62 99 180
63 99 178
62 99 180
62 99 181
62 99 180
62 99 179
62 99 180
62 99 180
62 99 180
62 99 179
62 99 181
62 99 179
62 99 179
62 99 181
62 99 181
62 99 181
62 99 181
62 99 180
62 99 180
62 99 181
62 99 181
62 99 180
62 99 180
61 99 179
62 99 178
62 99 180
62 99 181
62 99 180
62 99 179
61 98 178
62 99 179
63 100 181
62 99 178
62 99 180
62 99 179
62 99 180
62 99 181
62 99 181
62 99 181
62 99 180
62 99 181
62 99 181
62 99 180
62 99 177
62 99 180
62 99 178
61 99 181
62 99 180
61 98 179
62 99 178
62 99 178
62 99 179
62 99 180
61 99 179
61 99 177
62 99 180
62 99 179
62 99 181
62 99 181
61 99 179
63 100 181
63 99 178
62 99 180
62 99 179
62 99 180
61 99 180
61 98 178
62 99 177
63 99 178
62 99 180
61 99 178
62 99 180
62 99 176
62 99 179
62 99 179
62 99 178
62 99 180
62 99 180
62 99 179
62 99 177
62 99 179
62 99 179
62 99 179
62 99 179
62 99 180
63 99 178
62 99 177
63 100 179
62 99 176
61 99 176
62 99 178
62 99 178
61 99 176
62 99 179
61 99 178
61 98 176
62 99 178
63 99 178
62 99 178
62 99 178
62 99 176
62 99 176
62 99 178
61 98 171
63 100 179
62 99 177
61 98 174
62 99 178
62 99 178
62 98 175
61 99 177
63 99 176
62 99 177
62 99 175
62 99 177
63 100 179
62 99 175
62 99 176
62 99 171
62 98 176
62 99 174
62 99 175
62 98 170
62 99 174
62 99 175
62 98 169
62 98 172
62 98 172
62 99 175
62 98 169
62 98 173
62 99 177
62 98 169
61 97 167
62 98 170
62 98 174
61 97 172
61 96 164
61 96 163
61 97 163
61 96 164
60 95 157
59 93 156
65 95 148
90 93 67
96 97 66
71 75 51
84 85 57
89 91 66
87 90 65
99 101 69
75 79 58
75 80 62
88 91 68
86 89 65
88 92 66
83 88 65
101 104 75
100 104 73
98 101 72
95 99 72
109 110 77
100 103 73
110 112 78
114 116 79
116 117 80
118 120 84
116 118 83
121 123 84
126 127 89
116 118 78
120 122 79
135 135 91
121 122 84
129 129 88
140 138 90
130 130 88
140 139 90
140 139 92
138 137 88
140 139 90
145 142 94
154 151 98
147 145 93
142 141 89
146 143 91
152 150 93
151 149 93
153 151 95
152 150 93
159 155 99
155 152 98
153 150 95
159 155 97
160 156 96
166 162 101
155 152 94
162 158 101
163 159 97
165 161 102
162 159 96
166 163 102
166 162 102
164 161 99
168 163 101
169 165 103
165 161 101
169 164 99
169 164 99
171 166 100
175 169 103
172 167 101
171 166 100
175 168 103
172 166 100
172 166 98
171 165 93
174 168 103
172 166 97
177 171 103
173 167 97
171 166 102
172 166 97
173 167 98
172 166 95
173 167 101
173 166 99
176 169 103
174 168 101
170 165 98
171 165 93
173 168 102
176 169 99
173 167 100
173 168 100
175 167 97
174 168 101
173 167 99
171 165 95
170 164 96
173 166 100
168 162 93
168 162 89
171 165 97
173 167 96
171 165 97
171 165 97
168 161 89
167 160 88
170 164 92
169 162 94
166 159 90
168 160 87
158 152 80
168 161 95
165 160 93
161 155 90
159 153 81
165 159 88
166 160 90
161 155 87
159 153 86
163 156 84
159 152 87
160 153 83
163 157 86
157 151 79
157 151 85
155 148 81
162 155 84
156 149 80
152 146 75
159 152 80
159 152 81
152 145 82
148 142 75
149 142 67
147 142 72
152 145 73
142 137 70
143 137 74
143 137 69
132 127 62
141 135 63
138 133 65
129 123 58
129 125 54
172 196 0
169 191 0
173 196 0
173 195 0
173 196 0
173 196 0
173 197 0
172 196 0
174 198 0
173 197 0
172 195 0
170 194 0
173 196 0
171 194 0
173 197 0
172 196 0
173 197 0
173 196 0
172 196 0
173 197 0
174 197 0
171 194 0
172 196 0
172 197 0
173 197 0
170 194 0
174 196 0
172 196 0
173 196 0
172 195 0
171 195 0
172 195 0
172 195 0
173 196 0
172 196 0
171 195 0
170 194 0
174 197 0
171 195 0
171 195 0
170 194 0
172 194 0
173 196 0
173 196 0
173 197 0
173 196 0
175 198 0
172 195 0
170 194 0
172 196 0
170 194 0
174 197 0
172 195 0
171 194 0
172 195 0
171 195 0
173 197 0
172 195 0
172 196 0
172 195 0
172 196 0
173 197 0
170 193 0
173 195 0
171 194 0
172 196 0
168 192 0
174 197 0
174 197 0
173 196 0
170 193 0
173 196 0
172 194 0
171 194 0
172 196 0
173 197 0
171 194 0
172 195 0
174 197 0
170 195 0
172 196 0
170 193 0
168 192 0
173 196 0
168 191 0
170 195 0
168 191 0
173 197 0
170 194 0
168 192 0
174 197 0
172 195 0
171 194 0
169 192 0
173 196 0
172 196 0
172 196 0
174 196 0
172 196 0
171 194 0
171 194 0
172 195 0
163 188 57
68 104 177
63 100 178
62 99 177
62 99 179
62 99 180
62 99 180
62 99 179
63 100 181
62 99 180
62 99 178
62 99 180
63 100 180
62 99 179
62 99 179
62 99 180
62 99 179
62 99 175
61 99 179
62 99 181
63 100 180
63 99 180
63 100 181
61 98 177
61 99 181
62 99 180
62 99 179
62 99 180
62 99 180
62 99 181
62 99 181
62 99 181
61 99 178
61 99 178
62 99 180
62 99 180
61 99 180
62 99 180
61 98 179
62 99 179
61 99 180
62 99 178
62 99 180
62 99 181
61 99 177
62 99 181
62 99 179
62 99 180
61 99 179
62 99 180
62 99 180
62 99 178
62 99 181
62 99 179
61 98 179
62 99 180
62 99 177
62 99 181
62 99 180
62 99 180
61 99 180
62 99 179
62 99 178
62 99 180
62 99 178
61 99 180
62 99 178
62 99 179
62 99 179
62 99 176
62 99 180
62 99 180
62 99 180
62 99 180
61 98 177
61 99 180
62 99 177
62 99 178
61 99 178
62 99 179
61 98 179
62 99 178
62 99 176
62 99 178
62 99 179
62 99 176
62 99 181
62 99 180
62 99 177
62 99 179
62 99 178
62 99 178
62 99 176
62 99 176
62 99 177
61 98 176
62 99 180
62 99 181
62 99 179
62 99 174
62 99 176
62 99 176
62 99 176
61 98 177
62 99 176
62 99 178
63 100 180
61 98 176
62 99 173
61 99 179
62 99 175
63 100 181
62 99 178
62 99 178
62 99 177
62 99 175
62 99 179
62 99 177
62 99 175
61 98 174
62 99 172
62 99 176
62 99 174
62 99 175
61 98 174
62 99 174
62 99 175
62 99 177
62 99 180
62 99 176
62 98 169
62 98 174
62 98 172
62 98 172
62 98 176
61 98 172
62 98 174
61 97 170
62 99 172
61 97 168
62 97 166
61 97 169
61 97 168
61 97 169
61 97 171
61 97 168
61 97 169
62 98 170
61 96 167
61 96 167
61 97 167
61 96 167
61 96 163
61 96 162
59 93 156
70 89 120
81 85 60
95 95 60
91 93 65
89 91 64
87 88 60
75 79 58
93 95 68
94 97 73
97 100 71
85 89 66
95 97 69
103 106 76
91 95 66
100 102 73
91 96 72
87 91 64
106 108 74
106 108 76
107 110 77
107 110 79
124 125 88
115 117 81
107 110 78
127 127 87
124 124 85
123 124 84
138 138 91
127 128 88
119 120 81
134 134 88
136 135 88
135 134 88
134 133 87
137 136 86
144 143 91
151 149 96
138 137 90
144 141 90
145 142 92
137 137 88
149 147 99
152 150 96
150 147 94
154 151 97
158 154 97
161 157 99
149 147 89
151 149 93
156 153 95
160 157 98
151 150 98
162 158 99
157 154 94
161 157 93
162 157 95
164 159 97
162 158 94
167 162 99
159 156 92
168 163 101
164 159 98
167 162 99
169 164 103
171 165 101
170 164 100
167 163 100
172 167 106
176 170 103
170 165 99
170 164 99
179 171 101
171 165 95
175 168 100
174 169 102
175 168 100
175 169 101
171 164 94
171 165 99
169 165 97
175 168 103
173 166 97
171 165 95
173 167 97
174 168 100
175 169 97
175 168 97
174 167 90
165 161 93
172 166 98
174 168 99
176 169 102
175 168 101
172 165 100
168 162 93
172 165 95
170 164 93
170 164 96
165 159 88
166 160 93
169 163 98
167 161 90
164 158 91
164 158 90
164 157 88
165 160 92
168 162 93
165 159 88
166 160 93
168 162 93
161 155 87
165 159 91
160 154 81
159 153 82
162 156 85
168 162 94
164 157 86
163 156 86
159 153 80
158 152 84
153 147 82
169 161 96
159 154 85
161 155 87
159 153 80
155 149 82
157 151 78
146 140 75
150 145 66
156 150 81
144 139 71
152 146 75
151 145 76
151 145 77
140 135 67
144 139 69
146 139 71
143 137 72
140 134 67
137 131 67
139 133 60
133 127 61
129 127 58
171 193 0
173 197 0
174 197 0
174 197 0
170 193 0
173 196 0
172 196 0
173 197 0
173 196 0
171 195 0
173 196 0
173 196 0
168 192 0
171 194 0
172 196 0
174 197 0
172 196 0
174 196 0
175 198 0
173 196 0
173 196 0
172 196 0
170 193 0
170 194 0
173 196 0
173 196 0
171 195 0
172 195 0
171 194 0
173 197 0
171 194 0
170 194 0
172 195 0
170 194 0
174 198 0
173 197 0
173 197 0
171 195 0
170 194 0
173 196 0
171 195 0
174 197 0
173 197 0
174 196 0
171 195 0
174 197 0
174 197 0
171 195 0
170 195 0
169 193 0
173 197 0
174 198 0
173 196 0
169 192 0
171 195 0
171 193 0
171 195 0
173 197 0
172 195 0
169 193 0
175 198 0
173 196 0
171 195 0
173 196 0
171 195 0
171 195 0
172 196 0
172 195 0
169 193 0
172 195 0
170 193 0
170 195 0
174 197 0
171 195 0
173 195 0
169 193 0
174 198 0
171 194 0
174 196 0
171 195 0
172 195 0
172 195 0
170 193 0
171 195 0
173 196 0
171 194 0
170 193 0
169 193 0
168 192 0
174 197 0
173 196 0
169 193 0
171 195 0
172 195 0
169 193 0
174 196 0
169 192 0
169 193 0
171 194 0
172 195 0
171 193 0
170 193 0
102 130 147
63 100 178
62 99 176
63 100 180
63 99 179
63 100 181
62 99 178
63 100 179
62 99 181
62 99 178
62 99 179
62 99 180
62 99 179
62 99 181
62 99 178
62 99 180
62 99 180
62 99 179
62 99 178
62 99 178
62 99 180
62 99 179
62 99 179
62 99 179
61 98 176
61 99 180
62 99 180
63 100 181
62 99 177
62 99 180
62 99 179
62 99 180
62 99 181
62 99 181
62 99 181
62 99 181
62 99 180
62 99 179
62 99 179
62 99 180
63 99 180
62 99 181
62 99 180
62 99 180
62 99 179
62 99 179
62 99 181
62 99 180
62 99 179
62 99 180
62 99 181
61 98 177
62 99 178
62 99 181
61 99 179
62 99 178
61 98 178
62 99 179
62 99 181
61 98 179
62 99 177
62 99 176
62 99 180
63 100 181
62 99 179
62 99 179
62 99 179
63 100 180
62 99 176
62 99 178
62 99 179
62 99 179
62 99 179
62 99 179
62 99 180
62 99 180
63 100 180
62 99 177
62 99 178
62 99 179
62 99 178
62 99 173
62 99 179
62 99 179
62 99 176
62 99 181
62 99 178
62 99 178
62 100 181
62 99 177
62 99 180
62 99 179
62 99 178
62 99 177
62 99 176
63 100 180
62 99 177
62 99 179
63 100 180
61 99 178
62 99 178
61 98 173
62 99 178
62 99 179
62 99 179
62 99 180
63 99 178
62 99 174
61 98 173
62 98 171
62 99 179
62 99 176
62 99 175
62 99 178
62 99 179
62 99 178
62 99 177
63 100 178
62 99 180
63 99 177
62 99 175
62 99 174
62 99 178
62 99 177
62 99 176
62 98 174
63 99 178
62 99 178
62 99 180
63 99 176
62 98 170
61 98 172
61 98 173
62 99 175
61 98 173
62 98 171
61 98 173
61 97 170
62 98 169
62 98 171
62 98 170
62 98 167
63 99 173
62 98 170
62 99 171
62 98 170
61 97 170
60 95 161
61 98 173
61 96 165
60 95 163
60 96 163
60 95 166
61 96 160
60 95 158
59 93 160
79 85 78
72 75 55
84 86 60
92 94 66
85 88 61
80 84 60
87 89 63
88 90 62
86 89 65
83 87 64
76 80 58
77 83 60
95 98 69
82 86 61
94 97 68
98 101 73
104 106 74
98 102 71
97 100 70
106 109 78
115 118 82
106 109 75
117 119 81
109 111 76
119 120 82
125 126 85
128 128 87
121 122 83
133 134 89
130 131 87
137 135 88
117 119 83
140 139 92
140 139 89
143 141 93
134 134 84
140 139 85
134 132 87
144 143 89
142 141 91
141 140 88
143 142 94
158 155 97
143 142 86
148 145 91
153 150 93
165 160 100
159 154 98
156 153 93
157 152 92
164 160 93
162 158 99
165 160 95
161 157 97
165 160 98
165 160 95
160 156 94
162 157 90
164 160 98
164 160 96
169 164 101
168 163 98
166 162 95
172 166 101
167 163 95
166 161 94
169 164 98
165 162 98
172 166 95
174 168 98
171 165 101
170 165 99
174 168 100
175 168 99
169 164 98
173 167 101
177 170 104
172 166 96
178 171 103
173 167 97
170 165 97
177 170 99
174 168 99
173 167 100
171 165 95
175 167 98
175 168 101
171 165 99
172 166 95
174 168 97
170 165 93
171 164 91
171 165 96
176 169 97
172 165 97
170 163 92
172 165 93
173 166 94
162 157 86
172 166 95
167 161 87
169 164 94
167 161 89
164 158 89
170 163 94
174 166 97
175 168 99
164 158 88
165 159 90
165 158 92
165 160 86
166 160 91
156 149 79
163 157 87
167 160 87
161 155 84
160 153 86
165 158 87
159 153 79
160 154 84
152 146 82
161 155 85
166 159 86
161 154 84
161 156 82
151 145 76
147 141 73
146 140 68
154 148 77
150 144 72
155 149 76
154 147 74
144 138 68
151 144 77
138 131 66
142 137 66
137 130 67
156 149 78
124 119 53
125 120 52
124 118 54
132 134 44
169 190 0
172 196 0
174 196 0
171 192 0
172 195 0
170 192 0
172 196 0
175 198 0
170 193 0
172 195 0
172 195 0
174 197 0
174 197 0
172 196 0
172 196 0
172 196 0
170 194 0
174 197 0
173 197 0
173 197 0
173 196 0
172 196 0
171 194 0
173 197 0
172 196 0
172 196 0
173 196 0
171 195 0
173 196 0
170 193 0
170 193 0
175 198 0
169 194 0
170 194 0
172 195 0
171 194 0
173 196 0
173 197 0
172 196 0
172 196 0
170 194 0
174 196 0
171 194 0
174 197 0
174 196 0
170 195 0
173 196 0
171 194 0
174 197 0
172 196 0
173 196 0
172 195 0
171 194 0
171 194 0
171 195 0
173 196 0
173 196 0
172 194 0
171 195 0
171 194 0
172 196 0
173 196 0
169 193 0
174 198 0
172 196 0
172 194 0
171 194 0
168 191 0
171 195 0
172 195 0
172 195 0
172 195 0
173 195 0
172 195 0
170 193 0
164 188 0
173 196 0
172 196 0
174 197 0
172 196 0
169 193 0
170 194 0
174 197 0
170 193 0
170 194 0
171 195 0
171 194 0
171 194 0
171 195 0
171 194 0
172 195 0
172 194 0
168 192 0
172 195 0
170 194 0
171 194 0
170 194 0
171 195 0
173 196 0
171 194 0
170 193 0
158 181 74
65 101 177
63 100 180
63 100 179
63 100 176
62 99 178
62 99 179
63 100 181
62 99 180
62 99 178
62 99 179
62 99 180
62 99 179
62 99 180
62 99 178
62 99 179
62 99 181
62 99 180
62 99 178
62 99 178
62 99 179
62 99 180
62 99 181
62 99 180
62 99 178
63 100 181
62 99 179
62 99 181
62 99 180
62 99 181
63 100 180
62 99 177
62 99 180
62 99 179
62 99 179
62 99 179
62 99 178
62 99 179
62 99 180
62 99 178
62 99 180
61 98 177
62 99 180
62 99 180
61 99 180
62 99 178
62 99 181
62 99 179
61 99 181
62 99 180
62 99 179
62 99 178
62 99 178
61 99 180
61 98 176
62 99 179
61 98 177
63 100 179
61 98 177
62 99 180
62 99 179
62 99 177
62 99 178
62 99 180
62 99 179
62 99 177
62 99 178
62 99 179
62 99 180
62 99 176
62 99 177
62 99 179
62 99 179
62 99 176
62 99 176
62 99 177
62 99 179
62 99 178
62 99 180
62 99 179
62 99 176
62 100 181
62 99 179
61 99 178
62 99 180
62 99 176
62 99 179
62 99 177
62 99 179
61 98 177
62 99 177
62 99 180
62 99 179
63 99 176
62 99 179
62 99 179
62 99 177
62 99 178
62 99 177
62 99 176
61 98 178
62 99 176
62 99 178
63 99 177
62 99 178
61 98 177
62 99 179
62 99 173
62 99 177
62 99 181
62 99 179
62 99 179
62 99 175
61 99 179
62 99 175
62 99 176
62 99 176
62 99 177
62 99 174
62 99 174
62 99 177
62 99 176
63 99 176
62 99 178
62 99 174
62 99 176
62 99 176
62 98 171
61 97 170
62 98 171
62 99 174
62 99 173
61 98 171
62 98 171
62 99 176
62 98 168
63 99 172
62 99 172
61 97 169
61 98 174
62 98 167
62 98 174
61 98 172
61 98 169
62 99 175
61 97 163
61 98 173
62 98 168
62 98 168
62 98 170
61 97 168
61 95 161
61 97 166
60 95 160
60 95 160
60 94 156
59 93 158
62 88 138
83 84 59
83 85 54
72 75 53
84 88 64
83 86 60
82 85 62
87 89 61
80 84 62
75 80 61
90 92 66
78 84 63
97 99 69
90 95 69
98 101 72
91 95 66
102 104 71
93 97 71
114 115 79
111 114 76
113 114 79
110 113 75
117 119 82
100 105 76
117 118 78
116 117 81
113 114 77
115 117 79
133 133 89
129 128 81
124 125 84
124 123 82
126 126 83
138 137 89
141 139 89
136 136 89
135 135 86
151 147 90
142 142 94
145 143 91
146 144 91
154 152 94
143 141 85
150 147 91
149 148 93
152 149 88
151 148 89
158 154 97
158 156 97
153 150 94
161 157 99
160 156 93
161 158 100
162 159 98
162 158 93
163 159 99
156 153 94
160 157 99
166 161 97
165 160 94
165 161 95
170 165 102
166 162 98
165 160 94
166 162 100
164 159 90
173 167 102
172 167 100
170 164 103
167 162 96
175 168 97
171 166 95
170 165 96
174 168 101
171 165 98
170 165 97
173 167 100
175 169 99
174 168 100
174 168 101
177 170 98
173 167 95
172 166 97
177 170 103
170 164 95
171 166 94
170 164 95
173 167 98
176 169 103
172 166 98
171 165 93
171 164 95
173 166 94
169 163 93
166 160 91
172 166 96
166 160 91
172 165 97
171 164 93
167 162 91
165 159 88
170 163 93
170 163 95
168 162 92
171 164 98
163 158 88
168 163 92
170 164 93
165 159 87
164 158 89
164 159 87
166 159 87
159 153 81
170 162 93
158 153 81
162 155 85
163 157 90
154 149 81
158 152 80
161 155 84
159 153 86
159 153 82
155 149 84
149 143 75
154 148 78
156 150 76
155 149 79
157 150 84
153 147 77
154 147 76
160 152 80
151 144 77
152 146 76
149 143 70
141 135 67
140 135 61
140 135 67
138 133 65
138 133 57
134 129 62
123 118 54
133 139 41
173 195 0
174 195 0
172 193 0
173 196 0
170 193 0
173 196 0
174 197 0
172 196 0
174 198 0
170 194 0
170 194 0
174 197 0
174 197 0
172 196 0
172 195 0
171 195 0
174 197 0
174 197 0
174 197 0
174 197 0
172 196 0
172 196 0
173 196 0
175 198 0
171 196 0
173 197 0
171 195 0
171 194 0
171 194 0
174 196 0
171 194 0
172 196 0
169 193 0
170 193 0
174 196 0
171 195 0
173 197 0
172 196 0
173 195 0
173 196 0
173 196 0
173 195 0
171 195 0
171 195 0
174 197 0
170 194 0
169 193 0
172 195 0
171 194 0
170 194 0
173 197 0
170 194 0
173 197 0
172 195 0
168 192 0
175 197 0
172 196 0
171 194 0
174 197 0
173 196 0
174 197 0
175 198 0
173 196 0
174 197 0
168 192 0
172 195 0
171 194 0
171 194 0
169 192 0
170 193 0
171 195 0
170 193 0
172 195 0
173 197 0
172 195 0
170 194 0
172 196 0
171 194 0
174 197 0
172 195 0
169 193 0
170 193 0
171 194 0
171 194 0
173 197 0
174 196 0
170 192 0
170 193 0
170 194 0
169 192 0
171 194 0
173 196 0
169 192 0
171 194 0
172 196 0
171 195 0
174 197 0
172 196 0
171 194 0
171 193 0
169 193 18
98 127 154
63 100 178
63 99 179
62 99 180
62 99 179
63 100 180
62 99 179
62 99 181
62 99 181
62 99 178
62 99 181
62 99 177
62 99 176
62 99 178
62 99 176
62 99 178
62 99 181
62 99 177
62 99 181
62 99 179
62 99 176
62 99 179
62 99 178
63 100 180
62 99 180
62 99 179
62 99 179
61 99 180
62 99 181
62 99 179
62 99 180
62 99 180
62 99 178
62 99 180
62 99 181
62 99 180
63 100 180
62 99 179
62 99 181
61 99 181
62 99 180
62 99 177
61 99 178
62 99 179
62 99 181
61 99 178
62 99 181
62 99 178
62 99 178
62 99 180
62 99 181
62 99 177
62 99 180
62 99 179
61 99 181
62 99 180
62 99 180
62 99 178
61 99 179
62 99 178
62 99 179
62 99 178
62 99 181
63 99 178
63 99 178
61 99 180
62 99 180
62 99 177
62 99 179
62 99 181
62 99 179
62 99 180
62 99 180
62 99 179
62 99 177
62 99 181
62 99 175
62 99 177
62 99 180
61 98 176
62 99 181
63 100 179
62 99 178
62 99 177
62 99 178
62 99 180
62 99 179
62 99 179
62 99 179
62 99 179
63 100 179
62 99 178
61 99 179
62 99 176
62 99 178
62 99 178
62 99 175
62 98 174
62 99 177
62 99 176
62 99 179
62 99 179
62 99 177
62 99 175
61 98 178
62 99 179
62 99 176
62 99 177
62 99 177
62 99 178
62 99 176
62 99 178
63 99 178
62 99 174
62 99 177
62 99 175
62 99 177
62 99 179
62 99 175
62 98 171
62 99 175
62 99 173
62 98 174
62 99 179
62 99 171
62 99 178
62 98 174
62 99 174
63 100 179
62 98 175
62 99 172
62 99 176
61 98 170
62 98 170
62 98 173
61 98 172
62 99 176
62 99 176
62 98 171
61 98 172
62 98 170
62 98 175
61 97 166
62 98 168
61 97 170
61 97 165
60 96 169
62 98 167
61 96 164
62 98 167
60 95 160
61 97 167
61 95 161
60 95 160
61 96 161
59 94 162
61 95 158
60 94 156
80 87 82
81 83 55
85 86 59
69 73 55
85 88 64
80 83 59
94 97 72
67 73 56
83 88 64
92 95 68
84 87 62
90 93 65
79 84 62
98 101 73
92 96 69
98 101 73
106 108 73
109 112 81
98 102 72
97 101 72
109 111 76
118 120 82
109 110 76
121 121 83
115 117 82
117 118 81
129 129 87
132 131 88
130 129 83
133 133 88
119 121 83
138 137 89
134 133 88
147 145 91
128 128 85
144 142 94
145 143 91
149 147 95
142 139 91
141 139 91
146 143 88
151 149 91
150 147 90
157 153 93
152 148 93
155 151 94
152 150 94
149 147 88
159 155 95
161 156 98
165 160 96
157 153 90
163 158 96
159 156 92
164 159 102
170 164 97
165 160 97
166 161 99
165 161 98
164 158 91
168 163 101
169 163 99
168 162 94
160 156 91
167 163 100
172 166 99
171 166 98
170 164 97
176 169 98
170 165 97
172 166 98
174 169 99
173 167 101
170 164 95
174 168 99
171 166 98
173 167 96
175 169 100
170 165 94
172 165 97
174 167 100
171 165 96
173 167 99
178 171 99
173 166 97
174 167 99
172 166 94
174 168 102
171 166 97
170 163 94
168 162 98
171 165 96
171 165 97
167 160 91
173 166 94
168 162 92
169 162 88
175 168 99
164 159 84
170 164 93
170 164 87
173 166 93
170 164 94
169 162 88
161 155 86
165 159 97
169 162 90
168 161 90
167 160 88
166 159 87
155 149 80
166 159 90
167 160 90
162 154 84
164 158 90
166 160 87
162 156 87
164 156 88
157 150 82
157 151 76
161 154 86
149 145 75
152 145 76
154 148 75
147 142 73
155 148 83
143 136 75
153 147 78
148 142 69
151 144 75
135 131 57
149 144 67
146 139 71
148 142 71
139 135 58
139 133 66
138 132 65
137 131 66
133 129 53
122 117 45
145 153 44
172 194 0
173 196 0
170 192 0
173 195 0
173 196 0
173 196 0
174 198 0
173 197 0
172 196 0
171 195 0
173 197 0
170 195 0
172 195 0
173 196 0
173 196 0
174 197 0
171 195 0
173 195 0
171 195 0
174 198 0
172 196 0
171 195 0
170 195 0
172 196 0
172 195 0
173 197 0
171 194 0
175 198 0
173 197 0
171 194 0
173 196 0
173 196 0
174 197 0
174 197 0
171 194 0
173 197 0
172 195 0
174 197 0
169 194 0
175 198 0
173 196 0
173 196 0
172 196 0
171 195 0
172 196 0
170 194 0
173 196 0
168 192 0
170 194 0
172 195 0
172 195 0
173 195 0
174 196 0
173 196 0
171 195 0
172 195 0
173 196 0
171 195 0
173 196 0
170 194 0
173 196 0
174 198 0
168 192 0
173 196 0
171 194 0
171 195 0
172 195 0
173 196 0
171 195 0
174 197 0
172 196 0
172 196 0
172 195 0
170 194 0
170 193 0
172 195 0
172 195 0
170 193 0
170 192 0
171 194 0
171 194 0
172 195 0
173 196 0
172 195 0
170 193 0
172 196 0
171 195 0
170 193 0
172 195 0
169 193 0
168 192 0
171 194 0
170 193 0
173 195 0
173 196 0
171 196 0
170 192 0
171 195 0
171 194 0
168 192 0
141 166 102
63 99 176
62 99 179
63 100 180
63 100 178
63 100 180
63 100 179
63 100 181
62 99 181
62 99 177
62 99 180
62 99 177
62 99 178
62 99 180
62 99 179
62 99 179
63 100 180
62 99 180
62 99 177
62 99 179
62 99 180
63 100 180
62 99 180
62 99 179
61 98 177
61 99 181
62 99 180
62 99 179
62 99 179
62 99 180
62 99 180
62 99 181
62 99 181
62 99 181
62 99 180
62 99 179
62 99 178
62 99 181
62 99 180
62 99 180
62 99 177
63 99 179
62 99 180
62 99 181
62 99 180
62 99 177
62 99 177
61 99 179
62 99 176
62 99 178
62 99 180
62 99 180
61 98 178
61 98 180
62 99 178
61 99 180
62 99 177
61 99 179
61 98 177
62 99 178
61 99 179
62 99 181
62 99 176
62 99 178
61 98 176
63 99 177
63 99 179
62 99 180
63 100 180
62 99 176
61 98 177
62 99 175
62 99 179
62 99 177
62 99 181
62 99 177
62 99 179
61 99 179
62 99 179
63 99 176
62 99 176
61 99 179
62 99 179
62 99 177
62 99 180
62 99 178
62 99 178
61 98 175
62 99 178
62 99 175
62 99 179
62 99 179
62 99 177
61 99 179
62 99 177
62 99 179
62 99 179
62 99 176
62 99 176
62 99 178
62 99 177
62 99 179
63 100 180
62 99 178
62 99 177
63 99 177
61 98 173
62 99 178
63 99 178
62 99 172
62 99 175
63 99 178
62 99 176
62 99 178
62 99 178
62 99 171
62 99 176
63 99 177
62 99 179
62 99 175
61 98 177
62 99 177
62 99 175
63 99 174
62 98 173
62 99 175
63 100 179
61 99 178
63 100 176
62 99 176
63 99 174
62 99 175
62 98 173
62 99 176
63 99 174
62 99 177
62 98 171
61 98 175
62 99 175
61 98 171
62 98 175
61 97 166
62 98 170
61 97 168
61 97 170
62 99 173
62 98 169
62 98 170
62 99 174
61 97 164
61 97 168
60 95 158
61 96 165
61 96 161
60 96 161
62 97 165
59 94 158
60 95 158
59 93 151
63 89 138
90 92 63
65 71 50
80 83 58
73 76 56
85 88 63
94 95 65
73 78 57
86 90 65
91 93 65
77 82 61
86 89 61
92 96 69
80 86 64
102 104 73
96 99 73
101 104 73
96 101 72
97 101 73
114 115 79
125 125 80
98 101 71
107 111 80
105 107 68
128 129 87
119 119 80
110 112 79
123 122 82
121 122 76
124 124 81
123 124 81
126 127 84
123 123 80
140 139 87
138 137 81
135 133 86
134 134 83
145 144 92
151 148 94
137 135 88
148 147 92
145 143 89
147 144 91
145 143 88
155 151 89
153 150 95
157 154 96
154 151 93
157 154 93
156 153 93
159 155 96
161 157 94
159 156 93
164 160 96
163 158 97
168 163 96
170 165 99
163 159 94
162 158 94
170 164 98
164 160 92
165 160 96
169 163 97
167 162 93
163 159 91
170 164 97
172 166 99
167 162 94
170 164 97
171 165 97
170 165 98
173 167 98
173 166 92
176 170 100
170 165 95
169 163 94
171 166 94
171 166 97
174 168 100
171 166 93
175 168 98
168 163 88
173 166 96
171 165 95
172 166 95
174 167 98
175 168 97
171 165 96
175 168 97
173 166 97
169 162 93
169 163 94
174 167 97
165 159 90
172 164 93
171 165 95
164 158 90
169 163 92
169 163 92
169 163 93
162 156 90
166 159 85
168 161 93
158 152 82
167 160 86
167 160 87
165 159 86
161 155 83
165 158 85
169 163 87
166 160 89
167 160 93
158 153 82
161 154 82
159 154 79
157 151 80
159 153 83
163 155 84
152 146 78
161 154 86
156 150 80
152 146 74
153 147 74
153 147 74
153 147 79
162 156 82
158 152 75
162 154 83
143 137 72
153 147 75
150 143 76
143 138 69
146 140 66
138 132 63
145 140 66
142 135 67
140 134 65
132 126 56
126 121 49
140 134 62
149 156 47
172 195 0
173 194 0
171 194 0
170 193 0
170 193 0
172 194 0
174 197 0
172 196 0
171 195 0
177 199 0
173 196 0
173 196 0
173 197 0
173 197 0
171 195 0
175 198 0
175 198 0
173 196 0
172 196 0
173 196 0
172 195 0
171 194 0
173 196 0
172 195 0
173 197 0
172 195 0
172 196 0
172 195 0
172 196 0
171 195 0
172 195 0
173 196 0
171 194 0
173 196 0
168 192 0
173 196 0
168 192 0
174 197 0
173 195 0
171 194 0
172 195 0
175 198 0
172 195 0
171 194 0
168 192 0
171 194 0
174 197 0
171 194 0
174 197 0
170 193 0
171 195 0
172 196 0
169 193 0
171 194 0
173 196 0
169 193 0
172 195 0
174 197 0
174 198 0
169 192 0
176 199 0
173 196 0
173 196 0
171 195 0
173 196 0
171 194 0
170 193 0
168 191 0
172 196 0
170 193 0
170 194 0
169 192 0
171 195 0
172 195 0
168 191 0
171 194 0
172 195 0
171 195 0
170 194 0
171 194 0
171 195 0
170 193 0
172 196 0
172 196 0
172 194 0
171 194 0
168 192 0
170 192 0
171 194 0
169 193 0
173 196 0
173 197 0
170 193 0
169 192 0
172 196 0
169 191 0
168 191 0
171 194 0
172 195 0
172 195 18
86 117 165
63 100 178
62 99 178
62 99 176
62 99 180
62 99 179
62 99 181
62 99 180
62 99 180
62 99 178
62 99 181
62 99 178
62 99 180
62 99 181
62 99 180
62 99 181
62 99 179
62 99 179
62 99 180
62 99 180
62 99 178
62 99 181
61 98 179
62 99 181
62 99 180
62 99 180
61 98 178
62 99 179
62 100 181
62 99 179
62 99 181
62 99 177
62 99 180
62 99 178
62 99 180
62 99 181
63 99 178
62 99 179
62 99 176
62 99 180
62 99 179
62 99 179
62 99 177
62 99 181
62 99 176
62 99 179
62 99 181
62 99 178
62 99 179
62 99 179
62 99 178
62 99 181
61 98 180
62 99 177
62 99 179
62 99 176
62 99 181
62 99 179
62 99 178
62 99 179
62 99 178
62 99 177
62 99 178
62 99 180
61 98 176
61 99 181
62 99 180
61 98 177
62 99 181
62 99 176
61 99 177
61 99 178
62 99 180
62 99 177
62 99 179
62 99 180
62 99 178
62 99 180
62 99 180
62 99 175
62 99 176
62 99 180
62 99 178
62 99 179
61 98 176
62 99 175
62 99 179
62 99 179
62 99 180
63 99 176
62 99 179
62 99 179
62 98 171
63 99 173
62 99 179
62 99 176
62 99 177
62 99 180
62 99 176
62 99 179
62 99 175
62 99 177
62 99 176
62 99 178
62 99 178
63 100 180
62 99 178
62 99 177
62 99 177
62 99 176
62 98 173
62 98 172
61 98 175
63 99 176
62 98 174
62 99 175
61 98 171
62 99 176
62 99 178
62 99 177
61 98 175
62 99 178
62 99 177
62 99 173
62 99 175
63 99 177
62 99 179
62 99 175
62 99 174
62 99 172
62 99 173
61 98 171
63 99 174
62 99 174
61 98 171
63 100 176
62 99 172
62 99 175
62 99 175
62 99 174
62 98 170
62 98 170
62 98 172
61 97 167
62 98 168
62 98 167
62 99 175
62 98 168
61 97 165
62 98 170
61 98 171
61 97 167
61 96 165
61 97 162
60 95 162
60 95 158
60 94 157
61 97 164
60 95 164
59 92 149
69 79 90
59 62 44
65 67 50
60 64 44
68 72 53
66 72 54
82 85 59
81 85 61
81 85 62
86 88 63
87 90 67
74 79 58
100 103 74
82 88 66
94 97 68
109 110 75
103 106 75
100 103 74
97 101 72
97 100 70
102 105 71
98 102 68
117 118 81
114 114 76
118 120 82
117 119 78
123 124 84
120 121 82
127 127 84
126 126 84
125 125 81
122 122 79
129 128 83
136 135 87
129 129 80
141 138 88
144 142 88
141 140 92
153 151 97
145 143 90
145 144 88
143 141 88
145 143 92
159 154 92
155 152 94
150 148 91
153 150 89
165 161 96
159 154 97
166 161 96
162 157 97
163 159 99
159 155 91
165 160 94
161 157 95
165 161 96
167 162 90
156 152 91
164 158 94
170 164 93
164 159 90
176 169 101
167 162 98
165 160 96
173 167 99
170 165 98
171 165 94
167 163 92
170 164 96
174 168 103
175 168 104
169 165 97
171 165 97
171 165 91
171 165 94
173 167 99
172 166 96
170 164 94
173 167 100
174 167 92
172 166 97
168 162 90
174 167 97
174 168 97
173 166 99
168 163 94
174 167 97
174 168 97
175 168 96
171 165 95
172 166 92
170 164 94
167 159 87
172 165 95
175 167 97
167 161 90
171 164 90
166 160 87
170 164 88
168 161 91
172 165 96
170 164 92
164 157 84
164 158 89
165 158 88
168 162 86
170 163 87
170 164 88
164 158 84
155 149 77
170 163 91
164 157 84
163 156 85
168 161 90
168 161 87
164 157 80
162 154 84
161 155 86
159 153 79
160 153 86
156 150 80
145 139 71
154 147 75
153 146 77
147 142 71
150 144 73
142 137 68
152 147 70
145 139 69
147 141 71
143 137 65
142 135 66
147 141 66
138 132 63
130 125 52
140 135 58
135 130 58
137 131 66
125 120 54
156 172 22
171 193 0
171 193 0
174 194 0
171 193 0
172 194 0
172 194 0
171 194 0
174 197 0
173 196 0
171 195 0
174 198 0
172 195 0
174 197 0
171 195 0
172 195 0
172 195 0
169 193 0
171 195 0
174 197 0
173 197 0
174 197 0
171 195 0
172 196 0
175 198 0
173 197 0
172 196 0
173 196 0
174 197 0
171 194 0
173 197 0
174 197 0
174 198 0
172 195 0
172 196 0
171 195 0
173 197 0
172 195 0
173 196 0
174 198 0
172 196 0
169 192 0
173 197 0
173 195 0
173 197 0
171 194 0
169 192 0
173 195 0
174 197 0
172 195 0
172 195 0
172 195 0
173 196 0
172 196 0
170 194 0
169 192 0
169 193 0
168 192 0
171 193 0
173 196 0
170 193 0
169 192 0
170 193 0
169 193 0
171 194 0
171 192 0
173 197 0
171 195 0
168 191 0
172 195 0
171 195 0
172 194 0
170 193 0
175 198 0
172 195 0
172 195 0
172 194 0
170 193 0
170 193 0
170 193 0
171 194 0
171 193 0
174 198 0
170 193 0
171 195 0
172 195 0
170 192 0
172 195 0
172 196 0
173 196 0
170 193 0
171 195 0
171 195 0
172 195 0
169 193 0
171 195 0
171 195 0
169 193 0
172 194 0
166 190 0
141 165 107
63 100 181
63 100 176
63 100 179
62 99 177
63 100 180
62 99 179
63 100 180
62 99 177
62 99 178
62 99 175
62 99 180
63 99 177
61 99 178
62 99 180
62 99 179
62 99 179
63 100 181
62 99 178
62 99 177
62 99 176
62 99 177
61 99 179
62 99 178
62 99 178
61 98 179
62 99 179
63 100 181
62 99 175
62 99 178
62 99 177
62 99 179
62 99 179
63 99 180
62 99 180
61 98 178
62 99 177
61 99 180
63 100 180
61 98 179
62 99 180
62 99 180
61 98 176
62 99 179
62 99 180
62 99 180
63 100 181
62 99 180
62 99 178
62 99 178
62 99 179
62 99 179
62 99 179
61 99 178
62 99 180
63 100 180
63 99 177
61 99 180
61 98 178
61 99 177
62 99 177
62 99 176
62 99 181
62 99 180
61 98 174
61 99 180
62 99 178
62 99 180
62 99 176
62 99 179
62 99 178
62 99 180
62 99 179
62 99 178
61 98 175
62 99 177
62 99 176
62 99 178
62 99 174
62 99 178
62 99 177
62 99 177
61 98 176
62 99 177
62 99 178
62 99 178
62 99 174
62 99 177
62 99 181
62 99 177
62 99 179
61 98 176
62 99 175
62 99 176
62 99 178
62 99 178
61 98 173
62 99 179
62 99 177
62 99 177
62 99 178
63 99 177
62 99 173
62 99 174
62 99 174
61 98 176
62 99 178
62 99 176
62 99 176
62 99 177
62 99 178
62 99 176
61 98 177
62 99 172
62 99 176
62 99 175
62 98 173
62 99 174
62 98 173
62 99 178
63 99 177
62 99 177
63 100 178
62 99 175
63 99 176
62 99 175
63 99 174
61 98 171
62 98 172
62 98 171
63 99 176
61 98 175
62 99 174
61 98 170
62 99 176
62 98 173
61 98 170
62 98 170
63 99 173
62 99 173
62 98 173
61 98 171
62 98 170
62 98 170
62 98 170
62 98 170
62 98 167
62 98 169
62 98 173
62 97 165
62 98 168
63 99 174
60 95 166
61 96 164
62 98 169
60 96 165
61 97 166
61 95 163
62 97 163
61 96 159
59 92 157
62 91 143
48 56 48
75 78 57
68 72 51
69 72 47
59 65 48
65 70 53
77 80 57
70 76 59
78 81 53
73 78 57
73 78 55
83 88 63
83 86 62
90 94 65
87 92 67
101 103 74
101 104 73
103 106 72
97 100 71
107 110 73
106 108 73
114 115 79
115 116 77
101 105 74
119 120 80
126 126 83
119 120 76
128 128 83
132 131 83
128 129 83
120 122 83
131 130 83
134 133 86
142 140 83
139 138 85
144 142 88
150 147 90
139 138 84
142 141 87
139 139 86
149 146 90
147 145 90
150 146 88
142 139 83
152 149 91
150 148 92
159 156 96
156 152 92
156 152 90
163 158 95
156 152 91
152 149 88
168 162 102
165 160 94
164 160 98
161 157 92
165 159 97
166 161 93
165 160 96
169 163 98
167 161 93
171 166 100
170 165 98
163 159 94
169 163 96
170 164 94
167 162 93
169 164 95
172 166 95
172 166 94
170 165 97
173 166 96
171 164 90
172 165 92
176 168 97
171 166 94
171 165 95
170 164 94
169 163 91
174 168 98
171 166 92
173 166 97
174 167 95
175 168 99
174 168 97
169 164 89
171 165 89
169 163 84
170 164 93
173 166 93
170 164 89
172 165 95
175 168 96
176 170 100
167 161 89
173 166 94
167 162 93
169 163 93
170 164 90
168 161 90
166 160 86
172 165 95
162 156 87
168 161 92
165 158 88
164 158 86
171 163 93
168 161 87
158 151 83
164 158 82
166 160 83
164 157 87
164 157 90
164 158 86
165 157 88
165 158 81
158 152 75
160 154 81
156 151 75
156 150 78
155 148 75
155 149 78
152 145 75
156 149 77
148 142 70
154 147 74
149 143 75
145 139 70
152 146 73
150 143 67
153 145 69
139 133 63
142 137 64
140 134 66
134 128 58
144 138 70
130 125 56
137 131 57
154 171 25
171 193 0
172 195 0
172 193 0
172 193 0
171 193 0
172 196 0
173 195 0
172 195 0
173 196 0
172 195 0
170 194 0
173 196 0
173 196 0
169 193 0
171 195 0
172 196 0
173 196 0
171 195 0
174 196 0
171 195 0
172 196 0
172 195 0
173 196 0
168 191 0
172 195 0
169 193 0
173 196 0
170 194 0
171 194 0
173 197 0
171 193 0
174 197 0
175 198 0
173 196 0
173 195 0
174 196 0
173 196 0
172 196 0
172 196 0
173 196 0
174 196 0
169 193 0
173 195 0
173 196 0
174 198 0
173 196 0
169 192 0
171 195 0
172 196 0
170 193 0
169 193 0
171 194 0
170 193 0
173 196 0
171 195 0
170 194 0
171 194 0
171 194 0
169 192 0
171 194 0
166 190 0
173 196 0
172 195 0
173 197 0
171 194 0
170 193 0
172 194 0
174 196 0
172 195 0
171 194 0
174 197 0
173 196 0
171 195 0
168 192 0
172 195 0
172 196 0
173 196 0
170 193 0
168 192 0
170 194 0
172 195 0
171 194 0
172 195 0
167 191 0
169 193 0
171 193 0
171 194 0
170 194 0
171 194 0
169 192 0
173 196 0
168 192 0
169 191 0
173 196 0
170 194 0
168 192 0
170 194 0
169 192 0
168 192 25
100 130 157
63 100 179
62 99 180
62 99 177
62 99 175
63 99 178
63 100 180
63 100 178
63 99 178
63 100 180
63 100 179
62 99 181
62 99 179
62 99 178
61 99 178
62 99 180
62 99 180
62 99 179
62 99 178
62 99 178
62 99 180
62 99 180
62 99 178
63 99 178
62 99 179
62 99 181
62 99 181
62 99 180
62 99 177
62 99 180
61 99 179
62 99 179
61 99 179
62 99 178
62 99 181
62 99 178
62 99 179
62 99 181
62 99 179
61 99 179
61 98 178
62 99 180
62 99 177
61 98 177
62 99 179
62 99 179
62 99 180
62 99 176
62 99 178
62 99 179
62 99 177
62 99 179
62 99 180
62 99 179
62 99 179
63 99 178
62 99 178
62 99 179
62 99 181
62 99 177
62 99 180
62 99 180
62 99 178
62 99 180
62 99 177
62 99 176
62 99 179
62 99 178
62 99 177
62 99 180
62 99 180
62 99 180
61 99 179
62 99 177
62 99 181
62 99 180
62 99 179
62 99 177
63 100 180
62 99 178
62 99 177
61 98 177
62 99 175
62 99 176
62 99 178
62 99 180
62 99 178
62 99 179
62 99 177
61 98 177
61 98 176
62 99 176
62 99 176
62 99 177
62 99 176
62 99 178
63 99 180
62 99 178
63 100 181
62 99 175
63 99 177
62 99 177
62 99 178
61 99 177
61 98 179
62 99 175
61 98 179
62 99 178
62 99 176
62 99 176
62 99 176
62 98 170
62 99 175
63 99 176
61 98 173
62 99 175
62 99 174
62 99 175
62 99 175
62 99 172
62 98 171
62 99 171
63 100 177
62 99 176
61 98 169
63 100 178
61 98 172
62 99 174
62 98 170
62 99 174
62 99 174
63 99 176
62 98 173
62 98 170
62 99 176
62 99 171
61 97 171
62 99 173
61 97 164
62 99 175
63 99 177
62 98 168
62 99 172
62 98 172
62 98 167
61 98 173
62 98 171
61 97 165
61 98 170
62 98 167
61 97 166
61 97 161
61 97 165
61 96 160
61 96 163
61 96 164
61 97 161
61 96 166
62 98 167
60 95 163
59 94 155
57 89 148
71 82 99
65 69 50
50 56 42
61 67 51
72 75 54
66 71 53
60 66 49
76 80 58
79 82 56
77 83 62
84 89 64
83 86 62
74 80 60
88 93 63
100 102 70
114 115 81
108 109 74
96 98 65
100 103 72
107 109 71
105 108 74
113 114 78
115 117 81
119 119 80
101 105 69
125 124 77
114 115 75
128 128 81
115 115 72
140 138 81
135 134 84
137 134 82
130 128 83
146 144 89
141 138 86
141 139 84
127 127 77
149 147 89
141 139 85
140 137 84
147 145 88
149 147 91
151 147 87
147 145 87
155 151 93
154 151 87
154 151 91
156 152 91
166 160 94
159 155 93
153 150 92
159 155 93
161 156 91
161 156 94
164 159 94
162 158 91
167 162 97
163 158 88
166 161 91
167 162 96
167 161 93
167 162 94
166 161 98
164 159 91
165 161 94
167 161 95
173 166 98
168 164 95
168 163 95
173 167 97
168 164 93
172 165 98
171 165 91
171 165 96
172 165 90
169 164 95
170 164 93
174 168 99
174 167 97
176 169 98
168 162 87
168 162 83
165 161 91
170 164 95
171 164 95
175 168 95
172 165 94
172 165 95
169 163 88
169 162 89
175 167 95
175 168 95
173 166 92
172 165 93
170 164 90
161 155 84
170 164 93
172 165 91
173 166 94
171 164 92
169 162 91
169 163 86
162 156 90
167 161 87
165 158 90
167 160 87
162 155 87
162 155 84
165 158 87
163 156 83
158 153 83
160 154 75
156 151 75
162 156 86
156 150 78
158 151 81
159 153 79
153 148 75
159 153 81
156 149 79
153 147 83
162 156 83
149 144 75
160 153 80
149 143 69
146 141 68
142 137 64
149 142 65
146 141 62
149 144 66
148 141 69
139 135 57
137 132 54
147 140 65
141 135 64
129 123 56
123 118 53
124 118 53
168 188 16
171 193 0
171 193 0
170 192 0
171 193 0
172 195 0
170 192 0
174 197 0
172 196 0
174 197 0
173 196 0
174 196 0
172 196 0
172 194 0
172 195 0
169 192 0
172 195 0
172 195 0
171 194 0
174 198 0
169 193 0
172 196 0
173 197 0
172 196 0
172 196 0
173 196 0
173 196 0
171 196 0
173 197 0
173 197 0
172 196 0
170 193 0
173 197 0
170 193 0
172 195 0
171 195 0
174 197 0
171 195 0
173 197 0
173 196 0
171 194 0
169 192 0
174 197 0
173 196 0
173 196 0
173 196 0
172 195 0
174 197 0
172 195 0
171 195 0
173 196 0
171 194 0
173 196 0
171 195 0
168 191 0
171 194 0
171 195 0
168 191 0
170 193 0
174 197 0
171 195 0
169 193 0
171 195 0
170 194 0
171 195 0
172 195 0
171 194 0
171 194 0
168 191 0
167 190 0
172 195 0
170 193 0
172 195 0
170 193 0
168 190 0
174 197 0
173 196 0
171 195 0
172 196 0
171 194 0
171 194 0
172 195 0
172 195 0
171 194 0
171 194 0
174 196 0
171 195 0
171 194 0
167 190 0
171 195 0
168 191 0
170 193 0
170 192 0
171 195 0
170 193 0
171 195 0
167 191 0
168 192 0
171 194 0
143 168 107
63 100 178
63 99 178
63 100 178
62 99 178
62 99 179
62 99 179
63 100 181
63 100 180
63 99 178
62 99 180
62 99 180
62 99 179
63 99 176
62 99 178
62 99 180
61 99 179
63 100 181
62 99 176
62 99 179
62 99 181
62 99 180
62 99 179
62 99 177
62 99 179
62 99 180
62 99 179
62 99 179
62 99 181
62 99 180
62 99 178
61 98 177
62 99 179
63 99 180
62 99 178
62 99 180
62 99 177
61 98 176
62 99 177
62 99 179
62 99 177
62 99 180
62 99 180
62 99 180
61 98 176
62 99 176
62 99 178
62 99 178
62 99 179
61 98 177
62 99 180
62 99 179
62 99 176
62 99 179
62 99 178
62 99 172
62 99 178
62 99 177
62 99 179
62 99 176
62 99 180
63 99 176
62 99 176
63 99 177
62 99 179
61 98 179
62 99 181
62 99 180
62 99 177
62 99 179
61 99 180
62 99 180
63 100 179
62 99 176
62 99 180
63 99 177
62 99 179
63 100 179
62 99 180
62 99 176
62 99 179
61 98 178
62 99 178
61 98 175
62 99 178
62 99 177
62 99 176
62 99 177
62 98 174
62 99 177
62 99 177
62 99 174
62 99 178
62 99 175
61 98 175
62 99 179
62 99 175
62 99 177
62 99 177
62 99 176
62 99 180
62 99 176
62 99 176
62 98 174
62 99 179
62 99 177
62 99 181
63 99 178
63 99 175
63 99 179
62 99 175
62 98 172
62 99 175
62 99 179
62 99 176
61 98 171
62 99 173
62 99 178
62 99 181
61 98 173
62 99 172
62 99 173
63 99 177
62 99 174
63 99 172
62 99 176
62 99 174
62 99 170
62 99 173
62 99 172
61 98 175
62 99 172
62 99 175
62 98 168
62 98 169
62 99 178
62 98 169
62 98 165
62 99 177
62 99 176
62 99 174
61 98 168
62 99 175
62 99 173
62 99 172
61 97 165
61 98 170
62 99 170
61 97 164
62 99 173
63 99 174
62 98 170
61 97 162
61 97 168
60 96 163
61 95 157
60 96 160
61 97 169
61 96 165
61 96 170
60 94 159
60 95 158
57 91 145
58 86 142
63 67 48
68 74 55
57 63 46
72 74 53
65 70 53
70 75 54
66 72 53
68 75 56
75 81 58
63 71 54
80 85 63
79 83 60
99 102 70
83 88 62
88 92 66
96 99 67
93 96 67
106 108 72
106 108 73
100 103 68
110 111 75
114 115 74
109 111 74
120 122 81
130 129 80
120 120 76
117 118 79
112 114 75
126 125 80
129 128 85
134 133 83
138 136 84
141 138 86
141 139 84
140 138 84
139 138 78
141 138 84
139 138 82
153 150 89
147 144 89
142 141 87
147 144 88
149 146 87
157 153 86
159 155 88
160 155 94
150 148 91
164 159 93
162 157 96
154 150 91
158 154 92
161 156 90
164 159 94
165 160 99
160 156 93
161 157 87
166 160 93
165 160 90
165 160 97
169 164 94
172 165 95
160 155 87
171 164 101
169 164 93
170 164 93
170 164 91
167 163 93
167 161 94
168 163 88
166 162 91
173 167 97
169 163 95
174 167 98
172 166 95
173 167 93
171 165 93
172 165 93
169 163 93
171 166 98
170 164 90
169 163 91
172 166 94
173 167 95
171 165 93
168 162 89
175 168 100
167 161 88
170 164 93
176 169 97
173 166 92
170 164 90
168 162 94
170 163 91
169 162 90
170 164 94
173 166 90
166 160 86
172 165 93
166 159 86
171 164 93
165 159 85
163 156 85
165 159 85
162 156 86
162 156 79
163 156 81
157 152 82
162 157 80
162 155 84
160 154 83
155 149 80
165 158 87
155 149 80
167 160 82
160 154 79
159 152 77
150 144 67
161 153 77
163 156 82
148 142 75
158 151 75
153 146 76
149 143 69
156 150 77
155 149 77
143 138 62
145 139 72
144 137 64
153 147 70
142 135 71
137 133 57
135 129 61
129 125 56
130 126 54
134 129 59
130 125 54
127 125 49
172 194 0
170 193 0
171 193 0
172 194 0
173 196 0
173 196 0
172 195 0
174 197 0
174 197 0
173 196 0
171 195 0
172 195 0
174 197 0
173 197 0
175 198 0
172 195 0
173 197 0
172 196 0
174 196 0
172 195 0
173 197 0
173 196 0
170 194 0
170 194 0
173 196 0
171 195 0
171 195 0
171 193 0
172 196 0
171 194 0
173 196 0
171 193 0
172 195 0
171 194 0
171 195 0
174 197 0
171 195 0
168 192 0
171 195 0
172 196 0
170 192 0
173 197 0
172 196 0
173 196 0
172 195 0
173 195 0
175 198 0
174 196 0
174 198 0
172 195 0
172 195 0
171 194 0
172 195 0
172 196 0
174 197 0
172 195 0
172 195 0
171 194 0
172 195 0
167 190 0
175 198 0
173 196 0
172 196 0
169 193 0
174 197 0
168 192 0
170 194 0
170 194 0
173 196 0
170 194 0
170 194 0
170 193 0
168 191 0
172 195 0
172 194 0
169 193 0
171 195 0
170 194 0
170 193 0
170 193 0
170 193 0
175 198 0
173 195 0
172 195 0
172 195 0
171 194 0
171 194 0
171 195 0
170 194 0
172 195 0
168 192 0
169 192 0
171 195 0
169 191 0
171 194 0
171 194 0
171 194 0
171 194 0
171 195 0
94 124 159
63 99 176
63 100 179
62 99 179
63 99 178
63 100 179
62 99 180
62 99 176
63 100 178
63 99 177
63 100 178
62 99 179
62 99 180
62 99 178
62 99 180
62 99 179
63 100 180
62 99 180
62 99 180
61 99 178
61 98 178
63 99 178
62 99 178
62 98 178
62 99 180
62 99 176
62 99 181
62 99 180
63 100 180
62 99 178
62 99 177
63 99 179
62 99 180
62 99 179
62 99 177
62 99 179
62 99 176
63 99 177
61 98 179
63 100 180
62 99 180
61 98 177
62 99 179
62 99 179
63 100 180
62 99 180
61 98 178
62 99 178
61 98 175
63 100 179
62 99 179
62 99 180
62 99 177
61 98 176
61 98 177
62 99 178
62 99 178
62 99 179
63 100 180
63 100 180
62 99 179
61 98 176
63 100 179
62 99 179
62 99 180
62 99 176
62 99 177
62 99 178
62 99 179
62 99 180
62 99 177
62 99 174
61 98 178
62 99 178
62 99 178
62 99 175
62 99 178
61 99 178
63 99 178
63 100 181
62 99 176
62 99 177
61 98 178
62 99 175
63 99 178
62 99 174
62 99 179
62 99 174
61 98 177
63 100 179
63 100 179
62 99 177
62 99 177
62 99 180
62 99 178
61 98 175
62 99 176
63 100 177
62 99 177
62 99 180
62 99 176
62 99 176
61 98 175
62 99 176
62 98 171
62 99 180
62 99 179
63 100 177
61 98 174
62 99 174
62 99 180
62 99 172
62 99 176
62 98 169
62 99 176
62 99 173
62 99 174
62 99 171
61 98 174
62 99 176
63 99 176
62 99 175
61 98 170
62 99 174
62 99 178
62 99 174
62 99 170
62 98 173
63 99 178
62 98 172
63 100 176
62 99 172
62 98 166
62 99 174
62 99 175
62 98 169
62 99 175
62 98 170
62 99 171
62 98 173
62 98 168
62 98 166
62 99 172
62 98 170
61 98 168
62 98 165
62 99 170
62 98 168
62 98 166
62 98 171
62 98 167
62 98 170
62 97 163
62 98 169
62 98 168
61 97 167
61 96 164
61 96 159
60 95 162
60 95 159
60 95 160
59 93 149
59 93 157
60 93 156
63 75 89
46 55 45
64 68 49
64 67 46
66 72 54
60 66 48
78 82 59
75 79 58
82 87 61
72 78 58
86 89 61
79 84 59
83 89 65
81 85 60
79 84 58
95 98 69
97 100 67
91 95 61
94 99 65
99 103 68
105 107 67
119 120 77
122 122 79
114 116 76
121 121 73
117 118 78
127 127 80
122 122 77
127 126 78
130 129 81
133 130 79
125 125 80
140 138 84
136 135 83
140 138 84
143 141 86
145 144 89
149 146 90
146 144 87
138 136 83
146 143 89
154 151 88
146 143 87
158 153 92
148 146 87
159 155 93
152 149 89
157 153 90
163 159 95
156 153 88
152 149 89
155 151 90
158 154 94
163 158 92
166 160 98
170 164 94
167 162 96
168 163 95
163 158 88
166 161 94
171 165 96
168 162 96
165 161 92
173 167 99
167 162 91
169 163 94
169 163 89
169 163 93
171 164 90
171 165 96
170 164 93
169 163 94
175 168 98
164 160 90
170 164 91
173 166 96
172 165 90
176 168 95
175 168 95
173 166 89
173 166 93
169 162 92
173 166 92
168 162 87
168 162 87
166 161 82
164 158 90
171 164 90
166 160 85
171 163 89
166 160 86
171 164 94
167 162 91
175 167 98
168 161 90
170 163 93
163 158 88
169 162 91
166 160 85
170 162 87
166 160 90
168 160 91
169 161 88
165 158 85
169 162 93
164 157 85
160 154 80
159 152 79
158 152 80
161 154 80
163 157 85
165 158 80
150 145 72
163 157 87
162 155 85
160 154 79
154 148 76
156 149 75
156 150 80
148 144 67
157 150 80
150 144 73
150 144 67
151 145 68
158 151 77
146 140 71
143 138 65
143 137 73
149 143 74
150 143 67
142 137 64
133 127 61
137 131 61
137 132 54
137 130 61
120 116 44
137 141 44
169 191 0
172 195 0
171 193 0
169 191 0
171 192 0
170 194 0
173 196 0
173 196 0
171 195 0
171 194 0
171 195 0
172 196 0
173 196 0
172 195 0
170 194 0
175 198 0
172 196 0
172 196 0
174 197 0
173 197 0
169 192 0
170 194 0
172 196 0
171 194 0
171 194 0
174 198 0
172 195 0
174 197 0
173 196 0
171 194 0
172 196 0
173 196 0
174 196 0
172 196 0
172 195 0
171 195 0
170 194 0
172 195 0
172 195 0
172 195 0
172 195 0
172 195 0
172 196 0
171 195 0
171 195 0
169 193 0
170 194 0
170 193 0
175 198 0
171 194 0
170 194 0
171 195 0
172 196 0
173 196 0
169 193 0
172 194 0
170 194 0
172 195 0
172 195 0
173 196 0
168 192 0
172 195 0
175 198 0
173 197 0
171 194 0
169 193 0
169 193 0
170 194 0
172 195 0
173 196 0
171 194 0
171 195 0
170 193 0
170 194 0
168 192 0
166 190 0
170 194 0
170 194 0
171 194 0
171 194 0
170 194 0
172 194 0
172 196 0
173 196 0
171 195 0
173 196 0
170 193 0
169 193 0
170 193 0
171 194 0
172 196 0
170 194 0
171 195 0
171 193 0
168 193 0
174 196 0
170 194 0
172 196 0
151 174 90
63 99 175
62 99 173
63 100 179
63 100 179
63 99 178
63 100 180
63 99 179
62 99 177
62 99 177
62 99 176
63 100 180
62 99 180
62 99 179
62 99 177
62 99 177
63 100 181
62 99 181
62 99 181
62 99 179
62 99 181
63 100 180
62 99 180
62 99 179
62 99 179
62 99 179
62 99 179
62 99 176
62 99 181
62 99 179
63 99 177
62 99 179
63 100 180
62 99 176
62 99 176
62 99 177
62 99 181
62 99 179
62 99 178
62 99 179
61 99 178
62 99 180
62 99 179
63 100 180
62 99 177
62 99 180
62 99 177
62 99 177
62 99 176
62 99 180
62 99 180
62 99 179
62 99 176
62 99 177
62 100 181
62 99 178
62 99 176
61 98 175
62 99 176
62 99 176
62 99 178
62 99 178
62 99 178
62 99 180
62 99 178
62 99 176
62 99 178
63 99 176
62 99 175
62 99 178
62 99 175
63 99 177
62 99 177
63 100 179
62 99 179
62 99 175
62 99 179
62 98 173
63 100 179
63 100 179
63 99 177
61 99 178
62 99 179
62 99 179
62 99 176
62 99 178
62 99 175
62 99 178
62 99 177
62 99 178
62 99 176
62 99 175
63 100 178
61 98 173
62 99 178
62 99 176
62 99 177
62 99 179
63 99 176
62 99 175
62 99 174
63 100 177
62 99 177
62 99 176
62 99 177
62 99 174
61 98 174
62 99 175
62 99 173
62 99 176
63 100 179
62 99 174
62 99 176
62 99 176
62 99 174
62 99 173
63 99 171
62 99 175
62 99 176
61 98 174
63 100 178
62 99 173
62 99 171
62 99 173
62 99 172
62 99 169
62 98 171
62 99 173
62 98 173
62 99 174
62 99 175
62 98 171
62 98 173
62 99 176
61 98 170
62 98 170
62 99 173
61 98 170
63 99 175
62 98 167
62 98 173
62 98 171
62 98 169
62 99 172
61 98 169
61 97 162
60 96 161
63 99 170
62 98 174
60 96 165
62 98 171
62 98 170
61 96 161
62 98 169
61 98 165
63 99 171
60 96 161
62 98 168
61 97 167
60 96 166
61 96 161
60 94 158
60 95 156
61 96 162
61 94 158
60 87 136
53 58 43
66 70 51
56 62 45
50 58 46
64 70 52
80 85 61
66 71 54
75 79 56
70 76 56
73 78 55
74 81 58
83 88 61
87 90 58
86 90 62
104 105 68
97 99 66
100 102 68
92 96 64
93 95 62
100 103 73
103 106 71
111 113 75
114 116 76
119 118 72
116 116 71
126 126 82
121 121 75
133 132 84
120 121 78
120 120 74
128 127 74
127 127 79
127 126 76
122 123 74
141 139 82
136 135 84
136 135 85
141 139 82
136 135 79
141 139 79
150 146 88
142 139 80
155 151 90
153 148 90
149 147 82
156 151 89
161 157 93
162 158 89
154 151 87
164 158 88
164 158 90
166 160 93
166 161 97
157 153 86
164 159 93
166 161 96
157 153 88
159 155 87
169 164 97
164 159 90
162 157 89
170 165 90
170 164 90
168 162 95
166 160 92
172 166 97
168 162 89
165 160 91
174 167 94
173 166 97
172 166 84
173 166 95
167 161 88
165 159 84
173 165 95
173 165 93
167 161 84
171 165 93
170 164 92
170 164 87
172 166 93
169 162 87
173 166 95
169 162 87
174 167 91
172 165 95
168 163 90
167 161 89
168 161 90
165 159 91
170 164 93
165 159 84
168 162 90
169 162 92
169 162 87
165 158 83
165 159 90
165 159 84
168 161 93
169 162 90
160 154 80
163 157 85
160 154 82
169 161 81
160 154 78
165 158 85
164 157 84
162 155 77
165 158 82
159 154 78
165 158 80
155 149 75
155 149 72
159 152 79
158 151 80
152 147 71
155 149 77
151 145 81
151 147 76
160 153 78
151 145 73
147 141 68
149 144 72
145 140 63
151 145 76
142 137 66
148 142 68
142 137 62
138 134 62
132 126 53
143 136 63
146 141 65
127 122 58
136 131 56
122 117 53
137 146 36
172 194 0
173 196 0
173 195 0
170 192 0
167 190 0
173 194 0
169 190 0
173 197 0
170 194 0
174 197 0
172 195 0
171 195 0
173 196 0
172 195 0
171 194 0
173 197 0
171 194 0
172 195 0
174 197 0
171 194 0
170 194 0
169 193 0
175 198 0
172 196 0
170 194 0
175 197 0
172 195 0
172 195 0
171 195 0
170 193 0
173 196 0
174 197 0
173 197 0
171 195 0
172 195 0
175 198 0
171 194 0
172 195 0
173 197 0
168 192 0
172 194 0
169 194 0
172 195 0
171 194 0
174 197 0
169 192 0
172 196 0
173 196 0
171 194 0
171 195 0
172 195 0
172 194 0
170 194 0
169 193 0
172 195 0
172 196 0
171 195 0
170 194 0
172 195 0
171 194 0
168 192 0
171 195 0
169 193 0
173 197 0
166 190 0
171 194 0
171 195 0
171 194 0
169 192 0
171 194 0
172 195 0
174 197 0
171 195 0
171 195 0
172 196 0
172 195 0
171 193 0
168 191 0
169 193 0
173 196 0
170 193 0
171 194 0
167 190 0
171 195 0
171 194 0
172 195 0
172 195 0
167 191 0
174 197 0
170 194 0
166 189 0
172 195 0
170 193 0
172 196 0
170 193 0
168 190 0
170 194 0
170 193 0
115 142 142
63 100 179
63 100 180
63 100 179
63 100 177
63 100 178
63 100 178
63 100 181
62 99 178
62 99 178
62 99 180
62 99 178
62 99 179
62 99 178
62 99 178
61 99 178
62 99 178
62 99 178
62 99 179
63 99 178
62 99 179
62 99 179
62 99 180
63 100 181
63 99 178
62 99 179
62 99 179
62 99 179
62 99 179
61 98 174
62 99 180
62 99 181
62 99 180
62 99 179
62 99 181
62 99 180
61 99 181
62 99 178
62 99 176
62 99 180
62 99 178
62 99 177
63 100 180
62 99 179
62 99 180
62 99 180
62 99 178
63 99 179
62 99 178
62 99 179
62 99 180
62 98 175
63 99 180
62 99 177
62 99 176
62 99 179
61 98 178
62 99 178
62 99 179
62 99 178
62 99 181
62 99 177
62 99 179
62 99 179
62 99 174
62 99 177
62 99 177
62 99 177
62 99 176
62 99 177
63 100 179
63 100 181
62 99 178
62 99 176
62 99 180
62 99 178
62 99 177
62 99 178
63 100 180
62 99 178
62 99 177
62 99 177
62 99 175
62 99 177
62 99 179
62 99 176
62 99 176
62 99 174
62 99 172
62 99 177
62 99 175
62 99 179
62 99 176
62 99 175
62 99 172
62 99 174
62 99 178
62 98 175
62 99 178
62 99 177
62 98 173
62 99 175
62 99 175
62 99 172
62 99 178
62 99 175
62 99 178
62 99 176
61 98 176
62 99 174
62 99 173
62 99 174
62 99 176
62 99 176
62 99 176
63 99 174
62 99 175
62 99 174
63 99 174
62 99 177
62 99 176
62 98 171
63 99 173
62 99 169
62 99 172
62 99 167
62 99 175
62 99 174
62 99 174
63 99 176
63 100 174
62 98 170
62 99 174
62 99 175
62 98 171
62 99 173
62 98 168
63 99 173
62 98 170
62 98 167
61 98 169
63 99 171
62 98 174
62 99 170
62 99 172
62 99 170
62 98 167
62 98 167
61 97 167
62 99 173
61 97 160
62 99 171
61 97 164
61 97 160
61 96 161
61 96 163
61 96 159
62 97 165
62 98 167
61 96 162
61 97 159
60 95 161
61 96 162
60 95 162
59 93 156
57 89 140
66 75 82
53 58 40
59 65 47
58 64 49
76 80 56
46 53 39
63 68 52
62 69 51
75 80 58
72 76 52
78 82 56
83 86 62
67 72 50
102 103 71
90 94 67
101 103 68
113 112 71
112 112 72
101 103 71
101 104 67
107 108 68
108 109 70
110 112 73
121 120 77
111 112 68
110 112 71
130 129 81
126 124 72
126 126 80
129 128 79
129 128 80
125 125 75
143 140 85
132 131 81
147 144 82
146 142 88
144 141 85
148 146 87
148 145 85
152 148 87
152 148 87
142 139 77
153 149 90
144 141 85
162 156 92
160 156 91
156 152 88
152 149 85
146 144 80
161 156 92
161 157 94
166 161 91
161 156 90
166 161 91
161 157 88
161 156 90
159 154 85
158 155 87
164 159 93
164 159 90
163 158 79
171 165 92
164 159 89
166 160 91
167 161 87
175 168 97
171 165 92
168 163 93
167 162 91
171 165 90
169 164 93
174 167 94
165 160 84
171 165 96
166 160 89
173 166 93
167 161 85
169 163 89
168 162 91
167 162 86
173 167 92
173 167 93
169 162 90
170 163 93
171 165 90
173 165 91
171 164 93
166 160 86
166 160 86
165 160 90
171 164 90
166 159 85
165 160 86
169 163 89
157 153 71
165 160 86
166 160 84
164 157 82
163 157 81
159 153 80
165 158 85
168 161 87
162 156 88
158 152 80
163 156 86
162 155 83
161 155 78
157 152 80
163 156 84
154 148 75
157 149 81
158 152 80
161 154 80
156 149 76
152 146 76
163 156 78
155 148 74
156 149 75
158 152 75
154 148 76
154 147 82
149 143 70
145 140 67
147 141 63
150 144 64
142 136 66
139 134 61
137 133 54
146 140 61
143 137 63
143 136 63
130 124 54
137 132 61
137 131 56
128 123 48
155 170 32
172 192 0
170 192 0
171 194 0
173 195 0
172 195 0
172 193 0
174 195 0
173 197 0
171 194 0
174 197 0
169 193 0
171 195 0
172 196 0
170 194 0
171 195 0
171 194 0
173 197 0
173 196 0
172 195 0
174 197 0
172 196 0
174 197 0
173 197 0
172 196 0
173 197 0
173 196 0
174 198 0
169 193 0
175 198 0
171 194 0
173 196 0
171 195 0
175 198 0
170 194 0
172 196 0
172 195 0
174 197 0
174 197 0
174 196 0
171 194 0
174 197 0
171 195 0
170 193 0
171 194 0
169 193 0
171 195 0
171 194 0
170 194 0
172 195 0
172 195 0
171 195 0
169 193 0
172 196 0
172 196 0
173 197 0
170 193 0
173 197 0
171 194 0
169 192 0
169 192 0
172 195 0
172 196 0
170 194 0
173 196 0
170 194 0
170 194 0
169 193 0
173 196 0
165 189 0
173 196 0
173 196 0
173 196 0
171 194 0
169 193 0
170 192 0
172 195 0
171 194 0
171 195 0
172 195 0
172 196 0
169 192 0
169 192 0
173 197 0
170 193 0
168 192 0
171 194 0
172 194 0
166 190 0
168 191 0
166 189 0
169 191 0
167 190 0
169 193 0
171 194 0
170 194 0
171 194 0
169 193 0
167 191 51
65 101 179
64 100 181
63 100 179
63 99 179
63 100 178
63 100 181
63 99 178
62 99 178
62 99 178
63 100 180
63 100 180
63 99 176
63 100 179
62 99 179
63 99 177
63 100 180
62 99 178
62 99 180
62 99 176
62 99 177
62 99 178
62 99 180
62 99 177
62 99 178
62 99 178
62 99 179
61 99 181
61 99 180
62 99 180
63 100 179
62 99 175
62 99 176
62 99 178
62 99 177
62 99 179
62 99 181
63 99 179
62 99 177
62 99 178
62 99 176
62 99 179
62 99 180
62 99 179
61 98 172
62 99 177
62 99 177
62 99 177
62 99 178
62 99 180
62 99 179
62 100 181
62 99 181
62 99 174
61 98 175
63 100 180
63 100 181
62 99 175
62 99 180
62 99 180
62 99 177
62 99 180
62 99 179
62 99 177
62 99 179
62 99 177
62 99 178
62 99 177
62 99 181
62 99 175
62 99 177
62 99 178
62 99 177
61 98 177
62 99 176
62 99 178
62 99 178
62 99 178
62 99 179
62 99 177
63 99 176
62 99 176
62 99 175
62 99 171
62 99 179
62 99 178
62 99 175
62 99 180
62 99 176
62 99 178
62 99 181
62 99 174
62 99 175
62 99 175
62 99 175
62 99 178
62 99 177
62 99 176
62 99 176
62 99 171
62 99 175
62 99 177
62 98 170
62 99 178
62 99 175
62 99 174
62 99 178
61 98 174
62 99 177
62 99 175
61 98 171
62 99 176
62 99 176
62 99 173
62 99 171
63 99 176
62 99 173
61 98 173
61 98 171
62 99 175
62 99 174
63 99 172
62 99 171
62 99 171
63 99 174
62 98 166
62 99 178
61 98 167
62 98 168
62 99 176
63 99 172
62 99 174
62 98 168
62 99 172
63 99 173
61 98 174
61 97 166
61 98 172
62 99 172
62 98 170
62 98 166
62 98 169
62 98 171
62 99 170
61 98 171
62 98 171
62 99 173
62 98 170
62 99 173
62 98 170
62 98 168
62 98 169
63 99 170
61 98 166
61 97 163
62 98 165
62 98 170
61 97 164
61 96 161
61 97 165
61 96 160
61 96 166
61 96 159
59 93 148
59 93 155
59 93 154
59 93 155
65 85 119
31 41 36
59 65 47
57 62 46
48 56 43
57 63 48
64 69 49
71 75 52
65 69 44
80 84 57
82 85 52
76 82 60
78 82 56
81 86 61
96 97 64
103 105 69
85 90 59
91 94 59
99 101 66
97 99 63
104 105 66
112 113 73
119 120 72
114 114 72
110 112 71
121 122 74
125 124 79
124 124 79
124 125 74
123 122 75
123 125 81
131 130 75
138 137 82
130 128 77
139 137 82
142 140 89
137 135 79
140 137 83
148 145 88
143 140 80
141 139 84
146 143 88
146 144 87
153 150 88
155 150 87
146 144 81
157 153 90
158 153 91
143 141 81
162 157 83
148 145 84
161 156 89
159 154 85
159 154 87
165 159 90
163 157 91
172 165 98
164 159 92
167 161 93
170 164 93
169 163 92
166 160 93
168 162 93
171 165 95
166 161 88
169 162 91
168 162 87
172 165 93
169 163 92
171 164 93
169 163 90
173 166 91
169 163 90
171 165 95
173 166 94
171 164 91
170 163 87
168 163 87
167 162 84
174 167 91
171 163 89
171 165 87
170 163 90
171 165 90
169 163 89
171 164 93
169 162 93
165 159 81
161 154 82
165 158 88
169 163 89
169 162 90
172 165 93
167 160 84
166 159 81
164 158 85
163 157 80
166 160 85
164 159 82
166 159 85
158 153 80
166 159 88
162 155 82
160 153 83
165 158 82
157 151 83
163 156 80
160 153 84
148 143 68
159 153 80
162 155 81
162 155 81
154 148 70
157 151 77
157 151 75
160 153 77
150 144 69
152 146 69
155 149 74
149 143 72
151 145 73
151 145 72
153 146 71
152 146 69
133 127 64
149 143 66
151 144 69
152 145 75
137 131 58
143 138 60
141 134 64
142 136 63
133 128 56
131 126 47
132 127 56
166 184 11
169 191 0
172 194 0
173 195 0
170 191 0
170 193 0
172 194 0
174 197 0
172 195 0
170 194 0
172 196 0
172 196 0
174 197 0
169 192 0
169 192 0
173 196 0
174 197 0
175 198 0
173 195 0
172 195 0
172 195 0
170 194 0
171 194 0
173 196 0
174 198 0
172 196 0
171 194 0
172 196 0
171 195 0
174 196 0
173 196 0
171 194 0
174 197 0
169 193 0
169 194 0
170 194 0
172 197 0
171 195 0
170 193 0
171 195 0
171 195 0
172 195 0
168 191 0
170 194 0
173 197 0
171 194 0
171 195 0
168 192 0
171 194 0
173 196 0
171 194 0
172 195 0
171 195 0
172 194 0
167 191 0
173 196 0
172 195 0
173 197 0
173 196 0
172 196 0
171 194 0
171 193 0
170 194 0
171 195 0
170 194 0
171 194 0
171 194 0
169 192 0
172 195 0
169 193 0
171 195 0
169 192 0
169 193 0
169 192 0
170 193 0
169 192 0
169 192 0
165 189 0
168 192 0
173 195 0
169 193 0
168 192 0
167 191 0
170 193 0
169 193 0
170 193 0
169 192 0
169 193 0
171 194 0
172 195 0
173 196 0
173 196 0
169 192 0
167 190 0
170 192 0
173 196 0
170 193 0
170 193 0
129 155 125
64 100 178
63 100 178
62 99 177
63 100 178
63 100 180
63 100 179
62 99 178
63 100 180
61 98 175
62 99 178
62 99 177
63 100 179
63 100 180
62 99 179
62 99 180
61 99 178
63 100 180
62 99 179
63 100 179
61 99 179
61 98 179
62 99 180
61 98 176
62 99 176
63 99 179
61 98 178
62 98 175
62 99 180
62 99 178
62 99 179
62 99 176
62 99 180
63 99 177
62 99 177
62 99 177
62 99 179
62 99 175
62 99 179
62 99 180
62 99 178
62 99 178
62 99 180
62 99 179
61 98 175
62 99 179
62 99 174
62 99 178
61 98 174
62 99 180
61 98 174
62 99 178
62 99 178
62 99 176
63 100 179
62 99 177
62 99 180
62 99 177
61 98 174
62 99 177
62 99 180
62 99 178
62 99 176
62 99 178
63 100 179
61 98 173
62 99 176
62 99 178
62 99 180
62 99 173
62 99 180
62 99 177
63 100 177
61 98 178
62 99 174
62 99 175
61 98 175
61 98 176
63 99 175
62 99 177
62 99 176
62 99 177
62 99 178
62 99 178
62 98 172
62 99 176
62 99 178
62 98 173
62 99 179
62 99 175
62 98 177
62 99 174
63 99 178
62 99 177
62 98 173
62 99 177
62 99 175
62 98 174
61 98 170
62 99 177
62 99 174
62 98 171
63 99 176
63 99 177
62 99 176
62 99 176
62 99 173
61 98 174
62 98 173
62 99 175
62 99 176
62 98 172
62 99 175
62 98 176
62 99 175
62 99 172
62 99 174
62 99 174
62 98 171
62 99 179
62 99 177
62 99 172
62 99 174
62 98 171
62 99 175
62 99 171
62 99 174
63 100 177
61 98 174
62 98 169
62 99 172
62 99 174
61 98 168
62 99 174
62 99 170
62 98 169
62 99 173
62 99 170
63 99 173
62 98 169
62 98 170
62 99 172
62 99 171
62 98 172
62 98 170
62 99 171
61 98 165
63 99 170
62 98 169
61 97 169
62 99 170
60 95 156
61 97 164
63 99 172
61 97 165
62 97 166
63 99 169
60 95 161
62 97 162
62 98 164
61 95 158
61 97 159
62 97 168
61 97 163
60 94 151
61 95 159
60 95 162
56 88 140
44 52 40
61 65 46
56 60 41
48 56 41
69 73 53
68 74 49
56 61 42
69 73 46
69 74 54
65 71 54
72 77 54
81 85 53
84 87 57
88 91 61
84 88 60
94 98 65
103 105 67
96 99 65
102 104 67
100 103 68
110 112 71
115 116 73
115 116 71
116 117 67
115 115 73
120 120 74
129 129 81
122 123 77
128 127 75
130 129 79
127 127 78
117 118 71
140 138 81
136 135 83
146 142 86
140 139 81
145 142 80
142 140 84
147 145 86
154 150 83
147 145 87
144 142 81
154 150 88
150 146 81
152 148 87
151 147 80
164 159 92
157 152 85
154 150 83
158 152 88
159 155 87
152 148 82
162 157 90
161 156 90
165 159 93
168 162 85
156 150 79
166 160 88
171 165 94
169 164 95
162 157 86
163 157 88
165 160 86
168 161 94
168 162 91
170 162 89
161 157 84
170 164 92
172 166 94
167 161 86
170 163 92
170 164 88
171 164 95
163 157 84
171 165 90
175 167 98
170 164 91
174 167 93
172 165 94
166 160 86
172 166 93
166 159 86
169 163 90
171 164 89
163 158 87
169 163 90
168 162 87
171 164 87
169 162 87
168 161 87
168 162 88
162 154 80
169 162 87
156 151 75
163 157 79
164 157 84
160 154 79
157 151 74
167 160 86
164 157 80
162 155 88
159 153 75
165 159 82
165 157 84
166 159 88
161 154 81
153 147 75
164 157 86
158 152 82
155 149 71
154 147 78
158 153 78
158 152 77
154 148 78
155 148 78
151 146 71
155 149 74
148 142 66
151 144 75
143 139 61
156 151 75
143 137 69
150 144 70
152 145 70
144 139 60
147 141 62
145 139 65
140 134 63
143 137 62
139 133 62
137 131 58
132 128 57
119 113 49
141 141 53
169 190 0
172 193 0
172 194 0
171 193 0
172 193 0
172 194 0
170 193 0
174 197 0
174 197 0
172 195 0
172 195 0
173 196 0
173 197 0
171 195 0
173 197 0
174 197 0
170 194 0
172 195 0
173 196 0
172 195 0
174 198 0
173 196 0
171 195 0
173 197 0
171 195 0
174 197 0
170 194 0
173 196 0
173 196 0
168 191 0
173 197 0
171 194 0
170 193 0
170 194 0
170 193 0
171 195 0
172 196 0
172 195 0
171 194 0
173 196 0
169 193 0
169 193 0
168 192 0
171 195 0
171 195 0
172 195 0
171 194 0
172 196 0
173 196 0
173 196 0
170 194 0
171 195 0
170 194 0
172 196 0
171 194 0
168 192 0
171 195 0
172 196 0
169 192 0
170 193 0
172 195 0
168 191 0
173 196 0
172 196 0
170 192 0
171 195 0
169 193 0
167 190 0
169 193 0
169 191 0
164 188 0
168 191 0
171 195 0
173 195 0
169 191 0
171 195 0
172 195 0
171 195 0
170 194 0
168 193 0
173 195 0
172 195 0
173 196 0
170 193 0
169 193 0
167 192 0
171 194 0
167 191 0
169 192 0
167 191 0
168 192 0
171 194 0
171 195 0
168 192 0
171 194 0
174 197 0
166 190 0
169 191 0
81 113 167
63 100 179
62 99 178
63 100 179
64 100 180
63 100 179
62 99 178
63 99 177
63 100 180
62 99 179
62 99 177
63 100 181
62 99 177
62 99 178
62 99 177
63 99 178
61 99 178
62 99 179
62 99 178
62 99 179
62 99 174
62 99 178
62 99 178
62 99 178
62 99 178
62 99 175
62 99 180
63 99 178
62 99 178
62 99 180
62 99 177
62 99 173
62 99 179
62 99 179
62 99 179
62 99 180
62 99 177
62 99 178
62 99 177
62 99 178
62 99 178
62 99 178
62 99 177
62 99 176
62 99 179
62 99 176
61 98 174
62 99 179
62 99 179
62 99 177
62 99 178
62 99 177
62 99 179
62 99 179
62 99 177
62 99 177
63 99 180
62 99 180
62 99 178
62 99 176
62 99 178
62 99 179
62 99 176
62 99 177
62 98 174
62 99 179
62 99 176
62 99 174
61 99 177
62 99 173
62 99 173
61 99 178
62 99 177
62 99 173
62 99 180
62 99 179
61 98 178
62 99 176
62 99 179
62 99 178
62 99 180
62 99 179
62 99 179
62 99 178
63 100 179
62 99 176
62 99 178
62 99 181
62 99 178
62 99 176
63 100 178
63 99 178
61 98 175
62 99 178
62 99 175
63 99 177
62 98 171
62 99 173
62 99 178
62 99 173
63 100 181
62 99 175
63 100 180
62 99 176
62 99 173
62 99 176
62 99 174
62 99 175
62 98 172
62 98 170
62 99 176
62 99 177
63 99 178
62 99 178
62 98 170
62 99 173
62 99 177
62 99 177
61 98 170
62 99 171
62 99 173
63 99 175
62 99 173
62 99 171
62 99 177
62 99 173
62 98 168
62 98 166
61 98 172
63 99 175
62 99 171
62 98 170
62 99 176
61 98 170
62 98 168
62 99 174
62 98 169
62 99 176
62 99 174
61 98 173
62 99 173
62 98 171
62 98 166
62 98 170
62 99 170
62 98 169
62 98 172
62 98 166
62 98 168
62 99 171
63 99 173
62 98 165
61 97 162
62 98 167
62 97 159
61 97 166
60 95 157
62 98 170
62 98 165
60 96 164
62 98 166
61 96 160
60 95 159
59 93 147
61 96 165
60 94 156
61 95 161
58 91 145
48 69 101
45 50 34
47 55 44
60 65 46
54 62 47
66 71 48
56 64 49
75 78 55
56 63 48
81 85 56
77 81 54
74 79 53
80 85 57
85 90 61
106 108 66
91 93 57
90 94 63
108 108 70
99 101 68
105 105 64
106 108 70
106 107 64
113 114 66
115 114 68
120 120 71
119 119 76
124 124 69
128 127 77
124 124 72
124 124 73
128 127 73
130 129 81
134 133 80
140 137 83
136 135 80
138 136 80
138 137 82
143 140 79
143 141 80
145 142 82
141 138 83
154 150 88
152 149 84
145 142 79
153 149 84
149 145 84
151 147 88
148 146 82
164 159 89
155 150 79
159 154 89
152 149 83
162 157 86
165 160 93
160 155 87
170 163 91
164 159 88
162 157 92
165 159 92
163 158 84
165 161 89
162 157 89
165 160 86
168 162 89
163 158 87
161 156 80
167 161 86
168 162 94
173 167 96
165 159 87
170 164 87
165 159 84
167 161 87
170 164 89
168 163 91
170 164 87
171 164 90
167 161 91
169 162 88
170 163 90
166 160 84
171 165 89
169 163 87
167 161 80
172 166 89
163 157 84
168 162 90
165 159 84
169 161 82
166 159 85
169 161 85
165 159 86
173 165 92
165 159 86
167 160 82
164 158 87
160 154 78
167 160 85
168 161 90
162 156 80
166 160 83
159 153 79
164 157 80
160 154 74
168 161 84
154 148 68
154 148 75
162 156 80
150 144 72
151 145 71
162 155 79
162 155 81
154 148 75
157 150 74
153 147 76
157 150 72
156 149 75
150 144 71
152 145 75
152 146 71
143 138 67
152 147 68
147 141 63
142 136 61
147 141 67
129 124 56
144 137 68
140 135 57
136 131 54
129 123 57
134 129 54
133 127 58
125 120 49
142 150 39
171 193 0
172 194 0
171 193 0
171 193 0
168 190 0
170 192 0
171 192 0
172 193 0
172 196 0
173 196 0
168 192 0
173 196 0
173 196 0
172 195 0
170 194 0
171 195 0
176 198 0
171 194 0
174 197 0
171 195 0
169 193 0
172 196 0
172 195 0
174 196 0
172 196 0
172 195 0
171 195 0
169 192 0
169 193 0
172 195 0
172 196 0
170 194 0
171 195 0
173 196 0
170 194 0
167 190 0
171 194 0
171 194 0
170 194 0
173 196 0
173 197 0
171 194 0
174 197 0
171 194 0
171 194 0
172 196 0
171 195 0
174 197 0
171 194 0
172 196 0
173 196 0
172 195 0
172 195 0
173 195 0
172 195 0
174 197 0
171 195 0
173 196 0
172 194 0
173 196 0
171 194 0
169 192 0
172 195 0
169 192 0
168 192 0
174 197 0
171 194 0
171 194 0
170 193 0
173 196 0
170 192 0
169 191 0
170 194 0
169 193 0
172 195 0
170 194 0
170 194 0
169 193 0
172 195 0
173 196 0
170 193 0
171 194 0
174 196 0
168 191 0
170 195 0
172 195 0
170 193 0
170 193 0
166 187 0
170 193 0
166 189 0
171 195 0
166 189 0
170 192 0
170 193 0
172 196 0
168 191 0
146 170 97
63 99 175
63 100 177
62 99 179
63 100 178
63 100 180
62 99 178
62 99 177
63 100 179
62 99 178
62 99 180
62 99 179
62 99 180
63 100 180
61 98 176
63 100 178
62 99 175
63 99 176
62 99 178
62 99 180
62 99 177
62 99 177
62 99 177
62 99 178
62 99 178
62 99 180
62 99 178
62 99 176
62 99 176
62 99 176
62 99 176
62 99 177
62 99 178
62 99 178
62 99 176
61 98 174
62 99 176
62 99 177
62 99 179
62 99 179
62 99 181
62 99 179
63 100 178
61 98 177
62 99 179
62 99 178
62 99 180
62 99 180
62 99 179
62 99 180
62 99 176
62 98 177
62 99 178
62 99 177
63 100 179
61 98 173
62 99 174
62 99 173
62 98 175
62 99 179
62 99 179
61 99 178
62 99 176
62 99 180
62 99 177
62 99 176
61 98 175
61 98 176
62 99 174
62 99 175
62 99 179
62 99 179
61 98 173
62 99 178
63 99 176
62 99 180
62 99 178
61 98 175
62 99 175
62 98 173
62 99 177
62 99 174
61 98 173
62 99 179
63 99 177
62 99 176
62 99 177
62 99 178
61 98 172
61 98 170
62 99 176
62 99 173
62 98 173
62 99 176
61 98 171
62 99 175
62 99 173
62 98 170
62 99 176
62 99 178
62 99 178
62 99 180
62 99 173
62 98 173
62 99 174
62 99 178
62 99 173
62 99 178
62 99 172
63 99 175
62 99 176
62 99 177
63 100 174
63 99 176
62 99 175
63 99 174
62 99 173
62 99 174
62 98 174
62 99 172
63 99 174
63 100 179
61 98 170
62 98 171
62 99 175
62 99 170
62 99 173
63 99 174
62 98 165
62 98 170
62 99 173
62 99 173
62 99 171
62 99 169
62 99 172
62 99 173
62 99 172
62 98 174
62 98 169
62 98 169
62 98 173
63 99 172
62 99 171
61 97 164
61 97 164
61 98 165
62 98 167
62 98 166
62 98 169
62 98 167
62 98 165
62 99 168
62 98 168
61 96 160
62 98 167
62 98 163
62 98 170
62 98 167
61 97 170
62 97 166
62 97 167
62 97 164
61 96 163
61 96 159
61 95 154
61 96 162
61 96 156
60 93 155
59 93 154
60 85 127
50 55 38
53 57 38
46 53 37
49 58 44
55 62 47
59 64 43
61 68 48
74 79 48
65 72 46
84 87 56
68 73 47
76 80 51
92 96 63
96 100 65
85 90 59
103 105 66
94 96 64
100 103 62
102 103 65
108 110 71
114 115 68
109 110 71
119 119 71
121 121 70
116 115 65
124 124 73
134 133 76
127 126 76
127 127 77
129 129 72
122 123 73
130 129 80
140 137 84
131 129 78
140 138 77
136 134 76
142 140 83
140 137 81
141 139 79
141 140 80
147 144 78
148 145 85
145 141 79
158 152 87
146 143 84
154 150 87
143 139 80
164 158 92
156 151 86
151 147 82
166 160 91
156 152 84
165 159 85
160 156 90
162 158 87
160 155 88
163 158 92
162 157 87
168 162 87
163 158 86
160 155 83
170 164 92
167 162 91
169 164 95
166 161 86
168 163 90
164 158 86
168 162 87
168 163 86
168 162 87
167 161 84
170 164 92
169 163 90
174 167 93
173 165 91
169 163 89
170 163 87
170 164 88
166 160 83
170 164 86
172 165 90
165 159 87
168 161 79
168 162 84
168 162 84
166 160 88
166 160 84
166 160 85
167 161 81
164 157 87
162 157 84
164 158 80
167 160 86
167 161 82
166 159 84
162 155 82
163 157 83
165 158 78
161 156 79
166 159 79
171 163 89
160 154 84
162 155 80
156 149 77
161 153 75
160 154 81
161 154 80
163 157 79
164 157 81
156 151 76
155 148 75
153 147 67
156 150 75
155 149 68
159 153 75
152 145 75
150 145 71
146 140 67
149 144 69
148 143 65
149 143 66
150 144 63
152 146 65
144 138 62
142 137 58
139 134 60
141 135 61
138 131 62
133 127 54
137 131 63
141 134 63
123 118 41
158 174 28
173 195 0
172 192 0
168 191 0
173 196 0
174 196 0
176 198 0
170 191 0
172 193 0
172 195 0
174 197 0
170 194 0
173 196 0
173 196 0
170 193 0
173 195 0
172 195 0
173 196 0
172 196 0
172 195 0
170 193 0
173 196 0
172 196 0
170 194 0
175 198 0
172 195 0
170 193 0
169 191 0
171 193 0
171 195 0
173 197 0
169 192 0
173 197 0
174 197 0
171 194 0
171 195 0
169 193 0
168 192 0
170 195 0
172 195 0
173 195 0
172 195 0
170 192 0
173 196 0
173 197 0
172 195 0
174 197 0
173 195 0
173 196 0
171 194 0
169 193 0
170 194 0
169 193 0
174 197 0
175 198 0
168 191 0
169 193 0
171 195 0
171 193 0
169 193 0
172 196 0
169 192 0
169 192 0
171 195 0
171 194 0
169 193 0
170 195 0
172 195 0
168 192 0
168 193 0
172 195 0
171 193 0
173 197 0
174 196 0
170 194 0
167 191 0
171 194 0
170 193 0
166 189 0
169 192 0
172 196 0
172 196 0
170 192 0
168 191 0
170 194 0
171 194 0
169 192 0
171 194 0
169 193 0
166 190 0
172 195 0
171 194 0
169 193 0
169 192 0
173 195 0
172 195 0
169 193 0
170 193 0
125 151 134
62 99 178
63 100 179
63 100 178
63 99 175
63 100 179
62 99 180
63 100 179
63 99 180
63 100 179
62 99 179
63 100 177
62 99 177
63 100 180
63 100 178
63 99 175
63 99 175
61 98 176
62 99 176
62 99 177
62 99 179
63 100 181
63 100 179
62 99 178
62 99 179
62 99 179
62 99 178
62 99 177
62 99 178
62 99 179
62 99 178
62 99 178
62 99 180
62 99 180
61 98 176
62 99 178
62 99 178
62 99 175
61 98 178
61 98 176
62 99 179
62 99 177
61 98 173
62 99 177
62 99 179
62 99 178
62 98 171
62 99 176
62 99 175
62 99 180
62 99 176
62 99 180
63 99 178
62 99 178
62 99 179
61 98 175
62 99 177
62 99 177
61 99 178
62 99 178
62 99 177
62 99 178
61 99 179
62 99 177
62 99 174
62 99 180
63 100 178
62 99 177
62 99 177
62 99 176
62 99 180
62 99 179
62 99 178
61 98 171
62 99 174
62 99 175
61 98 173
63 99 175
62 99 179
61 98 171
62 99 178
62 99 177
62 99 178
62 99 176
61 98 174
62 99 177
61 98 175
61 98 177
62 99 176
63 99 179
62 99 176
62 99 171
61 98 175
61 99 177
62 99 176
61 98 170
62 99 175
62 98 171
62 99 176
62 99 174
62 98 174
62 99 175
62 99 175
63 100 180
61 98 174
63 99 177
63 99 177
62 99 175
62 99 177
62 99 173
62 98 169
62 99 175
62 98 171
62 98 172
62 99 175
63 100 177
62 98 172
62 99 172
62 99 176
62 99 175
61 98 171
62 99 173
63 99 174
62 99 172
63 100 176
62 99 174
62 99 173
62 99 169
63 99 171
61 98 167
61 98 164
62 98 169
62 99 175
61 98 170
62 98 166
62 99 173
62 99 171
61 98 172
62 99 172
62 98 173
62 99 173
62 98 164
62 99 169
61 97 163
61 98 170
61 98 167
61 97 164
62 99 168
62 98 172
62 99 172
61 98 165
62 98 170
61 97 165
63 99 172
62 98 166
61 97 161
62 98 168
61 96 165
62 98 172
61 96 163
62 97 165
59 94 157
61 97 161
61 96 158
61 96 160
61 95 160
61 95 155
60 93 148
60 94 155
58 91 150
43 54 58
53 59 44
50 56 34
48 57 46
58 65 49
62 68 47
70 74 48
79 83 59
66 72 46
69 73 46
68 73 51
88 91 60
86 89 57
92 96 58
85 89 56
101 103 63
90 94 63
94 96 61
102 104 64
97 100 61
101 104 67
106 107 70
105 106 65
122 120 72
127 126 75
119 119 71
120 120 73
120 120 72
126 126 73
125 124 73
134 132 76
139 137 85
134 132 78
123 124 75
134 133 76
137 135 77
135 133 76
143 140 79
144 141 82
135 134 80
142 140 78
140 138 75
147 144 76
155 150 85
146 143 77
155 151 88
152 149 78
149 145 79
161 156 90
154 149 83
158 153 84
160 155 85
159 154 83
167 162 90
166 161 90
161 156 85
155 150 75
168 161 92
158 153 82
167 161 90
165 160 83
168 161 92
168 162 86
167 161 84
170 163 89
166 160 89
168 162 93
166 161 83
170 163 86
167 161 88
168 162 86
171 165 92
170 164 89
164 158 86
167 161 86
166 161 84
166 160 84
167 161 84
166 160 80
171 164 88
168 161 78
168 161 85
168 161 90
165 159 83
169 162 84
168 161 87
162 156 76
165 158 84
161 155 80
166 158 84
166 160 87
165 158 83
167 160 86
162 156 75
165 159 87
164 158 81
161 154 75
167 161 83
155 149 76
164 157 80
165 158 80
161 155 80
159 152 77
162 155 77
161 154 80
162 156 76
161 154 80
156 150 69
149 143 74
160 153 76
156 150 72
153 147 71
158 151 75
145 140 67
151 144 73
149 143 68
151 146 72
153 147 66
142 136 66
138 132 57
147 141 62
143 137 60
143 138 64
136 131 57
148 141 68
143 138 63
140 135 52
138 132 57
127 123 51
127 121 51
125 120 42
133 127 61
164 185 16
171 194 0
175 196 0
167 188 0
172 194 0
172 195 0
168 189 0
169 191 0
171 193 0
167 190 0
173 196 0
171 195 0
175 198 0
170 194 0
172 196 0
173 197 0
172 196 0
169 193 0
173 196 0
172 196 0
170 193 0
171 195 0
173 197 0
171 194 0
172 196 0
176 198 0
174 197 0
171 195 0
171 194 0
172 196 0
173 196 0
172 196 0
169 193 0
172 195 0
171 195 0
176 198 0
171 195 0
171 195 0
173 196 0
168 191 0
170 194 0
169 192 0
170 193 0
175 197 0
173 197 0
171 194 0
169 193 0
171 194 0
172 194 0
172 196 0
173 196 0
168 192 0
170 193 0
169 193 0
169 192 0
169 192 0
173 196 0
170 193 0
173 196 0
173 196 0
166 191 0
171 194 0
172 195 0
170 194 0
167 190 0
171 194 0
169 192 0
169 191 0
170 193 0
172 195 0
173 196 0
172 194 0
169 193 0
168 191 0
171 195 0
169 192 0
173 197 0
168 192 0
168 191 0
169 192 0
170 194 0
166 190 0
171 194 0
172 196 0
169 192 0
171 194 0
170 193 0
169 192 0
170 194 0
170 194 0
171 195 0
167 190 0
170 193 0
168 191 0
168 191 0
170 193 0
173 195 0
165 189 36
77 110 172
63 100 180
62 99 177
63 100 178
63 100 179
63 100 176
63 99 177
62 99 176
63 100 178
62 99 178
62 99 177
63 100 179
62 99 179
62 99 178
63 100 179
62 99 179
62 99 176
62 99 174
62 99 178
62 99 180
63 100 180
62 99 176
62 99 176
63 99 177
62 99 175
63 100 180
62 99 175
62 98 177
63 100 178
62 99 178
62 99 179
62 99 178
62 99 178
62 99 179
63 100 179
62 99 179
61 98 176
62 99 180
62 99 177
62 99 180
62 99 175
62 99 178
62 99 176
62 99 177
62 98 173
62 99 176
62 99 177
63 99 174
63 100 177
62 99 179
62 99 176
62 99 178
62 99 176
62 99 176
62 99 177
62 99 174
62 99 178
62 99 179
62 99 178
62 99 175
62 99 178
62 99 175
62 99 178
62 99 179
62 99 180
61 98 172
63 99 174
62 99 177
62 99 177
62 99 177
62 99 177
62 99 175
62 99 176
62 99 175
63 100 178
61 98 172
62 99 175
62 99 176
62 99 174
62 99 174
62 99 178
62 99 174
62 98 172
62 99 177
62 99 180
62 98 175
62 99 176
62 98 171
62 99 178
63 100 179
63 100 176
63 100 177
63 100 177
62 99 174
63 100 176
62 99 178
62 99 174
62 99 175
63 99 177
62 99 175
62 99 176
62 99 173
62 99 172
63 100 178
63 99 170
62 99 173
63 100 176
63 99 174
62 99 177
62 99 173
62 98 171
62 99 175
62 98 167
62 99 175
62 99 173
62 99 174
62 98 171
61 98 173
62 99 176
62 99 173
63 99 175
61 98 172
62 98 166
63 99 171
62 99 171
62 99 175
62 99 175
63 100 177
62 99 173
61 98 171
62 99 170
62 98 173
62 99 175
62 99 172
62 99 170
62 99 171
62 99 175
63 99 174
62 99 173
61 98 163
63 99 172
62 98 167
62 99 174
62 99 171
62 98 166
61 98 163
62 98 168
62 98 168
62 98 167
62 98 167
62 98 166
62 98 166
63 99 171
62 98 170
62 98 164
61 97 161
61 97 161
61 97 163
61 97 161
62 97 166
61 96 162
62 97 160
61 96 160
60 95 152
61 97 160
60 95 161
61 96 165
59 93 153
60 94 150
60 95 157
50 72 100
47 52 34
50 55 37
49 57 42
65 69 42
58 64 36
70 75 47
69 74 47
77 82 52
80 83 50
82 86 57
76 82 57
105 105 66
89 92 57
94 97 55
86 90 56
88 91 55
102 103 62
93 96 56
95 97 63
106 108 64
112 111 63
119 119 67
114 115 71
111 110 67
113 114 70
124 124 74
118 118 70
120 120 70
127 126 71
126 125 71
131 130 79
139 136 81
137 135 76
141 139 84
132 130 73
139 137 79
132 130 72
145 142 76
140 137 72
146 142 80
152 148 87
154 149 86
140 138 78
152 148 85
155 151 89
156 151 87
153 150 79
156 151 81
153 149 79
160 155 89
158 153 85
161 156 85
162 157 84
158 153 81
170 163 92
165 160 88
161 156 86
160 155 79
167 161 84
161 155 81
168 161 87
162 157 86
164 159 83
167 161 84
165 160 88
173 166 92
169 162 86
168 162 88
166 160 86
169 164 84
171 165 90
158 153 81
169 163 88
169 163 84
164 156 87
164 159 80
169 163 87
170 163 87
166 161 85
167 161 86
166 160 84
163 158 78
161 156 77
165 158 82
169 162 85
171 165 85
165 159 82
169 162 87
168 161 87
168 161 80
168 162 86
164 157 80
162 156 79
160 154 75
161 154 84
155 149 70
160 153 76
165 158 86
159 153 76
167 159 83
158 152 79
154 148 75
160 154 75
161 155 80
164 157 79
160 154 76
164 158 80
157 150 77
151 146 71
163 156 80
153 147 75
154 148 68
146 141 65
147 141 62
148 142 67
150 144 62
144 139 62
144 138 57
151 144 72
136 132 56
142 137 63
152 146 63
142 136 65
140 135 54
152 145 71
138 134 53
133 127 59
144 138 65
133 127 58
119 113 52
142 145 48
170 192 0
172 194 0
168 188 0
172 191 0
171 193 0
171 193 0
172 195 0
172 193 0
170 191 0
172 196 0
172 196 0
171 194 0
171 195 0
170 195 0
172 195 0
172 195 0
173 195 0
170 194 0
173 196 0
172 195 0
173 197 0
171 194 0
172 195 0
172 194 0
173 197 0
175 198 0
171 195 0
172 195 0
172 195 0
172 196 0
172 195 0
169 193 0
172 196 0
172 195 0
171 194 0
171 195 0
172 196 0
171 195 0
171 195 0
171 194 0
171 194 0
169 192 0
173 196 0
170 193 0
173 197 0
171 195 0
171 195 0
168 192 0
170 194 0
173 196 0
170 194 0
172 196 0
171 195 0
171 195 0
170 193 0
175 198 0
172 195 0
169 193 0
170 195 0
170 192 0
171 195 0
172 195 0
169 194 0
174 196 0
170 193 0
169 192 0
169 193 0
170 193 0
169 193 0
172 196 0
170 193 0
172 194 0
169 193 0
172 195 0
173 196 0
167 190 0
173 196 0
171 194 0
169 193 0
166 189 0
168 192 0
169 192 0
169 192 0
167 190 0
171 195 0
169 192 0
173 196 0
171 195 0
170 194 0
169 192 0
168 190 0
169 192 0
168 191 0
170 193 0
172 195 0
170 192 0
167 191 0
148 172 97
64 100 180
63 100 180
63 100 179
62 99 178
62 99 176
63 100 176
63 99 176
62 99 179
62 99 176
63 100 179
62 99 175
62 99 176
62 99 176
62 99 178
62 98 177
62 99 177
62 99 176
62 99 178
62 99 179
63 99 175
63 99 177
62 99 177
62 99 179
62 99 174
62 99 178
62 99 178
61 98 174
62 99 176
63 99 178
62 99 179
62 99 176
61 98 174
63 100 175
62 99 177
62 99 178
62 99 176
62 99 178
62 99 178
62 99 178
62 99 178
62 99 178
62 99 177
62 99 177
62 99 175
62 99 179
62 99 175
62 99 178
62 99 176
62 99 177
62 99 176
62 99 177
62 99 177
63 99 176
62 99 175
63 99 178
61 98 177
62 99 179
62 99 178
61 98 174
62 99 173
62 99 175
62 99 177
62 99 178
62 99 177
63 99 177
63 99 180
62 99 172
62 99 177
62 99 176
62 99 176
61 98 175
62 99 176
63 99 175
62 99 177
62 99 176
62 99 175
62 99 177
63 99 180
62 99 179
62 99 178
61 98 177
62 99 176
62 99 173
63 99 176
62 99 178
62 99 173
62 99 174
62 99 177
62 99 177
61 98 169
62 99 175
62 99 174
62 99 177
62 98 168
62 98 174
61 98 175
62 99 176
62 99 174
62 99 174
62 99 176
62 99 179
62 99 177
62 99 171
62 99 174
62 99 175
61 98 168
62 99 173
61 98 172
62 99 176
62 99 174
62 98 174
62 99 173
61 98 168
62 99 171
62 99 172
63 99 178
62 99 167
62 98 166
62 99 173
63 99 175
62 99 176
62 98 170
62 99 172
62 99 172
62 99 176
62 98 168
62 99 173
62 99 168
63 99 174
62 99 170
63 99 179
62 99 170
62 99 173
63 99 170
62 98 166
62 99 170
61 98 170
62 99 174
62 98 168
63 99 175
62 98 168
62 99 171
63 99 172
62 99 168
62 98 172
62 98 170
62 99 173
63 100 172
62 98 166
62 99 174
62 98 165
63 99 170
61 98 167
61 96 159
61 98 165
62 97 158
62 99 168
62 98 166
61 97 162
61 97 163
61 96 155
61 96 154
62 97 159
60 95 151
60 94 158
61 96 159
61 95 160
60 93 152
61 95 158
58 91 150
59 86 134
46 53 37
41 48 33
54 60 38
56 60 34
52 57 35
61 66 40
64 71 53
74 79 46
67 72 45
78 81 42
75 78 49
88 90 54
76 81 52
95 97 62
90 92 59
80 84 57
100 101 58
100 103 68
107 108 62
103 103 62
99 101 59
103 105 66
111 112 69
118 117 67
122 120 66
112 113 67
129 129 77
121 121 72
130 128 71
131 129 70
129 128 74
134 131 72
140 136 76
132 129 75
135 132 70
132 130 76
134 132 75
134 132 75
136 134 77
145 142 85
148 144 81
154 149 82
144 141 80
143 140 72
155 150 84
151 146 83
158 154 85
156 152 87
160 155 90
155 151 83
160 155 86
158 153 78
160 155 85
157 152 90
162 156 82
167 161 90
164 158 88
166 159 88
165 159 84
164 158 84
163 157 86
167 161 88
170 164 88
165 159 86
167 161 86
168 161 93
167 161 86
163 158 80
169 162 88
163 156 81
169 163 86
169 162 85
166 160 82
167 161 84
166 160 84
175 167 93
164 157 82
173 165 90
161 156 76
158 153 70
170 163 85
168 162 82
170 163 89
162 156 79
163 157 79
166 160 78
170 163 85
163 157 80
164 158 82
169 161 87
164 159 84
163 157 77
165 158 87
161 155 79
162 156 76
156 150 68
159 153 75
163 157 80
167 159 75
165 159 81
165 159 81
162 155 76
158 152 75
162 156 79
151 146 68
159 152 73
153 147 71
156 150 71
158 152 72
160 153 78
152 145 68
157 151 67
153 147 70
156 151 72
152 146 72
147 140 69
152 145 70
152 145 71
146 140 63
147 141 64
147 141 62
139 133 59
133 128 56
134 129 57
144 139 61
135 130 53
133 127 54
130 125 52
121 116 48
122 117 48
154 165 39
171 193 0
170 192 0
170 193 0
172 194 0
167 187 0
172 192 0
168 189 0
172 194 0
169 191 0
171 195 0
173 197 0
172 196 0
170 193 0
173 197 0
172 195 0
173 196 0
169 192 0
171 195 0
172 195 0
170 194 0
174 198 0
173 196 0
171 195 0
170 193 0
170 194 0
171 195 0
171 195 0
173 197 0
171 195 0
171 194 0
171 195 0
172 195 0
173 196 0
170 193 0
169 192 0
171 194 0
174 197 0
172 195 0
171 194 0
172 195 0
171 196 0
170 194 0
171 194 0
173 197 0
174 197 0
170 193 0
170 193 0
171 194 0
172 196 0
169 193 0
171 195 0
171 194 0
171 194 0
171 194 0
169 192 0
172 196 0
168 192 0
169 192 0
173 196 0
172 195 0
172 196 0
168 191 0
172 196 0
170 193 0
172 195 0
174 197 0
167 191 0
171 193 0
171 193 0
170 193 0
171 193 0
170 194 0
169 193 0
169 192 0
168 192 0
167 190 0
171 194 0
170 192 0
170 194 0
171 194 0
170 194 0
171 195 0
173 196 0
169 191 0
173 196 0
168 192 0
169 193 0
167 191 0
171 194 0
171 195 0
172 195 0
172 194 0
172 196 0
172 196 0
173 195 0
171 194 0
166 190 0
110 138 144
63 100 178
63 100 178
63 100 178
62 99 177
63 100 180
62 99 175
62 99 176
62 99 179
63 100 176
63 100 178
62 99 178
62 99 178
62 99 178
62 99 180
63 100 178
62 99 178
62 98 176
62 99 180
62 99 178
61 98 176
62 99 178
62 99 177
62 99 178
62 98 177
62 99 179
62 98 176
62 99 177
62 99 178
62 99 180
62 99 178
62 99 176
62 99 175
62 99 178
62 99 176
62 99 179
61 98 172
62 99 180
62 99 177
62 99 180
62 99 179
62 99 176
61 98 172
61 98 172
62 99 177
61 98 174
61 98 178
61 98 175
61 99 177
62 98 177
62 99 180
62 99 179
62 99 175
62 99 179
61 98 172
62 99 178
62 99 179
62 99 175
62 99 179
62 99 180
62 99 177
62 99 176
62 99 177
62 99 176
62 99 179
62 99 177
63 100 180
62 99 176
63 99 173
62 99 173
62 99 174
62 99 178
62 99 174
61 98 173
63 100 180
62 99 175
62 99 178
62 99 176
62 99 174
62 99 170
62 99 179
61 98 175
62 99 176
62 99 176
62 99 172
62 99 179
62 99 178
62 99 174
62 99 177
62 99 175
62 98 169
62 99 176
62 99 176
61 98 173
62 99 176
62 99 174
62 99 177
62 99 174
62 99 179
61 98 174
63 99 177
62 99 179
62 99 176
62 99 174
62 98 169
62 99 171
63 99 173
62 99 173
62 99 172
62 98 168
62 99 172
62 99 174
61 98 168
62 99 173
62 98 169
62 99 177
62 99 172
62 99 170
61 98 168
63 99 171
62 99 174
62 99 174
62 99 175
62 98 171
63 99 175
62 98 171
62 99 174
62 98 167
62 99 172
62 99 171
63 99 173
63 99 172
62 98 169
62 98 170
62 99 170
62 99 175
62 99 174
62 98 164
62 99 171
63 99 167
62 98 168
62 99 172
62 98 173
61 98 169
63 99 170
62 98 170
62 98 171
62 99 168
63 99 171
61 98 165
62 98 166
62 98 169
62 98 166
62 98 170
61 97 162
62 98 169
61 97 161
61 97 164
61 97 156
63 99 170
60 95 158
61 97 165
62 97 161
61 97 155
61 97 166
62 97 159
62 97 164
59 93 150
59 94 151
59 92 150
57 90 134
59 92 151
56 63 56
43 51 36
45 53 35
56 61 38
59 64 43
52 58 40
59 65 34
59 62 40
70 74 47
77 81 50
75 80 48
89 91 56
88 89 54
84 89 52
102 103 59
90 96 53
90 94 58
99 100 63
99 102 63
106 108 69
103 105 60
114 115 66
116 116 69
115 116 69
123 122 71
122 121 69
127 127 70
122 121 71
115 116 68
132 130 76
134 133 73
136 133 77
136 135 78
131 130 67
132 130 69
145 142 82
142 139 75
147 144 76
138 136 72
148 143 81
141 137 76
155 151 81
153 149 77
156 151 83
141 139 71
155 151 83
149 145 77
158 153 82
154 149 80
158 153 83
157 152 84
153 149 80
161 156 85
160 155 86
162 157 85
159 154 82
163 157 83
158 153 78
163 157 86
167 161 86
163 157 90
169 162 86
165 158 83
167 160 86
164 158 82
162 157 81
165 159 83
164 158 78
163 158 78
165 159 81
164 158 82
165 159 83
170 163 88
166 161 82
170 163 84
169 162 83
165 158 81
166 159 82
171 165 84
170 163 84
168 162 87
169 162 85
168 161 88
165 159 86
159 152 76
166 160 86
165 159 84
162 157 77
166 159 84
163 158 78
164 157 80
165 158 77
170 162 85
167 159 86
153 148 69
161 154 78
163 158 79
155 149 71
167 160 87
162 156 76
157 151 75
161 154 79
158 151 72
153 147 67
150 145 64
158 151 74
148 143 65
153 147 68
156 149 72
149 144 66
155 148 72
160 154 76
157 150 75
149 145 64
149 143 65
154 148 73
149 143 68
148 141 70
143 138 57
149 144 65
152 147 67
141 136 57
135 131 51
139 133 64
137 133 49
128 123 58
138 133 54
124 119 45
123 119 49
118 114 39
162 178 19
174 195 0
170 190 0
171 191 0
172 192 0
170 192 0
171 193 0
172 194 0
171 192 0
169 188 0
173 196 0
171 195 0
173 197 0
170 193 0
175 197 0
173 196 0
170 193 0
173 197 0
173 197 0
170 194 0
172 196 0
171 195 0
170 193 0
169 193 0
174 197 0
170 193 0
174 197 0
174 197 0
171 194 0
167 190 0
173 196 0
171 193 0
172 195 0
174 197 0
171 194 0
170 194 0
169 192 0
172 195 0
171 195 0
169 193 0
172 196 0
170 193 0
172 196 0
169 193 0
169 192 0
168 191 0
172 195 0
170 194 0
167 191 0
172 195 0
167 191 0
167 191 0
167 191 0
172 195 0
170 193 0
171 195 0
173 197 0
171 194 0
169 193 0
170 194 0
169 193 0
170 193 0
170 192 0
171 194 0
171 195 0
171 194 0
172 195 0
171 195 0
170 193 0
171 194 0
171 195 0
169 192 0
170 194 0
169 191 0
168 192 0
166 191 0
169 192 0
172 195 0
168 192 0
169 192 0
172 194 0
169 192 0
170 194 0
170 193 0
170 193 0
170 193 0
169 192 0
168 190 0
169 191 0
170 193 0
173 195 0
171 194 0
171 194 0
171 195 0
171 194 0
171 194 0
170 193 0
165 188 18
79 111 168
63 100 179
63 99 176
63 100 177
63 99 171
63 100 180
64 100 178
63 100 179
63 99 179
63 100 179
63 100 180
63 100 178
62 99 178
63 99 175
63 99 176
62 98 175
62 99 180
62 98 175
62 99 176
62 99 176
63 100 177
62 99 179
62 99 176
62 99 174
62 99 174
62 98 177
62 99 175
62 99 177
62 99 175
62 99 178
61 99 178
62 99 178
62 99 178
62 99 179
62 99 175
61 98 176
62 99 176
63 99 178
63 99 179
62 99 174
62 99 175
62 99 177
61 98 172
62 99 175
62 98 172
62 99 176
62 98 174
62 99 179
62 99 177
62 99 174
63 100 178
62 99 176
62 99 174
62 99 180
62 99 174
62 99 175
62 99 178
62 99 174
61 98 173
62 99 181
62 98 176
62 98 174
62 99 174
62 99 178
62 99 175
62 99 177
61 98 176
62 99 173
61 98 172
62 99 174
62 99 175
62 99 175
63 99 177
62 99 176
63 100 176
62 99 177
62 98 173
62 98 169
62 99 175
62 99 176
62 99 175
62 99 176
62 99 176
62 99 178
62 99 173
62 99 174
61 98 172
61 98 170
63 100 181
62 99 173
62 99 174
62 99 173
62 98 175
62 99 177
62 98 173
62 99 175
61 98 169
61 98 172
62 99 177
62 99 177
62 99 174
62 99 175
62 99 174
63 99 172
62 99 174
61 98 171
62 99 171
62 99 173
61 98 169
62 99 172
61 98 167
63 100 177
62 99 174
63 100 175
61 98 170
62 99 172
62 99 173
63 99 172
62 99 174
61 98 167
62 99 173
62 98 167
63 99 174
63 99 175
62 99 174
62 99 175
63 99 172
63 99 171
62 98 169
61 98 171
62 99 172
61 98 167
62 99 176
62 99 171
62 98 172
63 99 171
62 99 170
63 99 167
62 99 170
62 99 168
62 98 170
62 98 166
63 99 172
62 99 171
62 98 169
63 99 169
61 98 166
63 99 169
62 98 170
62 99 173
62 99 170
62 99 168
61 97 159
61 98 170
62 97 165
61 98 167
61 97 165
61 97 165
62 99 170
62 99 168
61 96 152
61 96 151
62 97 161
61 97 163
61 96 158
60 95 151
61 96 163
61 96 152
61 95 156
58 91 150
59 91 141
59 92 142
55 74 107
47 52 29
38 49 36
46 52 32
55 62 37
70 74 44
59 65 42
56 62 42
69 72 42
66 72 44
79 82 43
77 80 52
85 88 57
97 99 60
99 100 60
95 96 55
96 96 61
101 101 58
99 101 60
112 112 70
111 112 66
97 101 64
108 108 67
117 116 66
124 122 72
116 117 67
117 116 63
123 123 74
129 127 74
129 128 67
130 128 74
135 133 77
115 115 70
142 140 76
144 140 78
145 141 75
141 138 70
134 132 73
156 151 84
142 138 71
150 146 81
141 139 78
150 146 79
151 147 81
148 144 72
153 149 79
155 151 84
153 150 81
158 154 84
157 152 78
161 155 86
157 152 85
160 155 84
156 151 85
157 152 82
161 155 81
160 154 78
163 157 82
163 157 84
167 161 82
165 159 82
163 157 81
159 154 80
170 164 87
165 159 85
160 154 76
168 161 90
164 158 88
166 160 79
168 162 83
167 161 85
171 164 88
168 162 86
165 159 84
166 160 84
167 161 82
167 160 86
165 158 77
166 160 79
165 160 84
172 165 91
162 155 75
164 158 83
164 157 83
167 160 82
171 163 86
158 152 74
165 157 79
162 156 76
162 157 75
166 158 83
161 155 76
166 158 82
159 153 73
167 160 81
157 151 75
158 151 71
162 156 79
163 156 81
155 149 75
159 153 77
155 150 72
160 153 80
159 153 66
155 148 70
157 152 68
158 152 72
163 157 74
155 147 77
161 154 75
157 151 70
161 154 75
151 145 63
152 146 65
151 146 67
138 133 59
151 145 66
149 143 68
151 144 68
144 140 62
135 130 58
141 135 61
141 135 63
125 119 53
123 119 47
132 127 56
130 125 51
131 126 59
126 121 47
118 121 34
171 193 0
170 191 0
168 189 0
172 193 0
171 193 0
172 193 0
169 191 0
172 195 0
172 194 0
173 194 0
173 196 0
172 196 0
173 196 0
172 196 0
170 194 0
171 195 0
170 194 0
172 195 0
169 192 0
174 197 0
173 197 0
172 195 0
170 193 0
170 194 0
171 194 0
171 195 0
173 197 0
170 194 0
173 195 0
173 196 0
172 195 0
169 193 0
172 195 0
173 196 0
174 196 0
169 192 0
169 192 0
167 191 0
172 195 0
171 194 0
168 192 0
168 191 0
170 194 0
172 195 0
171 195 0
169 193 0
172 195 0
172 194 0
172 194 0
171 194 0
169 193 0
171 195 0
175 197 0
172 195 0
170 193 0
171 194 0
169 192 0
170 194 0
172 196 0
169 193 0
169 192 0
171 194 0
171 194 0
172 195 0
170 194 0
170 194 0
172 196 0
173 196 0
170 193 0
169 193 0
166 190 0
172 195 0
168 192 0
172 195 0
166 188 0
171 194 0
174 197 0
172 195 0
172 195 0
172 195 0
169 192 0
170 194 0
168 192 0
167 191 0
164 188 0
168 191 0
169 192 0
168 191 0
165 188 0
172 194 0
170 193 0
167 189 0
171 194 0
165 188 0
167 191 0
168 190 0
170 193 0
155 179 74
63 99 176
63 100 177
63 100 179
63 100 177
63 100 177
63 100 178
63 99 176
62 99 176
63 100 179
63 99 175
62 99 177
62 99 177
62 99 176
62 99 179
62 99 176
63 100 179
62 99 173
62 99 174
62 99 179
62 99 180
62 99 176
62 99 177
62 99 177
61 98 176
62 99 177
61 98 171
62 99 176
62 99 177
63 99 178
62 99 175
62 99 181
61 98 177
62 98 178
62 99 173
61 98 172
62 99 178
62 99 180
63 99 176
62 99 176
62 98 173
61 98 171
62 99 177
62 99 175
62 99 176
62 99 174
62 99 173
62 99 175
62 99 179
62 99 177
62 99 170
62 99 176
62 99 176
63 100 180
62 99 178
62 99 176
62 99 178
63 99 176
63 100 181
62 99 175
62 99 179
61 98 171
62 99 179
62 98 173
62 99 174
63 99 175
62 98 174
62 99 177
62 99 177
62 99 176
62 99 175
63 99 177
62 99 177
62 99 176
62 99 172
62 99 177
62 99 177
62 99 174
62 99 177
62 98 170
62 99 176
62 99 169
62 99 173
62 99 179
62 99 173
62 98 173
62 99 175
62 99 177
62 99 172
62 99 171
61 98 176
62 99 177
62 99 174
62 99 168
62 99 174
62 98 167
62 99 176
62 99 171
62 99 176
62 99 177
62 99 174
61 98 170
62 98 173
62 99 175
62 99 175
62 99 174
62 99 171
63 99 171
61 98 170
61 98 168
62 99 171
61 98 167
62 99 170
62 99 177
62 98 172
63 100 176
62 98 170
62 99 176
62 98 170
62 99 173
62 98 172
63 100 175
61 98 168
62 99 172
62 98 168
63 99 169
63 99 173
62 99 169
62 99 172
62 99 172
61 98 161
62 98 168
62 98 171
62 98 168
62 99 173
62 99 173
62 99 175
62 99 170
62 99 174
63 99 173
62 98 171
62 98 166
62 99 168
63 100 176
62 99 169
62 99 170
61 98 165
62 98 170
62 98 169
62 98 169
61 98 167
62 98 165
61 97 163
61 97 159
62 98 163
61 96 159
62 97 165
62 98 162
62 97 163
62 98 162
61 97 162
62 98 166
61 96 160
61 96 159
61 97 161
61 97 162
61 97 163
62 97 161
61 97 167
60 95 155
61 96 156
60 94 149
58 91 146
55 84 130
47 53 28
57 61 31
46 53 32
49 57 36
52 58 33
67 71 42
65 73 47
79 83 46
59 65 37
83 86 49
74 78 46
85 87 52
82 86 52
83 88 53
101 102 61
91 94 58
92 95 52
98 101 61
100 102 62
117 116 68
114 114 66
112 112 63
106 107 63
127 127 76
104 105 61
118 119 67
111 112 59
124 124 68
127 125 69
141 139 80
130 128 74
130 130 73
146 141 73
135 133 72
139 136 77
136 133 69
143 141 79
141 138 72
141 137 76
154 150 81
151 147 82
150 146 69
156 150 76
145 142 76
151 147 74
152 147 83
153 148 75
157 153 76
154 150 75
152 147 76
156 151 77
158 154 79
158 153 81
156 151 82
160 155 85
159 154 78
156 152 76
164 158 86
165 159 81
167 160 85
159 154 77
165 159 86
171 165 87
163 157 83
168 161 83
165 158 86
156 150 75
166 160 85
159 154 78
170 163 87
168 162 81
164 158 79
161 155 78
165 159 82
165 159 81
164 159 75
168 161 84
166 160 85
170 163 87
167 160 79
169 162 82
167 160 87
166 160 81
162 155 80
161 155 75
162 156 80
161 154 80
169 162 81
158 151 77
165 159 80
162 155 79
163 156 76
157 151 75
168 161 81
160 154 72
156 151 74
164 157 76
158 153 73
164 157 84
162 156 77
153 147 68
158 151 73
154 148 70
161 155 73
151 145 70
160 154 79
157 151 75
159 153 71
149 145 58
153 148 64
149 143 65
151 145 71
154 147 74
153 148 64
146 140 60
145 139 60
142 136 63
142 138 54
141 136 57
148 142 65
141 136 59
144 139 60
141 135 57
130 123 54
136 129 58
130 125 49
131 126 53
127 122 49
148 158 30
169 191 0
173 194 0
170 191 0
167 188 0
171 193 0
170 189 0
169 190 0
169 190 0
173 195 0
171 193 0
173 197 0
173 196 0
170 193 0
169 193 0
172 195 0
170 194 0
169 193 0
174 197 0
170 193 0
172 195 0
172 196 0
170 194 0
171 194 0
171 195 0
172 196 0
174 197 0
172 195 0
169 192 0
171 194 0
173 196 0
172 196 0
174 197 0
172 196 0
171 194 0
166 190 0
170 194 0
173 196 0
174 197 0
171 194 0
171 194 0
166 189 0
171 194 0
173 197 0
172 195 0
170 194 0
169 193 0
171 194 0
172 195 0
171 195 0
171 195 0
170 194 0
168 191 0
172 195 0
170 194 0
171 194 0
171 194 0
168 191 0
169 192 0
170 193 0
167 190 0
169 193 0
171 194 0
173 195 0
170 193 0
168 192 0
166 189 0
171 194 0
171 195 0
169 193 0
170 194 0
167 190 0
169 193 0
171 195 0
169 192 0
170 194 0
174 197 0
169 192 0
169 192 0
167 190 0
172 195 0
170 194 0
167 191 0
170 194 0
170 193 0
168 192 0
169 193 0
172 195 0
169 193 0
169 192 0
168 191 0
173 195 0
172 196 0
168 190 0
166 190 0
170 192 0
167 191 0
167 189 0
121 148 129
63 100 177
63 100 178
63 100 178
63 99 178
63 99 176
63 99 177
63 100 179
63 100 180
62 99 178
62 99 174
62 99 178
62 99 177
63 100 178
61 98 173
62 98 175
62 99 176
62 99 178
62 99 178
62 99 178
62 99 176
62 99 175
62 99 178
62 99 176
62 99 178
63 100 177
62 99 175
62 99 174
62 99 179
62 99 180
62 98 174
62 99 177
62 99 177
62 99 177
62 98 175
62 99 175
62 99 179
63 100 177
62 99 176
63 99 175
63 100 180
62 99 177
62 99 179
62 99 176
62 99 175
62 99 175
61 98 175
63 99 177
62 99 174
62 99 177
62 99 175
62 99 175
61 98 178
62 99 179
61 98 174
62 99 178
62 98 170
62 99 176
62 99 175
62 99 178
62 99 175
62 98 174
62 99 177
62 99 174
62 99 177
62 99 175
62 99 178
61 98 172
62 99 176
63 99 175
62 99 180
62 99 174
62 99 174
63 99 178
62 99 174
62 99 171
62 98 172
62 99 174
62 99 177
62 99 177
63 99 175
63 99 177
62 99 173
63 99 173
62 99 172
62 98 171
62 99 174
63 99 176
61 98 172
62 99 173
63 99 174
62 99 177
62 99 174
62 99 177
62 99 173
62 99 174
63 99 177
62 98 172
62 99 174
62 99 172
62 99 172
62 99 176
63 99 174
62 99 175
62 99 173
61 98 172
63 99 176
62 98 172
62 99 173
62 99 174
62 99 174
61 98 166
63 99 172
62 99 174
61 98 170
62 99 173
63 99 174
61 98 168
63 99 173
63 100 176
62 99 172
62 99 170
62 99 176
62 99 173
62 99 170
62 98 169
62 99 170
63 99 170
63 100 176
62 99 172
62 98 171
62 99 174
62 98 170
62 99 173
62 99 172
61 98 173
62 99 171
62 99 171
62 99 169
62 98 168
62 98 170
61 97 165
61 97 163
62 98 161
62 98 168
62 99 171
63 99 170
62 99 171
62 99 170
62 98 163
62 98 166
63 99 167
61 96 160
61 97 164
62 98 165
63 99 170
62 98 167
62 97 161
62 97 162
60 96 158
60 96 163
61 96 159
62 98 167
62 97 162
61 97 167
61 95 152
61 96 161
60 95 155
60 95 155
59 94 157
58 92 148
59 93 149
60 94 152
55 87 136
57 62 44
57 61 31
48 52 28
57 61 29
63 68 38
55 60 38
61 65 40
53 61 38
74 78 44
80 81 47
77 81 47
71 76 52
82 87 53
67 71 41
92 95 48
81 86 52
99 101 65
100 101 54
94 96 57
99 102 59
99 101 66
112 113 63
113 114 62
114 114 64
116 115 59
116 117 66
129 128 64
125 124 66
132 130 74
128 126 68
132 130 69
124 123 73
125 123 61
136 133 70
141 138 75
126 125 66
138 135 72
142 139 72
141 138 76
147 145 74
146 141 77
145 141 74
155 151 80
158 152 88
150 146 73
150 146 72
151 147 77
154 149 76
166 160 91
153 149 78
159 154 79
158 153 84
160 155 80
160 154 79
163 158 83
156 151 82
163 157 84
156 152 75
158 153 86
165 158 75
165 158 84
162 157 79
165 160 84
163 157 81
167 161 82
161 155 81
164 157 79
163 158 82
164 158 83
165 158 83
159 153 78
166 159 84
160 154 71
163 157 79
165 158 80
167 161 80
164 158 79
165 158 84
166 160 76
163 157 75
162 155 78
163 156 80
159 152 78
162 156 77
165 159 75
165 158 76
166 159 78
161 155 75
160 154 80
166 159 82
167 161 77
166 159 80
155 149 68
161 154 75
167 160 82
159 153 75
167 159 83
151 145 67
160 153 75
150 143 70
159 153 70
159 153 73
160 152 76
160 154 70
151 146 64
156 149 74
158 151 75
148 142 61
154 148 73
150 145 69
144 139 60
147 142 60
144 139 62
142 136 54
146 140 64
137 132 56
146 141 63
142 136 62
137 132 56
138 133 58
137 131 60
131 126 47
137 131 54
138 133 60
126 121 48
134 129 58
127 122 42
124 119 47
169 188 19
171 192 0
171 193 0
170 192 0
169 190 0
170 192 0
169 190 0
170 192 0
172 192 0
172 193 0
171 191 0
174 198 0
171 194 0
173 197 0
170 194 0
172 195 0
170 193 0
169 192 0
171 195 0
173 196 0
174 197 0
169 193 0
170 194 0
171 196 0
172 196 0
170 194 0
169 192 0
172 195 0
171 195 0
170 194 0
171 195 0
174 197 0
171 195 0
172 195 0
173 196 0
172 195 0
169 192 0
170 193 0
169 193 0
170 193 0
170 194 0
172 195 0
172 195 0
171 194 0
173 196 0
168 192 0
170 194 0
173 196 0
171 194 0
173 196 0
167 191 0
170 193 0
173 196 0
170 194 0
171 194 0
174 197 0
169 192 0
169 191 0
168 192 0
169 192 0
173 195 0
169 193 0
171 194 0
170 193 0
172 195 0
173 196 0
167 191 0
171 194 0
171 195 0
166 189 0
171 194 0
168 192 0
168 191 0
172 195 0
170 194 0
168 192 0
169 192 0
168 192 0
169 192 0
170 193 0
171 195 0
168 192 0
170 193 0
166 191 0
167 190 0
170 193 0
169 192 0
172 195 0
168 191 0
173 196 0
167 191 0
167 190 0
171 193 0
170 193 0
167 191 0
172 195 0
170 193 0
166 189 0
107 134 147
63 100 178
63 99 172
63 99 176
62 99 175
63 100 175
62 99 176
63 99 172
63 100 176
63 100 179
63 99 176
62 99 177
62 99 176
62 99 175
63 100 176
62 99 173
62 99 176
62 98 176
62 99 177
62 99 177
63 100 178
62 98 174
62 99 179
63 99 177
62 99 177
62 99 178
62 99 177
62 99 178
62 99 177
62 99 177
62 99 178
62 99 178
62 99 178
63 99 176
62 98 177
62 99 177
62 99 175
62 99 178
62 99 178
62 99 175
62 99 179
62 99 177
62 99 175
62 99 177
62 98 173
62 99 175
62 99 178
63 99 176
62 98 175
62 99 175
62 99 177
62 99 174
62 99 179
63 99 179
62 99 174
62 99 171
62 99 174
62 99 173
62 99 176
62 99 179
62 99 178
62 99 176
62 99 172
62 99 173
62 99 174
62 99 173
62 98 175
62 99 176
62 99 179
63 100 178
62 99 177
62 99 176
62 99 174
62 99 173
62 99 173
62 99 176
62 99 175
62 99 177
62 99 170
62 99 173
63 99 177
62 99 175
62 99 172
62 99 173
62 99 174
63 99 175
62 98 172
62 99 176
62 98 174
63 100 177
62 99 176
62 98 168
62 99 176
62 99 176
62 99 173
63 100 177
62 98 173
62 99 173
62 99 174
62 99 170
62 99 175
62 99 170
62 99 173
62 98 170
63 99 172
62 98 170
62 98 169
63 99 174
62 99 175
62 99 174
63 99 176
61 98 169
62 98 166
62 99 174
62 99 171
62 98 167
62 99 171
63 99 177
62 99 171
62 99 176
62 99 170
62 99 171
62 99 176
62 99 177
62 99 170
62 99 175
63 99 173
62 99 170
62 98 167
62 98 166
62 99 173
62 99 173
62 98 167
62 99 176
62 99 173
63 99 168
63 99 172
61 98 168
62 99 170
61 98 164
63 99 175
63 99 169
62 98 167
62 99 172
61 97 165
63 99 173
63 99 166
62 98 170
63 99 169
62 99 168
61 97 163
62 98 166
63 99 164
62 98 167
61 97 165
61 98 166
61 97 164
62 98 166
62 97 165
62 98 168
61 97 163
62 98 166
61 96 160
61 96 156
61 96 162
62 97 161
62 97 164
61 96 158
61 96 157
62 97 164
60 95 156
59 92 147
60 95 154
58 91 145
43 60 72
58 61 22
49 55 31
61 67 40
48 56 36
58 63 36
64 69 40
64 69 34
66 70 37
80 83 41
84 87 48
73 76 43
77 79 36
82 84 51
91 94 48
98 99 54
96 97 56
91 93 50
104 105 63
110 111 62
99 100 57
127 125 65
115 115 63
110 108 57
109 110 60
123 121 63
111 112 66
129 127 60
126 124 63
133 131 70
130 128 67
131 129 66
142 138 73
134 132 73
134 132 70
137 134 72
140 137 71
144 140 74
142 139 79
147 143 76
141 138 70
146 144 77
148 146 80
150 146 76
145 142 75
152 147 83
153 149 83
153 149 72
160 155 79
157 152 78
151 147 77
153 149 75
162 155 79
156 153 79
166 159 84
159 153 79
162 157 84
156 151 72
162 156 83
160 154 75
161 155 85
154 149 70
157 152 76
167 161 84
164 158 80
164 158 82
171 163 85
162 156 78
164 159 82
165 159 87
170 163 83
164 158 76
164 157 79
164 158 79
167 161 79
160 153 75
167 160 83
161 155 76
168 162 80
169 161 84
166 159 81
166 158 81
161 155 69
164 158 83
159 153 75
164 158 74
163 156 80
164 157 79
163 157 73
164 157 75
163 156 83
160 154 75
160 154 74
158 152 76
162 155 74
155 149 74
156 150 73
158 152 69
154 148 72
163 156 76
157 151 71
155 149 65
156 149 72
156 150 64
155 149 67
149 145 62
157 151 64
152 147 69
158 152 77
150 145 68
155 149 64
148 142 61
138 132 58
141 135 61
146 139 62
146 139 64
148 143 61
151 144 68
143 137 57
134 130 45
146 141 60
141 135 58
133 128 49
135 130 53
137 131 56
129 124 48
125 120 49
134 139 32
170 193 0
168 189 0
167 185 0
171 193 0
167 187 0
172 192 0
170 191 0
168 188 0
169 189 0
167 190 0
171 192 0
171 195 0
173 196 0
173 197 0
172 195 0
174 196 0
170 194 0
174 197 0
171 193 0
170 194 0
168 191 0
172 196 0
171 195 0
172 196 0
173 196 0
173 196 0
171 195 0
169 193 0
171 194 0
173 196 0
170 193 0
172 194 0
171 195 0
170 193 0
168 193 0
172 195 0
174 196 0
173 196 0
167 191 0
170 194 0
171 194 0
173 196 0
169 192 0
172 196 0
171 194 0
172 195 0
172 196 0
171 195 0
173 195 0
169 192 0
171 195 0
170 193 0
171 194 0
172 195 0
169 192 0
170 193 0
171 194 0
171 193 0
168 191 0
170 194 0
170 194 0
170 194 0
171 194 0
171 195 0
169 192 0
167 191 0
171 195 0
168 191 0
171 195 0
168 192 0
172 195 0
173 196 0
171 195 0
168 191 0
172 195 0
168 193 0
172 195 0
165 189 0
171 194 0
167 190 0
170 192 0
170 192 0
170 194 0
173 196 0
172 194 0
166 189 0
174 196 0
168 192 0
169 192 0
167 190 0
168 191 0
170 193 0
167 190 0
168 192 0
170 194 0
170 193 0
171 194 0
166 189 18
68 103 171
63 100 174
63 100 179
63 100 179
63 100 175
63 100 175
63 100 179
62 99 176
63 100 178
62 99 176
63 100 176
63 99 175
63 99 177
62 99 171
62 99 175
62 99 173
62 99 176
62 99 179
62 99 177
62 99 174
62 99 176
62 99 174
62 99 179
62 99 177
62 99 177
62 99 177
62 99 178
62 99 175
62 99 179
63 99 177
63 99 176
62 99 175
62 99 174
62 99 176
62 99 178
62 99 177
62 99 174
62 98 177
63 99 176
62 99 177
61 99 178
63 99 178
63 99 178
62 99 175
62 99 173
61 98 175
62 99 178
62 99 179
62 99 173
62 99 178
61 98 173
62 99 176
62 99 174
62 99 178
62 99 177
61 98 174
62 99 178
62 99 178
62 99 174
62 99 171
61 99 177
62 99 174
62 99 174
62 99 175
62 99 177
62 98 173
62 99 177
61 98 174
62 98 171
62 99 175
63 99 176
62 98 176
62 99 173
62 99 173
62 99 172
62 99 171
62 99 172
62 99 173
62 99 177
63 99 174
61 98 168
62 99 173
62 98 175
62 99 175
62 99 178
62 99 176
62 99 174
62 99 174
62 99 174
63 100 174
62 99 173
63 99 172
62 99 171
62 99 175
62 99 172
62 99 175
62 99 176
62 99 174
62 98 170
62 99 171
62 99 175
62 99 170
62 99 175
62 99 175
62 99 173
62 99 176
63 99 175
62 99 175
62 98 172
62 98 172
62 98 166
61 98 172
63 99 173
62 99 171
62 99 176
62 99 173
62 99 175
61 98 170
62 99 175
62 98 169
62 99 169
62 98 167
62 98 172
62 99 167
62 98 172
62 98 165
62 99 171
62 98 169
62 98 168
62 99 169
61 97 159
62 99 172
62 99 170
62 99 172
62 98 168
61 97 162
62 99 173
62 98 161
62 98 164
63 99 175
63 99 172
62 98 168
62 98 169
62 98 168
62 99 170
62 99 168
62 98 163
62 98 168
62 98 168
62 99 169
63 100 172
63 99 171
61 96 154
61 98 169
62 98 164
62 98 171
62 98 168
62 98 169
62 98 164
61 96 158
60 95 154
61 96 163
62 98 165
62 98 165
61 96 161
61 96 157
60 95 154
61 97 162
61 95 152
61 97 155
60 94 154
60 94 152
61 95 159
58 91 144
58 80 109
49 55 30
50 54 23
43 51 34
60 64 35
61 66 35
45 52 30
62 67 37
55 63 34
86 88 47
70 75 46
91 93 49
88 89 49
90 93 59
91 94 49
87 89 50
84 88 55
104 104 52
100 102 52
107 107 59
110 110 66
112 113 59
113 112 58
119 118 66
111 112 63
115 115 62
113 113 59
124 122 66
119 117 63
130 128 68
136 131 71
126 126 74
129 127 69
138 135 69
138 135 67
142 139 77
135 132 71
142 139 69
146 142 75
141 138 75
148 144 76
141 138 69
156 150 82
146 142 75
157 151 87
145 141 71
148 143 82
153 148 82
152 147 82
157 151 80
155 150 81
154 149 84
155 150 81
162 157 84
154 148 76
157 151 73
164 158 81
158 153 79
164 158 81
164 158 79
159 153 73
164 158 78
161 155 80
164 157 80
166 160 81
166 159 80
170 163 86
163 157 75
164 157 80
166 160 84
158 153 77
167 161 83
166 160 80
169 162 79
161 155 76
163 157 79
163 156 74
161 155 76
164 157 78
166 159 79
164 157 80
165 159 75
166 159 85
160 154 74
163 156 80
158 153 76
158 153 73
158 152 78
163 156 79
160 154 78
162 156 75
162 156 78
161 155 80
162 155 81
152 146 69
153 148 68
160 155 70
164 158 82
155 150 66
155 148 69
154 148 68
152 147 65
155 150 72
155 148 70
155 149 71
151 146 60
151 145 68
151 145 74
159 153 71
143 137 68
142 136 60
152 146 68
151 144 74
146 139 62
138 133 56
135 130 54
143 138 59
142 135 64
138 132 53
147 140 66
135 129 54
141 135 56
130 125 51
135 130 52
121 115 45
121 115 42
114 109 49
154 169 19
169 190 0
168 190 0
171 191 0
171 193 0
170 191 0
169 190 0
169 191 0
171 191 0
168 189 0
169 190 0
171 192 0
173 196 0
172 196 0
171 194 0
174 197 0
173 197 0
173 196 0
173 196 0
172 196 0
172 195 0
170 195 0
171 195 0
169 193 0
169 192 0
172 195 0
172 196 0
170 194 0
170 194 0
171 194 0
171 195 0
167 190 0
172 194 0
170 194 0
170 195 0
169 193 0
172 195 0
170 193 0
172 195 0
174 197 0
170 194 0
172 196 0
170 194 0
169 192 0
173 196 0
170 193 0
172 195 0
172 195 0
173 197 0
168 192 0
169 193 0
171 195 0
169 192 0
170 194 0
171 195 0
167 191 0
171 194 0
168 191 0
167 191 0
172 195 0
163 186 0
171 195 0
168 191 0
172 196 0
171 194 0
167 189 0
171 195 0
169 193 0
171 194 0
173 197 0
171 194 0
171 195 0
165 188 0
173 195 0
169 192 0
167 191 0
173 196 0
169 192 0
168 192 0
169 193 0
170 192 0
168 192 0
166 189 0
169 192 0
170 194 0
169 192 0
172 195 0
171 195 0
164 188 0
169 193 0
168 191 0
172 195 0
174 197 0
170 193 0
168 192 0
171 194 0
170 192 0
168 192 0
144 169 92
63 100 178
63 100 175
64 100 178
62 98 174
63 99 174
63 100 179
63 99 177
63 100 178
63 100 177
62 99 175
62 99 178
63 99 178
62 99 178
62 99 173
63 100 177
62 99 172
61 98 171
62 99 176
61 98 174
63 100 178
61 98 174
62 99 176
62 98 174
62 99 176
61 98 176
63 99 178
62 99 175
62 99 173
62 99 177
62 99 177
62 99 178
63 99 174
62 99 179
62 99 176
62 99 176
62 99 173
63 99 175
62 99 174
62 99 172
62 99 177
62 99 175
62 99 174
63 99 178
61 99 177
62 99 177
62 99 176
62 99 172
61 98 177
62 99 176
62 99 178
62 99 174
62 99 179
63 99 179
62 99 175
62 99 175
63 99 175
62 99 172
62 99 176
62 99 175
62 99 174
62 98 172
62 99 176
62 99 172
62 99 179
62 99 176
62 99 176
62 98 172
63 100 180
61 98 175
62 99 175
62 99 177
62 99 176
63 99 176
62 99 176
62 99 175
62 99 178
62 99 175
62 99 174
62 99 176
62 99 170
62 99 174
62 99 172
63 100 177
62 99 178
61 98 175
62 99 174
62 99 172
63 99 177
62 99 175
62 99 175
63 99 176
62 99 177
63 99 176
62 99 174
62 99 176
62 99 173
62 99 171
61 98 172
62 98 172
61 98 172
62 98 170
62 99 175
63 99 174
62 98 172
63 99 174
62 98 167
62 98 169
62 98 168
62 99 167
63 99 176
63 99 172
62 98 171
61 98 168
62 98 165
63 99 169
61 98 169
63 99 174
62 99 170
62 98 170
63 99 174
62 99 169
62 99 174
63 99 171
62 98 166
63 99 179
62 98 171
61 98 166
62 99 168
62 99 170
62 98 171
62 99 168
62 99 172
62 99 168
61 98 168
62 98 166
62 99 168
63 99 167
62 99 167
62 98 173
63 99 171
62 98 164
61 98 163
63 99 172
61 98 169
63 99 170
63 99 164
62 98 165
62 98 165
62 97 164
63 98 169
62 97 163
61 98 168
61 97 166
61 97 159
61 97 159
62 98 168
61 97 163
62 98 169
61 97 158
62 98 167
61 96 156
61 97 166
61 97 165
61 96 161
62 97 162
61 97 156
62 98 168
60 95 152
61 96 155
61 96 157
60 94 154
59 93 147
59 93 148
60 93 151
55 83 124
57 60 24
50 55 30
59 64 33
57 63 31
74 78 39
65 69 34
65 69 35
60 63 37
59 65 35
78 83 46
81 83 44
76 80 44
86 88 42
90 93 44
94 96 48
84 87 48
104 104 54
99 101 56
94 97 58
112 112 60
107 108 58
111 111 63
126 124 66
121 121 69
110 112 66
124 122 58
118 118 61
126 124 60
128 126 64
128 127 72
142 138 69
139 136 71
130 128 63
132 130 76
139 135 70
132 130 73
145 141 76
139 135 68
139 136 72
144 140 71
140 137 70
155 150 82
144 141 79
144 140 73
148 144 72
162 156 81
149 144 67
149 145 75
154 149 75
151 147 79
156 151 84
156 152 78
154 150 78
155 150 77
157 151 72
158 153 73
163 157 81
159 153 75
164 157 83
162 157 74
165 158 83
161 156 74
160 154 83
166 160 81
164 158 82
162 156 82
159 153 75
163 157 86
164 158 77
165 158 77
169 162 84
169 162 78
163 157 84
165 158 77
166 160 83
158 152 71
162 156 75
163 157 78
164 157 75
162 155 80
160 153 80
160 154 78
155 150 73
164 158 78
164 157 75
157 151 69
163 156 81
161 154 75
163 156 78
169 161 86
161 154 80
160 153 73
157 151 74
155 149 70
156 149 71
156 150 70
160 153 68
154 148 69
162 154 79
151 145 63
156 150 72
166 158 74
156 149 70
158 151 73
153 146 69
157 150 71
156 150 73
150 144 69
157 150 75
148 142 66
143 137 59
145 138 64
146 140 63
138 133 57
141 135 57
140 134 58
143 139 51
138 133 54
132 126 54
136 129 51
138 133 52
127 122 45
129 123 51
124 118 52
124 119 44
125 123 42
167 187 0
169 190 0
173 194 0
172 193 0
166 185 0
169 191 0
167 187 0
170 190 0
170 191 0
172 194 0
172 193 0
168 189 0
170 193 0
170 193 0
171 194 0
172 195 0
172 195 0
173 196 0
173 196 0
171 195 0
169 193 0
168 193 0
172 195 0
168 192 0
170 194 0
172 196 0
172 196 0
174 197 0
170 194 0
173 195 0
171 196 0
171 194 0
171 194 0
171 195 0
172 195 0
171 194 0
170 194 0
172 195 0
171 195 0
171 193 0
172 196 0
166 189 0
168 192 0
172 196 0
171 194 0
170 194 0
169 193 0
171 194 0
172 195 0
170 193 0
171 195 0
172 194 0
171 195 0
168 191 0
170 194 0
168 193 0
171 194 0
171 193 0
171 194 0
170 193 0
168 191 0
174 197 0
173 196 0
174 197 0
165 188 0
172 196 0
170 193 0
170 194 0
170 193 0
169 193 0
169 192 0
172 195 0
172 195 0
167 191 0
171 194 0
170 193 0
169 192 0
168 191 0
170 193 0
170 193 0
169 193 0
168 191 0
169 193 0
171 194 0
168 192 0
168 192 0
171 194 0
164 188 0
169 193 0
170 193 0
170 194 0
168 191 0
169 192 0
171 194 0
168 191 0
167 190 0
168 191 0
168 191 0
125 151 129
63 100 177
63 100 176
62 99 175
63 100 179
63 100 177
63 99 177
62 99 175
63 99 176
62 99 178
62 99 174
62 99 179
63 100 176
62 99 176
63 99 176
62 99 177
62 99 175
62 98 171
62 99 176
62 99 179
62 99 176
62 99 179
62 99 177
62 99 173
62 99 174
62 98 171
62 99 175
62 99 175
62 98 174
63 99 176
62 99 178
62 99 175
61 98 172
62 99 178
62 99 173
62 99 177
61 98 173
61 98 168
61 98 176
62 99 177
62 99 178
62 98 174
63 99 176
62 98 173
62 99 179
62 99 173
62 99 176
62 99 174
62 99 175
62 99 173
62 99 172
62 99 175
61 98 173
62 99 177
62 99 176
62 99 178
62 99 179
62 99 176
62 99 177
62 99 173
63 100 177
62 99 175
62 99 172
61 98 171
63 99 177
62 98 169
62 98 171
62 99 176
62 99 177
62 99 175
62 99 173
62 99 173
61 98 168
62 99 177
62 99 176
61 98 173
62 99 175
63 99 174
61 98 170
62 99 175
62 98 170
61 98 169
62 98 173
62 99 174
62 99 174
62 99 171
61 98 175
63 99 170
63 100 176
62 99 168
62 98 171
62 99 169
62 99 174
62 99 171
61 98 172
63 99 179
62 99 176
62 99 169
62 99 171
62 99 174
62 99 172
62 98 173
62 99 173
62 98 169
62 99 172
62 99 173
62 99 173
62 98 166
62 99 171
62 98 169
63 99 172
61 98 163
62 99 172
63 99 167
62 98 167
62 99 174
62 98 165
61 98 171
62 99 169
62 98 168
62 99 170
63 99 174
62 99 170
62 99 172
62 99 175
63 99 171
61 98 164
63 99 171
62 99 171
62 99 172
62 99 169
62 99 168
62 99 170
62 99 171
63 99 173
62 99 171
63 99 172
62 99 170
62 98 167
62 99 171
62 98 163
63 99 172
62 98 165
61 98 166
62 98 170
62 98 165
62 98 166
63 99 172
63 99 166
61 98 165
62 98 168
62 98 164
62 98 167
62 98 165
62 99 165
62 98 168
63 99 170
62 98 166
62 98 165
62 97 154
62 98 161
61 97 160
61 97 160
62 98 166
63 99 168
61 97 161
61 97 162
60 96 158
61 96 153
61 97 157
61 97 163
60 94 155
61 96 164
61 95 155
58 91 146
59 92 151
53 59 38
50 55 29
58 64 36
54 61 34
59 64 35
44 51 31
70 73 35
66 72 34
71 75 40
88 88 45
86 88 39
87 88 51
73 77 39
96 97 57
99 99 60
90 92 44
115 113 64
94 96 54
100 102 56
100 101 55
109 109 56
110 109 60
114 114 63
116 116 60
120 119 60
110 110 61
120 118 63
124 122 66
135 132 68
134 132 70
126 125 64
133 130 71
143 139 75
138 136 66
136 134 72
133 131 62
134 132 66
134 131 65
146 142 69
150 146 79
142 138 68
145 141 77
152 148 77
149 145 78
156 151 78
153 148 73
154 148 75
157 151 74
151 146 74
154 149 76
150 145 73
154 149 73
156 151 76
155 150 74
157 153 76
157 153 78
161 155 80
161 155 78
158 152 78
159 153 74
163 157 80
164 159 82
166 160 76
163 157 82
164 157 80
164 158 78
162 154 77
164 158 83
162 156 80
167 161 80
162 156 78
162 156 80
162 155 80
169 161 86
165 159 75
163 156 82
166 160 77
160 154 74
161 155 74
167 159 82
165 158 80
164 156 72
166 159 76
160 155 77
167 160 78
165 158 71
166 159 75
166 159 78
159 153 71
156 150 71
154 148 64
156 151 70
160 153 75
163 156 76
157 150 74
155 149 69
154 148 63
148 143 68
152 147 62
153 146 67
158 152 71
154 148 67
150 144 62
156 150 67
159 153 71
140 134 56
142 137 53
145 139 63
150 144 64
149 142 67
148 143 60
153 147 66
143 137 64
149 143 62
138 132 56
139 134 54
137 132 56
136 130 49
136 131 49
138 132 57
126 122 48
132 127 52
129 124 47
120 114 47
137 132 48
143 155 22
168 188 0
171 191 0
171 191 0
170 192 0
169 191 0
172 194 0
171 194 0
172 192 0
169 189 0
169 190 0
169 189 0
171 191 0
173 196 0
170 193 0
169 193 0
173 196 0
175 198 0
172 196 0
174 197 0
171 195 0
171 195 0
170 194 0
172 195 0
172 197 0
167 191 0
170 194 0
171 194 0
171 195 0
172 195 0
171 194 0
173 196 0
172 196 0
174 196 0
171 195 0
172 195 0
168 192 0
172 196 0
169 192 0
172 195 0
168 192 0
170 193 0
172 195 0
172 195 0
174 196 0
168 192 0
172 195 0
172 195 0
173 196 0
170 194 0
169 192 0
170 193 0
171 194 0
167 190 0
169 192 0
173 196 0
169 193 0
170 194 0
172 195 0
168 192 0
171 194 0
173 196 0
171 194 0
170 194 0
170 193 0
171 194 0
166 190 0
168 191 0
168 191 0
171 195 0
171 195 0
172 195 0
171 194 0
168 191 0
166 189 0
171 195 0
168 192 0
171 194 0
168 192 0
167 190 0
169 192 0
166 189 0
172 196 0
167 190 0
172 194 0
170 194 0
171 193 0
167 191 0
168 191 0
172 195 0
166 190 0
170 194 0
166 189 0
169 192 0
166 190 0
169 193 0
169 192 0
170 193 0
163 186 0
96 125 154
63 100 177
64 100 179
63 100 177
62 99 176
63 99 174
63 100 177
62 99 174
63 100 180
63 99 176
62 99 176
62 99 173
63 100 179
63 99 177
63 99 179
62 99 176
62 99 174
62 99 178
62 99 177
61 98 171
62 99 175
62 99 178
62 99 176
62 99 173
62 99 176
62 99 179
62 98 174
62 99 175
62 99 175
62 99 173
62 98 176
62 99 176
62 99 174
62 99 174
63 99 178
61 98 173
62 99 178
62 99 174
62 99 172
62 99 175
63 99 176
62 99 177
62 98 172
62 99 177
62 99 175
63 100 173
61 98 175
62 99 176
61 98 173
63 100 180
63 99 175
62 99 173
61 98 169
61 98 173
62 99 174
62 99 175
62 99 177
62 99 176
62 99 175
62 98 170
62 99 172
61 98 174
63 99 176
62 98 170
62 99 169
62 99 169
62 99 171
62 99 175
62 99 179
62 99 169
62 99 178
61 98 172
62 99 172
62 99 177
62 99 176
62 99 176
62 98 170
62 99 175
63 99 173
62 99 175
62 99 176
62 99 173
61 98 168
62 99 174
62 99 174
62 98 172
62 99 175
62 99 172
61 98 171
62 99 172
62 98 171
63 99 171
62 99 173
62 99 176
62 99 172
62 99 176
62 99 174
62 98 168
62 99 170
61 98 167
62 99 176
62 98 169
62 99 169
62 98 169
62 99 172
62 98 172
61 98 169
62 99 175
62 99 168
61 98 168
62 98 169
62 98 171
62 99 177
62 99 171
62 99 171
62 99 172
63 99 178
63 99 176
62 99 173
62 98 172
62 99 172
62 98 164
63 99 171
63 99 167
62 98 168
62 99 173
62 98 166
62 98 169
62 99 171
62 99 173
62 99 172
62 98 168
62 99 169
62 99 171
61 97 161
62 98 165
62 98 168
62 98 163
62 98 166
62 98 169
63 99 172
63 99 166
62 98 164
62 98 167
61 97 160
62 98 165
62 98 166
61 96 160
62 98 166
62 99 168
62 98 167
62 98 163
62 98 164
62 98 164
62 98 164
62 98 164
62 98 164
61 97 162
61 97 164
61 97 159
62 98 161
61 98 171
61 96 158
61 97 165
61 97 164
61 96 154
62 98 164
61 97 159
62 97 161
61 96 156
61 95 152
60 94 152
60 94 144
59 92 146
61 95 154
58 90 137
52 67 79
59 63 29
47 53 29
58 62 30
59 65 34
59 64 40
67 71 33
58 65 39
81 82 36
70 73 42
80 84 43
78 82 43
90 95 44
102 103 56
99 101 47
82 86 50
92 95 53
101 102 60
98 100 57
94 97 53
107 108 52
115 115 59
113 114 61
107 108 55
123 121 66
127 124 67
118 117 65
113 113 60
125 124 68
120 118 56
131 129 67
119 118 60
136 134 66
134 131 67
138 135 74
138 135 71
132 129 70
139 136 77
146 141 73
149 143 79
157 151 75
147 143 73
153 148 71
145 141 75
146 143 73
149 145 74
155 150 72
154 149 73
153 149 72
159 154 78
150 146 67
162 156 81
155 150 73
159 154 80
159 154 77
153 148 75
159 152 71
157 153 71
155 150 74
163 157 80
156 151 71
162 156 76
164 158 73
163 156 76
155 150 71
164 157 81
165 159 76
166 160 79
159 153 73
159 153 74
168 161 82
171 164 86
160 154 69
158 153 65
162 155 75
161 155 76
158 151 69
165 158 80
159 154 75
168 160 86
166 160 70
167 159 81
160 154 68
159 153 68
155 149 72
161 155 75
160 153 73
166 159 76
158 152 69
155 148 71
160 154 74
154 147 66
161 154 74
157 151 64
154 148 65
153 147 67
165 158 75
156 150 65
160 154 72
160 153 71
158 151 73
148 142 65
157 151 73
159 153 69
154 148 67
147 140 65
152 146 59
148 142 59
153 147 71
148 142 67
145 139 62
145 139 64
149 143 53
145 140 63
145 139 62
149 142 61
135 130 58
150 143 62
141 135 60
130 125 51
137 131 48
142 136 54
128 122 52
131 126 48
123 120 39
163 182 11
171 191 0
171 192 0
170 190 0
164 185 0
167 187 0
170 191 0
170 193 0
168 189 0
171 192 0
170 191 0
169 191 0
169 192 0
174 197 0
171 194 0
171 195 0
173 196 0
170 194 0
171 195 0
171 195 0
169 193 0
172 195 0
172 196 0
170 193 0
176 199 0
173 196 0
171 194 0
172 196 0
172 195 0
172 195 0
171 194 0
170 193 0
173 195 0
173 196 0
171 195 0
172 196 0
172 196 0
171 194 0
169 193 0
173 197 0
171 194 0
169 192 0
172 196 0
172 195 0
174 197 0
171 194 0
173 197 0
171 195 0
171 194 0
167 191 0
171 194 0
169 193 0
175 198 0
169 193 0
172 196 0
171 195 0
172 196 0
170 193 0
171 194 0
169 193 0
172 195 0
172 196 0
169 192 0
170 193 0
170 193 0
169 193 0
169 193 0
170 194 0
170 194 0
169 193 0
170 194 0
173 196 0
173 196 0
171 194 0
172 194 0
165 187 0
169 192 0
169 192 0
173 195 0
168 192 0
171 194 0
172 195 0
168 192 0
167 190 0
167 190 0
168 192 0
165 188 0
171 194 0
167 190 0
166 189 0
168 192 0
169 193 0
169 193 0
169 192 0
169 193 0
168 192 0
170 193 0
166 189 0
170 192 18
74 108 168
64 100 177
63 100 174
63 100 175
64 100 181
63 100 179
63 100 178
63 100 178
63 99 176
62 98 173
62 99 174
62 99 177
62 98 173
62 99 177
62 99 177
62 99 176
62 99 175
62 99 176
61 98 172
63 99 177
62 99 177
62 99 175
62 99 172
62 99 178
62 99 173
62 99 175
61 98 170
62 98 171
62 99 174
62 99 176
62 99 179
62 99 174
62 99 176
62 99 175
62 99 175
62 99 176
62 99 176
62 99 174
62 99 175
62 99 173
63 99 176
62 99 176
62 98 171
63 100 178
62 99 176
62 99 176
62 99 175
61 98 172
62 98 176
61 98 172
62 99 178
62 99 171
62 99 174
62 99 173
62 99 172
62 99 173
62 99 174
62 99 176
62 98 171
62 99 174
62 99 176
63 99 176
62 99 177
63 99 174
63 100 178
62 99 175
62 99 178
62 99 179
62 99 176
62 99 171
62 99 172
62 99 172
62 99 170
62 99 172
62 99 175
62 99 174
63 100 180
61 98 170
62 99 178
61 98 171
62 98 170
62 99 175
62 98 169
61 98 168
62 99 176
62 98 166
63 99 175
62 99 173
62 99 177
62 98 169
62 99 174
62 99 176
63 100 181
62 98 170
62 99 172
62 99 174
62 99 172
62 99 173
63 99 175
62 99 171
62 99 167
62 98 169
62 99 173
62 98 172
61 98 168
62 99 172
62 98 167
62 99 172
63 99 174
62 99 173
62 99 172
62 99 170
62 98 168
62 98 172
63 100 177
62 98 170
62 99 170
62 98 165
62 99 169
62 99 174
62 98 167
62 99 168
61 98 165
62 98 168
62 98 174
63 99 173
61 98 169
62 98 167
62 98 165
63 99 171
62 98 162
62 98 165
62 99 171
63 99 173
62 99 167
62 99 168
62 98 167
62 99 170
63 99 170
62 98 169
62 98 166
62 99 169
62 99 167
62 98 161
62 98 163
62 98 164
62 98 162
62 98 167
62 99 171
62 98 166
62 99 168
61 97 165
62 98 166
61 96 155
61 97 165
62 97 160
62 98 165
62 98 165
62 98 164
63 98 166
62 97 160
62 97 163
62 98 165
61 97 156
61 97 158
60 95 153
62 97 161
60 95 153
61 96 151
61 96 159
61 95 157
59 93 146
59 93 151
60 95 154
59 92 151
59 92 143
48 71 101
59 63 26
64 68 27
49 56 31
60 64 30
69 72 34
77 80 39
64 69 33
76 78 42
78 81 33
77 80 38
80 81 41
96 97 42
86 89 36
92 94 47
84 86 47
97 99 49
95 97 46
98 101 59
101 103 50
107 109 54
108 109 57
106 107 53
111 111 60
130 128 70
126 123 58
113 113 55
117 117 62
118 116 67
120 119 63
119 119 62
129 128 68
137 133 67
124 122 64
140 138 65
142 139 79
131 128 58
137 133 68
152 148 70
146 141 73
143 139 69
147 143 77
144 139 72
156 150 79
147 143 70
150 146 76
146 142 73
147 144 72
151 147 70
148 144 68
142 139 73
157 152 72
160 154 77
153 148 64
156 151 72
155 151 75
161 155 76
161 155 78
156 151 77
161 154 71
163 158 68
158 152 74
160 154 78
155 149 66
158 153 74
163 157 78
161 156 85
159 152 81
165 158 77
164 158 76
158 152 68
165 160 78
168 161 79
162 154 79
162 155 77
162 155 75
162 155 74
164 157 75
161 155 72
157 151 63
162 156 71
155 149 69
161 155 64
160 154 67
158 151 69
157 151 66
163 156 75
160 154 70
164 157 70
161 153 75
154 148 68
153 148 64
161 154 72
163 157 73
156 151 65
159 153 71
157 151 72
154 147 68
150 144 58
151 145 61
151 145 64
158 151 72
147 141 58
157 150 67
153 145 76
147 141 62
144 139 54
145 139 59
141 134 63
145 140 63
144 139 51
146 140 59
144 139 59
143 136 63
150 143 68
139 133 56
131 125 51
138 131 56
136 131 47
129 125 45
129 124 44
127 122 47
131 125 48
123 118 42
141 154 25
171 190 0
169 190 0
172 191 0
170 191 0
171 192 0
169 189 0
171 191 0
170 191 0
170 191 0
170 191 0
169 190 0
169 189 0
167 187 0
173 197 0
172 195 0
172 196 0
173 195 0
175 198 0
169 194 0
173 197 0
170 194 0
173 196 0
172 194 0
174 197 0
171 195 0
167 191 0
172 195 0
171 194 0
171 193 0
168 191 0
170 194 0
172 195 0
172 196 0
172 196 0
173 196 0
172 195 0
170 194 0
170 193 0
173 196 0
174 197 0
171 195 0
173 197 0
174 198 0
170 194 0
172 195 0
167 191 0
171 194 0
171 195 0
166 190 0
170 194 0
171 194 0
170 192 0
168 192 0
172 196 0
171 195 0
171 195 0
170 193 0
170 193 0
170 193 0
172 195 0
171 195 0
170 194 0
169 193 0
170 193 0
169 192 0
170 193 0
170 193 0
172 196 0
172 196 0
171 194 0
168 191 0
170 193 0
172 196 0
169 192 0
169 193 0
170 195 0
170 194 0
170 194 0
167 191 0
172 195 0
167 190 0
166 190 0
170 193 0
169 191 0
169 193 0
169 193 0
170 193 0
168 191 0
170 193 0
170 193 0
165 188 0
164 187 0
172 196 0
169 192 0
171 193 0
166 190 0
166 189 0
169 191 0
160 184 62
63 99 174
64 100 177
64 100 176
63 100 175
63 99 174
63 100 177
63 100 177
63 99 174
63 99 176
63 99 174
62 99 177
62 99 172
63 100 177
63 99 174
62 98 178
63 99 175
62 99 176
63 99 175
62 99 174
62 99 177
62 99 175
62 99 176
62 99 173
62 99 171
63 99 176
62 99 177
62 99 177
62 99 177
62 99 177
63 99 178
62 99 176
63 100 180
62 99 174
62 99 175
61 98 177
62 99 176
62 99 173
62 99 175
62 99 174
62 99 178
62 99 174
62 99 176
62 99 175
61 98 173
62 99 175
62 99 178
61 98 178
62 99 174
61 98 175
62 98 173
62 99 174
62 99 176
62 99 173
62 98 173
62 99 175
62 99 174
62 98 170
61 98 174
62 99 175
62 99 170
61 98 171
62 99 174
62 99 174
62 99 176
61 98 171
62 99 174
62 99 171
62 99 173
63 100 178
63 99 177
62 99 176
61 98 173
62 99 170
62 99 175
63 100 177
62 99 175
62 98 170
62 99 175
62 98 170
62 99 173
62 99 173
62 99 172
62 98 172
61 98 173
62 98 168
61 98 171
62 99 172
62 99 173
62 98 171
62 99 171
62 99 173
61 98 172
62 99 171
62 98 175
62 98 170
63 100 175
62 99 176
62 98 166
62 99 172
62 99 168
62 99 174
62 99 175
62 99 174
61 98 173
62 98 167
62 99 171
63 99 174
63 100 175
62 99 169
63 99 169
62 99 174
61 98 168
62 99 171
63 100 176
62 99 173
62 99 170
62 98 168
61 98 169
62 98 172
62 99 168
63 99 171
62 99 172
61 98 163
62 98 166
62 99 165
61 98 167
63 99 170
62 99 172
62 99 174
63 99 167
62 98 165
62 99 168
62 99 172
62 98 165
62 98 168
62 98 167
62 98 167
63 99 164
62 98 163
62 99 169
62 99 170
62 98 168
62 98 167
62 99 163
62 98 167
62 98 158
61 97 164
62 98 166
62 98 166
62 98 165
62 98 166
62 98 166
62 98 163
62 98 163
63 99 170
62 99 167
61 97 157
62 98 163
62 98 166
62 98 158
61 97 159
63 98 169
62 97 158
61 96 156
62 98 165
61 96 153
62 98 163
62 97 159
61 97 158
61 96 155
61 96 156
60 95 149
60 94 145
59 93 150
59 93 150
58 90 145
58 82 112
52 56 28
56 60 24
63 67 29
63 70 37
65 68 30
63 67 28
76 78 38
83 84 27
84 87 42
81 82 38
78 81 50
77 81 41
82 85 41
82 85 47
83 87 46
85 87 46
104 104 47
103 103 51
102 103 48
111 111 54
112 111 56
100 101 50
124 122 62
113 111 60
106 107 54
124 121 63
124 123 59
110 109 60
127 125 59
122 120 66
130 128 61
129 127 60
135 132 63
131 130 59
126 124 51
137 133 64
134 132 64
139 136 65
139 136 69
139 136 62
141 137 69
147 143 64
147 142 71
146 141 71
147 143 69
143 140 61
149 144 73
151 146 71
148 144 69
151 147 69
153 149 70
154 149 71
159 153 74
149 145 62
157 151 66
156 150 76
160 153 76
159 154 74
158 153 76
161 155 77
165 159 76
158 153 71
157 151 71
160 154 72
157 152 74
161 155 81
161 154 79
164 159 71
164 156 79
162 156 75
162 156 74
165 159 79
166 158 77
158 151 73
157 151 75
158 153 69
157 151 69
160 153 71
156 150 67
162 156 70
155 150 67
156 149 67
163 156 76
165 159 76
154 148 67
156 149 71
158 152 69
159 152 75
159 152 66
155 149 66
152 145 72
157 151 69
158 151 73
156 151 62
158 152 67
161 154 75
151 145 68
153 146 65
156 150 67
156 149 63
144 138 56
152 147 62
148 142 59
142 137 51
139 135 54
141 136 63
147 141 65
147 142 61
141 135 58
140 135 49
150 144 61
146 140 64
140 134 57
149 143 65
142 137 54
130 124 49
141 134 58
136 131 54
138 132 54
127 122 52
126 120 51
121 117 44
120 115 37
166 184 11
167 188 0
167 186 0
169 190 0
168 188 0
170 189 0
171 191 0
169 190 0
168 191 0
171 192 0
168 188 0
170 192 0
170 192 0
169 189 0
169 192 0
172 196 0
173 196 0
172 196 0
171 193 0
172 195 0
172 195 0
172 196 0
172 195 0
172 195 0
170 194 0
172 195 0
172 195 0
173 196 0
170 193 0
169 193 0
171 194 0
169 193 0
171 194 0
171 195 0
175 198 0
172 195 0
167 192 0
171 195 0
170 194 0
167 190 0
171 195 0
169 192 0
170 194 0
173 196 0
173 196 0
171 195 0
172 195 0
169 193 0
170 194 0
172 196 0
169 192 0
172 196 0
170 194 0
166 189 0
170 194 0
171 194 0
172 195 0
170 193 0
168 193 0
172 195 0
169 192 0
173 196 0
174 196 0
169 193 0
170 192 0
164 188 0
170 194 0
168 192 0
170 194 0
171 194 0
171 195 0
171 194 0
169 192 0
168 192 0
168 192 0
167 189 0
168 192 0
168 191 0
169 192 0
172 195 0
173 196 0
170 193 0
167 191 0
169 192 0
172 194 0
171 194 0
170 194 0
170 193 0
166 190 0
167 191 0
166 189 0
167 191 0
170 193 0
168 191 0
170 193 0
167 191 0
170 193 0
165 188 0
171 194 0
145 169 99
63 100 174
63 100 173
63 100 175
63 100 178
63 100 175
63 99 173
63 99 174
63 100 175
63 100 178
63 100 176
63 100 176
62 99 174
62 99 173
62 99 174
61 98 171
62 99 175
62 99 177
61 98 173
62 99 175
62 99 172
61 98 174
62 98 175
62 99 173
62 99 174
62 99 177
62 98 176
63 99 176
62 99 177
62 99 172
62 99 174
61 98 175
62 99 173
62 99 173
62 98 176
61 98 171
62 99 180
61 98 173
62 98 173
63 99 178
61 98 172
62 98 174
61 98 173
62 99 177
62 98 172
62 99 175
62 99 175
62 98 175
62 99 175
62 99 174
63 99 178
61 98 174
62 99 177
62 99 172
63 99 175
61 98 174
62 99 176
61 98 173
62 99 176
62 99 176
62 99 177
63 99 176
62 99 172
62 99 173
62 99 171
62 99 174
62 99 171
62 99 179
63 99 176
62 99 178
62 99 172
61 98 174
63 99 172
62 99 172
62 99 169
62 99 173
61 98 172
62 99 177
62 99 173
62 99 170
62 99 175
61 97 167
62 99 173
62 99 176
62 99 176
63 99 172
62 99 175
61 98 173
62 99 175
63 100 180
62 99 174
62 99 173
62 99 172
62 99 170
62 99 173
62 99 173
62 98 171
62 98 169
62 99 172
62 98 167
62 99 172
62 99 172
63 99 168
62 99 176
63 99 175
62 98 171
61 98 171
62 98 168
62 99 172
62 99 171
62 99 172
62 99 174
63 100 173
63 100 176
61 98 169
62 98 165
62 98 168
62 99 168
62 98 166
62 98 169
62 99 174
62 99 165
62 98 167
63 99 173
63 99 174
62 99 170
62 98 168
62 98 169
63 99 167
62 98 162
62 99 171
62 98 166
62 99 170
63 99 169
62 99 170
62 99 170
62 98 164
62 98 165
62 99 167
62 98 165
63 98 168
61 97 154
62 98 168
62 98 167
62 98 167
62 99 165
62 98 165
61 98 165
63 99 167
62 98 165
62 98 164
61 97 160
62 98 161
62 98 164
63 99 162
63 99 164
63 99 166
61 96 161
62 97 155
62 99 166
62 98 159
62 98 165
61 97 158
62 98 162
61 97 158
62 97 159
61 97 161
60 95 154
61 96 157
62 97 161
62 97 161
61 96 149
61 95 155
60 94 149
60 95 148
60 93 148
59 93 148
59 88 134
64 67 29
54 58 29
68 72 30
70 72 27
65 70 30
50 56 25
68 70 36
70 74 31
73 77 37
69 73 38
75 77 36
83 84 47
87 88 44
92 93 47
89 92 42
98 99 48
88 89 38
100 99 50
104 104 54
106 105 55
108 107 62
105 105 54
108 109 52
113 112 58
112 112 58
114 113 59
121 120 60
126 125 60
127 124 67
121 121 54
120 120 60
143 140 67
129 126 63
133 130 61
133 131 66
136 133 64
141 138 67
141 137 67
141 139 70
140 137 71
141 138 67
143 139 63
147 142 71
150 145 70
155 149 70
153 148 72
154 149 70
151 147 71
149 144 66
152 147 76
147 142 63
155 150 73
156 150 71
157 152 67
154 148 64
154 149 72
156 151 72
156 150 74
156 151 71
156 151 74
156 151 71
157 151 68
164 157 77
159 153 79
157 152 74
161 156 71
155 150 75
159 153 71
160 154 66
163 157 79
157 151 70
160 154 69
159 154 69
155 149 70
160 154 73
158 152 72
159 153 74
149 144 56
158 151 68
164 158 71
167 160 79
160 153 73
156 150 67
159 153 71
154 149 65
155 150 62
158 153 63
156 150 70
164 157 74
163 157 68
154 149 60
156 150 67
165 158 78
160 153 72
148 143 61
160 153 69
147 142 61
155 150 69
151 145 57
142 137 42
158 152 68
157 150 73
146 139 68
151 146 58
150 143 66
149 144 60
145 140 62
149 142 60
138 132 56
147 141 61
156 149 64
137 130 51
149 143 65
137 132 44
133 128 49
138 133 56
129 123 51
129 123 48
141 135 53
130 125 47
137 130 57
127 122 49
135 145 25
168 189 0
168 189 0
169 190 0
167 187 0
171 193 0
172 192 0
171 190 0
167 188 0
170 191 0
171 191 0
171 191 0
167 186 0
167 189 0
170 191 0
172 196 0
173 195 0
173 196 0
172 196 0
170 193 0
171 195 0
169 193 0
172 195 0
171 195 0
172 195 0
172 196 0
170 193 0
172 196 0
170 193 0
173 196 0
171 194 0
172 195 0
174 197 0
165 189 0
172 195 0
171 194 0
171 194 0
170 194 0
175 198 0
173 195 0
173 196 0
172 196 0
169 193 0
169 193 0
170 194 0
169 192 0
166 190 0
169 193 0
167 190 0
173 196 0
170 194 0
171 195 0
170 194 0
167 190 0
173 197 0
173 196 0
170 193 0
169 193 0
173 196 0
166 190 0
171 194 0
171 194 0
171 195 0
167 191 0
170 193 0
169 193 0
168 192 0
170 194 0
170 193 0
169 194 0
173 196 0
171 195 0
168 191 0
166 189 0
169 192 0
165 188 0
167 191 0
170 193 0
169 192 0
170 193 0
167 191 0
170 193 0
171 194 0
169 192 0
171 194 0
167 191 0
166 189 0
169 192 0
170 195 0
167 191 0
170 194 0
166 189 0
169 192 0
169 192 0
171 195 0
168 190 0
167 190 0
168 191 0
169 192 0
173 196 0
126 152 126
64 100 177
63 100 177
63 100 172
63 99 172
63 100 179
63 99 173
63 100 176
64 100 177
63 100 175
63 99 178
63 99 169
62 99 174
62 99 174
62 99 173
63 99 176
62 99 178
62 99 179
62 99 174
62 99 175
62 98 177
62 99 174
62 99 176
62 99 178
62 99 176
62 98 173
63 99 175
62 99 176
62 99 178
62 99 174
62 99 176
62 99 177
62 98 171
61 98 174
62 99 175
62 99 173
62 99 174
62 99 174
62 99 176
62 99 174
62 99 174
62 99 171
62 99 175
62 99 178
62 99 174
62 99 175
62 99 172
62 99 179
62 99 175
62 99 173
63 99 178
62 99 178
62 99 173
62 99 172
62 99 173
61 98 174
62 99 175
62 99 175
62 99 171
62 99 173
62 98 171
62 98 168
62 98 173
62 99 181
62 99 173
62 98 173
62 99 172
63 99 175
61 98 173
61 98 173
62 99 174
62 99 173
61 98 172
62 98 168
62 99 175
62 99 173
62 99 172
62 98 167
61 98 170
62 99 173
62 99 174
61 98 167
62 99 174
63 100 177
62 99 170
61 98 170
61 98 165
62 99 169
62 99 174
62 98 166
62 99 174
62 99 172
62 98 165
62 99 174
62 98 170
62 99 172
62 99 177
62 99 166
62 99 172
62 98 168
62 99 172
62 99 171
62 99 173
62 98 166
62 99 175
62 98 171
61 98 166
63 99 170
63 99 170
62 99 175
62 99 173
61 98 169
63 99 175
61 98 173
62 99 169
62 99 170
63 99 171
62 99 173
63 99 168
63 99 171
63 100 174
62 99 166
62 98 168
62 98 164
62 98 166
62 98 163
61 98 165
62 99 172
62 99 169
62 99 169
63 99 167
62 98 163
62 98 166
62 98 164
63 99 167
62 98 167
63 99 171
62 98 159
62 99 167
62 98 170
62 98 167
62 98 164
62 99 167
61 97 159
62 98 159
64 100 172
63 99 162
61 98 162
61 98 163
62 98 161
62 98 165
63 100 174
62 98 166
62 98 158
63 99 170
62 98 159
62 98 169
61 96 160
62 97 162
62 98 161
61 97 160
62 98 165
61 97 161
62 97 158
61 97 164
61 97 160
60 95 154
60 96 161
60 96 159
61 96 158
61 96 155
61 96 151
62 97 158
61 95 144
60 94 145
59 92 145
59 92 141
56 86 127
61 65 28
49 55 31
64 66 25
70 72 33
70 73 22
72 76 45
62 64 29
89 89 40
73 76 31
77 81 35
90 91 39
87 88 39
81 85 40
95 96 47
83 85 37
92 94 48
102 101 47
106 105 53
102 102 48
98 100 51
104 104 51
105 105 55
110 108 57
124 122 56
116 115 61
110 110 54
115 114 51
118 117 61
134 132 63
120 119 53
131 129 61
125 124 60
130 127 61
132 129 61
131 129 63
134 131 64
130 128 64
143 138 68
138 134 62
137 134 66
147 143 62
147 143 69
144 140 71
155 151 75
146 142 67
149 144 75
149 144 68
152 147 67
162 156 72
150 146 69
151 146 71
152 147 66
150 146 63
158 151 69
149 145 68
153 149 71
157 153 73
158 152 71
156 150 67
161 154 76
153 147 66
154 149 66
157 151 71
158 152 71
160 155 69
163 157 73
162 157 68
159 153 69
157 151 71
157 151 75
155 150 64
161 155 73
158 153 67
163 156 77
162 156 74
160 154 72
159 152 74
154 149 63
163 156 73
156 150 68
158 152 66
156 150 68
156 150 71
161 155 70
159 153 67
158 152 73
154 148 65
158 151 73
158 152 64
160 153 69
156 150 62
149 142 60
155 149 58
145 140 57
156 150 68
153 147 61
145 139 64
150 144 67
153 146 69
149 144 62
146 140 53
148 143 57
143 137 63
149 144 54
148 143 58
140 135 56
149 143 59
138 133 48
143 138 54
141 135 56
140 133 53
133 129 51
140 134 56
139 134 51
133 127 48
132 128 52
137 132 51
135 129 49
133 128 44
125 121 42
126 120 48
117 113 41
159 177 0
169 188 0
169 189 0
167 187 0
170 192 0
168 188 0
167 185 0
170 190 0
169 189 0
169 189 0
169 191 0
167 188 0
171 194 0
169 189 0
170 191 0
170 194 0
172 196 0
168 190 0
173 196 0
172 196 0
174 197 0
170 194 0
173 195 0
171 194 0
171 194 0
172 196 0
172 195 0
172 195 0
168 191 0
167 191 0
172 196 0
166 190 0
169 192 0
171 195 0
171 195 0
171 194 0
170 193 0
172 195 0
169 193 0
170 194 0
172 195 0
170 194 0
169 193 0
173 196 0
174 197 0
172 195 0
174 197 0
172 195 0
172 195 0
171 195 0
171 195 0
169 193 0
171 194 0
169 193 0
168 191 0
171 194 0
170 193 0
168 192 0
168 192 0
172 195 0
168 192 0
171 193 0
169 192 0
167 191 0
170 193 0
172 195 0
169 192 0
167 190 0
168 192 0
167 191 0
171 195 0
170 194 0
169 192 0
171 193 0
168 191 0
167 190 0
168 191 0
170 194 0
171 194 0
168 191 0
171 194 0
171 195 0
169 192 0
170 194 0
170 193 0
166 189 0
168 193 0
170 193 0
170 192 0
165 188 0
168 190 0
170 193 0
165 189 0
171 195 0
169 192 0
165 189 0
166 190 0
165 188 0
167 190 0
164 187 0
102 130 148
63 100 175
64 100 178
63 100 170
63 99 176
63 100 176
63 100 176
62 99 175
62 99 172
63 99 177
62 99 175
63 100 179
63 99 175
63 99 175
62 99 176
63 99 174
63 100 175
62 98 175
62 99 177
61 98 171
63 100 178
62 99 174
62 99 176
63 99 177
62 99 175
62 99 176
61 98 174
62 99 178
62 99 175
62 98 175
61 98 171
62 99 173
61 98 173
62 99 178
62 99 174
62 98 171
62 99 174
62 99 173
62 99 179
62 99 176
62 99 173
62 99 174
61 98 173
62 99 175
62 98 170
62 99 176
62 98 172
62 99 176
62 98 170
63 99 175
62 99 172
62 98 171
62 99 174
62 99 175
62 99 173
62 99 174
62 99 172
61 98 170
63 100 176
62 98 173
63 100 178
62 99 174
62 99 173
62 99 173
62 99 170
62 99 178
62 98 169
62 99 176
62 99 174
62 99 172
61 98 175
62 98 166
62 99 176
62 99 169
62 99 169
63 99 178
61 98 170
62 99 178
62 99 174
61 97 165
62 99 177
62 99 170
62 99 176
62 98 167
62 99 174
63 99 176
62 99 175
62 99 170
62 99 172
62 98 171
62 98 169
62 99 172
62 99 172
62 99 174
62 99 171
62 99 174
62 98 171
62 99 173
63 99 170
62 98 171
61 98 165
62 99 171
62 98 169
62 99 172
62 99 172
62 99 171
63 99 171
63 99 169
62 99 171
62 98 169
62 99 171
61 98 168
62 98 170
62 99 173
62 98 169
62 99 171
62 99 172
62 98 164
62 98 167
62 99 173
63 99 169
62 99 170
63 100 176
62 99 174
62 99 169
62 99 167
62 99 170
62 98 168
62 99 170
63 99 171
62 98 165
62 99 169
62 99 168
62 99 170
62 99 173
63 99 169
62 99 170
62 98 169
62 98 164
61 97 160
63 100 172
62 98 168
62 99 168
62 98 166
61 97 160
62 98 167
62 98 167
62 97 165
62 99 167
61 98 164
62 98 166
62 98 162
62 98 166
62 98 166
61 97 166
62 98 164
60 96 158
62 98 166
61 96 163
62 99 169
61 97 159
60 96 152
61 97 164
62 98 162
63 99 168
61 97 154
61 96 154
61 97 157
61 96 153
62 97 159
60 95 156
61 96 156
62 96 153
60 94 142
60 94 143
60 93 152
59 93 147
59 93 145
63 72 73
62 64 24
60 61 22
60 64 32
63 65 27
70 74 32
72 76 32
67 71 36
71 74 31
77 78 30
82 83 39
86 88 47
73 75 42
73 75 38
96 97 40
101 101 37
92 95 46
91 93 39
93 94 44
108 107 46
106 106 46
117 116 54
105 105 50
107 107 55
121 119 58
107 108 44
111 111 53
118 116 60
121 119 54
110 111 54
134 130 61
125 124 59
131 129 56
129 125 64
129 127 61
139 136 65
132 130 66
138 135 69
138 135 67
132 129 63
137 133 60
145 140 71
144 140 71
143 139 68
145 140 73
152 147 69
149 145 68
143 138 55
145 142 62
151 147 72
157 151 78
152 147 67
158 152 73
150 145 68
151 146 69
156 150 75
155 149 68
158 153 66
146 143 62
150 145 63
154 149 73
162 155 75
157 152 68
161 155 74
158 152 75
154 148 66
158 152 70
158 152 73
160 153 72
159 152 70
159 153 69
157 151 68
151 145 64
158 151 74
160 153 71
157 151 68
163 156 76
160 153 73
161 153 69
157 151 71
157 151 72
158 152 64
157 152 68
159 153 70
157 149 74
155 149 64
148 143 63
152 147 60
153 149 60
152 146 68
154 147 67
154 147 67
155 149 66
157 151 61
157 150 70
156 149 69
153 147 70
147 141 53
153 147 63
158 151 68
143 138 56
148 142 61
148 142 60
154 149 63
150 146 63
146 141 61
148 143 54
142 135 54
141 135 54
150 143 58
138 132 59
143 136 59
135 131 49
140 134 53
140 136 53
123 118 48
131 127 47
133 127 49
125 120 47
123 119 44
135 130 51
141 147 37
168 187 0
169 191 0
169 187 0
167 186 0
170 192 0
170 190 0
170 191 0
170 189 0
169 189 0
170 192 0
166 186 0
171 192 0
168 190 0
172 192 0
169 190 0
172 195 0
172 196 0
172 196 0
169 193 0
167 191 0
172 196 0
171 194 0
172 195 0
173 196 0
169 194 0
172 196 0
170 193 0
173 197 0
171 194 0
171 194 0
173 196 0
172 195 0
172 195 0
172 196 0
170 193 0
171 194 0
169 193 0
174 197 0
166 189 0
172 196 0
170 194 0
172 196 0
169 192 0
173 196 0
167 190 0
170 193 0
169 192 0
172 195 0
169 193 0
171 194 0
169 193 0
174 196 0
167 190 0
170 193 0
167 190 0
169 193 0
171 193 0
171 195 0
171 193 0
173 196 0
171 194 0
164 186 0
172 194 0
168 192 0
171 195 0
167 191 0
170 194 0
171 194 0
169 192 0
168 192 0
170 194 0
167 190 0
166 189 0
170 193 0
170 194 0
169 193 0
167 191 0
169 192 0
166 190 0
171 194 0
170 193 0
172 196 0
170 191 0
166 190 0
169 192 0
164 188 0
169 193 0
172 195 0
168 192 0
166 189 0
166 189 0
166 190 0
168 191 0
169 193 0
172 195 0
167 190 0
162 185 0
170 194 0
168 192 0
163 187 0
96 126 155
63 100 175
63 100 175
63 100 176
63 99 171
63 100 178
63 100 176
63 99 173
62 98 169
63 100 176
63 99 176
63 99 174
62 98 175
63 100 175
63 99 178
62 99 175
62 99 171
63 99 175
62 98 175
63 99 175
62 98 172
62 99 180
62 99 176
62 99 175
63 100 177
62 98 171
62 99 176
62 99 176
61 98 171
62 99 176
62 98 175
62 99 174
63 99 177
62 99 175
62 99 175
62 99 175
62 99 176
62 99 176
61 98 173
61 98 167
63 99 173
62 98 170
61 98 170
61 98 172
62 98 172
62 99 170
62 98 171
62 99 174
62 99 173
62 98 173
62 99 174
62 99 172
62 98 169
61 98 168
62 99 176
62 98 177
62 99 176
61 98 172
62 99 175
63 100 178
62 98 171
61 98 165
62 99 177
62 99 173
62 99 173
62 99 175
62 99 175
62 99 172
62 98 171
61 98 173
62 99 176
62 98 170
63 99 175
62 99 174
62 99 174
62 99 177
62 98 169
63 100 175
62 98 171
62 99 171
62 99 175
61 98 169
62 98 167
63 99 174
62 98 170
62 99 171
62 98 170
61 98 171
62 98 168
62 99 174
62 99 175
62 99 176
62 98 168
63 99 173
62 99 172
63 100 178
62 99 169
62 99 172
62 99 170
61 98 169
62 99 168
63 99 170
62 98 165
62 98 169
61 98 162
63 99 174
62 98 167
62 99 172
62 99 170
62 99 174
61 98 167
62 98 172
62 98 168
62 99 169
62 99 172
62 99 170
62 98 166
61 98 164
62 98 170
62 98 161
62 99 166
62 98 171
62 99 172
61 98 169
62 99 170
62 99 171
61 98 167
62 98 163
62 98 165
62 98 163
63 99 172
62 99 173
63 99 174
62 99 165
61 98 163
62 98 163
62 98 165
62 99 165
61 98 160
61 97 164
62 98 168
61 98 162
61 97 161
62 98 163
62 99 166
61 97 162
62 98 167
62 98 163
62 98 162
62 99 167
62 98 158
62 98 163
63 99 165
61 97 161
62 98 166
62 98 167
63 99 169
62 98 160
62 98 159
62 98 165
60 96 155
62 98 164
61 96 157
62 98 164
61 95 158
62 97 163
61 96 161
61 96 156
60 96 154
61 97 159
61 97 160
61 95 154
61 96 156
60 95 147
61 94 148
60 94 143
60 94 149
59 93 147
55 72 94
62 64 22
55 59 28
72 76 31
74 75 27
53 58 27
67 71 30
65 69 31
79 81 34
75 76 29
89 90 41
89 90 41
97 97 38
105 104 45
96 95 47
87 89 40
96 98 42
91 94 47
103 103 50
102 102 47
113 112 55
102 102 53
124 122 50
124 122 52
106 107 50
117 116 50
125 124 65
122 121 52
124 122 56
125 124 61
125 124 59
120 117 53
137 134 62
129 126 60
135 132 64
140 135 68
139 135 61
133 130 64
136 132 67
147 143 67
141 138 65
142 137 63
142 137 57
155 148 67
148 143 64
146 141 67
144 141 64
147 142 66
149 143 66
157 151 73
148 143 59
157 151 75
153 147 66
154 149 69
151 146 68
157 151 75
155 149 72
150 145 63
153 147 64
162 155 76
161 155 70
147 142 59
158 152 67
159 153 70
164 157 70
151 146 62
159 153 69
157 151 68
159 152 69
163 157 75
166 159 71
161 155 67
157 152 67
155 149 67
156 151 63
162 155 75
161 155 70
157 152 68
156 151 65
154 147 67
154 147 67
163 156 76
156 150 67
157 150 71
159 153 63
152 145 63
156 150 60
156 149 67
157 151 67
160 154 70
152 147 63
152 146 65
155 149 64
152 146 61
159 153 70
157 150 66
159 153 73
153 148 54
150 144 60
154 148 69
143 138 61
139 134 54
143 138 57
147 141 54
147 140 61
146 139 44
141 135 47
138 133 57
140 135 49
135 130 51
140 134 52
142 137 52
143 137 52
140 134 48
133 128 54
143 137 52
121 117 41
124 119 47
121 117 42
119 114 41
123 120 42
164 181 11
172 192 0
165 183 0
167 189 0
163 182 0
168 187 0
167 185 0
169 190 0
170 191 0
168 188 0
168 189 0
168 188 0
168 189 0
168 188 0
171 191 0
172 194 0
168 192 0
170 193 0
173 196 0
173 196 0
173 196 0
171 194 0
171 195 0
172 196 0
171 195 0
171 195 0
173 196 0
170 194 0
172 195 0
172 195 0
172 195 0
170 193 0
171 194 0
169 193 0
170 193 0
171 194 0
172 195 0
170 193 0
173 197 0
172 196 0
172 195 0
170 193 0
168 191 0
170 193 0
170 194 0
169 192 0
168 192 0
170 193 0
171 195 0
171 194 0
172 195 0
168 190 0
171 195 0
169 192 0
166 189 0
172 195 0
171 194 0
171 195 0
164 188 0
172 195 0
167 191 0
169 191 0
173 195 0
171 194 0
170 193 0
168 191 0
169 192 0
171 194 0
171 194 0
170 193 0
172 195 0
171 194 0
169 193 0
173 195 0
169 192 0
168 191 0
170 194 0
171 195 0
170 193 0
166 189 0
170 193 0
168 191 0
168 191 0
169 192 0
173 196 0
170 193 0
169 192 0
171 193 0
170 194 0
170 194 0
169 191 0
166 190 0
167 190 0
166 189 0
165 188 0
169 193 0
169 192 0
165 189 0
172 195 0
166 190 0
164 187 0
72 106 169
63 99 168
63 99 174
63 100 178
63 100 174
63 99 174
63 100 175
63 99 177
63 99 176
63 100 178
62 99 174
62 99 174
62 99 175
62 99 175
62 99 174
62 99 175
62 99 174
62 98 173
62 99 171
62 98 176
63 99 174
62 99 174
62 99 175
62 99 177
61 98 172
62 99 175
62 99 175
62 99 174
62 99 175
62 99 174
62 98 174
62 99 175
62 99 178
62 99 174
63 99 177
62 98 170
62 99 176
62 99 176
62 99 176
62 99 177
62 99 174
62 99 174
61 98 170
62 99 178
62 99 171
62 98 175
62 99 173
62 99 173
62 99 179
62 99 176
62 99 173
62 99 171
62 99 177
62 98 172
61 97 166
61 98 173
62 99 174
62 98 173
62 99 173
62 99 175
61 98 169
61 98 173
62 99 179
62 99 172
63 99 175
62 99 172
62 98 174
62 99 173
62 99 168
60 97 164
62 99 174
61 98 171
62 99 174
62 99 174
62 99 174
62 99 176
61 98 172
62 99 170
62 99 174
62 99 176
62 99 174
62 99 174
62 99 171
62 99 173
62 99 172
63 99 175
62 99 174
62 99 174
61 98 168
62 99 174
62 99 173
63 99 174
61 98 171
62 99 172
62 98 164
62 99 171
62 98 171
62 99 168
62 98 170
62 99 171
62 99 170
61 98 166
62 98 167
62 99 172
62 98 168
62 98 165
62 99 170
62 98 172
62 98 171
62 98 168
62 98 169
63 99 171
62 98 166
61 98 166
62 99 168
62 98 168
63 99 170
62 98 165
62 99 168
63 99 169
62 98 167
62 99 171
63 99 172
62 99 165
62 99 169
62 98 166
62 99 170
62 98 164
62 98 168
63 99 171
62 98 165
63 99 173
63 100 171
62 99 173
62 98 158
62 99 168
62 98 166
62 98 166
61 97 160
63 99 165
63 100 170
62 98 167
62 99 164
62 98 161
62 99 166
62 99 170
61 98 161
62 98 164
62 98 165
63 98 160
62 98 167
62 98 164
62 98 159
62 98 165
61 96 158
62 98 170
61 97 161
62 98 162
61 97 162
62 98 167
62 98 166
62 97 156
63 98 164
61 96 154
61 96 151
61 96 152
61 97 154
60 95 153
61 96 150
61 96 154
61 96 154
60 95 151
62 97 157
62 97 158
59 93 146
60 94 142
59 93 150
60 92 149
56 75 91
77 79 17
69 72 14
61 65 24
59 62 22
79 80 36
71 72 30
88 89 43
80 83 34
86 89 34
70 75 34
73 77 33
78 82 39
85 85 40
85 86 43
91 93 38
93 95 44
100 100 44
100 100 44
111 110 51
97 99 44
120 118 53
113 113 51
121 118 54
116 113 50
116 114 54
119 117 52
125 124 62
130 128 45
122 119 48
123 121 57
138 134 65
138 135 60
132 130 61
130 127 59
129 127 52
130 126 58
137 134 56
141 138 65
145 142 63
139 137 60
138 135 60
144 140 63
140 137 58
149 145 67
139 136 63
144 141 58
152 147 65
151 145 71
145 141 64
143 139 60
156 150 64
144 140 59
148 142 63
148 143 69
156 151 69
144 141 66
156 150 72
153 147 61
158 152 69
157 151 72
153 148 69
156 151 71
161 155 73
150 144 65
148 143 59
148 142 61
147 142 61
158 152 68
162 156 73
161 154 74
154 148 59
160 154 66
157 151 71
157 151 66
154 148 66
157 151 64
159 153 66
157 151 64
150 145 62
152 146 64
159 153 65
161 154 67
153 148 64
153 148 60
161 154 66
146 141 63
162 155 71
155 149 60
153 147 64
155 148 66
159 152 65
148 142 51
153 147 59
150 145 54
152 146 61
151 145 60
153 148 62
140 135 52
155 149 63
150 145 62
151 145 60
156 149 68
141 136 45
148 142 54
141 137 47
143 137 48
148 143 58
141 135 61
141 135 56
131 125 49
140 134 51
146 140 56
143 137 52
137 132 45
132 127 51
127 121 45
126 121 42
123 118 42
117 112 37
142 151 25
164 183 0
170 189 0
168 184 0
169 189 0
167 186 0
168 188 0
167 187 0
170 190 0
168 187 0
172 191 0
169 189 0
169 188 0
171 193 0
166 187 0
168 189 0
166 186 0
174 197 0
173 196 0
172 196 0
173 196 0
170 193 0
173 196 0
174 197 0
169 193 0
171 194 0
174 197 0
171 194 0
171 195 0
172 195 0
172 195 0
170 194 0
171 195 0
173 196 0
174 197 0
171 195 0
171 194 0
169 193 0
174 197 0
170 194 0
171 195 0
170 194 0
171 194 0
170 194 0
173 197 0
170 193 0
171 194 0
170 193 0
170 193 0
169 192 0
170 193 0
171 193 0
172 196 0
166 189 0
170 193 0
170 194 0
171 194 0
170 193 0
169 192 0
170 193 0
169 192 0
172 197 0
170 193 0
171 195 0
169 193 0
168 190 0
168 191 0
171 194 0
170 193 0
168 191 0
171 194 0
171 193 0
168 191 0
167 190 0
170 193 0
168 191 0
173 196 0
167 189 0
168 191 0
168 190 0
166 189 0
171 195 0
164 188 0
167 191 0
172 195 0
167 190 0
171 194 0
167 190 0
170 192 0
169 192 0
166 189 0
171 193 0
166 189 0
164 187 0
171 194 0
170 193 0
168 191 0
166 190 0
168 191 0
168 191 0
164 188 0
160 184 47
65 101 179
64 100 174
63 99 169
63 100 175
63 99 173
63 99 173
63 100 175
63 100 169
62 99 174
63 99 176
63 99 176
63 100 175
62 99 173
62 99 174
62 99 173
62 98 172
62 99 174
62 98 172
62 98 169
62 99 175
62 98 171
62 98 173
62 99 175
62 98 172
61 98 169
62 99 174
61 98 174
62 99 174
61 98 170
62 98 173
62 98 174
62 99 177
62 99 176
63 99 176
62 99 176
62 99 175
62 98 170
62 99 175
61 98 173
61 98 172
62 98 170
62 99 172
62 99 172
62 98 169
62 98 170
62 99 174
63 100 177
62 99 171
62 99 175
62 99 174
62 99 174
61 98 170
61 98 172
63 99 174
62 98 175
62 99 178
62 99 175
63 99 175
62 99 176
62 99 176
62 98 170
63 99 177
62 98 172
62 99 175
62 99 175
62 99 171
62 98 166
62 99 174
62 98 167
62 99 174
62 99 169
62 98 174
62 98 172
62 99 171
63 99 173
62 99 167
62 99 171
62 98 166
61 98 167
62 99 171
62 99 169
62 99 171
61 98 170
62 99 169
62 99 169
63 99 173
62 98 172
63 99 172
62 99 175
61 98 170
61 98 165
62 99 171
61 97 166
62 99 174
62 98 171
62 98 167
63 99 173
62 98 163
62 99 170
63 99 174
61 98 169
62 98 167
61 98 172
62 99 171
62 98 166
62 99 174
62 98 164
62 98 164
62 98 166
62 98 166
61 98 162
62 98 169
62 98 165
62 99 170
62 98 165
62 98 167
62 99 172
61 98 167
63 99 164
62 98 166
63 99 168
63 99 169
61 98 164
62 98 169
62 98 166
62 98 166
62 98 167
62 99 168
62 98 167
62 99 169
62 98 168
61 98 164
62 99 169
62 98 166
63 99 171
63 99 169
62 98 166
62 99 166
63 99 167
62 98 166
63 99 167
62 99 167
62 98 162
63 99 170
62 98 163
63 99 173
61 97 160
61 97 161
62 98 166
62 98 160
62 98 161
62 98 160
62 98 162
61 98 160
62 97 159
63 99 170
62 98 162
61 97 157
61 97 161
62 97 155
60 95 158
62 97 161
62 98 165
61 96 150
61 97 160
62 98 161
61 97 159
61 97 151
60 95 155
60 95 149
61 96 154
61 96 149
61 96 153
61 96 152
61 96 161
62 97 156
58 91 143
59 92 136
59 81 117
64 67 21
60 63 24
65 68 24
70 73 31
71 73 27
76 78 25
75 76 22
75 79 29
79 81 37
85 87 38
87 89 35
94 94 37
80 82 33
98 99 38
100 100 43
107 107 44
88 88 37
96 95 48
105 104 42
101 102 48
107 107 48
110 109 49
108 108 51
111 112 51
120 118 58
119 118 46
122 120 60
115 114 44
120 118 52
128 126 63
129 127 56
131 129 62
126 124 56
131 128 60
137 134 62
131 128 62
143 139 58
134 132 55
126 124 55
140 137 61
141 138 62
140 137 60
139 134 60
133 129 49
153 148 70
141 137 63
150 146 66
152 146 66
147 142 63
153 146 66
147 142 61
148 144 62
156 150 72
150 145 65
153 148 66
150 145 68
152 147 62
152 146 69
151 146 67
158 153 70
157 152 65
158 153 69
155 149 61
153 147 70
158 152 69
153 147 64
158 151 72
156 150 66
158 152 67
161 154 72
145 141 61
153 147 65
162 155 70
160 153 69
155 150 58
156 149 71
147 141 57
157 152 67
153 148 65
150 144 61
157 152 63
160 153 70
154 148 65
156 150 60
152 146 61
155 148 67
158 151 69
153 147 59
151 146 58
154 148 62
158 151 63
153 147 57
157 150 71
160 153 70
148 143 58
154 148 61
157 151 68
147 141 52
152 147 64
148 143 51
143 137 58
145 139 48
139 134 56
144 138 54
142 135 58
145 139 57
141 135 58
145 139 60
144 138 58
133 128 52
131 125 45
135 130 49
129 124 44
125 120 39
130 125 44
130 125 49
125 121 48
120 115 37
113 114 25
167 186 0
168 187 0
171 191 0
168 186 0
170 189 0
168 188 0
167 187 0
164 184 0
167 187 0
169 189 0
168 188 0
167 187 0
167 186 0
169 190 0
165 183 0
169 190 0
169 191 0
171 195 0
169 193 0
168 192 0
170 193 0
168 192 0
168 193 0
171 195 0
173 196 0
173 196 0
172 195 0
168 191 0
172 196 0
169 192 0
170 194 0
170 194 0
170 194 0
168 192 0
171 194 0
170 194 0
169 193 0
169 193 0
165 189 0
174 196 0
172 195 0
170 194 0
170 194 0
169 192 0
170 192 0
171 194 0
169 193 0
171 195 0
170 193 0
171 194 0
172 196 0
171 195 0
171 195 0
173 196 0
166 190 0
173 197 0
171 194 0
171 195 0
169 193 0
170 194 0
168 192 0
171 195 0
170 194 0
172 194 0
168 191 0
171 194 0
169 192 0
168 191 0
170 194 0
165 189 0
169 193 0
166 189 0
169 193 0
168 192 0
170 193 0
170 193 0
173 196 0
167 189 0
168 190 0
170 193 0
168 191 0
167 190 0
166 190 0
168 191 0
171 194 0
167 190 0
169 193 0
170 193 0
170 193 0
169 192 0
169 192 0
168 191 0
167 190 0
166 189 0
162 185 0
167 190 0
168 192 0
168 191 0
170 193 0
162 184 0
171 194 0
154 177 67
64 100 171
63 100 174
63 100 175
63 99 175
63 99 173
63 100 175
63 100 174
63 100 180
63 99 173
62 99 176
62 99 177
63 100 173
62 99 173
63 99 175
62 99 175
62 99 177
62 99 175
62 99 175
63 99 174
61 98 169
62 98 172
62 98 174
62 99 173
62 99 179
63 100 179
62 98 171
62 99 177
61 98 173
62 99 172
62 98 170
63 99 177
62 99 175
62 98 171
63 100 178
61 98 175
62 99 173
62 99 174
61 98 173
62 98 172
62 99 176
63 99 177
62 98 172
62 98 174
62 99 175
63 99 172
61 98 174
62 98 175
63 99 175
62 99 175
62 99 176
62 99 177
62 99 172
62 99 173
62 99 172
62 99 171
62 99 176
62 98 170
61 97 169
62 98 170
61 97 167
63 99 175
62 98 172
62 98 172
62 99 174
62 99 172
62 99 174
62 99 174
62 99 174
63 99 170
63 100 178
63 100 177
62 99 173
62 99 169
62 98 173
62 98 168
63 99 171
62 99 173
62 98 167
61 98 170
62 99 175
62 99 172
62 98 169
62 98 169
61 98 170
62 98 164
63 99 174
63 99 172
62 99 172
62 98 169
61 98 172
62 98 172
62 98 170
62 99 174
62 98 168
62 98 168
62 99 173
62 98 169
61 98 174
62 98 167
61 98 167
62 99 168
62 99 168
63 99 173
61 98 167
62 98 167
62 99 175
62 99 169
61 98 167
63 99 170
62 98 166
63 99 171
63 99 173
62 98 164
63 99 169
63 99 170
62 98 160
61 98 164
63 99 169
61 98 161
62 98 170
63 99 167
62 98 166
62 99 167
62 98 167
62 99 173
61 97 160
63 99 171
62 98 166
62 98 168
62 98 162
62 98 162
63 99 166
61 97 163
62 98 168
62 99 168
62 97 159
62 98 162
62 99 169
62 98 162
61 98 167
62 99 168
62 98 164
61 98 164
62 99 168
63 99 168
61 97 160
61 98 163
62 98 168
62 98 165
61 97 160
61 97 159
62 98 164
61 98 164
62 98 157
61 97 152
62 98 163
63 99 167
62 98 161
63 99 167
61 97 161
61 97 155
62 98 158
61 98 158
61 96 161
60 96 152
61 97 159
62 97 157
62 98 159
61 96 155
62 97 159
60 95 153
60 94 149
60 95 151
60 94 153
61 95 152
59 93 143
58 90 138
59 93 141
58 87 134
52 55 22
71 73 23
71 73 24
73 75 28
77 78 27
70 73 29
66 69 28
93 93 31
72 75 28
85 86 31
101 101 38
82 84 36
89 90 29
93 95 38
90 91 34
93 94 44
97 98 45
109 108 47
104 104 35
92 93 48
99 99 38
106 107 50
117 116 53
121 119 54
118 117 54
115 115 45
115 114 46
117 116 53
131 128 63
131 129 62
130 128 62
129 127 60
123 122 57
132 128 59
130 127 58
137 133 62
145 140 61
133 130 57
131 128 52
135 131 60
142 137 65
135 132 59
140 136 58
144 140 60
146 141 64
143 139 65
153 147 70
145 139 63
150 144 58
143 138 64
153 148 72
154 149 65
159 154 70
154 150 69
142 139 56
156 151 70
146 141 56
152 147 66
155 149 65
153 147 67
159 153 70
151 146 66
157 151 68
159 153 69
148 143 55
158 152 70
158 153 62
158 153 66
157 152 70
156 149 66
146 141 55
159 152 63
156 150 68
146 140 57
151 146 65
157 151 66
156 150 66
158 151 71
153 147 64
148 143 61
160 153 67
148 143 62
155 149 64
153 147 60
150 146 58
145 140 59
147 142 53
154 148 66
148 142 59
151 144 62
146 140 58
153 147 60
153 147 61
154 146 72
149 143 62
142 137 51
147 141 60
138 132 52
143 137 52
148 142 56
142 137 48
148 142 58
139 133 54
146 140 52
139 133 57
141 135 51
141 136 44
135 130 51
135 131 54
129 124 42
139 134 52
124 119 47
139 134 52
139 131 53
126 119 49
130 123 53
120 117 37
119 115 32
161 176 16
167 185 0
167 188 0
170 189 0
166 186 0
164 183 0
170 188 0
170 191 0
171 190 0
169 187 0
167 188 0
172 192 0
170 189 0
170 189 0
168 188 0
170 190 0
170 189 0
168 188 0
170 194 0
172 196 0
173 197 0
172 196 0
175 197 0
170 193 0
171 194 0
169 193 0
172 195 0
172 196 0
170 193 0
172 196 0
174 197 0
173 196 0
172 195 0
175 198 0
173 197 0
170 194 0
173 196 0
170 194 0
171 194 0
170 194 0
171 195 0
171 196 0
171 193 0
173 196 0
171 194 0
171 195 0
171 194 0
168 191 0
169 193 0
172 194 0
171 194 0
168 192 0
170 193 0
171 194 0
170 192 0
170 194 0
168 192 0
173 196 0
170 193 0
167 191 0
168 191 0
171 194 0
167 189 0
167 191 0
169 192 0
168 192 0
172 195 0
173 196 0
170 193 0
172 195 0
167 190 0
171 194 0
171 195 0
165 187 0
172 195 0
171 193 0
171 194 0
166 188 0
167 190 0
166 190 0
168 191 0
168 192 0
162 185 0
169 193 0
170 194 0
170 193 0
167 190 0
171 194 0
169 192 0
170 192 0
168 191 0
168 191 0
168 192 0
164 187 0
167 191 0
168 192 0
168 192 0
164 188 0
169 193 0
170 192 0
167 190 0
166 189 0
143 167 94
64 100 173
64 101 179
63 100 175
63 100 175
63 99 176
63 99 173
63 99 176
63 99 176
62 99 172
62 99 174
63 100 175
62 99 175
63 99 173
63 100 180
61 98 168
62 98 169
63 99 177
62 99 175
62 99 173
62 99 173
63 99 175
62 99 175
62 99 176
62 99 171
62 99 173
62 99 176
62 99 175
63 99 176
62 99 175
62 98 174
62 98 172
63 99 173
62 99 172
62 99 173
62 99 176
62 99 175
62 98 169
62 99 173
62 99 174
63 99 174
62 98 175
62 98 170
62 99 173
62 99 174
62 98 175
63 100 178
62 99 173
62 99 172
62 98 171
63 100 176
62 99 169
62 99 174
62 99 174
61 98 172
62 99 173
62 99 175
61 98 166
62 99 176
62 99 176
62 99 176
62 99 175
62 99 173
61 98 170
63 99 172
63 99 173
61 98 174
62 98 167
61 98 168
62 99 175
62 99 172
62 99 171
62 99 176
62 98 171
62 98 170
62 99 172
62 99 172
62 98 167
61 97 169
62 98 168
63 100 175
62 98 171
62 98 163
62 99 174
62 98 173
61 98 172
63 99 172
62 98 171
61 98 166
62 99 170
62 98 169
62 99 172
63 99 170
62 99 175
63 99 174
63 99 172
63 99 171
62 98 169
62 99 170
63 99 174
62 99 173
62 99 168
62 99 169
62 99 169
61 98 166
62 98 167
62 98 167
62 99 169
62 98 168
62 98 168
61 98 163
62 99 174
62 98 160
61 98 168
61 98 161
62 99 171
63 99 168
62 98 170
62 99 168
62 99 167
62 98 164
62 98 166
62 98 165
63 99 169
62 98 165
62 98 167
62 99 172
62 98 164
62 98 167
62 98 162
62 99 166
62 98 162
63 99 168
62 98 167
62 98 163
62 98 163
61 97 158
63 99 170
62 98 165
62 99 166
62 98 164
62 98 161
62 98 162
62 98 159
61 98 163
62 98 160
61 97 160
62 98 163
62 98 162
62 98 160
63 99 173
61 97 159
62 98 163
62 98 163
62 97 164
62 98 168
62 98 159
61 97 158
62 98 161
61 97 155
62 97 159
62 97 154
63 99 163
62 98 160
61 96 152
60 96 148
61 96 158
62 97 160
61 96 151
61 96 158
60 94 150
60 95 150
61 96 154
61 96 150
61 95 148
60 94 141
58 92 143
61 95 148
60 94 141
59 89 125
69 70 21
66 69 21
67 69 32
72 73 29
84 84 29
66 69 20
71 73 23
83 85 31
81 82 26
93 93 35
90 91 36
91 93 36
89 89 32
92 92 40
98 97 33
88 91 40
110 109 38
94 94 38
105 106 42
97 99 46
108 107 48
111 111 44
97 98 39
115 114 53
113 112 56
114 115 53
110 110 50
122 120 54
114 112 53
113 113 51
125 123 55
127 124 50
122 120 53
126 124 54
133 130 62
140 136 58
140 137 64
135 132 57
130 127 56
133 129 53
145 141 60
135 133 57
142 139 67
138 133 60
148 144 62
146 141 66
153 148 68
140 136 56
148 144 68
147 142 58
147 142 63
149 144 60
146 141 66
155 149 71
146 141 60
149 143 63
148 143 58
146 142 56
151 146 61
158 151 68
155 148 68
144 140 55
151 146 61
152 146 62
152 147 67
157 151 67
151 145 61
153 146 66
159 152 71
160 154 70
161 154 71
156 150 68
160 153 71
155 150 64
152 146 60
157 151 71
153 147 62
163 157 66
154 148 63
151 146 51
154 147 58
150 144 56
155 148 64
157 150 68
158 151 62
156 150 58
150 144 63
149 144 51
150 144 56
149 143 61
145 139 52
146 141 61
150 144 60
150 144 56
147 141 60
146 141 56
145 140 52
149 143 57
146 141 53
141 136 52
145 139 56
145 139 61
142 137 51
141 135 56
144 138 57
142 136 60
139 133 48
135 128 51
129 124 48
142 136 48
141 135 52
130 125 47
131 125 44
137 131 53
131 125 42
122 118 34
115 111 36
138 143 30
165 183 0
169 188 0
168 185 0
168 186 0
167 186 0
171 192 0
172 191 0
166 186 0
169 189 0
167 186 0
164 183 0
168 187 0
167 188 0
166 186 0
170 191 0
171 193 0
168 187 0
170 192 0
175 198 0
173 195 0
173 196 0
168 191 0
172 195 0
172 195 0
171 195 0
171 195 0
173 196 0
168 193 0
170 194 0
171 195 0
170 193 0
170 193 0
169 192 0
168 192 0
169 192 0
168 191 0
167 190 0
169 193 0
167 191 0
170 194 0
171 194 0
172 196 0
172 195 0
168 192 0
172 195 0
169 193 0
169 192 0
172 195 0
171 195 0
168 191 0
171 195 0
169 192 0
170 194 0
170 193 0
168 191 0
173 196 0
168 191 0
169 193 0
171 194 0
171 194 0
169 192 0
170 194 0
167 190 0
169 192 0
169 191 0
167 190 0
170 194 0
169 193 0
175 198 0
169 192 0
168 192 0
166 189 0
170 193 0
171 195 0
169 193 0
167 189 0
169 192 0
170 193 0
168 192 0
168 190 0
168 191 0
166 190 0
165 188 0
167 190 0
169 193 0
168 191 0
168 193 0
165 189 0
165 187 0
169 192 0
169 193 0
172 196 0
165 187 0
167 191 0
166 190 0
169 192 0
167 190 0
169 192 0
163 187 0
168 192 0
166 188 0
166 190 0
132 157 120
64 100 177
63 100 171
63 99 175
63 99 176
63 100 175
63 99 171
63 99 172
62 99 172
62 99 172
63 100 177
63 100 176
62 98 170
62 99 173
62 99 172
62 99 174
62 98 173
62 98 172
63 99 175
62 99 176
63 99 178
62 98 170
62 99 172
62 99 171
62 99 176
62 99 172
62 98 171
62 98 172
61 98 172
61 98 170
63 99 178
62 99 173
62 99 174
62 98 169
62 99 172
62 98 173
62 98 171
61 98 167
63 100 176
61 98 171
61 98 176
62 99 175
62 99 174
61 98 174
62 99 175
62 99 172
62 99 175
62 99 170
62 99 169
62 99 172
62 99 173
62 99 172
62 98 175
61 98 172
62 99 176
63 100 178
62 99 173
61 98 173
61 98 170
61 98 173
62 99 172
62 99 172
62 99 173
61 97 167
62 99 173
61 98 174
62 98 169
62 99 170
63 99 172
62 99 173
61 98 167
61 98 166
61 98 169
62 98 164
62 98 169
62 99 171
63 99 173
62 98 167
62 99 174
62 99 170
61 98 172
62 98 168
62 98 169
62 99 170
62 99 170
62 99 171
63 99 170
62 98 167
62 99 170
61 98 167
62 99 171
62 99 173
63 99 171
61 98 173
62 98 168
62 99 171
62 98 166
63 99 171
61 98 168
62 98 167
61 98 167
62 98 167
62 99 169
61 98 165
63 100 177
62 98 168
62 98 165
62 98 164
63 99 172
62 98 162
61 98 168
62 98 169
62 98 171
62 98 166
62 99 172
62 99 170
62 98 166
62 99 165
62 99 167
63 99 164
62 99 168
62 98 168
62 98 169
63 99 170
62 99 167
61 97 165
63 99 172
62 98 164
62 99 167
61 98 164
62 98 165
62 99 168
63 99 169
62 98 167
62 98 161
63 100 176
62 98 166
62 98 161
62 98 166
62 98 162
61 97 157
61 98 164
62 98 164
62 99 168
62 98 163
62 99 166
62 98 161
62 98 164
62 98 161
62 98 167
62 98 164
62 98 165
62 98 161
62 98 166
61 98 162
62 97 157
61 97 160
62 98 158
62 97 159
61 97 161
60 95 149
62 98 165
62 98 161
61 97 156
61 97 159
61 96 152
62 98 161
63 98 160
61 96 146
61 97 152
62 97 165
61 96 153
61 96 150
61 96 148
61 96 151
61 95 143
61 95 149
58 91 138
59 92 140
58 90 130
66 68 26
71 73 18
67 69 23
59 62 20
68 69 21
74 78 26
78 79 20
81 83 23
69 73 28
80 83 31
87 87 21
87 89 34
84 86 29
95 94 41
95 97 42
105 104 41
107 107 44
103 104 42
104 103 43
113 111 38
116 115 47
119 118 51
114 113 45
115 112 44
122 120 45
114 113 54
122 119 51
130 127 49
122 119 45
123 120 52
125 122 51
134 130 61
127 125 50
126 123 50
139 135 56
125 123 53
129 126 56
136 133 66
134 131 61
143 139 56
133 130 57
147 142 66
143 139 65
146 141 55
144 139 65
143 138 58
145 140 59
151 145 67
139 136 49
139 135 54
141 137 61
152 146 67
155 148 61
150 146 53
156 150 72
152 145 66
157 151 64
156 150 65
152 147 66
148 142 66
157 151 67
155 149 70
150 144 54
154 148 63
156 150 64
153 148 59
157 150 66
153 148 60
162 155 69
156 151 59
144 140 54
160 154 69
155 150 62
155 149 62
152 147 59
151 145 62
155 149 70
152 146 59
149 144 54
155 148 64
150 145 63
145 141 52
149 145 53
142 137 58
147 142 57
149 144 64
151 145 62
147 141 59
155 149 53
148 142 54
142 138 51
147 140 60
149 143 59
144 139 59
152 148 59
147 143 51
145 140 49
149 142 62
149 142 59
144 140 52
146 140 56
142 137 52
145 139 56
135 130 47
136 131 45
145 139 47
135 129 57
140 135 52
130 125 41
134 129 45
146 138 57
127 121 42
120 116 37
131 125 47
128 122 49
118 112 34
125 122 28
164 180 0
167 187 0
167 186 0
169 185 0
166 184 0
164 184 0
166 182 0
168 188 0
170 188 0
170 189 0
172 190 0
171 191 0
170 190 0
166 186 0
169 190 0
173 194 0
172 193 0
170 190 0
168 187 0
173 196 0
169 191 0
172 195 0
169 192 0
173 197 0
169 193 0
170 194 0
170 194 0
169 191 0
170 193 0
172 195 0
171 194 0
171 194 0
172 195 0
170 193 0
172 195 0
169 192 0
167 191 0
172 194 0
165 189 0
169 192 0
172 196 0
171 195 0
171 194 0
168 191 0
165 188 0
171 195 0
168 192 0
169 193 0
170 193 0
168 192 0
172 195 0
169 193 0
173 196 0
168 192 0
169 193 0
173 196 0
169 193 0
166 190 0
170 193 0
170 193 0
172 195 0
170 194 0
171 195 0
171 195 0
169 192 0
169 194 0
168 192 0
169 192 0
171 194 0
169 193 0
168 191 0
169 191 0
170 193 0
169 191 0
170 194 0
170 194 0
167 190 0
169 193 0
171 195 0
169 192 0
169 193 0
170 192 0
169 191 0
171 194 0
166 190 0
166 190 0
172 195 0
168 191 0
162 186 0
170 193 0
168 191 0
169 193 0
168 192 0
170 194 0
168 192 0
164 187 0
167 190 0
170 193 0
169 191 0
167 190 0
169 193 0
170 193 0
162 184 0
115 142 127
63 100 176
64 101 179
63 100 172
62 99 168
62 99 168
63 99 174
63 100 176
63 100 176
62 99 173
62 98 171
62 99 169
62 99 174
62 99 171
62 98 172
63 100 176
62 98 170
63 99 172
62 98 169
62 99 175
62 99 176
63 99 175
62 99 169
62 99 173
62 99 173
62 99 175
62 99 175
62 99 173
62 99 180
62 99 175
62 98 173
62 99 175
61 98 175
62 98 173
62 99 173
63 99 174
62 99 176
61 98 171
62 98 170
62 98 175
62 99 171
62 99 175
61 97 167
62 99 176
61 98 165
62 99 172
62 99 174
62 99 175
63 99 176
62 99 175
62 98 172
62 99 175
62 99 176
62 98 169
62 98 170
61 98 170
62 98 167
62 99 177
62 98 170
61 98 170
61 98 172
62 99 171
62 98 171
63 100 175
62 98 176
62 98 172
63 99 178
62 98 171
62 98 173
62 98 169
62 98 169
62 99 175
62 99 177
61 98 168
62 99 172
62 98 168
62 99 176
62 99 176
62 98 171
62 98 173
61 97 167
62 99 172
62 99 171
62 99 169
62 98 164
62 99 172
62 99 169
62 99 170
63 100 175
62 98 170
63 99 170
62 98 169
62 98 164
62 99 171
62 99 168
63 99 171
61 98 165
62 98 168
62 99 175
62 98 168
62 98 166
62 98 164
63 99 171
62 98 164
62 98 167
61 98 162
62 98 163
63 99 169
62 99 172
62 98 165
62 99 167
62 98 164
62 99 173
61 98 167
62 99 172
62 98 166
62 98 162
62 98 167
62 98 167
62 99 170
62 99 171
62 99 170
61 98 164
62 98 166
62 99 170
61 98 164
61 98 166
61 98 166
62 99 169
61 98 162
62 98 159
63 99 167
62 99 172
62 98 165
62 99 164
62 99 166
63 99 171
62 98 161
62 98 163
62 98 167
62 98 163
62 98 159
61 97 158
62 99 166
62 98 165
63 99 165
62 98 164
61 97 160
61 97 160
62 98 163
61 97 155
62 98 158
61 97 159
62 98 162
62 98 161
61 97 161
61 97 158
62 97 155
61 97 154
62 98 166
61 97 159
60 95 156
61 97 155
62 97 157
61 97 157
62 97 157
61 96 150
61 97 160
62 98 162
62 97 158
60 96 157
61 96 148
62 97 156
61 96 152
60 95 154
60 94 145
59 92 140
60 95 157
58 90 128
59 91 140
70 74 39
75 74 21
59 61 21
81 80 25
75 75 23
73 74 22
76 78 25
87 87 35
83 84 24
94 94 33
98 98 21
94 94 38
85 86 39
90 92 42
90 91 29
97 97 37
105 104 33
86 88 40
96 97 40
107 105 37
107 107 43
96 96 41
107 106 48
101 101 41
104 104 44
121 118 49
118 116 55
115 114 50
114 113 54
107 107 40
133 129 56
117 116 45
123 121 51
128 126 53
123 121 51
137 133 56
140 135 63
144 139 61
135 131 50
140 135 60
143 138 60
133 131 53
139 136 58
145 140 64
140 136 61
144 140 57
142 138 58
145 140 61
150 144 60
150 144 65
147 142 57
143 139 64
144 138 67
151 145 60
150 144 63
151 147 58
154 148 61
144 138 63
149 144 61
145 141 57
157 152 64
153 148 59
150 144 63
150 145 61
151 147 54
158 153 66
154 147 61
152 147 58
154 148 65
155 149 60
152 145 61
151 146 61
151 147 56
147 141 55
156 150 62
156 150 63
145 140 54
152 147 53
159 151 60
154 148 58
152 147 59
151 145 66
155 149 65
151 145 60
152 147 62
155 149 61
146 141 52
137 132 49
145 141 48
151 145 52
143 139 47
143 137 54
147 142 53
150 144 57
151 144 61
151 144 63
143 136 53
161 153 66
144 139 54
144 139 48
131 127 42
138 132 56
142 137 48
141 135 51
139 133 48
140 134 52
138 131 51
132 126 48
134 130 41
134 128 53
137 131 49
128 122 42
124 119 42
116 111 34
129 123 44
107 103 36
152 164 19
168 186 0
172 190 0
164 183 0
169 188 0
168 185 0
169 188 0
164 181 0
165 185 0
168 188 0
170 188 0
169 187 0
169 189 0
169 188 0
171 190 0
168 188 0
170 190 0
168 187 0
171 194 0
168 190 0
169 192 0
171 195 0
171 194 0
172 195 0
170 193 0
170 194 0
170 192 0
172 196 0
169 193 0
170 194 0
172 196 0
170 193 0
171 194 0
170 193 0
171 194 0
168 191 0
170 193 0
171 195 0
172 196 0
171 195 0
172 196 0
171 195 0
169 193 0
172 194 0
171 195 0
171 195 0
170 193 0
171 194 0
168 191 0
172 196 0
168 192 0
169 192 0
171 194 0
169 191 0
170 193 0
168 191 0
171 194 0
169 192 0
168 191 0
170 193 0
170 193 0
168 192 0
173 197 0
172 196 0
173 197 0
169 192 0
170 193 0
169 192 0
171 194 0
166 190 0
172 194 0
167 190 0
168 192 0
169 193 0
170 194 0
172 194 0
168 191 0
166 190 0
170 193 0
172 194 0
171 194 0
164 187 0
165 190 0
171 194 0
168 191 0
168 191 0
170 193 0
167 190 0
167 190 0
163 187 0
167 191 0
166 189 0
162 185 0
169 192 0
169 192 0
168 191 0
170 193 0
165 187 0
171 193 0
168 191 0
169 193 0
169 192 0
169 192 0
168 190 0
118 144 133
65 101 180
63 100 173
64 100 173
63 100 175
63 99 168
63 99 173
63 99 172
62 99 170
62 98 171
62 99 174
63 100 175
62 99 174
63 99 176
62 99 172
62 98 169
63 99 174
62 99 174
63 100 176
63 99 170
61 98 171
62 99 175
62 98 171
62 99 175
63 100 178
62 98 173
62 99 171
61 98 175
62 99 174
62 99 177
62 99 175
63 100 177
61 98 170
61 97 169
62 98 169
61 98 173
62 99 171
62 99 175
62 99 175
62 99 173
62 99 173
62 99 175
62 98 173
62 99 171
61 98 173
62 99 173
61 97 165
62 98 174
62 98 168
62 99 171
62 98 169
62 99 170
62 99 173
62 99 172
63 100 175
62 99 175
61 98 170
62 98 169
62 99 171
63 99 175
62 98 170
62 99 170
62 98 169
61 98 170
62 98 167
62 99 174
62 98 171
62 98 171
63 100 174
62 99 166
62 99 169
63 99 174
61 98 170
62 99 173
62 99 174
62 99 170
63 99 173
62 99 171
62 99 174
62 99 173
62 99 174
62 99 170
62 99 175
62 99 172
62 99 172
62 99 171
62 98 168
62 99 167
63 99 173
62 99 172
62 98 165
62 99 167
62 98 168
62 98 170
62 98 168
61 98 162
62 99 175
61 98 165
62 99 172
62 98 170
62 99 169
62 98 163
62 98 168
62 98 164
62 99 171
63 99 168
62 99 174
63 99 166
62 98 164
63 99 172
62 99 171
63 99 170
63 99 170
62 98 163
63 99 172
62 98 166
63 99 166
63 99 168
63 99 170
61 98 164
61 98 161
62 98 161
62 98 163
62 99 169
62 98 163
63 99 168
62 98 164
61 97 154
63 99 171
62 98 163
62 99 170
63 99 166
62 99 166
62 98 159
62 98 162
62 98 164
62 98 168
61 97 159
62 98 163
62 99 167
62 98 163
62 98 159
62 98 166
62 98 161
61 96 156
62 98 159
62 98 163
62 98 166
62 98 160
62 98 161
61 97 162
61 97 161
62 99 167
62 98 160
62 98 162
63 99 166
61 96 154
62 99 164
61 97 158
62 97 159
62 97 159
59 94 146
62 97 165
60 96 154
62 97 158
61 96 150
61 96 152
61 96 152
62 96 156
60 95 151
61 96 152
62 98 158
60 94 144
61 96 153
60 95 145
61 96 156
60 95 155
58 91 136
57 90 134
58 91 135
74 78 56
74 75 15
74 74 18
70 71 22
77 77 26
75 75 18
70 71 28
90 90 24
73 75 25
99 98 28
89 89 28
74 77 29
91 92 35
87 89 35
98 99 29
99 98 29
91 92 28
106 106 32
99 99 37
105 105 36
108 108 38
101 102 33
103 103 44
104 104 37
114 111 44
121 117 55
118 116 44
122 122 46
123 122 45
122 120 45
123 121 49
132 128 52
123 121 48
132 130 54
125 123 48
129 126 52
129 128 50
127 125 54
139 133 53
138 134 48
142 138 55
134 130 55
145 141 58
137 133 56
138 134 58
139 135 62
148 141 62
138 134 61
145 140 57
143 140 56
154 148 66
148 142 62
150 145 61
148 143 61
150 144 63
146 142 58
153 148 66
153 147 68
149 144 61
139 136 53
151 145 58
158 152 66
154 148 62
152 147 59
156 151 56
149 144 60
150 144 61
158 152 62
144 139 53
149 143 57
159 152 64
152 147 58
156 151 58
155 149 66
154 148 66
148 141 59
152 146 53
158 152 58
153 147 67
153 146 54
150 145 58
149 142 56
147 142 54
153 147 61
153 146 60
156 149 65
150 144 58
144 139 53
149 144 59
150 143 61
148 141 56
148 142 58
152 146 59
145 139 49
146 141 49
139 133 52
145 139 52
146 139 54
138 134 48
140 134 39
145 139 56
140 134 51
149 143 54
131 127 42
141 135 44
140 134 53
143 137 52
127 123 37
135 129 45
125 121 44
129 123 41
119 115 37
114 109 41
123 119 32
118 113 41
129 136 25
165 185 0
171 190 0
166 184 0
169 187 0
162 178 0
167 187 0
168 186 0
168 185 0
169 187 0
168 187 0
166 188 0
168 187 0
171 190 0
169 189 0
167 187 0
170 190 0
169 190 0
167 187 0
169 189 0
168 187 0
170 193 0
172 195 0
171 194 0
170 194 0
172 195 0
171 195 0
168 192 0
170 194 0
172 196 0
170 193 0
170 193 0
168 192 0
169 193 0
170 193 0
170 194 0
168 191 0
168 191 0
171 195 0
171 194 0
171 194 0
172 195 0
171 195 0
169 192 0
171 194 0
172 195 0
169 192 0
171 194 0
171 194 0
171 194 0
171 193 0
173 196 0
170 193 0
168 192 0
170 192 0
171 193 0
170 193 0
167 191 0
170 193 0
168 191 0
167 190 0
170 193 0
169 193 0
168 192 0
167 191 0
171 195 0
167 191 0
172 196 0
171 194 0
168 191 0
172 196 0
168 192 0
169 191 0
167 190 0
170 193 0
169 193 0
168 191 0
170 193 0
169 192 0
172 195 0
167 191 0
168 191 0
168 192 0
169 193 0
168 191 0
170 194 0
171 194 0
168 191 0
166 190 0
166 189 0
169 192 0
167 189 0
166 190 0
168 191 0
167 189 0
168 191 0
170 193 0
169 192 0
167 190 0
168 192 0
165 188 0
170 194 0
165 188 0
171 194 0
168 190 0
110 137 141
65 101 173
64 100 175
63 99 172
63 100 178
63 100 174
63 100 174
63 100 175
64 100 174
63 99 170
63 100 175
62 99 172
63 99 172
62 98 168
62 99 174
62 98 172
63 100 175
63 99 175
62 99 175
62 98 172
63 99 176
63 99 177
62 98 172
63 99 177
62 98 173
62 99 175
63 99 175
62 99 174
62 99 174
62 99 170
63 99 175
62 99 175
62 98 173
62 99 172
62 99 173
62 99 171
63 100 177
62 99 178
62 99 173
62 99 178
61 98 168
62 99 176
62 99 173
62 99 173
62 99 172
62 98 172
62 98 170
62 98 170
62 99 172
62 99 176
62 99 170
62 99 172
61 97 162
62 99 172
61 98 169
61 97 165
62 99 172
61 98 166
62 99 175
62 99 169
62 99 173
62 99 172
62 99 174
62 98 166
62 99 170
62 99 172
62 99 174
62 99 174
62 98 170
62 99 168
62 99 174
62 99 169
62 99 171
62 99 168
63 99 170
62 99 171
62 98 169
61 98 167
62 98 167
61 97 166
62 98 169
62 99 172
62 99 169
62 98 166
62 98 167
62 99 165
62 98 168
61 98 163
62 99 172
62 98 172
62 98 171
62 98 164
62 98 168
62 99 169
62 98 167
62 99 174
63 99 169
62 98 167
62 98 163
62 98 166
62 98 167
62 98 168
62 98 168
62 99 168
63 99 172
62 99 170
63 100 178
63 99 172
62 98 169
61 97 162
63 99 172
62 98 168
62 98 166
62 99 169
62 98 164
62 98 169
62 98 169
62 99 168
62 98 160
62 99 170
63 99 172
62 98 159
62 99 169
62 99 168
62 98 164
62 99 166
61 97 159
63 99 166
62 98 168
62 98 163
61 97 157
62 99 168
62 98 168
62 98 163
62 97 156
62 99 166
62 99 167
61 97 159
62 98 164
62 98 166
62 98 164
62 99 164
62 98 164
63 99 165
62 98 165
61 97 158
62 98 166
62 98 163
62 98 162
62 98 161
63 99 165
62 98 163
63 99 166
62 98 160
61 97 151
60 96 160
62 98 158
62 98 158
61 97 159
62 98 163
62 98 159
60 96 152
61 97 159
61 97 155
62 98 161
61 96 153
62 98 162
62 97 159
61 96 149
61 97 160
60 96 152
61 96 150
61 96 152
60 95 154
60 94 141
59 94 142
60 96 150
60 94 149
57 90 127
59 92 142
65 73 56
77 77 19
65 66 21
70 73 16
74 76 21
69 68 18
80 81 29
81 82 22
80 82 29
75 76 21
91 92 28
85 86 41
82 83 27
94 93 25
97 97 27
105 103 36
89 89 34
105 104 40
98 100 39
100 102 31
108 108 37
118 116 49
111 110 41
107 105 40
106 106 36
108 107 40
109 108 47
128 125 41
127 125 46
120 117 43
127 124 49
133 129 55
121 120 48
118 115 51
128 125 55
133 130 53
121 119 48
130 126 51
134 130 43
138 133 51
129 126 57
139 134 58
134 131 46
141 137 53
137 134 50
141 137 56
137 134 55
143 137 60
138 133 53
147 141 58
144 140 60
151 144 54
145 140 57
145 141 56
151 147 59
154 148 68
153 147 63
148 143 63
142 138 59
141 136 50
151 146 63
151 145 58
160 154 68
153 148 53
148 143 57
150 144 60
150 145 56
150 144 66
151 146 57
155 150 57
144 138 51
146 141 58
151 145 61
150 144 53
150 145 58
153 146 58
158 151 65
151 145 65
149 142 52
155 150 64
149 143 56
154 147 60
147 141 56
141 136 53
154 147 62
148 143 52
149 145 44
147 141 52
142 137 52
148 143 54
146 140 53
141 135 51
143 138 47
145 138 59
141 136 48
145 139 57
132 128 44
141 136 49
133 129 41
135 130 41
135 129 45
140 133 51
136 131 48
135 131 44
127 121 42
142 136 54
127 121 39
136 132 48
123 119 39
130 125 45
121 118 39
124 120 41
121 115 42
129 124 42
112 110 28
160 176 11
168 185 0
165 184 0
167 185 0
169 187 0
165 185 0
166 186 0
167 187 0
168 188 0
166 184 0
170 189 0
167 187 0
171 191 0
167 186 0
169 188 0
165 185 0
169 189 0
167 187 0
169 190 0
170 188 0
164 181 0
172 196 0
172 196 0
171 195 0
170 193 0
172 196 0
169 193 0
172 195 0
172 194 0
170 193 0
173 197 0
171 194 0
170 193 0
173 195 0
169 193 0
169 193 0
170 193 0
167 192 0
175 198 0
171 193 0
171 193 0
170 193 0
169 192 0
174 197 0
171 195 0
172 195 0
172 195 0
171 194 0
170 193 0
168 191 0
167 190 0
166 189 0
171 195 0
170 194 0
172 195 0
171 194 0
168 191 0
172 195 0
172 195 0
172 195 0
168 191 0
169 192 0
172 195 0
168 191 0
174 196 0
169 192 0
170 193 0
172 195 0
167 190 0
172 195 0
170 194 0
171 194 0
168 192 0
171 194 0
167 191 0
167 191 0
168 192 0
170 193 0
169 192 0
169 192 0
171 194 0
168 191 0
166 190 0
170 193 0
167 190 0
171 195 0
171 194 0
170 194 0
166 189 0
168 191 0
170 193 0
168 191 0
166 189 0
164 186 0
167 190 0
165 187 0
171 195 0
165 189 0
171 193 0
168 191 0
169 192 0
166 189 0
164 187 0
163 187 0
165 188 0
117 142 131
64 100 172
64 100 175
64 100 172
63 100 173
62 99 170
63 99 173
63 99 171
63 100 172
63 99 173
62 98 170
62 99 172
62 99 173
63 99 174
63 99 174
62 98 168
62 98 168
63 99 176
61 98 167
63 99 175
62 98 171
63 99 171
63 99 175
62 99 172
63 100 175
61 97 168
62 98 172
61 98 174
61 98 175
62 98 170
61 98 170
62 99 174
62 99 174
62 99 175
62 98 169
62 99 175
62 99 172
62 98 174
61 98 164
62 99 176
61 98 167
62 98 173
62 99 176
61 97 164
62 98 168
62 99 174
62 99 174
63 100 176
62 99 171
61 98 167
62 99 173
62 99 176
62 99 173
63 99 175
62 99 176
61 98 169
62 99 174
62 99 174
62 99 171
62 99 174
62 99 174
62 99 171
62 98 169
61 98 166
62 99 172
62 99 174
61 98 168
62 98 169
61 98 172
61 98 169
62 98 167
62 98 169
62 98 172
62 99 172
62 98 171
62 99 171
61 97 167
62 98 169
62 99 169
62 99 175
62 98 169
62 99 170
62 98 168
62 99 169
61 97 159
62 98 169
62 99 171
63 99 171
62 99 168
62 99 170
62 98 168
62 99 168
61 98 172
62 99 169
62 98 167
62 99 173
63 99 167
62 98 170
62 99 170
62 98 167
62 99 170
61 98 170
61 98 164
62 98 163
62 98 166
62 99 171
62 98 166
61 97 162
62 99 165
63 99 169
62 99 171
61 98 162
62 98 161
62 98 162
62 98 168
62 98 164
62 99 165
62 98 169
63 99 168
61 98 165
62 98 169
62 99 169
61 98 163
62 99 167
61 98 161
61 97 160
62 98 172
62 99 173
62 98 166
62 98 163
63 99 169
63 98 167
62 99 169
62 98 162
62 98 161
62 98 168
61 97 162
62 98 163
62 98 165
60 97 158
62 98 164
61 97 156
62 98 160
62 98 160
61 98 165
61 97 162
62 98 161
63 99 164
61 98 163
61 97 165
62 98 165
63 99 167
62 98 158
61 97 159
62 98 161
62 98 163
62 98 159
62 98 161
62 98 165
62 98 162
62 98 161
61 97 156
61 96 156
61 98 160
61 96 151
62 98 164
62 97 162
62 97 155
61 97 160
61 96 154
60 96 153
60 95 151
60 95 154
61 95 147
60 95 145
62 97 155
60 95 149
62 97 157
59 92 143
60 92 141
63 72 66
83 82 7
66 68 16
74 74 22
67 69 19
71 74 21
53 58 22
79 81 24
78 80 25
77 80 25
88 89 26
89 88 29
100 97 28
99 98 31
87 86 21
90 88 32
103 101 34
105 104 39
102 101 34
94 93 29
104 104 41
106 107 36
109 108 41
101 100 43
119 116 51
117 114 37
114 113 45
122 119 50
118 116 40
116 113 40
122 121 46
127 123 50
133 129 49
125 122 47
127 123 52
131 127 57
129 126 50
128 125 46
131 128 47
138 134 55
141 136 58
129 126 53
140 136 60
138 133 58
143 139 55
141 138 46
147 142 55
149 144 61
145 141 58
141 136 59
148 143 64
139 135 57
148 142 54
142 138 58
151 145 62
147 141 58
150 144 58
153 148 57
144 140 51
142 137 54
146 141 53
144 138 49
149 144 60
149 143 49
150 144 54
142 138 57
148 143 55
150 146 47
146 140 53
150 144 57
143 137 51
146 140 58
152 146 56
154 147 62
148 143 51
151 145 57
151 145 63
149 144 59
154 148 56
149 141 58
146 142 45
149 144 58
143 138 58
150 145 54
153 147 53
145 140 47
149 142 56
148 144 54
151 144 60
146 141 51
140 135 51
146 140 49
142 135 47
146 139 53
145 139 54
132 127 42
136 131 49
141 135 53
134 129 42
145 139 49
137 132 52
148 141 60
143 136 45
139 133 44
138 132 47
138 132 48
132 128 36
128 123 45
127 123 42
135 130 44
124 120 36
113 109 37
123 118 41
127 121 41
148 160 11
166 182 0
166 184 0
163 184 0
163 181 0
167 185 0
168 186 0
170 188 0
170 190 0
169 188 0
168 186 0
166 184 0
165 185 0
169 189 0
169 188 0
169 187 0
172 189 0
166 187 0
169 187 0
169 190 0
166 184 0
170 191 0
173 196 0
168 191 0
172 195 0
170 193 0
172 196 0
170 194 0
173 196 0
173 196 0
172 196 0
172 194 0
170 194 0
169 192 0
171 195 0
168 191 0
171 195 0
169 193 0
168 191 0
170 194 0
168 192 0
170 193 0
168 191 0
167 190 0
170 192 0
165 188 0
171 194 0
166 191 0
170 193 0
171 194 0
169 192 0
170 193 0
170 193 0
169 193 0
172 194 0
167 191 0
168 191 0
171 193 0
170 193 36
171 194 57
171 193 57
167 189 36
172 195 67
174 197 72
179 201 76
172 195 44
176 198 72
171 193 62
170 193 44
175 198 25
164 188 0
171 195 0
167 190 0
165 188 0
168 191 0
169 192 0
170 193 0
171 194 0
167 190 0
172 195 0
168 190 0
170 193 0
172 195 0
168 192 0
168 191 0
166 190 0
171 195 0
167 190 0
168 192 0
166 189 0
163 187 0
168 192 0
167 190 0
168 191 0
164 186 0
166 190 0
168 191 0
169 193 0
162 186 0
169 193 0
164 187 0
165 189 0
165 189 0
162 186 0
167 190 0
165 187 0
111 139 147
65 101 173
64 100 171
63 99 170
63 99 172
63 99 166
63 99 169
63 99 171
63 99 173
63 99 174
62 99 173
62 98 172
63 99 176
63 99 173
62 99 171
63 100 178
62 99 176
63 99 173
62 99 174
62 99 173
62 99 174
63 99 173
62 99 172
62 98 172
62 98 172
62 98 174
62 98 171
62 98 167
62 99 173
62 98 172
61 98 167
62 99 175
61 98 171
61 98 175
62 98 174
62 99 172
62 99 172
62 98 170
61 98 173
62 99 176
62 99 175
62 98 167
62 98 172
61 97 161
62 99 173
62 99 174
61 98 171
62 99 173
62 99 174
62 99 172
62 98 169
61 98 171
61 98 165
61 98 167
62 98 170
62 98 168
62 98 167
61 97 161
62 98 172
62 98 172
62 98 171
62 99 167
62 99 172
63 99 174
62 99 175
61 98 165
62 99 165
61 98 168
62 98 173
62 98 163
62 99 172
62 99 174
62 99 172
62 99 172
62 99 169
62 98 167
62 98 168
61 98 160
62 98 171
61 98 164
61 98 170
62 99 170
61 98 167
61 98 165
61 98 170
62 99 171
63 99 171
62 98 166
61 98 168
62 98 164
62 98 168
61 98 165
62 99 171
61 98 163
62 99 168
62 99 165
62 98 164
62 99 166
62 98 170
62 99 169
61 98 166
61 97 162
62 98 167
62 98 167
62 98 168
62 99 173
62 98 162
61 98 161
62 99 171
62 98 166
63 99 171
61 98 165
62 99 166
61 98 163
62 98 165
62 98 162
63 99 169
61 97 164
62 98 164
62 98 165
62 99 167
62 98 165
62 99 168
63 100 171
61 98 161
63 99 170
62 98 159
62 98 162
62 98 163
61 97 160
63 99 167
62 98 163
61 98 162
63 99 169
62 98 165
62 98 159
62 99 166
62 99 166
63 99 167
63 99 166
61 97 161
62 98 165
62 98 163
62 98 160
62 98 162
61 97 156
61 97 160
61 97 163
61 97 162
61 97 152
62 98 159
62 98 155
61 97 156
62 97 153
62 99 166
62 98 157
61 97 154
62 98 158
62 98 160
61 97 154
62 97 159
60 95 150
60 96 151
61 97 160
61 97 154
61 96 157
60 95 153
60 95 149
61 97 159
61 96 154
60 94 144
60 95 151
61 96 149
59 94 145
61 96 160
58 91 139
61 95 150
59 93 141
60 94 145
60 94 146
68 79 77
73 73 11
80 80 19
87 87 16
76 76 15
85 84 23
74 75 23
79 78 22
73 74 23
90 90 23
95 95 27
88 88 24
82 84 22
86 87 22
95 95 31
93 92 31
104 103 33
102 101 34
104 103 34
99 98 31
90 91 35
118 116 46
109 108 45
122 120 45
110 109 37
119 117 41
117 116 39
123 120 44
113 112 42
118 117 46
131 127 47
117 115 40
126 124 43
126 124 49
132 128 46
136 133 55
121 120 42
136 132 55
136 132 52
136 132 52
138 134 50
138 133 54
143 138 54
132 128 44
136 132 53
138 133 51
136 132 49
146 142 63
136 133 45
144 139 51
144 138 63
146 141 48
151 145 66
155 149 66
145 141 49
149 144 57
145 140 56
147 142 62
152 147 57
144 139 57
153 148 55
144 140 53
151 145 63
151 146 60
155 149 63
152 146 54
152 147 53
152 146 56
145 139 59
159 153 60
154 148 57
152 146 60
154 147 64
150 145 54
154 148 58
146 141 49
144 140 48
152 145 60
151 144 59
149 143 53
146 140 49
156 150 51
143 138 56
147 142 56
147 141 58
146 140 48
145 139 49
152 147 56
143 137 51
151 145 57
136 130 51
136 132 48
142 135 48
137 132 48
134 128 42
147 141 52
142 135 48
144 139 48
143 138 47
140 135 42
136 130 52
131 125 49
143 138 49
132 127 42
139 133 34
139 132 47
128 123 34
134 128 49
124 120 37
128 123 45
134 128 44
114 112 30
115 110 30
140 146 32
168 185 0
167 186 0
169 186 0
169 187 0
167 184 0
166 184 0
170 190 0
163 179 0
165 183 0
167 186 0
168 186 0
163 182 0
170 189 0
166 186 0
169 188 0
167 187 0
167 186 0
166 185 0
168 186 0
164 182 0
169 190 0
171 192 0
169 193 0
170 193 0
169 193 0
170 193 0
171 195 0
170 193 0
172 196 0
164 189 0
173 196 0
171 193 0
171 195 0
172 195 0
171 195 0
171 194 0
170 194 0
169 192 0
171 194 0
169 193 0
170 194 0
172 195 0
171 195 0
169 192 0
173 196 0
173 197 0
171 194 0
173 196 0
172 195 36
174 196 62
176 198 95
181 202 108
183 203 117
185 205 130
188 207 127
185 205 133
188 208 142
192 210 155
187 207 125
186 206 130
188 207 147
187 207 137
187 206 144
186 206 122
187 207 133
186 206 122
179 200 114
190 209 144
189 209 147
185 205 137
190 209 155
184 204 127
189 208 149
183 203 111
182 202 114
174 194 92
181 203 88
173 194 88
173 195 62
171 194 36
169 193 0
170 194 0
168 191 0
166 190 0
170 192 0
170 194 0
169 192 0
169 193 0
164 187 0
166 190 0
170 193 0
165 189 0
169 191 0
168 191 0
165 188 0
168 192 0
171 194 0
167 190 0
166 189 0
168 191 0
173 195 0
165 188 0
166 189 0
170 193 0
166 189 0
164 187 0
96 125 150
63 99 170
64 100 173
63 100 177
63 100 176
63 99 168
63 99 170
63 99 173
62 98 163
63 99 171
62 98 165
63 99 166
62 99 174
63 99 169
62 98 174
62 99 167
62 98 172
62 99 173
63 100 176
62 98 173
62 99 173
62 99 175
61 98 173
63 99 176
62 98 171
62 99 176
62 99 170
62 99 176
61 98 174
62 99 170
61 98 169
63 99 170
62 99 172
61 98 174
62 98 174
62 99 175
62 99 174
62 98 168
62 99 171
61 98 169
62 99 175
62 99 177
63 99 175
61 98 170
62 98 167
63 99 173
62 99 174
62 99 175
62 99 174
62 99 174
61 98 175
62 99 170
61 98 168
62 98 166
62 98 166
62 98 174
63 99 172
62 99 171
63 99 174
62 98 171
62 98 169
62 98 171
62 98 166
61 98 167
62 99 172
62 98 169
62 99 170
61 97 163
63 99 171
62 98 169
62 98 171
62 98 168
62 98 169
63 99 167
61 98 169
62 98 166
62 99 168
62 99 167
63 99 172
62 98 165
61 98 168
62 99 172
62 98 163
62 98 164
62 99 168
62 98 167
62 98 169
62 98 166
62 98 167
62 99 171
62 99 170
63 99 172
62 98 166
62 98 169
62 98 167
62 98 167
61 98 164
62 98 167
62 99 172
62 98 169
62 99 168
62 98 168
62 98 165
62 98 167
62 99 173
62 99 170
62 98 164
62 99 167
62 99 172
62 98 163
62 99 170
62 98 166
62 98 167
62 98 167
62 99 170
62 98 162
62 99 166
62 99 167
61 97 163
62 98 164
61 97 159
63 99 169
61 97 163
62 99 172
62 99 169
62 98 167
62 98 161
62 98 162
62 98 165
62 98 162
63 99 168
62 98 159
62 98 165
61 97 159
62 99 167
62 98 162
62 98 165
63 99 164
61 97 157
62 99 167
62 98 162
62 98 162
62 97 159
63 100 173
63 99 166
62 98 163
62 98 163
62 99 171
62 98 163
62 98 166
61 97 151
61 97 160
61 97 154
61 97 155
61 97 157
61 98 163
61 96 154
62 98 160
62 98 159
62 98 162
61 97 155
60 96 153
61 97 156
60 95 157
62 98 162
61 96 152
60 96 151
61 97 157
62 97 159
61 96 152
61 97 156
61 96 149
59 94 148
61 96 150
61 96 149
61 95 146
60 95 143
59 93 146
59 92 142
59 92 142
68 78 73
74 73 16
74 75 20
71 72 16
75 76 21
79 78 17
76 77 18
71 72 14
79 77 28
80 83 17
88 86 17
87 87 26
96 95 30
75 76 16
88 89 24
86 86 28
102 100 20
91 91 26
112 110 32
105 105 31
104 103 41
104 102 37
108 107 40
111 111 32
104 103 36
114 112 48
116 115 35
123 119 49
125 123 45
123 120 45
112 111 37
119 117 45
124 121 46
120 118 44
124 122 52
123 121 43
137 133 55
133 129 50
127 124 49
136 132 47
131 128 50
139 136 49
137 134 52
129 127 40
136 132 44
136 132 54
139 135 51
143 139 53
147 141 55
147 140 57
142 137 55
140 136 54
140 136 48
136 131 57
137 133 43
141 137 46
144 139 51
139 134 50
148 143 58
142 137 53
143 137 52
145 140 56
135 130 48
150 145 62
148 142 53
144 139 58
148 142 51
152 146 52
147 142 54
153 147 59
149 142 56
137 132 49
147 141 51
146 141 48
147 142 51
149 143 54
149 143 49
154 147 60
148 143 51
147 142 57
148 142 54
151 145 58
147 141 58
153 148 57
145 140 44
153 147 59
138 133 42
148 142 57
137 132 44
137 132 47
141 136 51
150 143 54
142 138 48
140 134 56
136 132 47
132 128 47
135 130 41
137 132 45
138 132 54
136 130 47
140 135 44
143 138 45
130 126 45
134 127 44
131 127 44
125 121 32
123 118 36
122 117 39
131 125 37
126 120 36
129 124 36
115 109 39
130 135 25
167 184 0
161 179 0
170 188 0
168 186 0
168 186 0
166 184 0
165 182 0
169 190 0
165 184 0
170 187 0
165 182 0
168 186 0
169 187 0
168 186 0
168 189 0
168 187 0
166 186 0
169 190 0
162 179 0
166 186 0
169 189 0
167 187 0
165 186 0
169 193 0
171 194 0
173 196 0
171 194 0
171 194 0
169 193 0
171 196 0
167 191 0
174 196 0
172 196 0
169 192 0
170 193 0
170 194 0
173 196 0
169 192 0
173 196 0
168 192 0
172 194 0
170 193 0
166 190 0
172 194 36
178 200 67
177 199 92
182 202 111
184 203 120
190 209 144
189 208 140
185 204 133
188 208 149
182 202 114
186 207 130
183 203 117
193 212 155
184 204 127
188 208 135
183 203 117
179 200 111
182 203 111
186 207 125
184 204 127
182 203 111
183 205 117
182 203 117
181 203 108
179 201 99
182 203 127
181 202 105
184 205 130
180 201 120
184 205 125
184 205 111
184 205 125
182 202 111
184 203 127
183 204 120
188 208 137
182 203 120
187 207 140
188 207 133
185 206 125
182 203 114
179 200 102
174 195 62
169 192 0
170 193 0
169 192 0
166 190 0
168 191 0
172 194 0
165 188 0
170 193 0
166 189 0
164 189 0
169 192 0
168 191 0
166 188 0
162 184 0
169 192 0
168 191 0
168 190 0
168 192 0
168 191 0
168 191 0
164 186 0
94 124 157
64 100 172
63 99 167
64 100 172
63 100 174
64 100 174
64 100 172
63 100 176
63 98 169
63 99 170
62 99 173
63 99 171
62 99 170
62 99 172
62 98 169
62 99 170
63 99 171
62 99 170
61 98 170
63 99 174
62 99 173
62 99 177
62 98 174
62 98 174
61 98 168
61 98 172
62 98 171
61 98 178
62 98 167
62 98 173
62 99 173
62 98 171
63 99 175
62 98 174
62 99 176
62 99 174
62 98 173
62 98 167
63 100 179
61 98 168
62 99 175
62 99 170
62 99 172
61 98 169
61 98 172
62 98 170
61 98 171
62 98 169
62 98 172
62 98 173
61 98 168
62 98 168
62 98 168
62 98 168
61 98 170
61 97 162
62 98 169
62 99 176
62 98 169
62 99 168
62 98 170
62 98 169
62 98 170
62 99 172
62 99 171
62 99 170
62 98 169
62 99 170
61 98 163
62 98 170
62 99 168
62 98 169
62 98 169
62 99 169
62 98 168
63 99 176
62 98 165
62 99 173
61 97 166
62 99 168
63 99 175
62 98 168
61 97 164
62 99 170
62 99 170
61 97 167
62 98 168
62 98 163
62 98 167
63 99 172
61 97 158
62 98 165
62 98 165
62 99 168
63 99 172
62 98 160
62 99 168
62 99 170
62 99 168
63 99 172
61 97 162
61 97 162
62 98 167
61 97 163
62 97 160
62 98 170
62 98 164
62 98 165
62 99 167
63 99 164
62 98 160
61 97 166
62 98 161
62 98 169
62 98 164
63 99 170
62 98 166
62 98 162
61 97 162
62 98 168
62 99 167
62 98 164
62 98 163
62 98 163
63 99 170
62 98 160
61 97 159
61 98 166
62 98 166
62 98 163
62 98 163
61 97 160
62 98 161
62 98 164
62 98 167
62 98 159
62 98 161
62 98 162
62 98 162
62 97 162
61 97 156
62 98 167
62 98 161
61 97 157
62 98 161
62 98 163
62 98 161
61 97 152
62 98 162
62 98 157
62 98 165
62 98 162
62 98 162
61 97 160
62 98 165
62 98 165
62 98 158
61 96 151
62 98 161
62 97 154
61 96 154
62 98 160
62 98 166
61 96 150
61 96 152
62 97 155
62 96 157
62 97 157
60 95 146
61 96 145
61 96 153
61 96 147
60 95 139
61 97 161
61 96 149
60 95 147
60 94 145
61 95 151
60 94 137
58 91 132
69 79 76
82 80 12
65 67 15
73 74 19
88 87 12
68 70 17
79 79 19
85 85 26
76 75 18
75 78 21
89 88 20
97 96 24
81 83 23
80 82 26
88 88 25
90 91 27
91 92 26
100 99 36
92 94 24
90 90 30
95 96 38
112 110 41
98 97 36
107 106 29
110 109 46
119 117 37
120 117 45
114 112 33
111 110 35
121 117 44
132 128 52
114 113 31
128 124 40
123 121 49
118 116 46
129 125 42
124 120 48
136 132 49
120 118 41
135 130 49
138 134 54
137 133 55
133 129 45
135 131 45
146 140 51
133 128 48
133 129 53
135 131 47
140 134 60
137 134 49
142 137 46
147 142 60
145 139 52
135 132 43
144 138 51
142 138 49
148 143 54
147 143 54
143 138 41
145 139 48
149 143 58
143 140 45
144 139 43
145 139 53
144 139 57
149 143 54
144 139 51
143 138 45
144 138 56
149 145 48
155 149 58
144 139 49
141 135 53
145 139 52
145 139 49
144 139 52
149 143 61
151 145 57
147 141 52
150 145 51
143 138 51
141 135 49
147 142 57
142 137 53
146 140 48
144 138 45
149 143 54
146 141 52
151 146 58
139 135 41
135 130 34
142 138 47
132 127 42
144 137 52
142 137 45
136 130 47
141 136 48
137 132 51
145 138 57
147 141 49
137 131 47
128 124 34
134 129 36
132 127 41
128 123 44
131 125 41
124 119 37
125 120 36
128 123 41
123 117 41
116 112 37
127 127 30
161 175 0
166 184 0
160 176 0
167 184 0
166 185 0
166 182 0
165 182 0
168 188 0
168 186 0
165 183 0
165 183 0
167 185 0
166 184 0
167 185 0
170 188 0
162 179 0
167 187 0
167 185 0
170 190 0
167 186 0
164 184 0
168 187 0
167 188 0
170 190 0
171 195 0
169 192 0
168 191 0
173 197 0
167 191 0
170 193 0
174 197 0
171 194 0
171 195 0
173 196 0
166 189 0
169 192 0
173 196 0
171 194 0
169 192 0
171 195 25
175 198 67
181 202 108
187 207 125
182 202 111
184 204 122
187 207 135
184 205 122
190 209 142
187 207 137
184 204 120
183 204 122
185 206 125
182 204 99
179 201 120
185 205 133
180 202 114
187 207 137
181 203 95
183 204 117
186 207 133
180 202 95
182 203 127
184 204 117
180 201 99
184 206 114
183 205 120
186 206 127
184 205 108
180 202 105
186 206 135
182 203 102
186 206 135
180 202 88
180 202 111
180 201 108
182 203 117
186 207 137
186 205 133
183 203 117
188 207 127
186 205 142
179 199 120
181 202 122
187 207 127
185 206 125
183 204 114
185 204 130
186 206 137
184 204 120
183 203 122
177 199 95
169 191 36
166 189 0
170 193 0
164 187 0
165 189 0
167 191 0
168 191 0
169 192 0
169 192 0
170 194 0
167 190 0
166 188 0
164 188 0
164 187 0
167 190 0
162 185 0
165 188 0
97 127 154
63 100 174
64 100 169
64 100 173
63 100 173
63 99 169
63 99 171
63 99 170
62 98 169
63 99 175
63 99 175
63 100 177
63 99 172
63 100 176
62 98 168
63 99 171
62 99 173
61 98 169
61 98 170
62 99 171
61 98 171
61 98 169
61 97 171
61 98 171
62 98 171
62 98 170
62 98 175
62 98 171
62 98 170
62 98 170
61 98 172
62 99 170
62 99 173
62 98 169
62 98 173
61 98 170
63 99 173
62 99 172
62 99 175
61 98 169
61 98 167
62 99 173
62 98 172
63 99 173
62 98 170
61 98 172
62 98 171
63 100 178
62 99 170
62 99 172
62 98 169
62 98 165
61 98 172
62 99 173
61 98 173
63 99 173
62 98 169
62 99 173
62 98 167
62 98 168
62 98 171
63 99 171
62 99 168
61 97 166
62 99 169
62 99 171
61 98 168
62 99 175
62 98 171
62 98 167
63 99 173
61 98 170
62 99 174
62 98 166
62 98 170
62 99 169
62 98 167
63 99 174
62 98 166
62 98 167
62 99 173
62 99 166
62 99 171
62 99 171
63 99 170
62 98 166
62 98 169
62 98 169
61 97 162
61 98 165
62 99 172
62 98 165
61 98 162
62 98 166
62 99 167
61 98 165
62 98 170
62 98 165
62 98 171
62 98 165
62 98 161
61 97 162
62 98 161
61 97 161
63 99 166
62 98 163
62 99 169
63 99 168
62 98 169
62 99 168
63 99 171
62 98 162
62 98 166
62 98 171
62 98 160
62 98 166
62 98 166
62 99 169
62 98 166
61 98 159
62 99 169
62 98 162
62 99 164
62 98 162
61 97 157
62 99 165
61 98 161
62 98 162
61 97 158
62 98 165
62 98 170
62 98 162
62 98 160
62 98 164
63 99 169
62 98 163
63 99 167
61 97 154
61 97 158
62 98 163
62 98 162
61 97 156
62 98 163
62 98 163
61 97 159
63 99 162
62 98 161
62 98 164
60 96 156
62 98 165
62 98 159
62 97 161
62 98 164
62 98 160
61 97 159
62 98 158
62 98 159
62 98 161
62 97 159
63 99 164
62 98 156
63 98 162
62 97 153
61 97 152
62 98 159
61 97 152
61 97 153
60 95 153
61 96 159
61 96 148
61 95 148
60 95 146
60 94 148
60 94 148
61 96 151
61 95 151
60 93 146
60 93 143
58 91 131
60 93 137
69 81 88
92 91 13
83 82 9
88 87 21
84 84 22
84 84 14
83 83 15
75 74 23
79 79 15
82 82 25
90 90 18
87 87 23
81 82 23
84 86 25
97 95 20
92 91 24
85 86 20
100 99 37
95 95 30
94 95 28
102 101 39
118 116 42
106 105 33
112 110 35
107 105 34
119 116 36
113 111 40
121 119 35
114 110 38
110 110 30
123 120 34
123 119 44
127 124 47
116 114 30
124 122 47
126 123 40
128 125 49
123 120 50
122 119 41
127 124 36
129 126 39
133 129 43
127 123 49
137 132 50
129 126 41
131 128 50
133 130 48
136 132 45
142 137 54
135 130 45
144 140 55
139 135 45
142 137 52
141 137 43
143 138 48
135 131 47
135 131 37
140 135 49
144 138 51
145 140 42
144 139 54
151 147 58
144 139 50
139 135 47
147 142 54
139 134 51
146 140 61
147 141 47
148 142 51
152 145 53
150 144 58
134 129 44
144 139 49
146 141 52
137 133 39
149 143 54
147 142 49
141 137 47
144 139 42
148 142 53
139 135 37
145 139 52
143 138 58
145 140 44
145 139 49
147 142 48
132 127 47
134 129 45
140 135 49
144 139 51
135 129 47
147 140 54
133 128 48
132 127 41
139 133 42
134 130 39
137 131 49
129 124 39
137 132 44
131 127 30
135 131 42
124 118 41
131 127 42
128 122 41
124 120 30
127 121 47
128 123 36
131 124 52
116 111 34
121 115 36
120 118 32
157 170 22
163 180 0
163 182 0
163 180 0
163 181 0
167 183 0
164 181 0
165 185 0
165 184 0
167 185 0
166 183 0
166 185 0
167 185 0
167 183 0
169 189 0
166 184 0
167 187 0
168 185 0
166 187 0
167 189 0
164 181 0
166 186 0
166 184 0
170 189 0
170 190 0
171 195 0
171 195 0
173 196 0
171 195 0
169 193 0
169 192 0
168 192 0
164 189 0
172 195 0
171 194 0
170 193 0
171 194 0
176 198 80
180 201 102
186 206 127
187 208 140
183 203 125
191 211 151
187 207 133
189 209 140
185 206 127
186 206 130
185 206 122
186 207 125
180 201 108
182 203 117
184 205 122
184 205 122
185 205 122
179 201 105
180 201 105
184 205 105
185 206 130
176 200 62
181 203 99
182 203 105
178 200 92
182 203 108
182 204 102
178 201 99
183 204 108
177 200 88
181 203 102
182 204 105
178 200 99
179 201 95
177 200 80
183 204 111
182 204 108
180 202 99
182 204 117
181 202 105
182 203 117
183 204 127
180 202 105
184 205 114
180 202 95
183 203 111
182 203 120
182 203 111
182 204 117
186 206 137
180 201 105
184 205 122
182 203 108
187 206 142
187 207 130
184 204 117
179 200 111
176 197 88
179 201 95
172 195 25
167 191 0
169 193 0
165 188 0
173 196 0
165 188 0
166 190 0
161 184 0
147 172 86
148 172 92
157 180 47
161 183 0
162 186 0
110 137 144
64 100 173
64 100 171
64 101 176
63 99 169
63 100 173
63 99 164
63 99 173
63 99 173
63 99 171
62 99 169
62 99 167
62 98 168
63 99 174
62 99 170
62 99 173
62 98 169
62 98 172
63 99 178
62 99 168
62 99 170
62 99 171
62 98 174
61 98 166
62 98 174
61 98 168
61 98 171
62 98 170
62 98 171
61 98 172
62 99 171
62 98 170
62 99 174
62 98 171
61 97 168
62 99 175
62 99 169
61 98 173
62 99 176
62 98 173
62 99 173
61 98 168
62 99 170
62 98 172
62 99 173
62 99 176
61 98 165
60 97 166
61 98 167
62 99 171
62 99 173
62 98 168
62 99 171
62 98 171
62 98 169
62 99 175
62 99 171
61 98 168
62 99 172
62 98 166
62 99 172
62 99 175
62 98 171
62 99 168
61 98 165
62 98 164
62 98 168
62 98 169
62 98 161
63 99 173
62 98 168
62 99 168
62 98 170
62 99 168
62 98 164
62 99 168
62 99 168
62 99 174
62 98 167
62 98 169
61 98 166
62 98 162
62 98 164
62 98 168
61 97 160
61 98 164
62 99 172
62 98 163
63 99 174
61 98 168
62 98 169
62 98 166
61 98 168
62 98 164
62 98 165
61 98 164
62 98 165
62 99 169
62 98 164
63 99 171
63 99 170
62 99 170
63 99 162
62 99 166
61 98 162
62 99 168
63 99 173
61 98 163
62 99 166
61 97 159
62 98 167
62 98 163
62 98 159
62 98 166
62 98 160
62 98 159
61 98 164
62 98 164
62 98 166
61 98 164
62 98 164
62 98 164
62 98 163
62 98 166
62 98 156
61 98 160
62 98 163
61 97 160
62 99 165
62 99 166
62 98 163
62 98 164
61 97 160
62 98 161
62 98 162
61 98 163
61 97 153
63 99 168
62 98 164
62 98 157
62 98 158
62 98 165
61 97 161
62 98 160
61 97 157
62 98 160
62 98 161
62 98 161
62 98 160
62 98 159
61 97 152
61 97 157
62 98 162
62 98 161
61 97 153
63 98 164
61 96 156
62 98 159
62 98 155
61 97 153
61 97 152
62 98 160
62 98 156
62 98 160
61 96 152
62 97 155
61 97 151
61 96 151
61 96 156
61 96 147
61 96 148
61 96 153
59 93 140
59 93 135
59 93 138
59 93 142
61 95 140
58 92 135
58 91 134
57 89 133
61 78 93
83 83 18
85 85 9
85 84 12
75 76 18
82 81 16
85 85 5
82 82 19
74 75 16
101 97 22
92 91 9
98 97 22
103 101 26
99 96 29
91 91 34
98 98 20
90 89 20
96 96 25
105 104 31
110 109 41
105 105 33
100 98 21
112 110 41
103 102 32
119 115 37
117 114 41
115 113 31
115 110 39
125 122 38
119 115 37
116 113 37
125 123 41
119 117 33
127 124 53
121 118 42
131 127 46
118 117 45
131 127 42
122 119 43
125 123 44
137 134 43
139 135 48
127 122 52
138 134 41
137 131 49
137 133 45
134 130 42
140 136 45
138 134 51
127 123 49
132 129 43
145 139 53
142 137 56
140 135 51
139 135 50
142 138 55
142 137 49
141 137 45
138 134 50
141 136 42
145 141 49
142 138 51
139 133 47
139 135 35
142 136 50
149 144 58
144 139 53
144 139 52
142 137 45
146 141 52
148 141 53
146 140 58
146 140 44
146 141 52
142 136 41
149 142 61
142 137 44
137 133 41
139 135 42
150 144 53
149 143 52
148 142 56
131 127 36
144 137 49
139 134 42
132 128 39
144 138 41
142 135 53
135 130 42
143 138 48
143 137 41
139 133 49
146 140 52
135 129 41
135 130 34
137 132 42
133 128 37
135 129 45
123 119 41
135 129 41
134 129 42
133 128 30
130 125 45
132 128 36
124 119 41
129 124 39
115 110 32
126 121 36
123 118 39
117 110 32
152 167 11
163 179 0
161 177 0
163 180 0
166 183 0
162 179 0
163 180 0
163 178 0
165 183 0
162 179 0
166 183 0
169 187 0
168 187 0
168 187 0
168 187 0
169 186 0
164 184 0
168 187 0
162 180 0
169 190 0
169 187 0
166 185 0
171 191 0
167 186 0
169 189 0
167 187 0
171 194 0
169 192 0
170 194 0
169 192 0
168 192 0
171 194 0
171 194 0
169 192 0
168 191 0
179 200 76
186 206 130
186 206 137
188 208 140
184 205 127
191 211 144
187 208 125
191 210 149
186 206 125
185 207 130
180 202 84
186 207 133
182 203 111
178 200 105
185 206 114
183 204 102
182 203 102
186 207 127
180 202 111
182 204 111
183 204 108
183 205 117
182 204 108
182 204 105
180 202 102
181 203 111
181 203 105
183 204 114
181 203 105
181 204 102
181 203 88
179 201 84
177 200 88
179 201 99
176 198 67
176 199 80
180 202 88
178 200 99
180 202 76
181 203 99
180 201 92
179 201 95
179 202 84
179 202 88
182 204 114
179 201 108
184 206 117
180 201 84
177 200 76
179 201 99
183 204 99
179 201 84
176 198 67
178 201 92
184 205 122
178 200 105
179 201 99
186 206 127
182 203 122
178 200 117
188 208 142
184 203 120
180 200 122
186 205 137
179 200 99
172 194 36
168 191 0
168 191 0
169 192 0
168 192 25
134 160 107
119 146 134
121 146 129
120 146 125
133 159 108
102 130 148
64 100 170
63 99 171
64 100 175
63 99 169
63 99 169
64 100 177
63 99 171
62 99 168
63 99 172
63 99 173
62 98 168
62 98 168
63 99 173
63 100 175
62 99 168
62 99 172
62 99 170
61 98 174
62 98 174
61 97 168
61 98 168
62 99 177
61 98 171
62 98 170
62 98 166
62 98 165
61 98 171
61 98 173
62 98 169
61 98 170
61 97 168
62 99 177
61 98 173
61 98 172
62 99 173
62 98 174
60 96 168
62 99 175
62 98 170
62 98 171
62 99 175
62 98 167
61 98 165
63 99 168
61 98 168
63 99 174
62 98 165
62 98 171
62 98 170
62 98 171
62 98 170
62 99 171
62 98 168
61 97 164
62 98 168
62 99 169
62 98 173
61 97 164
62 99 174
62 98 163
62 98 167
62 98 164
62 99 169
61 97 165
62 98 162
62 99 172
62 98 169
63 99 169
62 98 165
62 98 167
62 98 166
62 98 166
61 98 164
62 99 169
63 99 167
62 99 169
62 99 172
62 98 165
63 99 171
62 99 170
62 99 168
62 98 163
62 99 167
62 99 168
63 99 170
62 99 168
62 99 174
62 99 169
61 98 168
63 100 173
62 98 171
61 98 164
62 99 167
62 98 165
62 98 167
62 99 172
62 99 167
63 99 170
62 98 163
61 97 164
62 99 168
62 98 163
62 98 167
61 97 159
62 98 167
62 98 163
62 99 169
61 97 164
62 99 166
62 98 170
62 98 164
63 100 170
61 98 165
62 98 162
62 98 158
62 99 168
62 98 165
62 98 163
62 98 165
62 98 164
61 97 159
62 99 168
62 98 162
62 98 165
61 97 157
61 97 151
62 99 165
62 98 165
61 97 158
61 97 161
62 98 161
62 98 163
61 97 157
62 98 163
61 98 165
62 98 162
61 97 156
62 99 166
62 97 159
62 99 167
62 98 160
62 98 160
61 97 155
62 98 159
62 98 157
62 98 162
62 98 167
62 97 155
61 97 160
61 97 156
62 98 159
61 98 161
62 98 158
61 96 151
61 97 157
62 97 157
62 97 157
62 98 153
62 97 155
61 97 153
63 98 163
62 97 149
62 97 155
61 96 143
61 96 152
62 97 148
61 97 152
61 95 144
60 95 148
60 95 143
61 97 152
60 95 146
60 94 145
59 93 146
60 94 144
59 93 137
60 94 146
59 93 143
58 91 135
75 86 83
80 79 9
72 71 8
81 80 14
75 74 16
80 81 14
88 86 14
86 85 5
84 84 18
90 89 16
87 86 18
91 89 8
92 92 14
90 91 16
96 95 29
90 88 17
99 100 32
86 87 28
85 83 25
108 107 36
97 96 26
100 100 31
106 104 29
108 105 35
108 106 30
108 107 27
108 105 40
112 110 36
111 110 40
124 121 36
117 116 33
124 121 36
115 114 46
116 115 34
118 117 39
126 123 41
130 127 47
119 116 44
129 126 37
128 124 48
131 126 52
127 124 38
134 130 46
132 129 42
136 132 41
135 131 37
134 131 37
129 124 37
141 136 48
132 130 37
134 131 40
135 130 38
137 132 51
134 129 49
148 142 53
140 135 48
138 134 44
141 135 47
140 137 48
145 140 45
147 141 52
150 144 59
133 129 38
148 142 50
147 142 51
137 132 47
153 147 59
140 135 48
147 141 52
148 142 54
142 136 49
147 141 49
149 143 49
147 142 48
158 153 58
138 133 51
143 138 44
142 136 48
148 142 53
148 142 49
141 135 45
136 131 41
141 135 52
146 140 47
138 132 44
150 144 51
140 134 42
141 136 48
144 138 45
146 141 42
124 119 41
147 140 48
139 134 41
136 132 41
142 135 49
136 131 37
137 132 48
140 134 53
135 130 42
136 129 41
124 120 30
127 122 37
117 113 32
131 125 48
117 113 34
119 114 32
114 110 32
114 111 32
119 114 28
137 144 16
164 181 0
159 177 0
169 189 0
163 182 0
167 184 0
163 183 0
159 176 0
163 181 0
163 180 0
166 183 0
163 180 0
165 183 0
166 183 0
168 187 0
164 179 0
168 186 0
167 186 0
167 187 0
170 189 0
168 187 0
170 190 0
170 187 0
168 186 0
171 190 0
167 187 0
168 189 0
170 193 0
171 195 0
168 191 0
170 193 0
169 194 0
173 196 25
172 195 67
183 204 102
183 203 122
188 209 133
182 203 108
188 208 147
187 207 135
181 203 111
180 201 102
182 204 114
185 206 125
182 204 108
180 201 99
181 203 108
181 203 105
182 204 108
180 202 108
181 203 105
180 202 99
181 203 88
179 201 92
182 204 114
182 204 114
182 204 117
179 201 88
179 202 88
185 206 122
182 204 111
175 198 62
181 203 92
179 201 84
180 202 88
182 204 105
177 200 62
174 198 62
181 203 105
179 202 102
179 202 102
178 201 67
180 202 84
178 201 80
180 203 105
178 201 84
180 202 95
179 201 84
181 203 92
182 204 105
180 202 84
176 199 76
177 200 80
179 201 72
180 202 95
180 203 102
181 203 99
183 204 117
177 199 76
178 201 84
179 201 102
176 199 84
184 204 111
186 207 125
180 201 102
180 202 108
182 202 130
174 196 99
177 198 108
181 202 120
181 203 108
187 206 135
186 206 125
176 198 92
168 191 36
165 188 0
161 184 44
127 152 115
133 158 107
130 155 111
116 142 125
110 137 136
94 124 153
77 110 160
63 100 170
63 99 172
64 100 172
63 99 173
63 99 170
63 99 173
63 99 170
64 100 175
63 99 172
62 98 172
62 98 173
62 98 167
63 99 173
63 99 173
61 98 171
62 98 171
61 97 165
61 98 173
62 98 168
61 97 164
62 99 172
62 98 173
61 97 166
61 97 170
61 98 167
61 98 168
61 98 168
61 98 170
62 99 176
61 98 169
62 99 175
61 98 170
62 99 172
61 98 169
62 99 173
61 97 165
61 98 168
62 98 167
61 97 164
62 98 170
62 99 173
61 98 171
62 98 169
61 98 171
62 98 168
62 99 169
61 98 170
62 98 166
62 99 171
62 98 172
62 98 166
62 99 174
62 99 173
61 97 164
62 99 170
62 98 168
61 98 170
62 98 171
62 99 171
63 99 174
62 98 167
62 98 165
62 99 171
62 98 169
62 98 168
62 98 168
62 98 170
62 98 168
62 98 170
62 98 163
62 98 168
62 99 167
62 98 168
63 99 174
61 97 157
63 99 171
62 98 168
61 97 162
62 98 159
61 98 164
62 99 172
62 99 169
63 99 172
61 98 165
61 98 167
62 99 166
63 99 172
62 98 166
62 98 168
62 98 171
62 98 165
62 98 165
62 98 165
62 98 168
62 98 165
62 98 167
62 98 158
61 98 162
63 99 168
61 98 163
63 100 175
62 98 158
62 98 163
62 98 166
63 99 166
62 99 167
62 98 167
63 99 169
62 98 165
63 99 168
62 99 167
62 99 165
62 98 168
63 99 163
62 98 161
61 97 163
63 99 173
60 97 158
62 98 165
62 98 163
62 98 160
62 98 163
62 98 161
62 98 166
62 99 168
63 99 168
61 97 157
62 98 159
62 98 156
62 98 159
62 98 160
63 99 166
62 98 162
62 98 160
62 98 162
62 98 161
61 97 155
62 99 168
62 98 163
62 98 158
62 98 165
62 98 165
62 98 159
62 98 163
61 96 149
61 97 153
62 97 150
62 98 162
60 96 152
61 97 153
61 97 154
62 97 160
62 98 157
62 98 164
62 97 160
61 97 149
60 95 145
61 97 150
62 97 156
62 98 160
62 98 163
62 98 155
60 95 151
62 97 158
61 96 140
61 96 148
62 98 162
62 97 153
61 96 154
61 96 150
62 97 150
61 96 149
59 93 137
59 93 135
60 94 145
59 91 129
59 92 138
75 85 81
78 77 12
94 93 19
79 79 5
88 87 12
76 78 21
90 89 20
78 79 8
86 85 14
85 85 14
90 88 11
99 98 24
85 84 12
90 88 26
86 87 22
86 86 20
97 96 19
97 97 17
93 92 25
97 96 26
100 99 25
98 97 23
111 108 36
111 109 28
113 110 35
107 106 32
115 113 23
117 115 35
114 112 41
111 109 31
126 123 35
124 120 41
109 107 39
115 112 31
125 122 33
125 123 37
130 127 44
129 126 31
126 122 39
128 125 43
127 122 40
126 121 46
136 133 44
128 124 45
137 133 45
130 125 43
133 128 47
135 132 37
130 128 52
140 135 39
148 142 57
133 129 38
142 137 49
134 129 42
136 131 45
139 135 49
143 138 50
136 132 36
142 137 45
139 135 44
146 141 39
146 142 42
142 137 39
140 134 47
145 140 48
148 141 52
136 132 36
147 142 51
137 133 42
149 142 61
145 140 54
137 133 48
143 136 39
151 145 56
133 129 45
138 134 45
148 141 61
135 130 37
136 131 44
146 140 44
150 144 56
134 129 42
147 141 47
144 138 51
139 134 41
135 131 41
149 142 57
144 138 53
141 136 44
139 133 45
142 137 48
138 132 42
133 129 41
139 134 47
128 123 32
132 127 39
129 123 25
129 124 36
140 135 36
137 131 51
132 128 42
124 119 37
129 122 37
128 122 37
122 116 34
111 106 28
122 116 30
117 112 32
140 147 22
158 173 0
160 174 0
163 179 0
158 172 0
164 181 0
164 180 0
159 176 0
163 179 0
165 184 0
168 185 0
166 183 0
165 183 0
161 178 0
169 188 0
167 184 0
167 185 0
167 187 0
167 184 0
168 187 0
166 187 0
165 184 0
165 183 0
169 187 0
168 188 0
167 188 0
167 187 0
166 184 0
172 195 0
171 194 0
175 198 36
178 201 76
181 203 102
191 210 149
185 204 149
188 208 137
187 207 142
183 204 122
186 206 122
182 203 120
182 204 114
178 200 95
181 203 92
181 203 108
179 201 108
177 199 95
180 202 88
178 201 92
181 203 99
178 201 80
178 200 92
180 202 99
179 202 92
177 200 76
180 203 92
178 200 80
178 201 76
176 200 72
178 201 84
180 203 95
182 204 102
177 200 80
179 202 84
177 200 80
176 199 57
179 202 95
178 201 76
181 203 95
178 200 67
177 200 72
179 202 95
181 204 108
182 204 105
179 202 95
179 202 99
179 202 88
182 204 108
177 200 72
178 201 76
179 202 95
178 201 84
182 203 99
182 204 99
180 203 99
179 201 99
179 201 84
180 203 99
180 202 84
178 200 88
176 200 76
183 205 114
173 196 62
177 199 92
178 201 95
178 200 92
179 201 102
183 203 105
181 203 108
182 203 111
176 199 80
183 204 108
181 202 117
180 201 114
185 205 125
179 199 114
177 197 122
176 198 95
172 194 67
155 179 67
135 159 107
140 163 92
137 162 105
126 150 118
123 148 124
107 135 140
108 135 144
79 111 157
63 99 170
63 99 171
63 99 173
63 99 164
63 99 173
63 99 168
63 99 172
62 99 169
62 99 172
62 98 174
61 98 170
62 99 171
62 99 173
61 98 173
61 98 170
62 98 173
61 98 174
61 98 169
61 98 172
61 97 172
61 98 175
61 98 170
61 98 172
62 98 174
61 98 171
61 98 170
61 98 173
61 98 168
61 98 169
61 97 170
62 98 172
61 98 174
62 98 171
61 97 164
61 97 168
61 97 167
62 99 175
62 98 169
62 98 173
62 99 170
61 98 167
62 98 171
61 97 167
62 98 170
61 97 170
62 98 163
62 98 167
62 98 167
61 98 170
63 99 170
62 99 171
62 98 168
62 98 163
62 99 173
63 99 170
62 98 169
61 98 164
62 99 172
62 98 169
62 98 166
61 98 162
62 98 165
62 99 170
61 98 169
62 98 164
62 98 166
62 98 165
62 99 166
62 98 171
62 98 165
63 99 173
62 98 169
62 98 169
62 98 163
62 99 172
61 98 163
62 99 168
62 99 176
61 97 163
62 98 167
62 98 168
63 99 170
62 98 165
62 98 164
62 98 167
62 98 162
62 98 165
62 98 165
62 98 166
62 99 165
62 98 168
62 98 169
62 99 172
62 99 171
62 98 161
62 99 166
62 98 167
62 98 165
63 99 166
62 98 162
61 97 159
61 97 155
62 98 166
62 99 170
61 97 167
63 99 169
61 97 155
62 98 166
62 98 158
62 98 161
62 98 165
62 98 168
62 98 160
62 98 168
62 98 166
63 99 169
62 98 162
62 98 164
62 98 162
63 100 173
62 98 163
62 98 163
63 99 162
62 99 165
61 98 166
61 97 158
62 98 164
62 98 162
62 99 170
61 96 148
62 98 166
62 98 161
62 98 159
62 98 159
62 97 154
62 97 162
61 97 158
62 98 165
63 98 165
63 99 163
61 97 157
63 98 161
62 98 163
60 95 150
61 96 154
62 98 158
61 97 160
61 97 160
63 99 164
62 98 162
61 96 151
62 97 153
61 96 158
62 98 156
61 97 149
61 96 153
61 97 153
62 98 161
61 96 152
60 95 144
61 96 157
60 95 145
61 97 153
61 96 149
60 95 148
61 97 149
60 95 143
62 97 152
60 95 144
59 94 138
60 93 142
59 93 135
59 92 139
59 92 134
59 92 134
72 81 80
86 85 18
92 90 12
84 81 14
85 83 14
78 77 8
80 81 16
83 81 3
81 78 16
85 83 9
85 84 14
90 89 17
100 98 18
89 89 18
81 80 14
91 89 21
99 97 18
103 103 24
96 95 30
96 95 28
105 103 23
103 102 19
111 109 23
103 102 20
108 106 36
107 104 27
112 111 32
124 121 37
123 119 40
112 108 29
114 113 35
124 121 40
110 107 29
118 115 37
119 117 44
125 122 39
128 124 35
128 125 40
123 121 30
117 113 40
130 127 37
129 125 47
127 124 38
131 127 46
133 131 42
136 132 41
133 128 42
141 137 40
139 135 40
133 128 45
132 127 42
128 124 38
139 135 36
133 129 37
136 132 40
145 140 51
139 135 39
145 139 53
148 143 49
145 140 49
139 135 44
139 135 42
132 128 39
137 131 47
145 139 51
142 137 44
138 133 49
143 138 48
138 134 44
146 141 42
141 135 45
144 138 53
141 137 41
146 141 48
140 135 36
142 138 48
135 130 42
130 125 25
140 134 44
143 139 45
145 139 41
143 137 47
138 134 30
139 132 47
144 139 47
138 133 42
139 135 49
142 136 48
138 131 47
127 123 32
136 131 42
131 125 36
130 124 44
139 135 37
129 124 39
134 129 37
134 127 47
131 125 42
132 127 37
126 122 34
125 120 39
125 119 37
126 120 32
119 114 36
123 118 39
119 114 30
117 112 25
144 154 22
164 178 0
164 179 0
166 182 0
162 177 0
160 175 0
169 186 0
164 179 0
169 185 0
164 181 0
161 177 0
163 181 0
164 180 0
165 183 0
162 180 0
168 184 0
167 187 0
165 182 0
168 185 0
168 185 0
172 192 0
167 185 0
166 185 0
164 182 0
169 188 0
167 185 0
172 191 0
168 187 0
167 186 0
177 199 67
179 201 105
190 209 137
186 206 133
185 206 133
187 207 147
183 203 111
185 205 130
187 207 133
185 206 125
182 204 108
184 205 111
182 204 105
185 206 125
183 204 117
181 203 99
181 203 105
180 202 92
179 202 88
180 202 88
177 200 88
179 201 92
177 200 67
179 202 95
182 204 99
180 202 92
179 202 84
182 205 111
178 201 72
179 202 84
177 201 80
179 201 76
189 209 135
186 207 135
194 213 159
197 215 165
205 221 193
198 216 175
204 221 198
205 221 194
202 220 193
201 219 182
203 220 182
204 221 196
200 217 179
197 215 171
202 219 184
198 217 177
192 212 153
189 209 133
189 210 140
182 204 108
177 200 80
179 201 67
180 202 84
179 202 84
177 200 67
179 201 88
178 201 92
179 202 102
180 203 95
178 201 95
178 200 92
179 201 92
180 202 95
180 202 88
180 202 92
179 201 84
175 198 67
181 203 92
181 202 111
176 199 84
179 200 99
181 203 114
179 201 105
180 201 111
181 202 111
184 205 117
179 200 102
183 203 125
181 202 117
168 190 121
145 170 92
143 167 92
140 165 99
130 155 118
130 156 117
129 154 117
116 142 127
101 129 142
91 121 153
72 106 162
63 99 170
63 100 173
63 99 170
62 99 170
62 99 172
61 97 169
62 97 166
61 98 173
62 98 172
61 97 166
62 99 172
61 98 175
61 97 168
61 97 167
61 98 174
61 97 166
61 98 172
60 97 169
61 98 172
61 98 171
62 98 171
61 98 173
61 98 167
61 97 167
61 97 171
60 96 159
61 97 170
61 98 171
61 98 171
62 99 173
61 97 167
62 98 171
62 99 173
62 98 170
62 98 169
61 98 165
61 97 170
62 98 167
62 99 173
62 99 168
61 98 170
62 98 167
62 99 174
62 99 171
61 98 171
61 98 170
62 98 168
61 97 164
62 99 170
62 98 166
62 98 169
61 98 171
62 99 170
62 99 173
61 98 166
62 99 170
62 98 166
62 99 169
62 98 164
62 99 168
62 99 169
61 98 162
62 98 169
62 98 169
62 98 164
62 98 172
62 98 169
61 98 169
62 98 167
62 98 167
62 99 171
62 98 169
62 99 168
62 98 163
62 98 168
62 99 167
61 98 165
62 99 172
60 96 165
62 98 159
62 98 166
61 98 166
62 98 162
62 99 164
62 98 159
62 99 165
62 99 171
62 99 168
61 98 160
61 97 160
63 100 174
62 99 171
62 98 163
63 99 172
63 99 169
62 98 163
62 99 164
62 99 167
62 99 163
62 99 169
62 98 164
62 98 163
62 98 163
63 99 163
63 99 165
62 99 168
62 98 166
62 99 165
62 99 168
62 98 165
63 99 164
63 99 166
62 98 161
62 98 169
62 98 165
62 98 159
63 99 166
63 99 163
62 98 158
62 99 165
62 98 165
62 98 161
63 99 163
62 98 162
61 97 153
61 97 150
62 98 158
62 98 158
62 98 162
62 98 159
61 97 159
62 98 161
62 98 161
61 97 158
62 98 160
61 97 157
61 97 153
63 98 157
62 98 163
62 98 163
61 97 160
61 98 160
62 98 159
63 99 163
63 98 160
60 95 143
62 98 152
62 98 155
62 98 159
62 98 153
61 96 154
61 97 159
61 96 150
59 93 143
62 98 153
62 98 156
61 97 155
59 95 147
61 97 153
61 96 148
62 97 150
60 96 156
60 94 136
61 97 150
60 95 152
60 95 149
59 94 136
59 93 139
59 93 145
59 93 141
58 90 131
58 92 137
80 85 57
87 85 14
85 84 9
78 78 8
79 80 14
81 79 14
89 88 13
84 84 12
82 82 11
90 91 18
98 96 20
90 88 4
91 89 20
90 89 27
93 92 12
94 92 16
92 93 25
101 98 20
96 94 27
91 90 25
107 103 26
111 108 24
105 105 29
111 110 29
105 103 31
101 101 30
96 96 19
101 100 23
107 105 26
107 106 34
113 111 28
119 117 34
121 118 24
114 112 39
125 122 42
118 115 34
135 131 38
118 116 42
131 126 33
132 127 43
125 123 32
125 121 40
120 116 33
124 120 33
120 118 35
132 129 40
140 134 42
134 130 36
138 133 45
139 133 44
123 119 36
140 136 44
133 128 48
125 123 32
140 135 46
132 128 38
135 130 48
139 134 47
137 134 39
140 135 47
144 138 49
139 135 34
138 133 49
141 137 47
135 131 44
142 137 45
142 138 41
139 134 42
136 132 37
141 135 36
132 126 42
138 133 41
140 135 30
141 136 36
147 142 48
142 137 39
147 142 44
126 121 36
142 136 42
136 130 41
139 133 36
136 129 41
140 134 39
138 133 44
132 128 28
137 132 42
138 134 37
127 121 39
133 128 41
129 124 34
137 131 39
146 139 53
139 133 45
130 126 30
124 119 37
126 121 32
129 123 45
117 113 19
130 125 37
136 129 45
116 112 28
130 125 30
117 112 36
105 99 28
113 108 28
110 107 36
140 148 28
160 174 0
160 177 0
164 179 0
160 175 0
161 175 0
165 182 0
163 181 0
164 182 0
163 179 0
166 182 0
160 176 0
165 182 0
166 183 0
166 183 0
164 182 0
160 177 0
168 185 0
165 182 0
167 185 0
168 187 0
169 188 0
170 190 0
163 182 0
167 186 0
161 179 0
167 184 0
168 187 0
167 186 0
167 188 0
186 206 137
187 207 125
184 205 120
181 203 114
186 207 137
185 205 127
186 207 122
180 202 92
182 204 105
185 207 122
180 201 102
185 207 125
182 204 108
180 202 92
180 202 80
182 203 95
178 202 88
182 204 105
182 205 120
177 200 88
175 199 62
175 199 67
180 202 88
178 201 72
183 205 117
192 211 149
199 217 179
197 215 167
206 222 196
210 226 218
217 232 236
222 235 250
222 236 252
221 235 250
223 236 253
222 236 253
221 235 249
222 236 252
221 235 252
220 234 249
220 234 248
221 235 253
219 233 246
221 235 250
222 236 253
222 235 252
222 235 250
221 235 250
223 236 253
221 235 252
220 234 250
222 235 250
220 233 244
215 230 231
211 227 214
198 216 179
197 215 171
190 211 149
180 202 95
181 203 84
178 201 76
179 202 88
177 200 80
179 201 76
180 202 80
180 202 84
178 200 62
181 203 84
178 201 99
177 200 76
179 201 95
179 201 84
183 204 111
180 202 95
185 206 120
180 203 105
177 198 102
176 197 126
147 169 152
132 154 186
113 137 187
116 140 192
98 125 182
78 110 174
99 128 156
105 133 144
117 143 131
125 150 122
129 154 113
130 156 121
117 143 126
103 130 136
86 117 159
70 104 164
63 99 170
63 99 172
62 98 171
63 99 174
62 98 171
62 98 172
62 98 173
61 98 174
62 98 170
61 98 167
61 98 171
61 98 171
62 98 171
62 99 176
61 98 175
61 97 170
62 99 176
61 98 169
61 98 170
62 98 176
62 98 170
61 98 168
61 97 166
62 98 172
60 96 161
61 98 168
60 96 164
61 97 170
61 97 165
61 98 172
61 98 169
61 98 168
62 99 173
62 99 173
61 98 165
61 97 166
61 98 169
61 98 167
61 98 169
62 98 170
61 98 165
62 99 171
62 98 168
62 98 173
62 98 167
60 97 165
62 98 173
63 99 171
62 98 170
62 98 163
62 99 172
61 97 167
61 97 169
62 99 169
61 98 168
61 97 167
62 98 168
62 99 170
61 97 160
62 99 170
62 98 167
63 99 170
61 97 163
62 98 167
61 98 167
62 99 170
62 98 167
62 98 168
62 98 170
62 98 164
61 97 158
61 97 165
62 99 168
62 98 170
63 99 171
61 98 170
63 99 169
61 97 162
62 98 170
61 97 161
62 99 166
62 97 156
61 98 165
63 99 168
62 98 165
62 98 164
62 99 175
62 98 161
63 99 164
61 98 164
62 98 164
62 98 164
62 98 164
63 99 169
62 99 169
61 97 155
63 99 164
63 99 168
62 98 161
62 99 167
62 99 164
62 99 165
62 98 163
62 98 167
62 98 160
61 97 160
62 98 162
63 99 168
62 98 167
63 99 164
62 98 165
62 97 155
62 98 166
62 99 166
62 98 165
62 98 160
62 99 164
62 98 163
61 98 160
62 99 167
62 97 158
61 97 157
62 98 158
62 98 164
61 97 156
62 98 161
63 99 168
61 97 152
61 97 157
62 98 159
62 98 162
63 98 158
61 97 159
62 98 157
62 98 157
61 97 156
62 98 156
62 98 159
61 97 160
60 95 150
62 98 162
61 97 155
62 98 156
62 98 159
62 97 156
62 98 157
62 97 158
61 97 151
60 96 147
60 95 139
61 96 154
62 98 158
61 96 149
61 96 147
61 96 150
60 95 148
62 97 152
60 96 159
61 96 142
61 97 152
60 95 143
62 97 152
60 95 146
61 96 147
61 96 142
60 93 135
60 94 138
60 93 136
58 92 132
58 91 134
88 90 48
83 80 14
75 74 12
79 78 0
96 94 11
82 81 18
80 78 14
90 88 0
89 88 16
84 83 12
92 90 12
92 90 14
86 85 13
95 94 17
96 95 11
85 86 23
93 94 14
95 93 25
89 89 12
93 94 16
107 104 22
106 104 25
105 103 26
112 110 31
114 111 40
120 116 24
102 102 30
119 116 27
122 118 34
116 114 38
111 109 32
115 113 34
123 118 37
114 111 34
117 113 31
117 114 30
123 119 33
127 122 34
111 109 34
130 127 32
125 122 35
123 119 29
134 130 29
124 119 35
130 126 37
130 125 38
138 133 47
136 130 46
129 125 37
133 129 39
132 130 30
135 131 37
140 136 48
135 129 45
139 135 31
144 139 42
130 126 42
135 130 40
138 134 33
138 132 45
132 128 40
137 133 42
142 136 48
137 131 45
142 137 41
148 143 42
148 142 47
141 136 41
145 140 52
140 135 42
140 135 45
134 130 34
129 125 39
138 134 34
139 134 42
146 139 44
144 138 48
142 136 44
132 127 36
129 123 42
135 131 39
133 129 36
143 137 41
141 135 44
131 127 36
119 114 28
143 136 47
134 128 42
138 131 44
121 117 34
138 132 42
132 126 32
131 125 34
124 119 39
126 121 32
131 128 30
128 123 32
128 123 39
129 123 42
122 118 37
110 104 34
126 122 28
127 121 39
118 112 19
113 108 34
134 140 22
166 182 0
158 173 0
165 181 0
163 178 0
162 175 0
161 178 0
164 182 0
162 176 0
164 180 0
162 178 0
161 178 0
164 181 0
165 181 0
163 180 0
165 180 0
165 182 0
164 181 0
167 186 0
165 180 0
164 183 0
167 184 0
167 186 0
163 180 0
163 182 0
164 184 0
167 185 0
165 184 0
169 189 0
169 189 0
167 187 0
188 208 140
189 208 142
185 206 122
181 203 108
178 200 95
186 207 125
181 203 102
182 204 114
175 198 72
177 200 76
179 202 92
179 202 84
180 203 95
180 202 84
178 201 76
181 203 95
178 201 76
176 199 72
178 201 67
182 204 99
197 215 165
200 218 188
212 227 218
217 231 236
223 237 254
222 236 253
222 236 253
221 235 249
221 235 252
221 235 252
220 234 248
221 235 252
219 234 249
220 235 250
219 234 250
219 234 252
220 235 254
220 234 253
221 236 254
219 233 249
221 235 253
219 234 249
220 234 249
220 234 252
220 234 252
220 235 252
220 234 253
220 234 249
221 235 253
219 233 246
220 234 250
220 235 250
219 234 248
222 236 253
220 234 248
220 234 249
222 235 252
221 235 253
221 235 250
219 233 242
207 223 206
201 219 191
189 210 142
181 204 105
179 201 88
179 202 84
179 202 95
181 203 102
177 199 72
181 203 84
178 201 84
182 204 111
179 202 88
178 201 95
179 201 84
178 200 84
180 201 108
118 142 183
110 135 184
108 134 187
123 146 190
121 144 191
127 149 190
120 143 188
70 105 174
65 101 175
67 103 173
68 103 169
68 103 169
88 119 157
109 137 144
120 145 126
116 142 118
108 135 133
82 113 154
63 99 166
62 99 169
62 98 172
62 98 168
61 97 169
61 97 165
61 97 167
61 97 164
61 97 170
61 98 173
60 97 172
62 99 172
61 97 172
60 96 170
61 98 171
61 98 170
61 97 167
61 98 169
62 98 172
60 96 165
61 97 170
61 97 168
61 97 171
61 98 165
61 98 170
62 99 173
60 96 166
61 98 173
62 98 172
61 98 172
61 97 166
61 97 165
62 99 173
62 98 164
61 97 166
62 98 169
62 99 171
62 99 169
62 98 172
62 98 167
62 98 162
62 98 170
62 99 172
63 99 172
61 98 168
62 98 169
62 99 171
62 98 168
61 97 165
62 98 163
61 98 168
62 99 171
63 99 176
62 98 164
61 98 162
62 98 167
62 99 170
61 98 167
62 98 169
62 98 169
62 98 169
62 99 172
62 98 169
63 99 171
62 98 166
62 98 159
62 98 165
61 98 164
62 98 171
61 97 162
62 98 165
61 97 161
62 99 167
61 98 166
62 98 165
62 98 163
62 98 161
62 99 165
63 99 164
62 98 164
62 98 165
61 98 161
62 98 166
62 98 164
63 99 167
62 99 169
62 98 165
62 98 164
62 98 159
62 98 161
60 97 160
61 98 163
62 98 167
62 98 165
62 98 166
63 99 165
62 98 167
62 99 165
61 97 163
63 99 166
63 99 171
62 99 168
62 98 162
63 99 165
62 98 163
62 98 164
62 98 160
62 97 161
62 98 164
62 98 162
62 98 163
61 97 157
62 98 163
62 99 163
62 97 159
61 97 157
62 98 159
61 97 157
62 98 161
62 98 162
62 98 161
62 98 159
62 98 163
62 98 165
62 98 163
62 98 166
61 96 158
62 98 163
62 98 154
63 99 170
62 98 161
62 98 164
62 98 157
62 97 159
61 97 162
62 98 161
61 97 152
61 97 164
63 98 159
61 97 152
60 96 149
61 96 154
61 97 155
61 97 159
60 96 149
61 96 149
61 97 150
61 96 152
61 97 154
61 96 156
60 95 148
61 97 159
61 96 147
63 98 161
60 96 149
62 97 161
60 95 145
61 95 144
61 96 155
59 94 135
59 94 149
60 94 145
60 95 151
60 96 148
61 95 145
59 93 136
59 92 139
58 92 133
60 92 140
81 82 39
80 78 3
92 88 3
86 84 8
93 90 18
85 81 0
87 86 8
83 83 8
79 78 14
86 84 11
88 90 18
75 75 14
98 96 16
86 87 20
99 99 22
91 90 12
86 86 19
91 90 23
95 94 19
92 91 14
88 87 18
102 100 21
102 101 22
98 97 23
107 104 29
107 104 14
112 108 34
111 108 21
102 101 21
109 106 14
126 123 22
114 112 18
119 116 28
109 108 27
114 112 29
123 120 34
120 115 28
112 109 28
118 115 35
124 121 36
120 116 34
122 119 29
124 122 33
132 128 35
121 117 26
133 128 44
130 125 30
124 121 38
130 125 42
136 133 34
139 134 37
130 126 39
129 126 43
132 127 36
140 136 51
139 134 37
133 128 35
130 126 40
137 132 42
143 138 43
138 135 36
130 126 36
138 134 37
139 134 39
137 133 43
134 129 32
137 133 37
141 135 37
139 135 34
138 133 37
139 134 45
134 129 42
134 130 32
140 134 42
134 129 39
131 126 37
133 129 36
132 128 34
133 129 37
134 130 28
131 126 36
137 132 48
126 124 30
135 129 37
129 124 37
134 129 34
135 131 37
127 123 36
123 120 36
137 131 41
135 128 34
133 128 25
125 120 36
134 129 28
132 127 45
129 123 34
126 120 34
116 112 25
130 126 39
129 124 34
129 123 36
116 112 30
120 115 30
118 111 32
139 147 11
159 171 0
160 177 0
164 179 0
159 171 0
160 177 0
161 179 0
163 178 0
164 179 0
165 182 0
164 180 0
164 183 0
167 185 0
164 178 0
165 181 0
161 178 0
165 183 0
161 178 0
163 180 0
166 183 0
167 185 0
165 182 0
160 177 0
161 176 0
165 184 0
166 185 0
166 184 0
166 186 0
165 184 0
161 179 0
165 183 0
170 190 0
183 204 111
180 202 105
183 203 105
186 206 120
179 201 92
180 202 92
184 206 117
178 201 80
180 202 88
178 201 84
178 201 88
179 202 84
176 199 67
179 201 80
178 201 80
184 206 117
192 212 151
204 221 196
212 228 223
222 236 249
222 236 253
222 235 250
221 235 250
220 234 246
221 235 253
219 234 249
220 234 250
218 233 248
220 235 253
220 235 252
219 234 250
219 233 249
218 234 252
219 234 250
219 234 252
218 233 249
219 234 250
220 235 255
219 234 252
219 233 249
218 233 252
215 231 244
219 234 254
216 232 245
216 231 244
218 233 249
218 233 248
219 234 252
219 234 250
217 233 248
219 234 250
216 231 244
219 234 252
219 234 249
221 235 254
220 235 252
220 235 252
222 236 254
222 235 252
222 235 253
221 235 252
222 236 253
220 234 248
223 236 253
214 229 226
198 216 177
196 215 163
183 205 108
174 197 44
179 202 95
179 201 76
178 200 67
178 200 72
178 201 76
175 197 67
181 203 102
153 175 135
112 137 188
94 122 179
104 130 186
112 137 192
124 146 192
108 134 185
103 129 178
119 143 189
80 111 175
76 109 169
67 102 170
65 100 163
67 102 168
66 101 172
73 106 172
87 118 159
110 136 133
112 139 136
111 138 133
93 122 150
65 99 159
62 98 167
62 98 168
61 98 171
62 98 170
61 98 169
60 97 164
60 97 164
62 98 175
61 97 166
61 97 169
61 98 175
62 99 173
61 98 171
61 97 168
60 96 165
61 97 167
60 96 166
61 98 173
62 99 174
61 98 170
61 98 173
61 97 168
61 97 167
61 98 169
61 98 164
60 96 162
61 97 167
61 98 169
61 97 165
61 98 168
61 98 168
62 98 175
60 97 165
61 97 168
62 98 167
61 97 165
61 98 169
62 98 166
62 98 164
62 99 170
62 98 168
61 97 164
62 98 169
62 99 169
62 99 172
62 99 173
62 99 172
62 98 168
62 98 167
61 98 164
62 98 174
62 98 167
62 98 164
62 98 167
61 98 166
61 98 166
62 98 160
62 98 167
62 99 169
62 98 165
62 99 168
61 97 166
62 98 168
62 98 167
62 98 169
62 98 168
62 99 167
62 99 172
62 99 170
62 99 169
62 98 167
61 97 158
62 98 166
62 98 159
61 97 162
61 97 165
61 98 163
61 97 158
62 98 163
63 99 172
61 97 158
62 98 164
62 98 165
61 97 160
62 98 162
62 98 163
62 98 164
61 98 166
62 98 161
62 98 163
61 97 161
61 97 162
62 98 165
62 99 169
61 97 159
62 98 159
62 98 162
62 99 166
62 99 170
62 98 164
61 97 161
62 98 163
62 98 157
61 97 159
61 98 163
62 98 157
62 98 159
62 98 160
61 97 156
61 97 153
62 98 161
61 97 151
62 98 164
62 98 161
62 98 159
62 97 154
62 98 160
61 97 155
63 98 159
63 99 164
61 97 159
61 97 157
61 97 159
61 97 152
62 99 164
62 97 159
61 97 156
61 97 154
62 98 161
61 98 163
63 99 162
62 97 159
61 97 149
62 97 155
62 98 157
61 97 151
62 98 162
62 97 149
61 97 161
61 97 158
62 98 162
62 98 161
61 96 152
60 95 148
61 96 149
61 97 156
61 97 153
61 96 147
61 97 150
61 96 151
62 97 159
63 98 159
61 96 143
61 96 147
61 96 149
61 96 154
60 95 138
60 94 145
59 93 139
60 95 145
60 95 142
59 93 144
59 94 137
59 93 137
58 92 131
56 88 127
95 93 42
93 90 0
86 83 3
83 82 11
83 81 14
82 81 12
88 86 8
90 89 11
91 88 8
85 83 3
88 86 14
94 92 13
89 89 16
88 87 12
85 84 24
89 89 14
94 92 16
93 92 25
102 100 14
87 86 25
93 92 21
94 94 18
96 95 18
99 99 21
107 105 26
93 92 18
111 109 25
109 106 30
102 99 21
113 110 25
118 114 27
123 120 37
111 109 22
121 119 33
120 116 42
115 112 25
122 119 34
121 119 28
119 115 32
128 124 44
137 133 36
124 120 38
117 116 22
130 126 22
121 119 19
123 119 29
129 126 38
127 123 34
136 130 43
131 126 45
125 122 21
133 129 29
125 122 29
138 134 37
127 125 29
130 126 39
135 130 36
125 121 33
140 135 42
132 129 34
135 131 32
134 128 49
132 126 40
140 136 42
135 130 41
133 128 30
138 133 37
141 135 36
133 128 42
134 129 41
132 129 34
128 122 42
135 129 37
138 133 45
128 122 37
145 140 37
134 128 36
133 129 34
128 123 32
135 130 37
135 129 39
120 116 28
139 134 44
129 124 25
138 133 41
137 132 44
134 129 32
125 120 36
125 120 32
130 124 30
124 119 32
123 119 19
123 118 34
125 119 32
129 124 32
118 113 28
115 110 28
124 119 34
128 122 34
121 118 34
116 111 28
122 115 30
119 114 36
135 142 0
166 181 0
165 181 0
162 178 0
159 172 0
160 173 0
159 173 0
157 171 0
160 174 0
164 181 0
166 182 0
165 181 0
163 178 0
161 178 0
166 183 0
163 180 0
168 185 0
164 181 0
166 185 0
165 182 0
164 182 0
166 182 0
167 186 0
164 181 0
168 186 0
166 185 0
165 184 0
168 188 0
167 187 0
166 185 0
166 185 0
165 184 0
167 185 0
182 204 105
180 202 99
180 203 102
183 205 117
180 202 92
179 201 92
179 202 95
178 202 92
178 201 84
180 203 99
179 202 84
178 201 84
184 206 111
202 219 188
211 227 217
223 236 250
222 236 252
220 235 249
221 235 249
221 235 252
221 235 252
219 234 248
221 235 254
219 234 252
217 233 250
217 232 246
219 234 253
220 234 253
218 234 253
217 233 249
217 233 249
217 233 249
217 233 252
217 233 252
218 233 254
218 234 253
217 232 250
217 232 249
216 232 248
218 234 254
217 233 250
216 232 250
217 233 252
218 234 254
216 232 250
216 232 248
217 232 250
217 233 252
218 234 253
216 231 246
216 232 246
219 234 254
217 233 249
218 233 249
219 234 253
218 234 252
219 234 253
218 233 250
220 234 252
220 234 252
220 234 252
218 232 249
219 234 246
221 235 253
222 236 253
222 236 250
222 236 252
223 236 253
216 231 233
192 212 151
183 205 111
177 200 76
180 202 72
182 204 108
176 199 76
182 203 102
150 173 131
102 129 181
110 136 191
98 126 183
89 118 181
120 144 193
98 125 176
105 131 187
115 140 187
110 135 190
78 110 173
63 99 177
67 102 173
68 103 170
66 101 170
68 103 171
65 101 171
70 104 166
72 106 171
96 124 148
101 129 143
105 132 141
85 116 153
61 98 170
61 98 164
60 96 163
61 97 165
60 96 165
61 97 173
60 97 167
62 98 167
62 98 175
61 98 171
61 97 169
61 97 166
61 98 168
60 97 164
61 98 166
61 98 173
61 97 166
61 98 171
61 97 166
61 97 167
61 98 165
61 97 165
61 98 167
61 98 171
61 98 175
61 97 171
60 97 168
61 97 166
61 98 166
62 99 170
62 98 168
62 98 168
62 98 167
61 98 167
62 98 167
61 98 164
61 98 163
62 98 172
62 99 172
62 98 170
62 98 167
62 98 169
61 98 168
61 98 163
62 98 168
62 98 165
62 97 162
62 98 159
63 99 175
62 99 170
62 98 164
63 99 172
62 98 162
62 98 170
62 98 167
61 98 164
62 98 171
62 98 164
62 98 165
62 99 172
61 97 160
63 99 170
62 99 168
62 99 171
62 98 166
62 98 163
61 97 163
62 98 166
62 98 164
62 98 163
62 98 165
62 98 165
62 98 165
61 97 158
62 98 168
61 98 162
61 97 160
62 98 161
62 98 163
62 98 165
62 98 162
62 99 166
62 99 166
61 97 158
62 98 164
62 98 165
62 98 163
62 98 163
61 97 161
62 98 160
62 98 159
62 99 167
62 98 158
62 98 165
62 98 161
63 99 167
62 99 164
62 98 161
62 99 164
62 99 169
62 98 161
62 98 156
62 98 167
62 98 157
62 98 163
62 98 160
61 98 161
61 97 158
62 98 166
61 97 157
62 98 162
61 97 159
61 96 150
62 98 161
62 99 165
62 98 158
62 98 157
61 97 157
61 96 154
62 98 164
62 98 162
62 98 161
62 98 159
62 98 161
62 98 156
62 97 159
62 98 159
62 98 162
61 97 157
62 98 159
62 98 160
63 99 167
62 98 161
61 97 152
61 97 153
61 97 153
61 97 159
61 97 152
62 98 160
62 97 158
63 99 166
61 96 146
61 96 156
62 98 156
61 96 151
60 96 144
61 96 148
60 95 146
63 98 153
61 96 158
61 96 154
61 96 149
61 96 152
60 95 144
61 96 149
60 95 147
60 95 139
61 95 151
60 94 141
60 94 137
60 94 142
59 93 136
59 92 131
59 93 131
58 86 110
84 81 18
80 78 16
95 92 11
92 90 0
88 86 0
80 77 12
98 95 0
85 85 3
99 94 0
80 80 3
96 94 2
82 83 11
90 89 19
90 89 3
99 98 16
101 97 5
104 102 8
89 86 14
96 96 20
101 99 14
100 97 14
96 92 18
105 104 11
99 97 16
105 102 16
119 115 26
104 103 12
100 98 12
115 110 18
104 102 22
117 113 24
110 106 21
119 116 29
117 113 26
107 105 24
119 115 25
115 112 28
121 118 34
106 104 23
118 116 32
121 119 25
125 120 37
120 115 32
125 122 36
125 119 30
125 120 34
126 121 28
122 118 29
125 122 28
131 127 31
140 136 35
127 123 28
130 126 36
130 126 35
141 136 36
137 132 32
133 128 37
135 129 37
140 135 39
139 133 34
133 128 39
136 132 30
128 125 31
136 131 37
137 132 42
132 127 37
128 123 30
129 125 32
139 134 37
136 132 30
133 129 32
132 128 30
130 127 28
136 130 36
139 134 36
135 129 44
145 140 47
126 122 36
135 130 37
132 128 34
127 123 22
134 129 30
126 122 30
132 128 32
134 130 30
134 128 42
126 122 28
125 120 39
121 116 36
120 115 30
123 119 37
133 127 37
129 124 28
119 115 28
124 118 32
125 120 30
115 110 34
129 125 30
107 103 16
121 115 28
112 108 28
107 103 22
140 148 0
158 171 0
160 173 0
159 172 0
165 179 0
159 174 0
161 174 0
162 175 0
165 179 0
159 172 0
162 176 0
161 176 0
166 179 0
164 179 0
160 177 0
163 178 0
166 183 0
166 183 0
162 178 0
162 177 0
167 187 0
164 182 0
163 180 0
166 184 0
165 185 0
166 183 0
161 178 0
165 182 0
166 185 0
169 188 0
162 179 0
171 191 0
169 187 0
168 187 0
181 203 88
177 200 80
178 201 95
181 203 95
178 200 88
179 201 80
180 202 95
177 200 76
176 200 67
189 209 142
203 220 193
216 230 230
222 235 250
220 234 248
219 234 249
220 235 250
221 235 253
221 235 252
220 234 250
219 234 253
220 234 252
219 234 253
218 234 252
218 233 249
218 233 252
217 232 249
217 232 249
215 231 249
215 232 250
216 232 248
217 233 253
217 233 254
216 232 252
215 231 248
216 233 254
216 233 253
215 231 249
216 232 252
215 231 249
216 233 253
216 232 253
216 233 254
216 232 253
213 230 245
215 231 246
217 233 253
216 232 252
215 232 252
216 233 253
216 233 253
215 231 248
217 233 253
217 233 253
218 233 253
217 233 252
217 233 253
217 233 250
218 233 252
219 234 253
217 233 248
218 233 250
219 234 252
218 233 246
219 233 250
219 234 252
220 235 253
220 235 249
222 236 254
221 235 250
221 234 248
222 235 250
214 229 227
201 218 184
181 203 88
178 201 92
178 201 92
155 179 127
96 125 185
92 121 185
96 124 181
104 131 186
101 128 186
99 126 189
89 118 185
110 135 188
105 132 185
103 130 178
71 106 181
67 102 165
74 108 169
63 99 171
68 103 168
70 104 167
65 100 170
66 101 168
66 101 163
68 103 173
85 116 160
102 129 141
113 139 139
67 102 167
61 98 174
61 97 169
61 98 172
61 98 170
60 97 167
61 97 163
61 98 168
61 97 164
62 98 169
60 96 167
61 97 169
62 99 173
61 98 163
61 98 173
60 97 164
61 98 170
60 96 166
62 98 172
61 98 162
60 97 169
62 98 170
61 98 170
61 97 161
61 97 167
61 98 173
61 98 172
61 98 170
61 97 163
61 97 165
62 98 165
61 98 169
61 97 167
60 97 167
61 98 171
62 98 168
62 98 169
62 98 167
61 98 162
62 99 165
62 98 171
62 98 163
62 99 172
62 98 168
62 99 168
63 99 168
62 98 169
62 98 167
61 97 161
62 98 167
62 98 164
62 98 169
62 98 163
61 98 164
61 97 158
62 98 166
61 97 164
62 99 170
61 98 160
62 99 168
62 98 166
61 98 161
61 98 164
62 98 164
62 98 163
62 98 164
62 98 162
61 98 161
62 98 165
61 98 163
62 99 169
62 99 169
61 98 163
61 97 164
62 98 163
62 98 164
61 98 166
62 98 168
62 98 164
62 99 170
62 99 165
62 98 165
63 99 160
62 98 164
62 98 167
62 98 167
61 97 162
60 97 157
62 98 162
62 98 157
62 98 169
61 97 158
62 99 165
62 98 160
61 97 162
61 98 162
62 99 165
61 97 158
61 97 157
61 97 161
63 99 167
62 98 163
60 96 157
62 98 163
62 98 162
62 98 162
62 98 159
62 98 163
61 98 164
62 97 161
62 97 155
62 98 159
62 98 162
62 97 160
62 98 159
62 98 161
62 98 159
61 97 155
60 96 155
62 98 160
62 97 153
62 98 161
62 97 157
62 98 156
62 98 158
61 97 161
62 98 154
62 98 161
62 98 155
62 98 158
61 96 152
62 98 160
62 98 159
62 98 157
62 97 157
62 97 151
62 98 159
63 98 154
62 98 156
62 97 153
60 95 146
62 97 157
61 97 154
61 97 153
62 98 157
62 98 155
62 97 156
61 96 144
61 97 148
61 96 147
62 97 158
60 96 147
61 96 150
61 96 154
60 94 145
60 95 137
61 96 145
61 96 151
59 93 136
58 91 131
60 94 134
60 94 146
59 92 136
61 89 122
82 78 19
95 90 18
85 82 12
82 79 0
94 91 14
83 80 14
94 90 18
82 81 0
92 89 0
92 89 0
91 88 11
96 93 12
77 76 14
91 88 11
85 83 16
94 93 8
88 85 11
94 92 12
99 97 8
108 106 20
95 93 11
100 99 2
97 96 22
112 110 21
99 97 20
100 99 12
95 94 14
113 110 22
111 108 23
99 98 19
101 100 19
116 113 24
117 113 34
124 121 31
109 107 16
123 120 26
123 120 22
127 123 34
117 113 34
127 122 31
115 112 25
117 114 26
129 123 38
119 115 32
128 125 32
128 126 24
132 128 19
132 129 36
131 127 30
130 126 38
129 124 37
124 119 30
121 118 26
126 123 25
134 129 34
138 132 44
133 129 37
136 131 34
139 134 37
134 129 36
131 126 32
135 130 37
138 133 40
137 132 28
139 135 34
131 126 39
130 125 32
140 134 41
133 128 32
137 132 45
132 127 32
135 129 39
137 132 34
137 131 36
138 134 30
134 129 32
127 123 37
132 129 22
129 125 30
133 128 34
130 125 34
127 121 32
131 125 34
130 124 32
125 120 22
133 126 30
139 133 36
121 116 28
134 129 39
127 123 30
126 121 30
122 117 25
135 129 36
122 115 34
116 109 32
123 117 34
106 102 28
109 102 25
120 113 28
111 105 22
122 118 25
148 157 16
159 172 0
158 172 0
156 170 0
157 170 0
163 177 0
163 179 0
159 171 0
160 175 0
164 178 0
156 171 0
159 175 0
165 179 0
162 178 0
164 179 0
165 180 0
161 179 0
165 180 0
170 187 0
160 174 0
166 183 0
164 180 0
164 181 0
166 182 0
163 178 0
166 183 0
168 187 0
166 185 0
165 182 0
168 186 0
165 182 0
167 185 0
168 185 0
166 186 0
165 185 0
181 203 102
182 204 105
178 201 76
180 202 84
180 203 102
181 203 88
184 206 120
199 218 181
216 230 231
221 235 250
219 233 246
222 235 250
221 235 253
220 234 252
221 235 250
218 233 250
219 234 253
218 234 252
219 234 253
218 233 253
218 234 254
217 232 250
217 233 252
216 232 250
215 231 248
215 231 248
217 233 254
215 232 250
214 231 248
215 232 253
214 231 248
214 231 250
215 232 252
214 231 250
214 231 248
215 231 250
215 232 253
214 231 250
214 231 250
214 231 252
214 231 248
215 232 253
214 231 252
213 230 248
214 231 252
213 230 246
214 231 252
214 231 250
216 233 255
215 232 252
214 231 249
215 232 252
216 232 252
216 233 253
215 232 250
215 232 249
216 232 250
215 231 250
215 232 249
217 232 250
217 233 252
218 233 252
218 233 250
218 233 252
218 233 249
220 234 254
219 234 250
218 234 250
220 234 248
222 236 255
222 236 255
220 234 248
223 236 253
221 235 246
212 227 220
193 212 157
178 201 72
105 133 168
100 128 186
103 130 189
92 121 187
93 121 182
97 125 182
96 124 177
99 126 184
103 129 187
108 133 184
109 134 188
76 108 165
62 99 171
71 106 172
62 98 170
69 104 172
73 106 169
64 99 170
74 108 170
64 100 170
67 102 170
67 101 164
77 108 153
104 132 135
99 127 145
72 106 165
61 97 166
61 97 164
62 98 168
62 98 168
61 97 168
61 98 171
62 98 170
61 97 166
61 98 170
61 98 167
62 98 167
60 96 160
61 98 167
62 98 172
60 96 159
61 97 168
61 98 167
61 97 171
61 98 168
61 97 166
60 97 165
61 97 168
60 97 161
61 97 163
62 98 170
60 97 165
61 98 170
61 98 168
61 97 168
61 98 165
62 98 170
62 98 162
62 98 163
61 98 166
61 98 168
62 98 166
61 97 164
62 99 176
62 99 173
62 98 164
61 98 166
62 98 169
62 98 165
62 99 168
62 98 164
61 98 166
62 98 163
62 99 171
61 98 163
62 99 169
62 99 169
62 98 163
62 98 167
61 97 156
61 97 161
62 99 168
62 98 166
61 97 165
61 97 160
62 99 171
62 98 167
61 97 158
62 98 171
62 99 167
62 98 161
62 99 168
63 99 166
62 98 159
63 99 168
62 98 165
62 98 163
63 99 170
62 99 168
63 99 170
62 98 165
61 97 157
61 97 158
62 98 162
61 97 163
62 98 158
61 97 162
61 98 163
62 98 164
62 98 160
61 97 158
62 99 172
62 98 159
62 98 163
62 98 156
61 97 158
61 97 157
61 97 160
62 99 166
62 98 164
62 98 162
62 98 165
62 97 153
62 99 168
63 99 165
62 98 161
63 99 163
61 96 149
62 97 158
62 98 162
62 98 159
62 99 166
62 98 160
61 97 158
61 97 161
62 98 160
61 97 157
61 97 154
61 97 160
61 97 155
61 97 159
61 98 160
62 98 164
62 97 154
62 98 158
62 98 166
62 98 156
63 99 162
62 97 157
62 98 155
61 97 152
62 98 157
61 96 149
62 98 158
61 97 152
62 98 157
60 96 154
62 98 158
61 98 160
61 96 157
61 96 147
61 97 152
61 97 155
62 98 158
61 97 147
61 97 152
62 97 154
61 96 153
60 96 143
61 96 152
61 96 146
62 98 159
61 96 149
61 96 143
61 97 151
60 95 146
60 95 146
61 96 144
60 94 149
60 94 143
60 96 148
59 93 127
61 96 141
61 96 145
61 94 147
59 92 140
66 84 109
91 87 16
90 85 14
99 95 19
85 81 11
88 85 8
89 87 11
79 77 14
89 89 16
85 82 11
85 82 0
74 70 11
95 91 3
85 81 8
93 93 14
95 92 10
90 88 14
86 85 3
99 96 11
96 92 8
94 93 23
86 84 12
104 100 0
105 101 8
104 103 8
104 102 16
104 102 16
107 104 11
110 107 18
106 104 22
97 95 12
121 117 30
114 110 21
112 110 29
110 108 21
104 102 8
115 112 18
120 116 25
111 109 25
115 112 24
123 119 31
122 117 37
114 111 18
124 122 21
120 117 24
118 114 30
124 120 30
122 119 28
123 120 30
126 123 28
128 124 30
135 132 30
128 124 19
130 126 25
124 120 25
126 122 26
132 129 30
129 123 33
131 128 39
133 128 31
133 127 22
129 124 37
131 126 32
138 133 30
137 133 32
140 134 34
131 126 30
126 121 22
136 133 34
131 126 37
128 124 32
127 122 37
133 127 37
136 131 34
130 125 36
132 127 32
136 131 39
133 128 32
141 136 37
134 129 28
135 129 34
136 133 28
129 125 30
123 119 30
125 121 25
127 123 25
132 127 28
118 113 36
130 125 30
123 116 30
130 125 39
112 106 22
133 126 36
123 118 22
121 116 30
127 121 42
117 112 28
110 104 22
116 110 30
112 107 32
116 115 22
152 160 11
154 165 0
167 180 0
159 169 0
159 172 0
163 176 0
161 174 0
160 175 0
161 177 0
161 176 0
166 181 0
163 178 0
170 186 0
162 178 0
158 174 0
162 178 0
166 180 0
162 176 0
164 179 0
160 176 0
165 181 0
163 180 0
166 185 0
168 187 0
163 181 0
164 181 0
162 178 0
167 186 0
167 184 0
161 178 0
169 188 0
167 187 0
168 187 0
161 176 0
168 187 0
167 186 0
177 199 76
178 201 72
180 203 95
180 202 92
193 213 157
210 226 212
223 236 252
223 236 253
221 235 250
220 234 249
220 234 250
220 234 249
218 233 248
219 234 252
219 234 252
218 233 250
218 233 252
218 234 253
215 232 248
217 233 252
218 233 255
216 232 250
215 231 249
215 231 250
214 231 246
215 231 249
215 232 253
214 231 250
214 231 249
213 230 248
214 231 252
212 230 246
213 230 249
213 231 250
214 231 254
212 230 246
213 231 252
213 231 252
214 232 254
213 231 254
213 230 252
212 230 250
214 231 252
212 230 248
213 231 252
213 230 250
213 230 250
214 231 253
213 230 250
213 231 252
214 231 252
214 231 250
214 231 252
213 230 246
214 231 248
214 231 252
214 231 248
215 232 252
216 233 254
216 233 253
216 232 252
216 232 250
215 231 246
216 232 249
216 232 249
219 234 254
218 234 252
219 234 254
219 234 253
220 234 250
219 234 250
220 234 252
220 234 249
219 233 250
222 236 253
222 236 252
216 230 233
170 188 196
89 119 177
95 124 188
89 119 182
92 121 181
88 118 181
88 118 187
103 130 188
102 128 188
110 136 187
102 129 188
114 138 188
80 111 169
70 104 166
67 102 172
68 103 167
68 102 175
64 99 170
69 103 165
65 101 176
62 98 173
68 103 169
64 100 169
64 100 171
82 113 160
103 131 147
74 107 156
63 98 163
62 98 167
61 97 168
62 98 164
61 97 168
61 98 169
61 97 163
62 98 167
61 97 164
61 97 166
61 98 166
61 97 167
61 97 167
60 97 163
61 97 163
62 98 173
61 98 170
60 96 158
61 98 172
62 99 173
61 98 172
60 96 166
61 98 167
61 97 162
61 98 165
61 97 163
61 98 168
60 97 166
61 98 170
61 98 165
61 98 171
61 98 164
60 96 157
62 98 163
63 99 166
62 98 169
62 98 167
62 98 164
62 98 160
61 97 161
62 99 169
61 97 166
61 97 161
61 98 167
62 98 163
61 98 166
62 98 169
61 97 160
61 97 160
61 97 157
62 98 168
63 99 166
62 98 167
62 99 171
62 98 165
61 98 159
61 98 165
61 97 157
62 99 169
62 98 165
62 98 169
62 98 162
62 98 164
61 98 160
62 98 162
61 97 157
62 98 162
62 98 161
62 99 167
62 98 161
62 98 170
62 98 166
61 98 168
61 97 162
63 98 161
62 99 167
62 98 159
61 97 160
60 96 152
62 98 166
62 98 163
63 99 164
62 98 163
62 98 166
62 98 162
62 98 160
62 98 165
62 98 166
62 98 160
61 97 160
62 98 161
62 98 156
62 98 160
62 98 166
61 97 158
62 97 157
61 96 157
62 98 163
62 98 163
62 98 162
62 98 162
62 98 158
61 97 158
62 98 160
61 96 144
60 96 152
62 98 161
62 98 160
62 98 161
61 96 154
62 98 157
63 99 162
61 97 160
63 99 163
62 98 162
61 97 155
61 97 156
61 97 149
61 97 153
62 97 156
61 97 156
61 97 157
62 98 162
62 98 158
62 97 151
61 97 154
61 96 151
62 97 151
61 97 151
62 98 162
61 97 155
61 97 158
62 98 161
62 98 156
61 97 147
61 97 145
61 97 154
62 98 162
60 95 141
61 97 155
61 96 146
63 98 161
61 96 151
61 97 154
61 97 147
62 97 150
62 97 153
61 96 151
61 96 152
60 96 142
61 96 147
60 95 144
60 95 144
61 95 143
61 95 142
59 92 133
59 93 141
58 91 132
58 91 129
60 83 114
83 77 11
96 92 11
78 74 0
98 93 16
86 84 14
88 84 11
87 84 8
78 77 0
87 84 8
100 95 14
87 85 3
85 83 11
93 90 3
93 91 8
91 89 8
97 93 8
86 85 12
82 81 3
92 91 11
98 94 3
107 102 14
93 93 10
97 95 23
94 92 14
99 97 14
94 91 0
104 101 19
100 97 16
115 112 22
103 99 23
104 100 19
111 109 18
121 117 25
108 104 16
117 114 24
102 100 18
118 114 25
113 111 28
121 117 19
114 111 24
111 108 24
112 109 22
116 112 29
123 119 30
123 119 26
136 132 36
121 116 25
131 126 36
123 119 24
123 120 31
127 124 26
130 126 32
121 117 19
125 121 22
130 125 28
130 126 29
130 124 30
136 131 30
129 125 32
138 132 42
127 122 25
124 120 25
134 129 32
135 130 30
133 128 30
132 129 30
125 120 28
128 123 30
122 118 22
124 119 32
132 127 28
128 123 34
139 133 36
130 124 22
131 125 39
134 129 28
126 121 22
126 121 36
129 123 25
128 123 36
124 118 25
128 125 25
122 117 36
127 122 32
124 119 30
134 130 25
121 115 30
130 123 32
129 124 25
128 122 25
129 123 34
113 108 22
127 122 25
121 116 22
117 112 28
113 107 34
105 101 28
108 102 25
124 123 19
164 177 11
147 156 0
156 167 0
155 165 0
160 174 0
157 170 0
160 175 0
160 173 0
156 169 0
162 179 0
159 173 0
166 181 0
165 181 0
161 175 0
161 176 0
167 183 0
162 178 0
165 183 0
166 180 0
161 175 0
170 186 0
162 179 0
162 178 0
166 182 0
166 182 0
169 189 0
166 183 0
161 178 0
168 185 0
168 187 0
167 183 0
163 181 0
167 184 0
170 186 0
164 181 0
166 185 0
166 185 0
180 202 88
184 206 122
203 221 198
217 232 238
222 236 252
221 235 250
219 234 249
220 234 249
220 235 253
217 233 246
218 233 249
220 235 255
215 231 244
214 231 246
216 232 249
216 232 249
217 233 252
215 231 248
217 233 254
216 232 252
212 229 244
215 232 254
212 230 246
214 231 249
214 231 253
214 231 253
214 231 254
212 230 248
214 231 254
214 231 255
213 231 254
211 230 250
212 230 250
212 230 253
210 229 246
212 230 252
212 230 252
212 230 253
213 231 254
211 229 249
212 230 253
210 229 249
212 230 250
211 230 250
212 230 249
213 231 254
213 231 253
212 230 253
211 229 249
211 229 246
211 229 246
212 230 250
212 230 250
213 230 250
213 230 250
213 231 250
212 229 249
214 231 250
213 230 248
214 231 248
215 232 253
215 231 250
214 231 248
215 231 252
215 232 250
216 232 249
218 233 253
217 233 253
217 233 250
218 234 255
218 233 249
219 234 250
220 234 252
220 235 252
219 233 249
220 234 249
222 236 253
218 232 248
124 147 197
86 117 186
75 108 178
84 115 185
101 128 188
102 129 191
78 111 179
90 120 184
94 122 178
98 125 179
107 133 185
109 134 189
93 121 179
70 104 169
67 102 170
70 104 164
69 103 172
62 98 171
70 103 168
67 102 170
70 104 167
67 101 166
61 98 171
66 101 166
66 101 162
83 113 145
95 123 145
73 106 164
61 97 163
61 98 167
60 96 165
61 97 160
62 98 164
60 96 160
62 98 170
60 97 167
61 98 168
61 97 162
62 98 169
61 97 168
61 97 163
62 98 174
60 96 162
60 96 163
61 98 165
61 97 166
61 97 169
61 97 170
61 97 168
61 98 172
60 97 164
61 98 167
62 98 174
61 98 170
62 99 169
62 98 169
62 98 168
62 98 171
61 98 166
61 97 164
61 98 169
61 98 168
62 99 170
61 98 165
61 97 161
62 98 169
62 97 159
62 98 167
63 99 168
62 99 167
62 98 165
62 99 174
62 98 164
62 98 165
62 98 163
62 98 164
61 97 158
61 97 156
62 98 168
61 98 163
62 98 170
61 97 158
61 98 160
62 98 166
62 99 168
62 99 170
62 98 169
62 99 169
63 99 167
62 99 170
62 99 170
63 99 166
62 98 164
61 97 160
61 98 164
62 98 160
62 98 161
62 98 165
63 99 165
63 99 166
61 97 163
61 97 156
62 98 164
62 98 160
62 98 161
61 98 162
62 98 159
62 98 163
61 96 153
61 97 159
62 98 161
62 98 160
62 98 160
62 98 159
61 98 162
62 98 160
62 98 161
62 98 157
62 98 159
61 97 150
63 99 166
61 97 152
62 98 164
62 98 160
61 97 157
61 97 158
62 98 159
62 99 164
62 98 157
61 97 156
63 98 160
61 97 159
62 98 157
61 96 157
62 98 158
60 96 154
62 98 156
61 97 152
63 99 166
62 98 156
61 97 158
61 96 150
63 99 167
62 98 153
62 98 156
62 98 159
61 97 153
62 98 159
62 98 160
62 97 155
63 99 163
61 97 158
61 97 154
63 99 159
61 97 152
63 98 155
61 97 152
62 98 155
62 98 159
60 96 151
62 98 160
61 97 151
61 97 149
62 97 151
60 95 140
60 96 151
63 98 162
62 98 158
60 95 139
62 97 155
61 96 145
61 96 151
60 95 138
62 97 150
61 95 146
59 94 139
60 94 145
61 96 147
60 95 143
61 96 148
59 93 137
59 93 139
60 93 143
60 94 140
57 90 128
70 82 70
76 74 11
82 78 11
95 89 16
104 98 11
98 93 0
90 87 21
87 82 0
92 88 0
77 73 14
90 86 0
89 86 0
92 89 12
86 84 3
98 94 0
76 75 8
91 90 0
92 88 0
96 94 14
97 93 16
94 91 8
98 95 0
94 91 5
92 89 16
90 89 8
103 101 11
98 96 14
105 101 20
99 95 18
99 97 11
107 104 16
110 106 16
107 104 14
115 111 19
113 109 14
113 110 19
111 109 30
114 110 21
121 117 16
109 107 16
112 109 19
125 121 22
123 119 30
114 112 14
114 110 30
126 122 19
124 120 32
125 121 19
126 119 32
109 106 21
125 120 28
117 114 19
121 119 16
127 121 21
134 129 24
128 122 30
129 123 34
118 114 19
134 128 32
131 128 28
123 120 25
130 124 36
125 120 30
130 126 30
127 121 30
118 114 16
127 122 30
124 121 25
127 122 34
124 121 19
123 120 28
123 118 22
115 112 19
128 124 25
129 124 22
134 129 36
119 114 19
122 118 22
131 126 19
127 122 30
117 112 16
131 127 28
132 126 30
138 133 36
130 124 19
117 112 28
118 113 25
128 122 30
126 120 36
128 123 32
125 121 34
137 129 39
119 114 22
112 108 0
126 120 34
119 113 30
102 97 11
112 107 25
140 147 22
157 169 0
151 163 0
158 168 0
157 167 0
155 166 0
157 170 0
159 172 0
157 171 0
161 176 0
160 173 0
163 174 0
160 173 0
164 180 0
161 178 0
162 176 0
167 184 0
166 183 0
165 179 0
167 184 0
164 179 0
164 182 0
165 180 0
163 178 0
165 181 0
159 175 0
167 181 0
167 185 0
164 181 0
166 183 0
166 182 0
161 177 0
166 184 0
165 183 0
164 183 0
166 184 0
168 185 0
162 179 0
164 183 0
205 222 199
222 235 250
223 236 254
220 234 249
220 235 252
220 234 249
219 234 250
219 234 252
216 231 244
216 232 245
216 232 245
218 233 253
216 232 250
216 232 252
216 232 253
215 231 249
216 232 254
214 231 252
214 231 250
214 231 252
214 231 252
212 230 249
212 230 249
213 231 254
212 230 252
212 230 249
212 230 252
211 229 249
211 230 250
210 228 245
211 229 250
212 230 255
211 230 254
212 230 254
211 230 255
212 230 255
212 231 255
212 230 255
211 230 255
211 230 255
212 230 254
212 230 255
212 230 255
212 230 255
212 230 255
212 230 255
212 230 255
212 231 254
212 230 255
212 230 253
212 230 255
213 231 254
212 230 252
211 230 250
213 231 255
212 230 253
213 231 254
212 230 252
212 230 252
212 230 250
214 231 253
213 231 252
213 230 246
215 232 254
214 231 249
215 232 252
214 231 245
215 232 250
217 233 252
217 233 253
216 232 248
219 234 254
218 233 252
218 233 250
216 231 241
219 234 255
219 233 253
220 234 254
205 220 245
85 115 185
84 115 185
80 111 181
77 110 181
82 113 181
80 112 182
97 124 190
89 118 183
66 102 179
97 124 187
93 122 181
98 125 186
91 120 182
64 100 173
66 102 175
66 102 178
68 103 167
66 101 170
63 99 165
67 102 167
68 103 171
71 105 164
65 99 164
65 100 163
66 101 167
63 99 169
86 117 155
77 109 156
65 100 159
61 96 163
61 98 168
60 96 162
62 98 167
61 97 162
62 98 171
62 98 167
61 98 169
62 99 171
61 97 164
60 96 166
61 98 169
62 98 169
61 98 174
61 97 162
61 98 170
60 97 164
61 98 164
61 98 171
61 98 169
61 97 165
60 97 165
61 98 171
62 99 173
61 97 167
61 97 162
62 98 166
61 98 167
62 98 169
62 98 170
61 97 161
60 96 159
61 98 162
62 98 164
62 98 165
62 98 165
61 97 168
61 98 167
62 98 168
62 98 159
61 97 158
62 99 170
62 98 167
62 98 167
62 99 170
62 98 165
62 98 165
62 99 172
61 97 159
61 98 169
62 98 164
63 99 164
61 98 160
62 98 168
63 99 171
62 98 161
62 98 164
62 98 163
62 98 166
63 99 167
62 98 164
61 97 162
62 98 161
62 97 160
62 98 161
62 98 164
62 98 161
62 97 158
62 98 164
62 98 162
62 98 161
62 98 166
62 98 160
62 98 167
62 98 162
62 98 156
61 97 156
61 97 155
62 98 164
62 98 159
61 97 157
62 98 164
62 98 159
62 98 158
63 99 162
61 97 154
62 98 166
62 98 163
61 96 148
62 97 160
62 98 161
62 98 157
62 98 164
62 99 164
61 97 154
62 98 154
61 96 154
61 97 157
62 97 156
62 98 157
62 98 157
62 98 160
61 97 156
61 97 155
61 97 155
61 96 141
63 99 164
61 97 155
62 98 160
62 98 157
61 97 153
61 97 149
62 98 160
62 98 156
62 98 159
61 97 159
61 97 151
62 98 154
61 96 142
61 96 155
61 97 155
61 97 153
62 98 157
61 97 152
61 97 151
62 97 156
61 96 156
60 96 148
62 97 153
62 97 156
61 97 151
61 96 149
61 96 148
62 98 156
61 96 148
61 96 150
59 94 133
61 97 146
61 97 148
60 95 145
62 97 147
59 94 142
61 96 149
61 97 153
61 96 149
62 98 159
61 96 149
60 94 139
61 96 148
61 95 153
61 96 145
61 94 144
60 94 141
59 92 134
57 89 117
107 115 54
103 102 11
76 72 11
88 83 16
78 75 0
89 85 0
89 85 19
82 76 0
84 82 11
92 86 0
94 88 0
94 89 0
100 96 11
87 82 8
96 94 8
91 85 0
95 91 0
89 85 0
101 99 11
99 96 11
89 86 0
94 92 18
89 86 14
98 95 0
103 99 16
90 89 11
101 96 8
101 99 14
103 100 18
110 106 8
103 99 18
108 105 16
102 100 19
113 109 16
112 109 19
113 110 19
119 115 18
110 109 27
110 107 0
116 111 16
116 113 21
107 104 19
114 109 21
125 121 26
126 121 19
117 112 14
122 118 30
117 113 19
133 129 30
133 128 32
119 116 16
121 117 28
123 118 28
123 119 22
132 127 37
127 123 22
117 114 31
123 118 31
126 121 28
130 125 31
125 121 34
133 128 30
139 134 32
124 120 28
123 118 0
126 121 22
129 124 30
124 120 30
124 119 32
136 132 30
134 130 22
125 120 28
139 133 32
120 115 28
128 124 30
128 122 19
128 124 25
123 119 25
121 114 32
129 124 34
126 121 28
122 117 19
125 120 28
121 116 30
138 132 37
125 120 30
122 116 25
114 109 25
115 110 16
117 113 16
117 111 36
119 113 22
118 113 22
110 105 16
114 108 25
110 103 32
116 112 19
153 162 16
157 170 0
155 167 0
156 169 0
158 167 0
159 172 0
164 178 0
157 169 0
162 174 0
162 177 0
155 166 0
166 183 0
162 175 0
158 170 0
163 178 0
162 177 0
161 175 0
167 181 0
166 184 0
162 177 0
158 173 0
163 178 0
162 178 0
163 179 0
166 182 0
164 179 0
161 179 0
166 183 0
163 179 0
163 179 0
165 182 0
168 187 0
164 180 0
167 187 0
161 179 0
165 180 0
166 185 0
169 187 0
168 186 0
167 186 0
220 234 248
219 234 248
221 236 254
220 235 252
219 234 250
217 233 248
219 234 252
217 232 249
216 232 248
217 233 254
215 232 249
215 231 248
216 232 253
216 232 254
214 231 250
214 231 250
213 230 250
214 231 253
213 230 252
212 230 250
211 229 250
210 228 245
212 230 253
211 230 253
212 231 254
211 229 252
212 230 254
211 230 254
212 230 255
212 230 255
211 230 255
211 230 255
211 230 255
211 230 255
210 229 255
211 230 255
211 230 255
210 229 253
211 230 255
210 229 254
210 229 255
211 230 255
210 229 254
210 229 255
211 230 255
211 230 255
210 229 254
211 230 255
211 230 255
211 230 255
211 230 255
211 230 255
212 230 253
212 231 255
212 230 255
212 230 255
212 230 253
213 231 255
212 230 252
212 230 253
213 231 253
213 230 250
213 230 252
212 229 245
212 229 245
213 230 248
214 231 250
213 230 246
214 231 250
215 232 252
215 232 250
216 232 250
217 233 252
218 234 254
215 231 250
216 231 253
215 230 252
220 235 254
218 233 253
164 183 222
99 127 193
84 115 186
74 107 178
79 110 181
83 115 184
84 115 180
83 114 185
82 113 185
85 115 181
77 109 176
98 125 188
85 115 183
89 118 182
65 101 172
62 99 176
69 104 174
64 100 169
63 99 171
72 106 173
73 106 161
70 104 172
66 102 172
67 102 167
71 105 165
66 101 166
68 102 167
70 104 168
80 111 148
65 100 160
61 98 169
62 98 164
60 97 166
61 97 167
61 97 162
62 98 167
62 99 176
61 97 166
61 97 157
60 96 165
61 97 165
61 97 164
61 97 165
61 97 160
62 98 167
61 97 167
61 97 160
61 97 163
61 97 163
61 97 165
59 95 158
61 97 168
62 98 167
61 98 169
60 96 160
61 97 162
61 97 160
61 98 164
61 97 163
61 98 171
62 98 165
62 99 167
61 98 163
62 98 165
62 98 161
61 97 165
61 98 168
62 98 169
62 98 164
62 98 164
61 98 167
61 97 156
61 97 166
62 98 164
62 98 167
61 97 160
61 98 165
62 98 167
61 97 163
60 96 152
62 98 162
62 98 166
61 97 160
62 98 161
61 97 157
63 99 166
62 98 162
62 98 168
62 98 159
61 97 164
62 98 165
62 98 164
62 98 166
62 98 161
62 98 164
62 98 156
61 97 163
63 99 167
63 99 164
62 99 167
62 98 160
62 98 160
62 98 160
61 97 153
62 98 160
62 97 158
61 97 157
62 98 165
61 97 151
62 98 167
61 97 158
62 99 169
62 98 156
61 97 157
61 97 160
61 98 162
62 98 162
62 99 167
61 97 160
62 98 159
62 99 166
62 98 161
62 98 161
62 97 155
62 98 164
62 98 164
61 97 159
61 97 157
63 99 167
62 98 161
61 97 154
61 97 160
61 97 157
62 98 156
62 97 151
61 98 160
62 98 165
61 97 156
62 98 162
62 97 151
62 98 161
61 97 155
62 97 155
61 97 154
61 97 156
62 97 152
60 96 148
62 98 158
62 98 159
61 97 151
62 98 155
63 99 163
61 97 153
61 97 151
62 98 156
62 98 156
62 97 153
61 96 152
61 97 152
62 97 151
61 96 149
61 96 151
61 97 154
62 97 147
60 96 149
61 96 144
61 96 148
61 97 149
61 95 142
60 95 142
61 96 150
62 97 153
62 97 150
60 95 145
60 95 149
61 96 147
61 96 143
59 94 134
60 94 139
60 95 138
60 95 139
58 92 132
57 89 122
59 93 131
111 117 44
117 119 0
121 121 11
87 84 0
84 81 22
74 71 0
90 86 0
84 80 0
74 71 8
89 85 0
95 92 11
92 89 8
80 78 8
82 81 11
95 92 8
79 77 1
86 82 3
99 96 11
92 89 8
90 87 0
97 95 8
94 92 0
89 87 14
104 101 14
90 89 3
101 98 8
98 96 0
96 94 14
108 104 8
96 94 11
113 109 16
104 102 0
107 104 11
113 107 16
111 107 11
110 106 29
123 117 22
113 109 19
106 103 0
117 114 21
119 115 21
110 107 14
115 111 11
111 107 11
114 109 22
114 111 25
128 123 14
119 114 24
118 113 21
117 114 16
127 123 22
123 119 25
121 118 19
125 121 28
123 118 28
134 130 19
130 126 25
122 117 28
121 117 22
128 124 28
120 115 22
127 121 30
119 115 25
125 120 22
128 123 22
127 121 41
119 115 25
126 122 32
129 124 22
122 118 19
124 120 22
129 125 25
126 122 25
127 123 30
129 123 32
122 117 19
119 116 19
124 119 25
116 110 32
124 117 30
122 117 22
125 118 25
121 116 22
131 126 22
119 114 28
115 111 22
122 116 28
116 110 25
124 116 25
119 112 16
126 119 32
119 112 28
117 113 28
117 112 30
104 98 22
128 130 0
146 157 0
154 165 0
151 161 0
158 170 0
160 171 0
159 172 0
159 171 0
161 173 0
165 178 0
161 174 0
160 173 0
159 170 0
159 171 0
158 171 0
162 177 0
154 167 0
161 172 0
165 181 0
160 174 0
164 180 0
161 178 0
162 178 0
162 175 0
165 182 0
162 179 0
167 183 0
157 173 0
165 183 0
165 180 0
167 186 0
162 179 0
163 178 0
167 184 0
166 183 0
163 181 0
166 185 0
167 185 0
168 187 0
165 184 0
167 184 0
165 183 0
221 235 253
220 235 252
219 234 249
219 234 253
217 233 249
218 234 254
217 233 252
216 232 249
215 231 248
216 232 252
214 231 249
213 230 248
214 231 252
213 230 249
213 231 252
213 231 252
213 230 252
212 230 252
212 230 253
212 230 252
212 230 254
212 231 255
212 230 255
212 230 255
211 230 254
211 230 255
211 230 255
211 230 255
211 230 255
210 229 255
210 230 255
210 229 255
209 229 254
209 229 255
209 229 254
209 229 255
208 228 255
209 229 255
209 229 255
210 229 255
209 229 255
209 229 255
208 228 253
210 229 255
210 229 255
210 229 255
209 229 255
210 229 255
209 229 254
209 229 255
210 230 255
210 229 255
210 229 255
211 230 255
210 229 255
210 229 254
212 230 255
210 229 254
212 230 255
212 230 254
212 231 255
212 230 253
212 230 252
212 230 252
211 229 249
212 230 249
213 230 248
213 230 249
214 231 252
214 231 252
215 232 253
213 229 245
215 231 249
215 232 249
215 231 254
214 230 252
215 230 253
217 232 254
219 234 254
211 226 249
122 146 203
97 126 192
79 112 185
88 118 186
84 115 187
90 119 188
87 117 184
79 111 180
90 119 185
88 117 181
95 123 189
95 123 187
105 131 188
77 109 178
62 99 170
63 99 175
62 98 172
63 99 170
67 102 166
61 98 171
67 102 172
66 101 163
64 100 170
63 99 167
69 103 169
65 101 167
69 104 168
63 99 166
80 111 157
73 106 165
61 97 166
60 97 163
61 97 166
62 98 167
62 98 173
61 97 166
61 97 169
61 97 162
61 97 159
60 96 164
61 97 166
61 98 161
61 97 166
60 96 165
60 96 161
62 98 166
60 96 161
60 96 161
61 98 167
60 96 162
61 97 163
61 97 159
60 96 155
62 98 166
61 97 161
61 97 161
61 97 160
61 98 167
62 98 169
61 97 164
61 97 162
61 98 168
61 97 163
62 98 162
62 98 166
62 98 167
62 99 169
61 97 159
61 98 161
62 98 163
61 97 157
61 97 160
62 98 163
62 98 162
62 98 164
63 99 170
62 98 163
62 98 159
62 98 158
62 98 164
61 97 158
62 98 167
63 99 169
62 98 163
61 98 162
63 99 166
62 98 165
62 97 159
62 98 165
62 99 165
61 97 162
62 99 162
62 98 163
62 98 164
62 98 162
62 98 161
61 97 158
62 98 160
62 97 152
62 98 162
61 97 160
61 97 160
62 98 165
62 99 164
62 98 162
61 97 154
61 98 160
62 99 167
62 99 164
62 98 162
61 97 157
62 98 161
61 98 162
61 97 156
62 98 157
62 98 158
63 99 164
62 98 161
61 97 157
61 97 149
61 96 151
63 98 159
62 98 159
62 97 155
62 98 165
62 98 161
62 98 161
62 97 158
61 96 154
62 98 160
62 98 161
61 96 153
62 98 159
61 97 157
62 98 160
61 97 155
62 98 160
63 99 161
62 98 155
63 99 160
61 97 152
61 97 161
61 97 155
62 98 160
63 99 162
62 98 158
61 96 156
62 97 151
60 96 150
62 98 163
62 98 159
61 96 147
62 98 161
61 97 153
61 97 154
61 97 151
62 98 156
62 97 161
61 97 153
61 96 151
61 97 152
61 97 150
61 97 150
62 97 150
61 96 151
61 96 150
61 96 149
61 96 142
62 97 153
61 96 144
61 96 141
61 96 147
60 94 137
60 95 138
61 95 145
61 96 145
60 95 138
60 94 133
60 94 136
59 93 130
59 92 133
60 93 136
65 93 122
115 120 0
110 111 0
117 118 0
120 122 0
90 87 0
81 75 0
93 88 0
68 66 0
95 91 16
83 78 12
84 80 18
87 84 16
97 93 8
84 81 11
92 86 0
91 87 0
84 81 0
93 88 8
80 78 0
97 93 3
97 92 11
89 87 3
92 90 0
97 95 16
90 90 8
94 92 14
102 100 8
94 92 0
112 108 3
105 101 11
106 103 12
103 100 3
102 98 21
99 99 8
103 99 14
117 113 26
114 110 16
108 105 0
107 104 14
118 114 25
117 112 11
120 116 26
120 116 22
113 109 0
123 120 25
113 110 19
123 118 28
106 104 21
118 114 11
117 114 16
119 115 22
113 108 19
116 113 19
118 115 19
126 122 19
130 126 34
126 122 19
124 119 22
120 116 11
118 115 19
126 123 30
125 121 25
119 114 0
114 109 16
122 118 16
127 123 19
128 123 25
129 124 16
122 117 28
130 124 25
127 121 30
117 112 16
123 118 22
123 118 30
130 124 25
122 119 25
123 118 25
131 125 25
123 117 25
117 112 25
114 109 22
122 116 30
126 120 25
120 116 22
129 121 32
119 113 32
128 122 16
114 110 11
113 107 28
124 118 25
115 110 22
114 106 32
112 107 25
112 109 16
144 153 11
157 166 0
156 165 0
152 161 0
154 165 0
156 169 0
155 165 0
157 171 0
160 173 0
163 178 0
160 169 0
158 170 0
163 176 0
160 172 0
164 178 0
159 173 0
162 176 0
161 174 0
163 177 0
165 183 0
162 179 0
167 183 0
159 175 0
167 184 0
164 181 0
164 179 0
166 182 0
162 176 0
165 181 0
168 184 0
163 180 0
164 180 0
164 181 0
166 183 0
165 182 0
162 180 0
166 183 0
165 183 0
165 182 0
165 184 0
167 185 0
168 186 0
168 184 0
220 234 253
217 233 248
217 232 248
215 231 248
216 232 249
217 233 253
215 231 248
215 232 252
215 232 252
214 232 253
214 231 252
214 231 255
212 229 248
213 231 253
212 230 253
212 230 253
212 230 254
212 230 254
212 230 255
211 230 255
211 230 255
211 230 255
211 230 255
210 229 253
210 229 255
210 229 255
210 229 255
209 229 254
209 229 255
209 229 255
208 228 255
208 228 255
208 228 254
208 228 252
206 226 244
204 223 237
206 225 236
205 224 231
205 225 233
205 224 227
206 225 241
202 222 218
207 226 236
202 221 226
205 224 228
201 221 217
203 222 223
204 223 223
205 224 226
205 224 238
205 224 233
207 226 242
205 225 242
209 228 252
209 229 254
210 229 255
211 230 255
210 230 255
210 229 255
211 230 255
212 230 255
211 230 254
211 230 255
212 230 255
213 231 255
213 231 255
212 230 252
212 230 252
213 230 252
213 231 253
214 231 252
214 231 252
214 231 249
212 229 250
213 229 253
214 230 252
215 231 254
213 229 252
212 227 251
217 232 254
204 219 245
107 133 196
87 117 188
77 109 181
75 108 184
85 116 184
82 113 185
77 109 182
92 121 185
90 119 184
82 113 183
95 123 188
99 127 188
82 113 182
83 113 179
62 98 171
62 99 176
61 98 172
61 98 175
63 99 175
68 102 170
62 98 168
66 101 170
69 104 164
67 102 171
64 99 163
63 98 160
64 100 166
68 102 167
67 102 164
83 114 156
66 100 160
61 97 163
60 96 158
62 98 170
60 97 163
61 97 168
61 97 168
62 98 169
61 97 165
61 98 168
62 99 169
60 97 162
61 97 168
61 98 164
61 97 156
61 97 162
60 97 169
61 97 165
61 98 170
60 96 162
60 97 166
61 97 162
60 96 160
61 98 166
61 97 167
61 98 164
61 97 162
61 98 165
62 98 166
62 99 167
62 98 168
61 97 160
63 99 166
62 99 166
61 98 163
61 98 160
62 98 164
61 97 161
61 97 161
62 98 167
61 97 158
62 98 164
61 98 164
61 98 164
62 98 165
62 98 165
62 98 168
62 97 158
61 97 162
62 98 164
61 97 164
63 99 167
62 98 163
62 98 167
62 97 156
62 98 158
62 99 166
62 98 161
62 98 164
62 98 164
61 98 164
62 98 163
62 98 162
61 97 160
63 99 163
61 97 157
62 98 161
62 98 162
62 98 164
62 98 163
62 98 162
62 98 162
61 97 158
60 96 149
62 98 164
62 98 159
62 97 155
63 99 163
61 97 156
62 99 162
62 98 162
61 97 160
62 98 162
61 97 156
62 98 159
62 98 162
62 98 161
63 99 162
61 98 163
62 98 162
61 96 155
62 97 157
62 98 165
61 97 158
62 98 155
61 97 155
61 96 154
62 98 153
61 97 154
61 97 155
63 99 161
62 98 159
61 97 156
62 98 156
61 97 149
60 96 145
61 97 156
62 97 151
61 97 152
61 97 159
62 98 155
61 96 152
61 97 153
61 96 149
62 98 161
62 98 162
61 96 153
62 97 158
62 98 155
62 98 156
60 96 148
60 96 150
62 98 154
60 95 142
62 98 157
60 95 137
62 98 151
61 96 147
62 97 157
62 98 156
60 95 148
61 97 153
61 97 155
61 96 151
61 96 148
61 97 148
61 97 156
61 97 155
61 97 150
59 93 143
62 97 155
60 95 138
61 95 147
60 95 141
59 94 140
59 93 141
59 94 147
62 96 144
60 94 139
59 92 133
57 90 124
68 91 109
119 124 0
120 125 0
118 122 0
116 118 0
116 122 0
102 100 0
90 84 19
88 83 16
85 80 11
84 78 11
84 80 11
90 86 19
99 94 11
91 88 8
93 91 12
92 86 0
90 85 0
103 98 11
89 85 0
83 80 8
88 84 0
100 97 8
107 103 8
97 94 8
102 98 8
104 102 8
102 100 0
98 95 11
102 99 1
102 98 0
106 102 11
112 109 0
98 94 11
93 90 0
109 107 19
114 111 11
114 110 0
105 101 0
101 99 0
109 104 0
113 109 0
120 116 0
117 113 11
119 114 16
115 112 0
116 112 11
118 113 16
121 117 19
126 122 18
119 115 19
117 114 16
116 111 24
125 120 18
117 113 11
116 111 16
126 122 19
131 125 11
122 118 11
116 112 11
124 119 30
131 125 28
118 115 11
124 120 22
125 119 25
127 122 32
120 116 29
119 114 16
133 128 32
126 121 28
126 121 22
130 124 28
126 122 25
120 115 22
122 118 30
120 115 22
120 116 22
118 114 11
114 109 22
130 124 34
122 116 32
117 112 19
127 121 22
117 111 22
122 117 19
115 109 22
125 119 22
119 112 32
115 108 19
113 107 30
113 108 22
120 114 25
109 105 16
130 132 11
146 152 0
156 167 0
156 166 0
162 173 0
158 168 0
157 170 0
158 170 0
154 166 0
154 167 0
158 170 0
158 169 0
162 174 0
161 173 0
151 163 0
161 174 0
164 179 0
156 171 0
161 176 0
164 178 0
161 174 0
161 178 0
160 176 0
162 176 0
159 174 0
160 174 0
157 172 0
164 181 0
165 182 0
163 177 0
164 182 0
163 180 0
164 182 0
166 184 0
164 182 0
161 177 0
170 188 0
167 184 0
164 181 0
166 184 0
165 183 0
164 181 0
164 181 0
170 188 0
162 181 0
216 231 245
217 233 250
216 232 250
216 232 252
215 231 248
216 233 254
214 231 252
214 231 249
212 230 249
212 230 249
212 230 250
211 229 249
212 230 250
211 230 253
211 229 254
212 231 255
212 230 254
211 230 255
211 230 255
210 229 255
210 229 255
210 229 255
209 229 255
209 229 255
209 229 255
209 229 255
208 228 255
207 227 248
205 224 236
206 225 231
204 223 227
201 220 215
202 220 212
200 219 206
199 218 191
198 218 189
197 217 189
199 218 199
197 216 189
198 217 199
200 218 198
197 216 193
195 214 189
195 214 193
199 218 196
202 220 207
199 218 204
195 214 181
199 217 203
199 217 199
200 219 198
195 215 186
196 215 196
196 215 189
195 214 186
199 218 209
195 215 191
200 219 212
204 223 228
207 226 242
211 229 253
210 229 254
210 230 255
211 230 255
211 229 254
212 230 255
213 231 255
212 230 255
213 231 255
213 230 253
212 230 250
212 230 249
214 231 253
214 231 250
211 228 252
212 229 253
214 230 254
213 229 252
214 230 251
213 229 252
215 231 252
191 208 238
101 129 194
88 118 188
88 118 186
93 123 189
71 105 181
84 115 187
84 115 186
82 113 182
94 123 190
82 113 178
82 113 183
91 120 182
95 123 187
82 113 177
64 100 169
62 99 175
62 99 172
62 98 173
62 98 167
61 97 169
63 99 168
70 104 168
65 100 157
69 103 164
67 102 165
69 104 170
61 97 166
71 105 172
65 100 166
80 111 150
70 103 159
61 97 167
61 97 167
61 98 167
61 98 163
61 98 167
62 98 163
61 97 166
61 97 163
61 97 168
61 97 165
62 98 163
62 98 167
61 97 160
61 97 167
60 97 162
61 98 166
60 97 162
61 97 167
61 98 167
60 96 163
60 97 164
62 99 171
61 97 163
61 97 163
61 97 161
62 99 172
62 99 174
61 98 163
61 97 164
61 98 169
61 97 161
61 97 162
61 97 160
61 97 163
62 98 166
62 98 162
62 98 163
62 98 163
60 96 157
61 98 163
62 98 162
62 98 169
61 97 154
63 99 168
63 99 170
62 98 162
62 98 165
62 98 159
62 98 163
61 98 162
61 97 160
61 98 165
62 98 164
61 96 156
62 98 165
62 98 155
61 96 153
62 98 160
61 97 156
62 98 155
61 97 157
62 98 160
62 98 157
61 97 158
63 99 163
62 98 164
63 99 163
62 98 164
62 98 158
61 97 157
62 98 157
61 98 159
61 97 150
61 97 156
61 97 156
61 97 153
61 97 155
62 98 158
61 97 160
61 97 154
62 98 159
61 97 164
62 98 160
62 98 158
62 98 159
61 97 154
62 98 158
63 99 165
62 98 160
62 98 156
63 99 164
61 97 154
62 98 157
62 97 153
62 98 159
62 98 165
60 96 147
62 98 156
62 98 156
62 98 160
61 96 148
61 97 152
61 97 153
60 96 151
61 97 152
62 98 155
61 96 152
62 97 155
61 97 153
61 97 153
62 98 159
61 97 153
61 96 148
62 98 154
61 97 154
61 97 154
61 97 152
61 96 148
60 96 147
61 96 149
61 97 154
61 96 150
61 96 144
61 96 139
61 96 154
62 98 153
61 96 149
61 96 152
61 95 146
61 96 150
61 96 149
61 95 139
61 96 149
62 97 155
59 94 132
61 96 149
61 96 148
61 96 143
60 95 140
61 96 143
61 96 144
59 93 135
60 95 143
60 94 140
60 94 135
58 91 133
59 92 118
60 94 134
58 91 131
95 113 94
119 120 0
123 126 0
119 124 0
115 119 0
107 111 0
126 129 0
108 111 0
90 87 11
80 74 11
86 80 0
89 81 16
80 75 0
78 75 11
78 76 14
98 93 11
96 91 0
87 82 11
90 87 11
90 85 11
86 82 0
88 82 0
89 85 8
95 90 3
87 83 0
91 88 0
100 97 0
104 99 0
96 94 0
99 96 0
93 89 8
100 96 8
103 99 0
99 97 0
97 93 11
103 99 8
105 101 8
106 102 8
99 94 16
109 103 3
108 104 18
117 113 0
104 101 8
112 108 0
113 108 11
114 109 0
119 116 19
117 112 0
110 106 19
114 111 11
121 116 19
123 118 22
108 104 0
119 115 11
114 111 16
119 114 16
118 115 22
117 113 16
128 123 0
103 100 11
122 118 11
115 111 11
116 113 0
118 113 11
124 120 22
121 117 19
113 109 22
111 106 11
114 107 16
118 113 22
123 117 25
121 115 25
117 112 22
119 114 30
124 119 11
120 115 22
118 112 25
126 121 28
119 114 32
121 116 16
122 117 28
124 117 19
121 116 16
121 114 28
115 109 22
109 103 11
115 110 30
108 103 19
111 107 22
118 112 25
103 97 16
122 121 0
147 152 0
152 160 0
148 154 0
153 160 0
153 162 0
153 163 0
155 165 0
158 170 0
153 162 0
159 172 0
155 168 0
155 168 0
155 167 0
157 168 0
154 167 0
160 173 0
161 173 0
158 171 0
159 170 0
160 174 0
157 169 0
162 176 0
159 175 0
164 178 0
161 176 0
158 172 0
158 173 0
156 170 0
165 181 0
163 180 0
165 180 0
166 184 0
168 185 0
165 182 0
164 181 0
161 178 0
164 181 0
164 181 0
164 181 0
167 184 0
167 187 0
164 183 0
165 185 0
167 187 0
170 188 0
166 185 0
217 232 250
215 232 248
215 232 250
215 231 249
213 230 246
214 231 252
214 231 253
212 230 252
212 230 249
212 230 250
211 230 252
212 230 255
211 230 255
211 230 255
211 230 255
210 229 255
210 229 255
210 229 255
209 229 255
209 228 254
209 228 255
208 227 254
205 225 241
206 225 234
205 224 223
202 221 217
200 219 199
196 216 191
193 213 186
202 220 204
202 221 204
199 218 204
201 220 199
200 218 194
205 222 214
204 221 212
201 219 199
204 222 212
205 222 212
202 219 203
203 220 209
203 219 209
204 221 212
203 220 203
199 216 198
205 222 209
202 220 199
203 221 204
201 218 207
206 222 217
207 224 215
201 218 207
204 221 214
200 218 198
202 220 207
198 217 194
195 214 193
196 215 194
198 217 189
197 216 198
198 217 196
201 219 201
203 222 214
204 223 227
206 226 242
209 228 253
211 230 255
211 230 254
211 230 254
213 231 255
212 231 254
212 230 252
214 231 255
213 230 255
210 228 253
213 230 254
212 229 254
213 230 254
215 231 254
212 228 252
217 232 254
214 230 252
174 192 228
81 113 185
92 122 189
80 112 186
81 113 183
86 117 186
82 113 185
92 121 185
85 115 186
92 121 185
80 111 181
80 112 180
85 115 181
88 117 183
85 115 182
62 99 174
62 99 177
64 100 171
61 98 166
61 98 171
62 99 176
67 102 169
74 108 163
64 100 172
65 100 161
69 104 166
71 105 163
66 101 167
71 103 157
60 96 158
65 100 168
69 103 159
61 98 169
60 96 163
61 97 163
62 98 168
62 98 164
61 97 164
61 98 171
61 98 165
61 97 161
61 97 160
62 98 165
61 97 162
61 97 165
61 98 170
61 97 162
61 97 164
61 97 164
60 96 161
62 98 172
61 97 163
61 98 167
62 98 168
60 96 160
60 97 162
60 97 164
62 98 168
61 98 168
61 97 165
62 98 164
61 97 164
62 99 166
62 98 164
62 98 167
62 98 165
61 97 159
62 98 164
61 97 156
62 98 168
61 98 160
62 98 159
61 98 164
61 97 161
61 97 156
62 98 162
62 98 164
61 97 157
62 98 167
61 97 158
63 99 168
61 98 163
61 97 159
62 98 163
62 98 163
61 97 164
62 98 163
62 98 164
62 98 163
62 98 161
60 96 158
62 98 162
61 97 157
62 98 161
62 98 157
62 98 157
62 98 160
61 97 159
62 98 164
63 99 171
62 98 165
62 98 159
62 98 160
62 98 159
62 98 158
61 98 164
62 97 155
63 99 169
62 98 162
61 97 154
62 98 160
63 99 163
62 98 163
61 97 155
62 98 159
61 97 158
62 98 164
62 98 157
61 97 155
61 96 151
62 97 155
62 98 161
62 97 155
61 97 154
61 97 152
61 97 154
62 98 161
62 98 156
61 97 153
61 97 152
63 99 166
61 97 155
61 97 155
62 98 155
61 96 152
62 97 158
63 98 159
61 97 151
61 96 150
62 97 152
63 99 164
61 96 148
62 97 153
61 97 156
62 97 151
61 96 147
61 97 154
62 98 157
62 98 160
61 97 150
60 96 148
60 95 140
62 97 150
62 98 158
61 96 152
62 97 152
60 95 142
61 97 150
61 96 140
61 96 149
61 96 155
61 97 152
63 98 159
60 95 145
61 97 149
61 96 145
60 95 141
60 95 140
61 97 148
60 95 143
61 95 143
60 94 133
59 92 139
61 96 145
60 95 142
59 94 141
59 92 128
58 92 131
58 92 127
58 90 127
99 109 69
125 131 0
120 125 0
104 105 0
120 123 0
117 121 0
120 124 0
96 100 0
107 111 0
109 109 0
98 94 11
82 76 0
86 82 0
86 81 0
84 80 0
81 78 11
73 68 0
81 78 11
89 84 0
99 93 0
84 80 0
99 93 0
93 88 0
90 86 0
87 84 0
91 87 0
103 98 0
98 91 3
95 93 8
97 94 8
90 88 0
106 101 11
98 93 0
100 98 0
102 97 14
119 115 0
106 102 0
106 101 0
101 97 11
112 108 16
110 105 11
119 114 14
115 111 0
113 109 11
111 106 0
103 101 11
118 114 14
109 104 14
110 106 0
122 117 14
106 104 11
117 113 16
122 119 16
116 112 0
113 109 11
121 117 11
104 101 0
117 111 11
105 101 16
119 115 16
111 107 11
123 118 16
127 121 16
117 112 11
121 118 0
123 120 11
116 111 16
106 102 11
125 120 22
125 119 25
117 109 25
119 114 22
120 115 19
123 118 19
120 116 0
123 116 22
123 119 11
121 117 19
118 112 22
123 118 28
115 110 16
115 110 0
119 113 22
111 106 22
111 106 16
106 101 19
115 109 34
110 105 25
114 107 25
111 107 19
138 139 16
147 154 0
141 149 0
149 156 0
153 163 0
151 160 0
153 164 0
154 165 0
158 168 0
160 170 0
156 167 0
161 169 0
157 169 0
156 167 0
151 161 0
156 168 0
163 177 0
151 164 0
155 167 0
157 171 0
162 179 0
159 174 0
162 176 0
165 182 0
165 177 0
164 180 0
166 179 0
160 173 0
161 176 0
161 176 0
158 172 0
167 184 0
168 183 0
164 181 0
164 181 0
158 173 0
166 184 0
165 182 0
169 186 0
166 184 0
167 182 0
170 187 0
169 185 0
166 185 0
168 185 0
168 186 0
166 185 0
165 185 0
214 231 246
215 232 252
214 231 250
214 231 253
213 231 253
212 230 249
212 230 250
210 229 249
212 230 253
212 230 255
211 230 254
211 230 255
211 230 255
210 229 255
209 229 255
209 229 255
210 229 255
208 228 255
207 227 248
203 223 230
202 221 223
196 215 194
194 214 184
196 215 194
202 220 212
201 219 201
203 221 211
200 218 212
203 220 199
200 218 201
207 224 218
206 223 217
202 219 207
210 227 224
209 226 220
208 224 215
204 220 211
209 225 226
208 224 217
199 216 199
204 221 207
208 224 218
211 226 228
210 226 221
206 222 214
206 222 218
204 220 214
208 223 220
208 224 221
212 227 226
204 220 207
208 225 217
209 225 215
203 220 203
209 225 220
209 225 220
210 226 226
201 218 199
202 219 207
200 218 199
201 219 201
203 221 215
199 218 198
199 217 203
197 216 188
197 216 186
201 220 209
203 222 220
206 225 233
211 229 253
212 230 254
212 230 255
212 230 255
212 230 254
209 227 253
210 228 253
211 228 253
212 229 254
209 226 252
213 230 254
213 230 254
214 230 254
214 230 254
144 165 212
71 105 182
76 109 184
87 118 188
89 119 189
79 111 184
92 121 188
76 109 182
89 119 186
87 117 188
84 115 182
94 123 186
97 125 187
88 117 181
80 111 180
62 99 173
63 99 168
64 100 170
62 98 175
61 98 172
61 98 168
63 99 166
65 100 171
70 104 165
63 99 164
67 102 163
64 100 170
63 99 171
67 102 162
64 100 166
63 98 163
64 98 154
61 98 162
62 98 162
60 96 164
60 96 162
62 98 169
59 95 157
61 97 164
61 97 165
61 98 165
61 97 166
61 97 163
61 98 165
60 96 164
61 98 166
60 97 162
61 97 161
62 98 165
63 99 163
61 98 168
61 98 168
62 98 168
61 97 160
61 98 167
62 98 164
62 98 169
62 99 169
62 98 166
61 97 156
60 96 158
62 99 164
62 98 163
62 98 165
62 98 163
62 98 160
62 99 169
62 99 167
62 98 161
62 98 159
62 98 161
62 97 162
62 98 162
62 98 162
62 98 162
61 97 162
62 98 162
62 98 160
62 98 163
61 97 159
63 99 170
62 98 162
61 97 161
62 98 160
61 97 162
61 98 164
62 98 160
61 97 165
63 99 163
62 99 165
62 98 163
61 97 161
61 97 155
62 98 162
62 99 163
61 97 154
62 98 162
62 98 160
61 97 155
61 96 147
61 97 158
62 98 166
62 98 165
61 98 159
61 97 156
63 99 170
61 97 154
62 98 156
61 97 154
62 98 158
63 99 158
62 98 160
62 98 164
62 98 161
62 98 159
62 98 160
62 98 154
62 98 164
62 99 163
61 97 155
62 98 163
62 98 158
61 96 149
62 98 158
61 97 148
62 98 151
62 98 160
62 98 157
61 96 153
62 97 156
61 97 153
61 97 153
63 98 161
62 98 158
61 97 157
62 97 155
62 98 160
63 98 158
61 97 148
61 97 154
62 97 148
62 98 156
62 98 158
62 98 159
61 97 148
62 98 156
61 97 150
61 97 156
61 97 157
62 98 159
62 97 152
62 97 151
61 96 149
61 96 149
61 97 154
61 96 147
62 98 154
60 95 142
61 96 144
61 96 148
62 97 151
61 96 143
62 97 154
60 95 145
60 95 139
60 95 140
60 94 140
60 95 144
60 95 141
60 95 141
60 95 142
59 93 139
60 94 140
58 92 118
59 93 135
58 92 136
59 93 133
59 93 131
55 86 105
107 117 46
114 118 0
123 129 0
110 114 0
109 111 0
118 123 0
116 117 0
115 118 0
106 104 0
107 110 0
110 114 0
98 99 0
80 72 0
74 69 11
73 69 0
87 81 11
91 86 0
84 80 0
86 82 0
84 79 0
90 86 0
89 84 0
94 90 0
92 89 0
85 81 0
102 97 8
87 84 8
92 89 8
95 91 0
105 100 0
101 96 0
101 96 0
93 90 8
92 87 0
98 95 0
97 95 8
113 109 0
102 99 3
108 102 0
97 93 0
106 103 0
114 109 0
113 109 11
120 116 0
96 92 0
111 107 11
110 107 8
109 104 16
109 105 0
117 112 16
116 113 11
111 105 19
115 112 11
111 108 11
108 104 16
115 111 0
115 111 11
111 105 11
116 113 11
115 109 0
121 116 19
114 108 11
106 102 16
115 109 11
119 115 11
116 110 25
113 108 0
126 119 25
107 102 19
122 117 19
116 111 0
129 123 22
113 108 19
118 112 22
120 115 16
116 110 11
110 105 16
127 120 28
117 110 16
114 108 16
113 109 16
110 105 22
116 110 19
108 103 22
117 110 11
111 105 22
112 105 11
116 111 16
134 136 0
149 156 0
151 158 0
144 151 0
154 162 0
149 159 0
153 162 0
152 160 0
159 171 0
150 156 0
153 165 0
159 172 0
156 168 0
158 171 0
151 160 0
159 170 0
155 163 0
154 164 0
154 164 0
151 161 0
154 165 0
158 172 0
154 169 0
159 175 0
161 175 0
159 171 0
162 176 0
160 174 0
156 169 0
163 177 0
162 178 0
164 179 0
167 185 0
162 178 0
163 177 0
165 180 0
168 185 0
162 178 0
166 179 0
163 180 0
169 189 0
165 182 0
162 178 0
163 181 0
164 180 0
162 177 0
166 183 0
162 180 0
167 186 0
166 184 0
215 232 253
214 231 253
213 230 250
212 230 252
213 231 254
212 230 252
211 230 253
212 231 255
212 230 255
211 230 255
211 230 255
209 229 255
209 229 254
209 229 255
206 226 252
206 226 241
201 220 223
198 217 198
200 219 207
195 215 184
198 216 193
205 223 218
198 217 193
198 216 193
205 222 217
202 220 204
207 224 218
209 225 231
206 223 218
208 224 223
212 228 223
205 222 215
212 227 230
214 229 231
207 224 215
211 227 227
205 220 211
206 223 212
203 220 211
204 221 203
195 213 173
193 212 157
193 212 161
193 212 159
194 213 167
192 212 161
193 212 171
196 215 171
187 207 151
190 210 157
193 212 173
193 212 167
203 220 191
198 216 182
197 215 188
203 220 204
213 229 226
200 217 198
208 224 221
206 223 217
205 221 211
205 221 217
203 219 209
203 220 204
202 220 199
199 216 199
194 213 179
203 220 209
198 216 196
193 212 169
207 225 224
208 226 237
207 225 248
212 231 255
207 225 250
210 229 254
210 228 254
210 228 253
214 231 255
211 228 253
209 226 251
213 230 254
213 229 253
212 228 252
106 133 196
86 117 188
76 109 184
84 115 188
81 113 185
79 111 184
84 115 185
87 117 184
74 107 179
79 111 180
79 110 178
94 122 182
100 127 187
88 118 185
85 116 184
66 102 175
61 98 172
62 99 174
62 98 170
63 99 170
62 99 174
61 98 170
63 99 171
68 103 167
60 96 162
67 102 165
61 98 165
73 106 165
64 98 156
63 98 164
61 96 158
64 100 165
64 99 161
61 96 160
61 97 165
62 99 167
60 96 161
61 97 160
61 97 170
61 98 164
60 96 163
61 98 164
61 96 164
61 98 167
61 96 159
61 98 168
62 98 166
62 98 170
62 98 167
61 97 165
61 97 162
61 97 163
61 97 166
60 96 157
61 97 160
61 97 157
60 97 167
61 97 163
61 97 161
61 97 163
60 96 160
63 99 169
61 97 159
62 98 162
61 97 163
61 98 166
62 98 166
60 96 160
63 99 172
62 98 161
61 97 162
62 98 163
61 97 161
61 98 162
61 98 167
62 98 166
62 99 165
63 99 168
62 99 167
62 98 161
62 98 162
61 96 156
61 97 157
62 99 167
62 99 167
61 97 152
61 97 156
62 98 162
62 97 158
62 98 162
62 99 167
61 97 162
62 98 161
61 97 160
62 98 156
62 99 165
62 98 157
61 97 157
61 97 148
62 98 157
61 97 154
62 97 161
62 98 161
61 97 153
61 97 154
61 97 154
61 97 151
61 96 155
62 98 153
61 96 151
61 97 152
62 98 160
63 98 160
61 97 155
61 97 151
62 98 158
62 98 156
62 98 156
62 98 157
61 97 155
61 97 160
61 97 155
62 98 156
61 97 157
61 97 156
61 96 155
60 95 141
62 98 159
61 97 153
61 96 150
62 98 161
61 97 151
63 99 163
62 97 153
61 97 150
62 98 163
61 97 160
62 97 160
62 97 154
62 97 154
61 97 150
61 97 151
61 96 148
61 97 151
62 97 153
62 97 155
61 97 149
61 97 152
61 97 147
61 96 142
62 97 151
61 96 148
61 97 147
61 97 157
60 96 144
60 94 139
60 95 141
61 97 148
61 96 142
61 96 140
61 96 149
61 96 152
61 97 154
60 94 134
60 95 137
61 96 145
59 93 143
60 94 133
61 96 141
60 94 139
60 95 144
59 92 133
60 94 135
60 95 149
60 93 135
59 92 125
59 92 134
67 95 120
114 118 0
120 125 0
115 118 0
114 117 0
112 114 0
111 114 0
113 118 0
107 108 0
121 123 0
109 112 0
112 115 0
104 101 0
102 103 0
94 92 11
77 70 0
85 79 0
79 72 0
82 75 0
84 79 16
90 84 0
97 92 0
97 93 11
84 79 0
84 80 0
91 84 16
91 87 0
85 80 0
96 90 0
99 92 0
96 91 0
87 85 0
103 97 0
94 87 0
100 95 0
98 96 0
98 92 0
108 104 0
104 98 8
110 106 0
104 99 0
97 92 3
90 87 0
103 98 0
103 98 0
115 110 0
116 112 11
95 92 0
94 92 0
106 102 0
113 109 11
106 102 11
115 111 11
115 110 11
110 105 11
106 104 0
118 113 0
112 106 16
106 101 11
114 108 19
113 109 11
122 117 0
125 119 19
120 115 25
112 108 16
108 103 11
112 107 11
116 112 19
115 109 0
119 114 11
114 108 19
116 110 16
112 107 22
112 106 19
123 115 0
112 107 22
114 109 16
117 112 22
112 107 19
114 109 25
107 103 16
116 108 25
118 111 11
101 95 16
108 100 19
105 100 16
110 105 11
127 129 11
147 154 0
141 147 0
156 160 0
148 152 0
160 170 0
150 160 0
145 153 0
159 167 0
151 158 0
150 158 0
157 166 0
152 162 0
153 161 0
155 168 0
159 172 0
158 171 0
161 172 0
154 167 0
155 168 0
163 177 0
156 167 0
156 168 0
154 165 0
159 172 0
158 170 0
156 169 0
162 176 0
156 173 0
165 181 0
161 176 0
163 180 0
159 173 0
160 173 0
158 170 0
159 173 0
162 179 0
162 179 0
161 175 0
161 176 0
162 178 0
160 179 0
166 184 0
165 181 0
163 180 0
164 180 0
167 185 0
165 181 0
168 186 0
164 183 0
166 183 0
166 185 0
212 230 249
212 230 248
211 229 246
213 231 254
213 231 254
212 230 255
212 230 255
211 230 255
211 230 255
209 229 254
210 229 255
209 229 255
208 228 246
202 222 223
199 218 194
197 216 198
197 216 198
199 218 199
202 220 207
202 219 204
208 225 218
205 223 212
208 223 220
211 227 231
207 224 214
207 223 217
211 226 224
211 226 223
210 226 224
202 219 198
199 216 182
196 214 171
189 209 155
187 207 127
181 202 111
174 197 51
175 198 76
172 196 95
173 196 76
177 199 88
173 197 57
175 199 80
175 198 62
177 200 72
172 195 57
175 199 80
170 194 62
175 198 62
174 198 88
174 197 92
175 198 51
175 199 76
173 197 80
175 197 72
174 196 80
175 198 76
176 199 92
178 200 92
179 201 108
186 207 133
186 206 127
192 211 177
196 214 186
210 226 221
206 222 211
204 221 206
211 227 228
208 224 217
201 218 207
207 224 218
200 218 193
196 214 194
189 208 211
185 205 208
196 215 237
207 226 252
208 227 253
210 228 254
213 230 255
207 225 252
213 230 254
211 228 253
212 229 253
212 229 253
206 223 248
89 119 189
73 107 183
74 107 183
86 117 187
79 111 184
71 105 182
81 113 185
100 128 193
84 115 184
74 108 183
82 113 182
92 121 187
92 120 181
97 125 188
75 107 178
62 98 172
62 98 175
62 99 172
63 98 165
62 99 173
61 98 173
61 98 172
64 100 169
63 98 161
60 97 160
74 107 159
62 97 156
68 103 164
70 105 163
65 100 165
60 95 162
63 99 163
65 100 164
61 96 162
62 98 169
60 96 166
61 97 161
61 97 158
61 97 162
61 97 162
62 99 168
61 97 165
60 96 155
60 96 164
61 98 164
61 97 157
61 97 169
60 96 159
61 97 163
61 98 163
61 97 158
61 97 160
62 98 164
61 97 160
61 97 163
61 97 162
60 96 163
61 97 163
62 98 161
61 98 163
62 98 164
61 97 157
61 97 157
61 98 165
62 98 165
61 97 159
60 96 153
62 98 158
61 97 162
62 99 164
61 97 153
61 97 161
62 98 164
61 97 156
61 97 155
62 98 164
62 99 170
61 97 160
62 99 166
62 98 164
61 97 156
62 98 157
62 98 168
62 98 163
61 96 159
62 98 165
61 97 161
61 97 154
61 97 152
62 98 159
61 97 160
61 97 155
62 98 155
61 97 152
62 98 164
62 98 157
61 96 154
62 97 157
61 97 157
62 97 158
62 98 158
61 97 156
61 97 155
61 97 156
62 98 164
61 97 158
61 97 154
62 97 152
62 98 163
63 99 165
62 98 161
61 97 155
61 97 153
62 98 161
60 96 153
63 99 164
60 95 148
62 98 165
61 97 156
61 97 158
61 97 153
62 98 159
62 98 158
59 94 139
62 98 156
62 97 156
60 95 149
61 96 148
62 98 154
61 97 153
61 97 150
62 97 154
62 98 155
61 97 148
61 96 150
61 97 148
61 97 147
62 97 157
61 97 144
62 98 156
62 97 151
61 96 143
61 96 147
61 97 150
61 97 149
62 98 154
61 96 154
61 96 150
62 97 154
62 97 150
60 96 151
60 96 145
61 96 148
60 95 144
61 97 150
61 96 140
61 96 145
60 95 141
62 97 151
61 96 149
60 95 133
60 95 141
60 95 143
60 94 141
60 95 140
60 95 140
62 97 147
61 95 149
60 95 141
60 95 140
60 93 140
60 94 139
60 94 139
59 94 132
58 91 120
57 89 127
80 101 109
117 123 0
118 121 0
115 117 0
110 112 0
112 114 0
109 111 0
115 116 0
111 113 0
108 107 0
106 108 0
103 104 0
108 112 0
96 101 0
104 102 0
108 109 0
93 93 0
84 79 0
64 60 0
76 70 0
84 78 0
80 76 0
78 74 0
90 85 0
102 98 0
100 95 11
87 81 0
101 96 0
93 88 0
93 88 0
96 90 8
99 93 0
94 91 8
98 93 8
90 87 0
103 95 0
104 99 0
104 98 0
105 101 0
95 90 0
88 85 0
102 97 0
107 102 0
107 103 0
103 98 0
118 113 0
99 93 0
97 94 0
96 95 0
117 112 11
110 104 0
115 110 0
104 99 11
115 109 0
112 107 16
115 109 11
99 94 0
116 110 16
112 106 0
112 107 16
114 109 0
116 111 0
117 111 0
103 100 0
121 115 0
121 114 11
115 109 11
112 107 16
124 117 16
116 109 19
111 105 16
115 110 11
116 111 22
96 90 0
114 107 16
120 114 16
104 98 16
113 107 11
111 105 25
108 102 19
118 113 19
103 97 19
109 103 16
114 106 11
114 114 11
128 129 16
142 145 0
144 149 0
152 160 0
149 155 0
141 148 0
150 161 0
142 147 0
150 159 0
148 156 0
156 168 0
150 162 0
158 168 0
156 167 0
155 162 0
153 165 0
149 159 0
156 167 0
151 161 0
162 176 0
157 169 0
165 180 0
162 176 0
166 181 0
161 174 0
154 167 0
156 169 0
158 169 0
151 165 0
151 165 0
161 177 0
162 176 0
163 177 0
160 175 0
162 176 0
163 179 0
162 178 0
163 179 0
161 175 0
167 183 0
162 179 0
163 179 0
162 177 0
163 181 0
165 182 0
166 185 0
161 179 0
169 186 0
160 178 0
164 181 0
163 180 0
164 181 0
164 180 0
168 188 0
212 230 249
212 231 255
212 231 255
211 230 255
211 230 255
211 230 255
209 229 255
209 229 254
209 229 255
207 227 241
205 223 234
199 219 201
197 216 191
198 217 203
198 217 196
205 223 209
213 229 233
212 228 230
204 222 212
210 227 223
210 226 224
210 226 224
207 223 220
212 227 224
200 218 193
197 216 186
192 211 155
183 204 117
178 201 80
174 197 67
174 197 62
174 197 72
172 195 80
174 198 72
175 199 57
175 198 76
171 195 62
176 199 67
174 197 44
175 198 76
175 198 84
174 198 72
172 196 72
178 200 80
176 199 88
173 197 80
175 198 76
174 197 76
176 199 84
174 197 88
175 198 62
176 199 57
176 199 95
175 199 72
175 199 76
176 200 84
175 198 76
174 197 76
174 197 67
175 198 76
173 196 51
177 200 80
175 198 62
175 198 84
176 199 72
185 205 135
191 210 159
202 220 191
203 219 212
206 222 217
209 226 227
201 219 201
202 218 215
190 208 210
179 197 202
175 194 208
179 199 213
193 212 237
209 227 253
207 225 251
211 228 253
210 228 253
210 227 252
209 227 252
212 229 253
192 210 240
84 115 188
78 111 185
79 111 183
90 120 189
68 103 181
74 107 183
79 112 184
84 115 186
74 108 181
80 112 183
76 109 180
89 119 183
80 112 182
81 112 174
83 113 177
65 101 175
62 99 173
62 99 175
63 99 172
62 98 171
61 98 173
61 97 165
61 98 166
65 99 164
67 102 166
63 98 162
63 98 159
65 100 162
61 97 164
72 105 160
64 99 164
67 101 167
61 97 159
61 98 166
61 97 163
62 98 165
62 98 165
61 97 157
61 96 161
62 99 165
61 97 162
61 96 157
61 97 158
61 97 166
61 97 158
61 97 166
61 97 163
61 97 162
62 98 169
61 97 163
62 98 164
61 97 157
61 98 163
62 98 168
61 97 159
62 98 169
61 97 161
62 98 165
62 98 166
62 98 166
61 97 157
62 98 164
61 98 162
61 97 156
62 98 160
62 98 156
61 97 157
62 98 160
61 97 159
61 97 157
62 98 161
61 98 161
62 98 164
62 98 162
61 96 147
61 96 155
62 98 166
62 99 166
62 98 157
61 97 153
62 98 164
61 98 161
62 98 160
61 97 160
61 97 150
61 97 159
61 97 159
63 99 166
63 99 168
62 98 156
61 97 160
61 97 155
61 97 156
62 98 162
62 98 158
61 97 156
62 98 165
61 97 160
62 98 163
62 97 160
61 97 154
61 97 152
62 97 157
62 98 156
62 97 158
61 97 158
62 98 162
62 98 161
62 98 160
62 98 163
61 97 160
62 98 160
61 96 148
62 98 164
61 97 158
61 97 149
61 97 150
62 98 159
61 97 155
61 97 158
61 97 155
62 98 159
62 98 159
62 98 162
63 99 163
61 97 155
62 98 154
62 97 155
62 97 155
62 98 154
60 96 144
62 98 153
61 98 159
62 97 151
61 96 143
61 97 149
61 97 151
61 96 145
62 97 156
61 97 149
61 96 144
61 96 152
61 97 150
61 96 150
61 96 151
63 99 162
62 97 149
61 96 147
62 98 156
61 97 148
61 96 148
61 96 142
61 96 147
61 97 145
62 97 151
60 96 144
61 96 144
61 97 150
61 97 149
58 93 124
60 96 146
61 96 144
60 95 132
60 95 141
60 95 145
59 93 136
60 95 149
59 93 127
60 94 145
59 92 130
58 91 116
59 92 132
57 90 117
58 91 124
56 88 121
85 96 65
114 122 0
112 119 0
113 119 0
124 130 0
116 119 0
110 112 0
107 110 0
116 120 0
110 114 0
110 112 0
112 112 0
98 101 0
97 100 0
112 115 0
101 99 0
95 96 0
105 107 0
95 90 0
97 95 0
83 77 0
74 71 11
76 72 0
87 82 11
81 77 0
90 85 0
93 87 0
81 77 0
83 79 0
83 77 0
103 99 0
94 89 0
91 87 0
93 86 0
98 93 0
99 94 0
87 83 0
94 90 0
102 95 0
96 92 0
96 91 0
101 96 0
101 96 0
97 92 0
108 102 0
111 104 0
106 102 11
114 110 3
113 108 0
100 95 0
110 105 11
118 113 16
106 100 11
102 97 11
112 108 0
104 99 11
106 103 0
104 99 0
113 108 11
124 118 0
117 112 0
105 99 11
106 99 11
115 109 11
103 98 0
101 97 11
112 106 11
114 108 0
117 112 0
122 115 25
124 118 22
103 97 11
110 104 11
118 111 16
114 107 16
112 105 11
121 114 19
103 97 11
107 102 16
105 98 0
104 97 19
101 94 16
114 113 0
134 137 19
138 144 0
143 145 0
149 153 0
145 150 0
149 156 0
148 156 0
153 162 0
148 157 0
145 154 0
156 165 0
147 155 0
156 166 0
151 159 0
144 151 0
144 154 0
149 157 0
156 165 0
156 165 0
160 171 0
153 165 0
159 174 0
156 167 0
156 169 0
151 162 0
159 171 0
154 165 0
161 174 0
161 176 0
157 170 0
165 180 0
160 173 0
156 167 0
161 174 0
161 176 0
163 178 0
163 178 0
159 176 0
163 177 0
162 177 0
163 179 0
164 180 0
164 183 0
164 179 0
164 180 0
158 172 0
166 184 0
165 182 0
169 188 0
163 181 0
166 182 0
165 180 0
165 183 0
164 180 0
160 176 0
160 177 0
212 230 254
211 230 255
211 230 255
210 229 255
210 229 255
210 229 255
208 228 249
206 225 237
199 218 206
199 218 201
197 216 188
202 221 199
204 221 206
200 218 203
206 223 209
205 222 212
211 226 228
209 225 227
213 228 230
204 220 207
201 219 204
198 216 179
182 203 111
178 201 105
174 197 84
174 198 51
172 195 72
175 199 76
173 197 62
175 198 67
176 200 88
173 196 88
176 199 76
175 199 84
174 198 57
173 196 51
175 198 67
172 195 62
177 201 84
175 199 72
172 196 67
173 197 36
173 196 44
174 199 80
173 197 67
173 196 51
175 198 72
175 198 76
177 200 80
175 199 62
177 200 51
173 196 57
174 198 88
175 199 62
175 198 67
174 198 57
175 198 67
173 197 76
171 195 88
175 199 84
174 197 80
174 197 67
174 197 80
173 196 88
177 200 88
176 199 80
173 196 44
174 197 57
173 195 76
182 203 114
192 212 165
188 206 181
152 172 183
141 164 160
132 157 165
116 141 172
140 162 193
126 149 181
160 180 209
183 202 228
203 222 247
207 225 252
210 228 252
212 229 253
211 228 253
210 227 251
188 206 238
73 107 184
83 115 187
76 109 183
76 109 183
81 113 185
86 116 188
80 112 183
78 110 179
74 107 178
92 121 187
87 117 185
85 115 182
90 119 184
83 114 183
75 107 179
61 98 173
62 98 174
61 98 171
61 98 169
61 98 175
61 97 167
60 97 162
62 98 171
63 99 163
61 97 164
66 101 166
70 104 164
65 100 163
71 103 149
65 100 167
70 104 154
66 100 163
71 104 150
61 97 155
60 96 159
60 96 162
61 98 167
62 97 160
62 97 156
62 98 164
62 98 163
61 98 163
60 96 159
60 96 156
61 98 165
61 97 163
62 99 170
61 97 163
62 98 171
61 98 162
62 98 173
61 97 165
62 99 170
61 97 161
62 98 167
61 97 160
62 98 166
61 97 162
62 98 159
61 97 167
61 97 160
62 98 165
61 97 164
62 98 164
62 98 164
62 98 161
61 97 154
63 99 165
62 97 157
62 98 164
61 97 162
62 98 162
61 97 156
61 97 159
62 98 165
62 98 159
62 98 161
62 98 161
62 98 164
61 97 156
62 98 164
63 99 170
61 97 161
61 97 154
62 98 161
62 98 163
61 98 164
62 97 156
61 97 158
61 97 159
62 98 159
63 99 164
61 97 151
63 99 165
60 96 151
62 98 158
62 98 159
61 97 154
62 98 158
61 97 157
62 98 160
62 98 162
61 96 147
61 97 154
61 97 156
61 96 152
62 97 153
61 97 155
61 97 153
61 97 158
62 98 159
61 97 155
62 97 154
61 97 151
63 99 162
62 98 160
61 96 152
61 96 148
61 96 149
62 97 154
61 97 153
61 97 157
62 98 158
61 97 156
62 98 159
62 97 158
61 96 151
61 97 154
61 96 151
62 97 157
62 97 150
61 97 152
62 97 159
61 97 147
61 97 151
62 97 149
62 97 153
61 96 149
62 97 148
60 95 143
61 97 149
62 98 157
62 97 154
61 96 149
62 98 155
61 96 143
62 97 152
62 98 159
62 97 151
60 95 145
60 96 144
61 96 142
61 97 147
61 96 151
60 95 141
60 95 140
62 97 150
60 96 145
62 97 146
61 96 143
61 96 151
61 96 147
61 96 151
60 94 131
60 94 138
61 96 141
61 95 141
60 94 133
57 89 122
60 94 126
59 92 136
59 93 121
58 91 123
59 92 130
102 112 53
129 137 0
118 124 0
124 130 0
107 109 0
112 116 0
117 121 0
107 110 0
98 100 0
99 102 0
101 105 0
104 108 0
105 107 0
108 109 0
108 109 0
100 101 0
100 100 0
103 101 0
101 103 0
105 104 0
93 92 0
91 88 0
83 76 0
85 79 11
85 79 0
82 76 0
88 81 8
97 91 0
87 81 0
89 83 0
97 90 0
95 89 11
105 98 11
88 86 0
104 98 0
92 87 0
98 91 0
96 91 0
101 97 0
99 94 0
105 99 0
97 92 0
102 97 0
89 84 0
111 105 0
102 98 0
105 101 0
106 100 0
112 105 0
104 100 0
112 107 0
111 105 0
97 89 0
94 90 0
100 95 0
107 102 0
101 96 0
107 102 0
111 103 0
118 113 11
106 100 0
106 100 0
112 105 0
105 100 0
103 97 0
110 105 11
104 98 11
116 110 19
120 113 22
115 108 11
110 102 19
106 101 0
103 96 16
112 104 19
103 97 11
112 105 11
118 110 11
106 98 16
114 108 11
105 101 11
132 130 16
126 126 0
145 150 0
132 136 0
139 145 0
146 151 0
144 150 0
141 146 0
147 153 0
146 152 0
153 161 0
140 148 0
151 158 0
153 162 0
145 153 0
149 157 0
153 161 0
149 156 0
159 170 0
158 167 0
156 165 0
154 162 0
153 162 0
150 159 0
154 165 0
155 166 0
153 163 0
156 167 0
158 169 0
161 176 0
157 172 0
158 168 0
161 176 0
154 167 0
161 175 0
157 169 0
152 166 0
163 177 0
162 174 0
166 179 0
154 168 0
159 174 0
162 179 0
165 180 0
163 180 0
162 179 0
164 181 0
161 179 0
160 176 0
167 183 0
165 183 0
160 176 0
162 181 0
166 181 0
169 185 0
164 182 0
158 174 0
166 184 0
167 185 0
212 230 255
210 229 254
210 230 255
210 229 255
208 228 249
202 222 217
198 217 201
195 215 186
201 219 196
201 219 196
203 221 201
203 221 203
203 219 207
208 224 218
209 225 218
209 224 221
204 221 206
199 217 188
188 209 142
176 198 76
176 200 76
174 198 67
173 196 80
175 197 51
176 199 76
172 195 67
174 198 67
170 194 36
175 199 57
174 198 57
176 199 67
176 200 95
171 195 57
172 196 51
172 196 72
171 195 88
174 198 88
175 198 72
172 196 72
174 198 72
176 199 88
176 199 72
171 195 51
173 197 57
176 199 88
177 199 67
172 195 62
174 197 62
176 199 84
175 199 99
176 199 72
173 197 57
174 198 80
174 197 57
173 197 51
175 198 84
173 197 57
175 199 88
172 195 72
176 198 62
171 195 57
175 198 76
173 196 80
172 195 80
174 197 62
172 196 67
174 198 72
176 199 88
175 198 62
176 199 84
166 190 80
111 139 149
115 142 167
115 142 158
106 133 154
105 133 156
107 135 174
114 140 177
117 144 163
109 136 176
116 142 183
171 191 221
199 218 244
210 228 253
211 228 254
211 228 253
211 228 253
175 194 230
78 111 186
83 114 187
83 115 187
74 107 182
68 103 180
81 113 185
77 110 183
68 103 179
72 106 178
87 117 182
82 114 185
92 121 184
77 109 178
87 117 178
83 114 181
62 99 172
62 99 170
62 98 170
60 97 171
61 98 168
61 97 171
62 98 169
62 99 172
62 99 168
61 98 171
71 105 159
72 105 165
63 99 163
70 103 161
67 101 161
65 99 163
59 95 157
67 101 160
61 97 164
59 94 155
61 97 167
62 97 168
62 98 166
61 96 160
62 98 161
61 97 163
61 97 163
62 98 166
62 98 161
61 97 159
61 97 160
62 98 166
60 96 153
61 97 155
61 98 167
62 98 161
60 96 158
61 97 159
61 97 160
62 98 166
62 99 168
61 97 154
61 97 159
62 98 160
61 97 163
61 97 159
61 97 155
61 97 158
62 98 166
62 98 164
62 98 159
61 98 160
62 98 157
62 98 162
61 97 160
62 98 160
62 98 164
62 98 165
60 96 155
62 98 160
61 97 161
62 98 165
63 99 167
61 97 154
62 98 161
61 97 157
62 98 162
62 98 162
63 99 163
61 97 153
62 98 164
61 98 159
61 97 155
61 97 158
61 96 154
60 96 149
62 98 160
62 98 158
61 97 153
61 97 158
61 97 151
61 97 156
61 97 153
63 99 169
63 98 159
62 98 157
62 98 158
61 97 151
61 97 158
61 97 152
62 97 153
60 95 145
61 97 150
61 97 151
61 97 152
63 99 162
62 98 157
61 96 150
63 99 160
61 97 156
62 98 149
61 96 150
61 97 157
62 98 158
62 98 156
62 97 153
61 97 151
62 98 153
62 98 156
61 96 145
61 96 149
61 96 151
62 98 159
60 96 150
62 98 153
61 97 154
61 96 145
61 96 150
62 98 158
62 98 156
62 97 155
62 97 153
61 97 149
62 97 153
61 97 153
61 97 156
61 96 150
61 96 148
60 96 151
61 96 143
60 96 143
60 95 142
61 96 147
60 95 140
62 97 153
61 97 150
60 96 149
62 98 153
61 96 148
61 96 143
62 97 141
62 98 154
60 95 142
62 97 149
61 95 145
61 96 142
60 95 138
60 95 139
61 96 143
60 94 141
60 94 135
59 94 135
60 94 142
60 95 138
59 93 128
59 92 134
57 90 111
63 90 114
122 128 0
123 130 0
113 119 0
116 122 0
112 118 0
116 123 0
109 111 0
106 108 0
102 105 0
107 109 0
120 121 0
119 121 0
121 124 0
108 109 0
96 96 0
117 120 0
102 102 0
104 103 0
97 98 0
110 113 0
109 109 0
95 95 0
91 90 0
96 94 0
72 69 0
80 76 0
82 73 0
74 67 0
85 78 0
97 89 0
91 85 11
91 88 0
97 92 0
88 85 0
94 88 0
94 89 0
88 81 0
76 72 0
90 85 0
94 89 0
104 98 0
97 92 0
96 90 0
102 96 0
92 86 0
97 93 0
101 98 0
104 99 0
101 98 0
108 101 0
102 96 11
103 98 0
111 104 11
113 108 0
116 109 11
106 103 0
109 103 0
99 94 0
96 92 0
105 102 0
111 105 0
111 107 0
104 98 0
107 100 0
102 97 11
106 100 11
102 98 0
111 104 16
102 95 0
106 99 11
115 108 0
109 101 19
107 100 11
100 94 16
105 98 11
90 84 11
112 105 16
114 111 16
138 140 0
136 138 0
136 141 0
147 154 0
140 144 0
135 138 0
143 148 0
149 155 0
141 145 0
149 156 0
150 156 0
145 149 0
150 160 0
140 146 0
148 154 0
151 160 0
152 162 0
160 170 0
150 160 0
156 164 0
147 155 0
155 166 0
152 164 0
156 164 0
155 162 0
157 173 0
157 171 0
153 163 0
155 167 0
156 167 0
159 171 0
154 166 0
154 165 0
162 176 0
162 176 0
165 180 0
162 176 0
160 174 0
155 168 0
157 174 0
163 180 0
164 180 0
163 178 0
165 181 0
163 178 0
163 181 0
162 178 0
164 179 0
162 178 0
164 183 0
166 182 0
163 179 0
162 180 0
161 176 0
166 186 0
167 186 0
164 180 0
161 177 0
168 187 0
166 183 0
164 181 0
210 230 255
210 229 255
207 227 249
200 220 218
199 218 201
198 218 193
199 218 196
202 220 204
206 223 212
203 220 212
210 226 221
210 225 223
210 226 218
204 221 199
194 214 175
181 203 122
175 198 36
174 198 72
171 194 51
176 199 72
173 197 80
176 199 62
172 195 51
173 197 67
173 197 57
173 197 51
169 193 44
174 198 76
173 197 80
173 197 51
176 200 95
173 198 88
176 199 62
174 197 67
175 199 92
173 197 84
175 198 76
175 198 88
176 199 62
171 195 72
178 200 72
174 198 88
172 195 67
173 196 62
172 195 72
171 195 80
172 195 76
177 200 88
172 196 57
174 198 76
175 198 84
173 197 67
174 197 51
175 198 72
175 198 62
175 199 88
175 199 62
174 197 80
177 200 80
176 199 51
175 198 84
171 195 57
170 194 67
175 198 67
173 196 72
171 195 72
172 196 67
173 196 84
173 197 57
173 196 67
136 162 130
97 126 161
100 129 170
101 130 166
112 139 160
107 134 170
100 129 168
122 148 154
109 136 163
106 133 169
103 131 164
106 134 162
98 127 162
159 180 211
195 214 237
204 222 248
203 221 248
214 231 255
164 183 224
65 101 180
73 107 183
81 113 186
79 111 181
71 105 181
92 122 185
79 111 182
74 107 182
79 111 182
84 115 183
84 115 183
85 115 182
92 120 185
88 117 179
82 113 176
61 98 170
64 100 175
62 98 170
61 97 170
62 98 171
62 98 173
61 97 164
61 97 162
60 97 164
61 97 164
68 103 170
68 102 163
64 99 161
67 101 165
64 99 165
68 102 163
62 97 160
64 99 161
62 98 162
62 98 166
61 97 166
60 96 161
60 95 150
61 98 166
62 98 164
60 96 164
60 96 153
61 97 160
62 99 170
61 97 159
61 97 161
61 97 157
62 98 164
62 98 166
62 98 164
61 97 158
61 97 157
61 97 160
60 96 156
60 97 158
62 98 159
61 97 157
62 98 164
62 98 158
62 98 166
61 97 163
62 98 164
61 97 160
62 98 163
61 97 160
61 97 158
62 98 159
62 98 162
62 98 158
61 97 155
61 97 159
61 97 157
62 98 161
62 98 164
62 98 165
62 97 158
61 98 160
61 97 157
60 96 157
61 97 152
62 98 158
60 96 143
62 98 160
63 99 166
62 97 154
62 98 159
62 98 158
61 96 148
62 97 160
61 97 154
61 97 152
62 98 157
62 98 163
61 98 160
62 98 162
62 98 159
61 97 152
62 98 160
62 98 163
62 98 160
62 97 159
61 96 148
61 97 154
62 97 150
60 96 150
62 98 161
61 96 150
62 98 159
62 98 159
62 98 164
62 97 152
60 96 144
62 98 159
62 98 163
62 98 160
62 98 160
61 97 154
61 97 147
62 98 160
61 97 153
62 98 156
61 96 151
61 96 145
61 96 154
62 97 155
62 97 156
62 98 153
61 97 148
62 97 151
62 98 160
62 97 153
62 98 154
61 97 147
61 96 149
61 96 149
62 97 155
61 96 152
61 96 150
62 97 154
61 97 153
61 97 148
61 97 152
60 95 143
61 96 143
60 95 142
60 95 148
60 95 139
61 96 143
60 96 143
61 96 149
60 95 139
61 96 150
61 96 142
60 95 147
61 96 142
61 95 132
60 94 133
61 96 144
60 95 142
62 97 147
61 95 143
60 95 140
61 96 145
58 92 134
60 95 138
58 92 130
59 92 126
59 93 133
60 94 133
58 91 126
58 90 126
86 107 96
118 127 0
103 109 0
111 117 0
111 114 0
109 112 0
124 132 0
111 117 0
114 121 0
110 114 0
112 112 0
104 107 0
104 111 0
114 116 0
95 97 0
100 100 0
103 103 0
107 106 0
115 115 0
106 109 0
95 94 0
114 114 0
92 91 0
95 93 0
105 104 0
84 81 0
100 98 0
96 93 0
89 85 0
90 85 0
86 79 0
79 75 0
86 80 0
93 86 0
91 85 0
82 75 0
94 87 0
92 84 0
90 83 0
83 78 0
86 80 0
89 85 0
99 95 0
101 96 0
89 84 0
94 89 0
105 99 0
112 106 0
90 84 11
90 85 0
106 100 0
107 101 0
107 103 0
96 90 0
102 98 0
111 103 0
97 91 0
99 93 0
101 96 0
107 100 0
95 89 0
102 97 0
98 92 11
99 95 0
111 104 0
103 98 11
101 95 0
112 107 11
112 104 0
98 93 11
108 100 16
102 93 16
96 90 11
99 90 11
101 94 0
113 112 0
119 119 0
135 138 0
136 139 0
138 141 0
149 154 0
146 152 0
147 153 0
149 156 0
145 151 0
145 151 0
143 146 0
136 141 0
137 142 0
146 152 0
152 160 0
148 156 0
149 156 0
151 157 0
146 150 0
150 159 0
146 155 0
142 151 0
153 164 0
153 165 0
155 166 0
158 168 0
154 164 0
155 165 0
153 166 0
157 171 0
160 173 0
157 169 0
160 174 0
151 163 0
156 168 0
165 181 0
162 175 0
165 180 0
156 168 0
160 173 0
163 176 0
154 168 0
161 176 0
161 173 0
159 171 0
167 184 0
160 175 0
163 179 0
156 171 0
164 179 0
156 173 0
158 175 0
168 186 0
159 176 0
159 176 0
160 173 0
161 176 0
158 176 0
163 178 0
164 182 0
163 179 0
164 181 0
166 185 0
158 176 0
207 227 244
200 219 212
206 224 217
200 218 199
198 217 196
202 219 204
207 223 217
203 219 211
212 228 224
206 223 215
209 225 212
190 210 147
183 205 135
174 196 67
175 198 67
177 200 76
175 199 67
173 197 76
173 196 67
176 199 84
177 200 67
174 198 62
177 200 84
171 195 36
173 196 57
174 198 76
175 199 92
174 198 76
174 199 84
176 200 95
173 197 80
174 198 67
175 198 25
174 198 67
175 198 62
173 196 36
175 198 88
173 197 67
174 197 57
171 194 72
176 199 88
170 194 44
175 198 67
173 197 72
171 194 67
173 197 72
174 198 72
174 198 62
175 198 72
174 198 95
173 197 62
175 199 76
173 196 51
172 196 67
174 198 88
174 198 72
176 200 80
176 200 84
174 198 84
175 199 57
174 197 72
178 202 88
175 198 72
174 197 72
171 195 80
175 198 76
177 200 80
177 200 80
170 193 62
172 196 84
128 153 154
100 129 164
98 127 169
96 126 171
105 133 175
112 139 167
110 137 164
102 129 170
116 143 150
108 135 165
121 147 162
89 118 167
100 129 164
102 130 176
106 133 168
146 168 205
196 214 244
210 227 252
215 232 255
148 169 216
76 109 184
83 115 184
73 107 184
73 107 183
86 117 187
71 106 180
79 111 182
89 119 186
79 111 178
89 118 183
90 119 185
72 106 171
94 123 186
84 114 178
80 112 180
62 99 172
62 98 173
62 99 177
61 98 169
61 98 169
60 96 163
63 99 163
60 96 161
61 98 159
61 97 159
63 98 160
69 102 155
64 99 168
69 103 165
73 105 158
66 101 165
61 97 160
68 102 162
61 97 160
62 98 165
60 96 157
61 97 162
61 96 159
61 97 162
62 98 164
62 98 167
62 98 167
61 98 168
61 97 157
62 98 160
61 96 155
61 97 163
61 96 160
61 97 163
61 97 160
62 98 163
61 97 161
61 97 164
61 96 157
60 95 156
61 97 166
62 98 163
62 98 169
62 98 159
61 97 163
61 97 159
62 98 163
60 96 158
61 97 152
62 98 161
61 97 152
62 98 161
62 98 162
62 98 161
61 96 153
61 98 165
61 97 158
62 98 164
61 97 152
61 97 158
62 98 159
62 98 160
62 98 159
61 97 153
61 96 155
62 98 159
61 96 155
62 98 165
61 96 156
62 98 157
61 97 152
62 97 160
62 97 159
61 96 153
60 96 154
61 97 156
60 96 145
61 96 150
61 97 155
61 97 155
61 97 150
62 98 158
61 96 145
62 98 156
63 98 159
61 96 150
61 97 153
62 98 156
62 97 154
62 98 156
62 98 159
61 97 155
60 96 148
62 97 155
61 96 149
61 96 151
62 97 153
63 99 160
62 98 160
62 98 159
62 98 154
62 98 157
62 98 160
62 98 154
61 97 155
61 96 148
61 97 154
61 96 148
62 97 154
61 96 144
60 95 142
61 97 155
61 96 144
61 96 145
62 97 157
61 97 149
62 98 150
62 97 153
61 97 149
61 97 151
60 95 143
61 96 148
61 96 151
63 99 157
62 98 162
61 96 143
61 97 151
62 97 145
61 96 144
61 96 144
61 96 145
61 97 145
62 97 152
61 96 146
62 97 152
62 97 148
61 96 139
61 96 144
60 95 150
60 95 141
61 96 147
60 95 135
59 93 134
59 93 128
61 95 137
59 94 142
59 93 133
60 94 142
61 96 141
61 95 139
59 92 137
59 92 134
59 92 126
59 93 129
58 91 133
106 116 61
102 105 0
123 131 0
112 120 0
118 124 0
111 115 0
103 105 0
112 115 0
117 125 0
119 124 0
115 122 0
101 101 0
101 103 0
110 113 0
110 113 0
107 108 0
108 110 0
121 122 0
97 96 0
102 102 0
106 108 0
111 112 0
90 92 0
113 114 0
99 98 0
108 109 0
88 87 0
101 100 0
92 90 0
105 106 0
92 87 0
93 86 0
89 84 11
84 79 0
82 75 0
81 72 0
86 79 11
84 79 0
89 81 0
93 84 0
93 86 0
93 87 0
91 85 0
96 91 0
94 87 0
96 90 0
98 94 0
90 81 0
102 95 0
102 94 0
92 86 0
91 84 0
85 79 0
93 85 0
103 96 0
96 90 0
98 91 0
96 88 0
94 88 0
90 84 0
101 94 0
109 102 0
93 87 0
100 94 11
98 92 0
104 98 0
106 98 11
91 85 0
96 88 0
104 97 0
104 96 11
99 97 0
123 123 0
120 119 0
141 143 0
134 134 0
136 139 0
146 150 0
138 141 0
142 145 0
146 150 0
146 150 0
137 139 0
138 142 0
139 143 0
146 152 0
142 146 0
142 147 0
151 157 0
145 152 0
142 149 0
147 155 0
151 158 0
152 159 0
148 158 0
150 160 0
154 163 0
153 160 0
156 165 0
150 159 0
150 159 0
157 167 0
155 165 0
154 161 0
148 157 0
155 167 0
155 166 0
162 176 0
157 170 0
157 168 0
152 165 0
156 169 0
157 167 0
156 167 0
157 169 0
156 166 0
162 178 0
157 171 0
161 176 0
161 175 0
159 174 0
161 176 0
164 180 0
159 175 0
165 182 0
164 180 0
164 180 0
164 181 0
164 180 0
169 185 0
163 181 0
167 186 0
163 181 0
168 184 0
162 180 0
168 185 0
167 184 0
167 186 0
167 187 0
166 183 0
199 218 193
198 218 196
203 221 201
204 221 201
209 226 221
207 224 215
212 228 227
208 225 223
197 215 175
182 203 111
176 199 51
174 198 76
174 197 88
172 197 92
176 199 88
175 199 62
176 200 88
171 195 57
175 198 57
174 198 57
174 197 72
174 198 62
173 197 67
175 198 51
175 198 88
174 198 84
174 199 84
175 199 62
174 198 62
172 196 80
173 196 76
172 196 57
175 198 72
174 198 76
174 198 88
174 197 51
172 196 88
175 199 76
169 193 76
177 200 84
175 199 67
174 198 80
175 198 72
174 197 67
172 195 57
174 198 76
176 199 67
173 197 80
175 198 67
173 197 72
171 196 80
171 195 72
175 199 62
175 199 76
174 198 80
175 198 76
173 197 72
174 198 72
174 197 51
172 196 51
176 199 92
172 195 84
170 193 76
174 198 76
174 197 62
174 198 67
175 198 76
175 199 76
175 198 80
170 194 57
130 155 147
110 137 173
97 126 179
89 119 162
102 130 163
100 128 165
94 124 164
101 129 161
103 131 159
102 129 161
112 139 162
100 128 164
103 131 156
110 138 167
88 118 169
110 137 170
106 133 164
154 175 209
194 212 242
208 226 252
130 153 207
80 112 185
73 107 184
78 111 184
90 120 188
73 107 183
81 113 184
80 112 184
77 109 180
79 111 177
72 106 181
71 105 177
82 113 181
82 113 184
78 110 179
75 108 177
62 99 176
61 98 170
62 98 171
61 98 167
62 99 171
61 97 163
63 99 169
61 97 162
62 99 170
61 97 165
63 98 158
64 99 163
67 101 161
63 98 164
64 99 158
61 96 155
63 97 155
69 103 157
61 97 162
61 97 159
60 96 159
61 97 166
62 97 157
61 97 159
61 97 162
61 97 163
61 97 165
60 96 158
62 98 164
61 97 160
62 98 166
61 97 161
60 96 147
61 97 156
62 98 159
61 97 155
61 97 159
61 98 167
60 96 158
62 99 167
61 97 161
61 98 163
61 97 163
62 98 165
61 97 158
62 98 161
62 98 162
62 98 161
61 97 160
61 97 157
61 96 153
62 98 165
61 97 157
62 98 157
62 98 160
62 98 162
61 97 156
61 96 154
63 99 163
61 97 157
62 99 169
63 99 164
61 96 153
62 98 157
61 97 162
61 97 160
61 97 161
63 98 157
62 98 159
61 98 162
62 98 163
61 96 149
62 98 164
62 97 148
62 97 157
61 97 157
61 97 152
62 98 160
61 97 153
62 98 157
61 97 156
62 98 160
62 98 157
61 97 154
62 98 155
62 97 154
63 99 163
61 97 153
61 97 156
62 97 155
62 98 155
62 98 156
63 98 162
62 98 156
61 96 154
62 98 155
62 98 152
61 96 150
61 97 160
61 96 145
62 97 151
63 98 154
62 98 155
62 98 160
61 97 151
60 95 143
61 96 151
60 96 148
61 96 147
60 96 143
61 97 154
62 97 145
62 97 157
62 97 153
61 96 153
61 97 159
61 97 144
62 97 149
61 97 151
61 97 148
61 96 145
61 97 149
60 95 143
60 96 139
60 95 137
61 96 136
61 96 142
61 96 145
60 95 139
61 97 151
61 96 141
61 96 145
61 96 143
62 97 145
60 94 143
61 96 138
59 94 141
61 96 144
60 95 136
61 96 147
60 94 142
61 96 138
60 94 135
61 96 144
60 94 137
58 92 132
59 93 141
60 94 134
60 94 134
59 93 133
58 92 131
58 93 125
58 91 124
60 91 118
112 119 25
110 118 0
120 128 0
104 111 0
121 132 0
113 121 0
118 122 0
112 115 0
112 116 0
105 109 0
122 127 0
107 110 0
109 111 0
104 106 0
107 111 0
104 105 0
111 115 0
118 121 0
115 118 0
109 110 0
104 108 0
98 101 0
111 116 0
107 104 0
104 99 0
99 101 0
98 96 0
106 107 0
100 97 0
109 107 0
104 105 0
99 95 0
93 93 0
99 97 0
102 99 0
85 80 0
92 87 0
78 75 0
88 79 0
80 74 0
83 76 0
95 87 0
86 78 0
89 82 0
92 86 0
77 72 0
90 83 0
97 91 0
93 84 0
92 84 0
90 84 0
91 84 0
87 81 0
98 90 0
91 86 0
99 91 11
90 82 0
95 89 0
94 85 11
87 82 0
95 88 0
105 96 0
90 82 0
92 84 0
93 85 0
107 100 11
107 102 0
109 104 0
116 115 0
126 124 0
123 125 0
125 123 0
135 136 0
116 116 0
138 139 0
132 134 0
142 145 0
143 143 0
136 141 0
140 145 0
140 142 0
140 142 0
144 149 0
140 145 0
141 145 0
144 151 0
146 151 0
148 153 0
147 152 0
145 153 0
147 153 0
148 156 0
149 156 0
150 158 0
147 156 0
155 164 0
157 166 0
158 168 0
152 162 0
155 163 0
158 168 0
148 162 0
149 161 0
159 170 0
153 164 0
155 163 0
157 166 0
156 169 0
160 173 0
160 173 0
158 173 0
161 174 0
154 168 0
160 172 0
162 177 0
161 175 0
163 177 0
161 175 0
157 170 0
160 175 0
162 177 0
158 173 0
161 176 0
166 183 0
164 179 0
163 180 0
163 180 0
169 185 0
163 179 0
160 174 0
164 177 0
156 170 0
161 177 0
161 178 0
165 182 0
166 185 0
161 177 0
164 182 0
164 181 0
164 182 0
201 219 198
201 218 194
210 226 220
205 222 212
207 223 211
203 220 203
190 209 151
180 202 99
174 198 62
175 198 62
176 200 92
177 200 72
173 197 95
176 200 102
174 198 72
174 198 84
173 198 76
171 195 67
174 198 51
175 199 84
175 199 67
173 198 76
171 195 72
173 197 51
174 198 67
176 199 76
174 198 67
175 199 67
172 196 57
171 195 72
171 194 51
172 197 72
173 197 67
177 200 62
177 200 80
174 198 67
172 195 62
172 194 62
172 195 67
173 196 67
175 198 88
174 198 72
173 197 44
173 197 67
176 199 92
175 200 80
176 199 76
170 194 62
176 199 80
174 197 88
177 200 88
172 196 72
175 199 84
172 196 76
172 196 92
177 200 88
171 195 67
172 196 67
175 198 72
175 198 84
173 196 62
172 196 67
173 197 36
172 196 72
176 199 88
173 197 76
175 198 62
172 195 51
172 195 67
171 194 88
139 164 141
101 129 172
101 130 176
97 126 160
101 129 179
102 129 163
105 133 162
107 135 168
111 139 165
98 127 164
101 129 162
111 137 166
109 135 169
105 133 169
104 133 175
108 135 178
107 134 166
100 128 168
108 135 174
158 179 209
200 218 246
118 143 202
78 111 186
81 113 185
83 114 184
76 108 181
84 115 185
73 106 177
84 115 183
81 113 184
87 117 183
82 113 182
68 103 175
92 121 187
90 120 186
82 113 177
71 105 176
64 99 173
61 98 168
62 98 167
61 97 169
61 97 165
62 99 176
62 98 165
62 98 171
62 99 170
62 98 170
63 98 164
66 100 161
63 98 163
67 101 157
67 102 159
65 100 159
61 97 165
64 98 158
60 96 161
62 97 158
61 97 163
61 97 160
62 97 163
62 98 160
61 97 163
60 95 149
62 98 157
62 98 159
60 96 157
62 98 161
62 99 166
62 99 167
61 97 162
60 96 158
61 97 159
62 98 165
61 97 164
61 97 159
62 98 163
61 98 162
61 97 155
62 97 157
61 98 161
61 96 154
62 98 162
60 96 160
62 98 154
62 98 160
61 97 155
61 97 154
61 97 154
61 96 153
62 98 160
62 98 156
62 98 161
62 98 158
60 96 154
62 98 160
62 98 159
62 97 157
62 97 155
62 98 160
62 98 164
61 97 155
63 99 166
61 97 155
62 98 158
63 99 165
61 97 157
62 98 156
62 97 153
63 99 166
62 98 159
62 98 155
60 96 155
61 97 150
62 97 155
62 98 158
62 98 162
61 96 149
62 98 158
62 98 157
61 97 153
62 98 157
61 97 154
62 98 159
61 97 148
62 97 156
62 98 162
61 97 148
62 98 153
62 98 154
62 98 158
61 96 148
61 97 157
60 96 148
61 97 151
62 98 153
60 96 145
61 97 155
62 98 159
62 97 152
61 96 150
61 96 145
62 97 151
62 97 150
61 96 147
61 96 150
61 96 148
61 96 148
61 96 149
61 97 151
62 97 153
62 97 145
62 97 153
61 96 142
61 96 147
61 96 150
62 97 153
60 95 145
61 96 144
60 96 141
61 96 150
62 98 155
60 96 142
62 97 151
62 97 152
60 95 140
60 94 137
61 96 144
61 96 153
60 95 146
58 93 126
61 96 139
61 96 145
60 95 141
61 95 140
60 94 138
61 96 149
60 95 140
61 96 143
60 95 142
61 96 143
59 94 135
60 94 133
58 92 125
61 95 136
60 94 140
60 94 134
58 92 125
60 93 134
58 91 126
76 100 102
114 123 0
114 121 0
116 125 0
124 131 0
112 116 0
114 120 0
124 129 0
106 112 0
118 123 0
109 112 0
104 107 0
104 108 0
109 113 0
120 124 0
114 120 0
104 106 0
106 112 0
107 110 0
110 110 0
95 99 0
107 109 0
111 111 0
110 113 0
98 103 0
107 108 0
105 107 0
114 115 0
103 103 0
105 106 0
103 105 0
102 102 0
104 103 0
98 97 0
113 114 0
114 113 0
107 107 0
104 102 0
93 90 0
108 107 0
99 99 0
97 92 0
98 94 0
89 84 0
97 92 0
99 91 0
91 83 0
95 91 0
91 82 0
83 77 0
90 83 0
85 80 0
87 81 0
76 67 11
94 85 0
87 80 0
92 82 0
99 91 0
93 86 0
91 85 0
104 99 11
112 110 0
118 116 0
117 115 0
123 119 0
127 127 0
128 129 0
120 118 0
132 132 0
127 126 0
125 126 0
128 127 0
130 127 0
131 132 0
128 132 0
132 135 0
128 131 0
137 139 0
132 132 0
140 146 0
144 147 0
147 155 0
149 152 0
145 152 0
143 148 0
141 146 0
144 150 0
144 148 0
148 154 0
151 158 0
136 144 0
150 159 0
145 152 0
148 157 0
154 163 0
149 158 0
148 156 0
153 162 0
152 162 0
157 167 0
152 160 0
156 165 0
152 161 0
149 156 0
159 172 0
160 171 0
149 157 0
158 169 0
153 164 0
156 168 0
162 175 0
160 175 0
161 174 0
160 175 0
155 167 0
159 173 0
163 175 0
164 178 0
163 179 0
160 172 0
162 177 0
166 181 0
165 181 0
161 175 0
164 181 0
164 180 0
162 178 0
162 178 0
165 183 0
165 181 0
166 186 0
161 175 0
163 179 0
165 182 0
164 181 0
165 184 0
166 184 0
166 185 0
167 185 0
166 185 0
163 180 0
207 224 223
205 221 209
215 230 234
205 222 206
186 206 149
177 200 88
172 196 51
174 198 72
173 197 72
175 199 80
174 198 80
176 199 67
175 198 67
172 196 25
174 198 62
170 194 76
174 198 76
171 195 44
174 197 51
174 197 72
171 195 57
174 197 88
176 200 80
173 197 62
175 199 80
171 194 76
173 196 67
176 199 72
171 195 57
176 199 72
173 197 88
172 196 62
174 198 72
171 195 62
172 196 88
172 196 88
173 197 72
174 198 72
174 198 72
173 196 62
174 198 76
174 198 57
174 198 62
174 197 62
176 199 67
174 198 80
175 199 72
172 196 76
175 199 80
172 196 80
171 194 57
173 197 80
171 195 57
172 194 44
171 195 51
172 196 62
170 194 57
173 197 67
174 196 62
171 195 67
173 196 57
174 198 99
175 198 76
173 197 88
171 195 57
177 200 88
175 198 62
173 196 72
173 196 67
173 197 84
142 167 126
107 135 170
108 135 160
109 136 162
102 130 167
94 123 175
104 132 180
94 123 169
110 138 166
108 136 179
111 138 169
111 138 162
104 131 155
109 136 163
111 136 161
106 133 163
100 128 178
102 130 173
106 133 170
100 128 167
121 145 182
168 187 223
101 129 194
78 111 184
68 103 179
71 105 179
77 109 182
74 107 181
83 114 181
81 113 183
74 107 179
85 116 183
74 107 180
71 105 177
92 120 181
93 121 181
94 122 182
69 104 175
62 98 174
61 97 165
62 99 172
62 98 168
63 99 163
62 98 172
61 98 167
60 96 159
60 96 159
61 98 167
64 99 162
68 103 168
67 101 158
62 98 156
67 101 158
66 99 159
66 99 148
65 100 165
61 96 158
61 97 158
61 96 155
61 97 162
60 96 154
61 97 160
60 97 164
61 97 162
62 99 167
61 97 165
62 97 157
61 96 153
61 96 154
61 97 158
62 98 163
62 99 170
61 97 160
61 97 158
61 97 162
61 96 156
61 97 159
61 97 156
62 98 162
61 97 160
62 98 163
62 98 163
61 97 153
61 97 158
61 97 160
61 96 153
62 98 163
62 98 161
62 98 158
61 96 150
61 97 152
62 98 159
61 97 155
61 97 155
62 98 161
61 97 156
62 97 156
63 100 171
62 98 158
61 98 158
62 98 157
62 98 157
61 96 147
60 95 145
62 98 161
62 98 159
62 98 157
62 98 160
60 96 153
62 98 162
62 97 157
61 96 149
62 98 157
61 97 152
61 96 149
62 98 159
62 98 160
62 98 152
61 96 148
61 96 151
60 96 147
61 97 152
59 95 147
61 96 155
61 96 154
61 96 156
61 96 145
63 99 165
61 97 150
62 96 148
60 95 150
61 97 150
60 96 149
61 97 150
62 98 151
61 97 149
61 97 151
61 97 149
61 97 155
62 97 150
61 97 145
62 97 152
62 97 150
61 97 145
61 96 147
61 96 145
62 98 154
63 99 162
61 96 151
62 98 157
61 97 148
61 97 154
61 96 145
62 97 149
61 97 147
60 95 134
62 97 152
62 97 153
61 96 151
61 97 151
59 94 131
60 95 140
60 95 145
62 97 152
60 95 140
62 98 153
60 96 142
60 94 139
60 95 137
60 94 141
60 95 142
59 94 142
60 95 136
61 96 136
61 97 150
60 95 145
60 95 142
60 95 136
60 95 141
62 97 151
58 92 133
59 93 133
59 93 130
58 93 127
59 93 133
59 93 126
59 93 135
60 94 140
58 92 132
108 121 61
113 121 0
114 117 0
108 114 0
102 108 0
122 129 0
106 111 0
118 122 0
106 112 0
108 114 0
108 113 0
93 98 0
113 119 0
111 116 0
112 117 0
107 112 0
109 114 0
106 109 0
105 107 0
114 118 0
113 114 0
113 117 0
106 108 0
100 101 0
108 109 0
104 106 0
94 93 0
100 99 0
110 111 0
112 115 0
96 97 0
94 92 0
99 96 0
102 99 0
105 107 0
100 94 0
107 107 0
98 99 0
99 99 0
112 109 0
109 110 0
117 118 0
112 110 0
112 107 0
105 99 0
104 102 0
101 100 0
108 105 0
109 104 0
108 105 0
106 104 0
104 101 0
107 102 0
110 109 0
114 110 0
106 102 0
125 122 0
118 114 0
104 100 0
118 116 0
122 122 0
121 120 0
120 121 0
123 120 0
117 114 0
127 129 0
128 126 0
120 122 0
121 121 0
136 138 0
134 134 0
133 133 0
134 136 0
129 130 0
136 138 0
133 136 0
140 142 0
134 137 0
140 146 0
136 140 0
141 146 0
142 146 0
148 153 0
146 152 0
147 156 0
155 165 0
146 152 0
143 146 0
143 148 0
145 152 0
145 153 0
152 157 0
147 153 0
148 156 0
149 156 0
144 152 0
157 167 0
152 159 0
156 166 0
153 163 0
153 161 0
155 167 0
149 156 0
160 170 0
153 161 0
151 161 0
149 161 0
156 167 0
156 167 0
160 172 0
155 168 0
157 171 0
159 172 0
157 170 0
158 169 0
156 169 0
162 176 0
163 180 0
162 178 0
158 172 0
159 174 0
157 170 0
162 178 0
156 170 0
163 180 0
159 172 0
159 174 0
156 168 0
162 176 0
162 178 0
166 183 0
162 178 0
167 186 0
161 176 0
165 180 0
165 182 0
161 177 0
159 175 0
160 176 0
159 176 0
166 182 0
212 227 224
203 220 191
183 205 120
174 198 62
175 198 80
174 198 80
173 197 80
172 195 36
176 199 72
172 196 57
173 196 67
175 198 95
174 197 76
174 198 76
176 200 84
171 195 84
172 196 67
173 197 57
175 199 76
172 195 76
175 199 62
174 197 76
172 196 80
174 197 62
176 200 84
175 199 92
174 198 76
176 198 76
175 198 62
172 196 84
170 194 80
176 200 76
173 196 72
172 197 80
174 198 62
174 198 76
177 201 88
175 198 62
174 197 67
171 195 72
173 197 72
174 197 67
174 197 72
170 194 57
174 197 67
174 197 62
171 194 84
172 196 51
172 195 67
168 192 76
172 195 44
172 195 72
174 198 108
170 194 51
174 198 80
171 194 67
169 192 51
172 196 84
174 198 76
174 197 51
176 199 88
175 199 95
172 196 57
174 197 72
173 196 67
174 197 76
169 193 62
173 197 76
172 195 72
172 195 62
158 180 86
100 129 175
93 123 174
92 122 169
85 116 170
88 119 171
99 128 165
107 135 173
107 134 164
94 123 160
90 120 175
103 130 169
94 124 158
101 129 169
105 132 168
105 131 159
108 136 162
99 128 170
95 123 173
92 121 167
108 135 179
115 140 176
128 152 191
80 112 185
76 109 183
62 99 180
62 99 180
62 99 176
79 111 182
83 114 183
84 115 185
76 109 178
89 118 184
77 109 178
82 113 181
85 115 181
90 119 183
95 123 184
63 99 174
61 98 167
61 98 168
63 99 173
61 97 164
65 101 167
61 98 172
63 98 159
61 97 164
62 98 164
61 98 165
63 99 163
62 98 169
60 96 160
68 103 160
65 99 156
64 98 157
61 96 159
65 100 150
61 97 158
61 97 153
62 98 164
61 97 152
61 97 157
61 97 159
60 97 161
61 96 158
62 97 159
61 97 162
61 96 152
61 98 164
61 97 155
61 97 160
61 97 153
62 98 162
61 96 160
61 97 158
61 97 154
61 98 168
61 97 159
61 97 157
61 97 160
63 99 166
62 98 158
62 97 157
61 96 154
61 97 156
62 98 164
62 99 163
62 98 159
61 97 161
61 97 152
62 98 159
62 97 155
61 97 155
62 98 160
63 98 158
61 97 151
61 97 156
61 97 156
61 97 150
62 98 160
61 97 152
61 97 151
61 97 155
61 97 156
60 95 152
61 97 156
61 96 150
63 99 162
61 96 154
62 97 151
61 96 149
62 98 152
62 98 160
61 97 159
61 97 155
60 96 151
62 98 157
61 97 155
62 97 157
61 97 156
61 96 151
62 97 150
62 97 156
61 97 152
61 97 156
61 97 151
59 95 142
61 97 156
61 96 145
61 97 153
62 97 150
60 95 136
62 98 155
62 97 152
62 97 151
61 96 150
61 97 149
61 97 149
60 96 144
62 97 154
61 97 152
62 98 154
61 96 153
61 97 153
61 96 144
61 97 151
61 97 149
61 96 141
60 96 152
61 96 145
61 97 152
62 98 155
62 97 151
60 95 145
61 96 143
61 96 149
62 98 154
62 97 154
62 97 145
60 95 145
60 95 142
61 97 150
61 96 147
60 95 139
60 94 143
61 97 148
60 95 140
61 96 149
61 96 148
60 94 136
62 97 147
61 96 149
62 97 148
61 96 143
59 93 139
61 96 144
60 95 142
61 95 144
58 92 125
59 93 129
60 94 128
61 95 137
59 94 136
60 94 131
59 93 127
57 91 117
58 91 125
57 89 117
60 91 123
106 111 0
118 126 0
110 116 0
118 128 0
109 118 0
114 122 0
121 128 0
106 112 0
109 115 0
116 121 0
108 113 0
107 113 0
107 112 0
124 132 0
122 128 0
105 107 0
108 106 0
115 119 0
108 112 0
103 108 0
113 114 0
106 109 0
115 117 0
116 120 0
103 103 0
110 114 0
110 113 0
101 100 0
103 104 0
100 99 0
100 99 0
108 110 0
123 123 0
109 112 0
103 104 0
107 106 0
105 104 0
111 108 0
109 111 0
100 100 0
104 102 0
100 97 0
111 109 0
117 116 0
112 112 0
108 106 0
113 112 0
112 110 0
106 104 0
115 116 0
104 103 0
115 110 0
109 110 0
120 121 0
122 120 0
113 112 0
122 122 0
130 129 0
121 119 0
108 105 0
113 113 0
120 118 0
122 123 0
115 115 0
110 106 0
130 130 0
123 126 0
134 135 0
119 118 0
130 134 0
133 134 0
124 123 0
137 136 0
135 139 0
128 130 0
136 139 0
132 134 0
142 144 0
135 139 0
138 144 0
139 142 0
146 150 0
136 139 0
141 144 0
141 146 0
148 156 0
139 146 0
155 167 0
146 151 0
148 155 0
150 159 0
155 165 0
144 152 0
142 148 0
148 154 0
152 161 0
146 150 0
152 162 0
150 162 0
158 169 0
154 163 0
150 160 0
159 169 0
158 170 0
155 167 0
164 178 0
151 161 0
158 170 0
155 167 0
163 175 0
157 167 0
156 170 0
161 175 0
164 179 0
159 174 0
163 177 0
159 173 0
160 176 0
159 173 0
153 166 0
160 176 0
157 170 0
162 175 0
163 178 0
166 183 0
160 175 0
160 176 0
159 175 0
165 183 0
160 176 0
161 178 0
163 178 0
165 183 0
164 182 0
165 183 0
165 183 0
164 179 0
162 179 0
163 180 0
171 190 0
163 180 0
182 204 122
173 196 51
175 199 92
173 197 67
172 196 84
175 199 76
173 197 76
175 198 80
174 197 72
175 199 88
174 197 72
174 198 67
175 199 76
175 198 62
173 197 67
176 200 92
172 196 76
174 197 67
176 199 76
175 199 72
175 198 67
174 198 51
172 197 62
174 197 72
174 198 62
171 196 57
173 197 57
170 194 72
175 199 67
172 197 76
173 196 72
173 198 99
173 197 62
173 198 92
171 195 72
175 199 67
170 194 76
175 199 76
173 197 76
174 197 80
168 191 72
173 198 80
174 197 92
170 194 80
174 198 67
171 195 62
174 199 80
174 198 76
171 195 92
171 194 84
173 197 80
170 194 57
173 197 76
171 195 51
173 197 76
175 198 95
174 197 80
171 194 51
168 193 72
172 196 88
173 197 80
174 197 67
171 195 80
170 194 67
173 196 84
170 193 72
173 197 88
171 194 72
174 199 84
176 199 80
170 194 99
112 139 156
108 135 172
102 130 172
88 119 177
99 128 161
105 132 173
103 131 174
94 124 170
92 122 168
95 124 160
99 127 156
109 136 167
104 132 166
111 137 169
105 132 166
100 128 158
97 126 163
104 131 150
105 132 171
93 122 165
102 129 168
93 122 169
97 126 167
77 109 177
76 109 183
76 109 184
81 112 181
68 103 175
74 107 180
78 110 176
77 109 183
84 115 185
77 109 179
80 111 176
82 113 179
101 127 184
87 117 181
90 119 181
70 104 166
62 98 170
62 98 164
60 96 161
61 98 168
61 97 163
62 98 172
61 97 166
60 96 161
61 97 163
61 98 161
60 96 155
71 104 159
65 100 160
68 101 149
65 100 164
63 98 160
65 99 156
60 95 159
60 96 157
60 96 153
60 96 159
61 98 163
60 95 155
60 96 156
61 96 155
62 97 158
61 97 164
61 97 157
62 97 155
62 98 161
62 98 159
61 97 162
61 97 160
61 97 159
61 97 154
61 98 159
61 97 154
60 96 153
61 98 160
61 97 158
61 97 152
60 95 153
62 98 164
61 96 150
61 97 161
60 96 148
62 98 159
61 97 153
61 97 147
62 97 157
61 97 150
61 98 162
61 97 156
61 97 154
61 97 151
62 98 156
61 97 158
62 98 160
62 98 155
62 98 158
62 98 158
60 96 156
62 98 162
62 98 161
62 97 153
62 97 156
62 98 161
61 96 145
62 98 155
61 96 148
62 98 159
61 97 151
62 97 153
62 98 156
61 96 151
62 98 154
61 97 151
62 97 152
62 97 148
61 97 152
61 97 155
62 98 159
60 95 140
61 97 151
61 96 145
61 97 153
62 98 157
61 96 144
60 95 141
61 97 147
62 97 149
61 97 152
61 97 150
61 97 154
62 97 158
60 96 143
61 97 153
61 97 149
62 98 160
61 97 150
61 97 151
61 96 145
60 95 137
61 97 151
60 95 144
60 95 142
61 97 151
61 96 150
61 97 154
62 97 148
60 95 147
61 97 152
60 95 148
62 97 150
61 96 145
61 96 139
61 96 145
63 99 157
61 95 137
60 95 137
61 96 145
61 95 137
60 96 147
61 96 144
59 94 134
61 96 141
60 95 139
61 96 144
60 96 152
62 97 148
61 96 136
60 95 141
60 95 139
60 95 144
60 95 135
61 96 139
60 94 131
59 94 147
59 93 125
61 96 139
60 94 130
59 93 129
58 92 129
60 94 129
60 94 133
59 93 134
58 91 119
57 89 125
88 107 82
114 124 0
118 127 0
115 125 0
115 121 0
121 127 0
119 127 0
105 111 0
117 123 0
109 116 0
110 118 0
120 127 0
121 127 0
120 126 0
110 114 0
105 111 0
108 112 0
102 106 0
106 108 0
113 114 0
109 114 0
113 115 0
111 115 0
104 105 0
107 111 0
113 114 0
118 121 0
103 103 0
104 107 0
110 113 0
107 108 0
104 105 0
109 110 0
111 114 0
110 111 0
107 106 0
111 112 0
112 114 0
105 107 0
113 113 0
103 100 0
109 109 0
103 102 0
96 97 0
112 113 0
109 109 0
117 118 0
96 95 0
106 107 0
97 93 0
114 115 0
117 116 0
122 124 0
112 112 0
109 107 0
107 105 0
115 114 0
119 119 0
123 122 0
113 112 0
117 115 0
113 114 0
124 125 0
112 111 0
125 127 0
117 117 0
126 127 0
131 133 0
141 144 0
136 138 0
132 132 0
133 134 0
129 129 0
136 138 0
140 143 0
140 144 0
137 140 0
142 145 0
145 150 0
129 132 0
140 145 0
141 146 0
137 141 0
145 151 0
149 155 0
145 150 0
140 144 0
146 152 0
144 152 0
148 154 0
145 152 0
146 154 0
145 152 0
151 162 0
153 162 0
152 160 0
154 161 0
160 171 0
154 161 0
157 168 0
160 173 0
155 167 0
154 166 0
157 166 0
156 168 0
155 165 0
155 168 0
152 163 0
157 168 0
159 173 0
160 174 0
161 173 0
163 176 0
162 179 0
158 171 0
164 178 0
161 174 0
156 169 0
160 174 0
162 178 0
165 178 0
161 176 0
161 176 0
164 180 0
164 181 0
163 179 0
160 175 0
160 173 0
165 183 0
160 174 0
162 177 0
164 182 0
162 177 0
163 180 0
160 176 0
165 181 0
161 179 0
164 182 0
168 185 0
165 183 0
159 177 0
163 181 0
173 197 51
175 198 80
175 198 67
176 199 67
175 198 62
175 198 72
173 196 57
175 199 84
176 199 80
175 198 88
172 196 72
174 198 88
174 198 67
172 195 72
172 194 67
176 199 72
175 198 67
175 198 92
173 196 72
176 199 76
173 197 80
175 198 67
174 198 80
173 198 80
174 198 62
175 199 76
173 197 84
171 194 67
175 199 84
171 195 51
172 195 72
171 195 62
175 199 88
174 198 80
172 195 62
170 194 67
173 196 80
174 198 62
174 198 92
175 199 88
173 196 72
174 197 67
169 193 57
174 197 76
173 197 76
170 193 76
175 199 80
171 195 80
170 194 67
174 199 80
175 198 76
174 198 72
174 198 95
175 198 80
170 194 51
170 194 80
170 194 62
170 192 57
173 196 76
172 196 80
173 196 62
172 194 62
172 196 62
170 193 84
172 196 62
169 193 72
174 197 80
172 196 62
166 189 57
171 195 67
172 195 72
133 158 143
73 106 163
102 131 165
103 132 175
99 128 171
98 127 172
89 120 170
104 132 157
108 136 177
106 134 175
101 129 169
105 132 167
105 132 165
94 124 164
106 133 160
97 126 167
102 130 166
113 140 161
115 141 155
90 120 168
93 122 162
86 116 159
107 134 179
92 121 168
86 116 171
79 111 179
88 118 188
81 113 184
74 107 181
76 109 181
79 111 181
79 111 183
71 105 177
94 122 185
89 118 181
84 115 180
82 113 180
71 104 171
82 113 176
65 100 167
62 98 169
61 98 167
61 98 169
62 98 168
62 98 166
61 97 166
61 97 160
60 96 153
61 97 162
61 97 161
61 97 160
66 101 153
63 98 161
65 100 163
67 101 158
67 101 155
62 97 163
64 99 157
61 96 164
62 98 163
60 96 161
61 97 161
61 97 160
61 97 159
60 96 159
62 98 162
60 96 161
61 96 155
61 96 144
62 97 163
60 96 157
62 98 162
62 98 162
61 97 155
62 97 163
62 98 157
61 97 155
60 96 157
61 96 155
61 97 156
62 98 159
62 98 157
62 98 158
61 97 154
60 96 154
62 98 154
62 97 156
61 97 154
61 96 154
61 96 149
62 98 161
61 96 154
61 96 152
62 98 160
61 97 159
61 97 153
61 97 150
62 98 156
61 97 153
62 97 154
61 96 147
61 97 150
61 97 157
61 96 147
61 96 151
62 97 153
62 98 158
61 96 151
62 97 151
62 97 156
61 96 143
62 99 162
62 98 157
61 97 152
62 98 158
61 97 158
62 97 151
61 97 149
61 96 148
62 97 155
61 97 154
60 96 145
62 97 152
61 97 153
62 97 156
61 96 149
60 96 142
61 96 148
61 96 137
61 96 143
61 96 148
61 97 152
61 97 148
61 97 153
61 97 152
61 96 144
61 96 149
60 95 143
60 95 143
61 96 143
61 97 150
62 97 144
62 97 152
61 96 143
61 96 149
61 97 152
61 96 144
62 97 145
61 96 149
61 97 148
61 96 147
61 97 147
62 97 151
60 95 145
61 97 147
60 95 140
60 95 142
61 96 145
60 94 135
60 94 126
60 96 147
60 95 150
60 95 135
61 96 145
61 96 145
60 95 141
62 97 156
60 95 139
60 94 129
60 95 140
60 94 141
60 94 135
60 95 139
61 96 143
60 94 131
61 95 140
59 93 135
60 94 135
60 94 135
59 94 130
59 93 128
58 91 128
59 94 135
58 92 126
59 92 118
59 93 130
58 91 117
97 110 57
108 114 0
121 131 0
118 124 0
111 119 0
121 128 0
115 124 0
114 119 0
115 124 0
118 123 0
119 123 0
116 122 0
126 134 0
118 123 0
113 118 0
111 114 0
125 132 0
115 120 0
105 109 0
111 116 0
109 112 0
121 126 0
121 125 0
108 109 0
106 108 0
113 116 0
120 124 0
113 117 0
114 117 0
115 117 0
107 110 0
112 114 0
109 108 0
106 106 0
110 110 0
116 114 0
119 123 0
117 120 0
101 100 0
107 108 0
105 108 0
115 116 0
116 114 0
107 105 0
118 119 0
101 98 0
116 114 0
113 111 0
110 108 0
116 115 0
120 119 0
110 111 0
106 103 0
113 110 0
115 113 0
122 118 0
117 114 0
116 117 0
118 116 0
129 131 0
121 119 0
116 118 0
114 113 0
122 128 0
126 129 0
130 130 0
135 140 0
133 136 0
125 126 0
125 126 0
125 125 0
130 132 0
143 146 0
134 138 0
137 141 0
139 142 0
131 135 0
137 143 0
137 142 0
143 147 0
141 147 0
140 143 0
150 156 0
148 154 0
142 143 0
147 153 0
146 150 0
148 156 0
153 160 0
141 145 0
150 158 0
158 166 0
144 151 0
152 161 0
152 162 0
153 161 0
150 159 0
154 168 0
153 165 0
153 164 0
155 166 0
151 161 0
150 160 0
156 167 0
158 170 0
150 158 0
155 168 0
159 171 0
158 170 0
162 173 0
154 164 0
158 172 0
160 172 0
158 171 0
163 177 0
162 176 0
161 176 0
158 173 0
152 166 0
165 182 0
162 177 0
164 179 0
164 180 0
158 175 0
161 175 0
164 182 0
164 179 0
161 177 0
158 174 0
164 180 0
160 175 0
161 177 0
166 182 0
164 181 0
165 182 0
166 182 0
167 183 0
164 183 0
166 184 0
164 182 0
161 177 0
161 178 0
172 195 57
177 200 80
173 197 88
179 201 84
178 201 105
175 199 76
176 200 84
175 198 76
177 199 62
174 198 72
176 199 76
175 198 72
176 200 76
175 199 80
174 198 72
173 197 57
172 196 67
173 197 67
175 199 99
172 195 51
170 193 51
170 193 67
172 195 76
175 198 88
172 196 72
175 199 80
170 194 76
174 198 84
170 194 62
172 196 72
174 198 88
172 195 76
173 196 76
174 197 51
171 195 72
172 195 72
171 194 72
174 196 67
173 197 84
174 196 62
175 199 62
171 194 62
175 198 80
173 196 76
170 194 76
172 196 84
171 196 67
170 195 84
175 198 67
168 192 62
173 197 67
173 196 80
170 194 76
172 195 62
176 199 62
173 196 80
174 197 76
170 194 62
169 193 57
173 196 51
170 194 57
173 197 67
173 197 92
173 197 67
169 192 67
172 196 80
171 195 57
173 197 99
173 196 88
171 195 62
169 192 57
156 180 107
94 124 174
100 129 172
84 115 161
99 127 164
93 123 166
96 124 160
87 117 161
106 135 176
101 129 170
100 129 165
109 136 177
100 129 173
98 127 174
95 124 168
99 127 167
100 128 161
97 126 161
124 151 158
106 133 161
96 124 163
100 128 174
110 136 167
109 135 175
87 117 163
89 118 162
70 104 178
76 109 181
76 109 185
74 107 181
88 118 183
91 120 185
82 113 183
82 113 180
78 109 172
72 105 173
74 107 177
90 119 181
70 103 164
80 111 175
71 105 173
64 100 172
61 97 166
61 98 168
60 96 162
61 98 165
60 96 161
64 99 165
61 97 162
62 98 160
62 98 163
61 97 157
73 106 153
63 97 155
68 101 155
65 99 152
61 97 155
66 101 163
61 97 156
61 96 151
62 98 166
61 97 154
61 96 155
61 96 156
61 96 157
60 95 151
60 96 152
59 95 149
62 97 162
61 97 158
61 97 159
62 98 162
62 99 169
61 97 160
62 97 156
62 99 168
61 97 162
61 97 158
61 97 158
62 98 163
62 97 155
62 98 157
62 98 159
62 97 150
62 98 160
63 98 164
62 98 160
61 97 158
62 98 162
62 98 161
63 99 162
62 98 155
62 98 161
63 99 160
61 97 156
62 98 159
61 96 147
62 97 158
61 97 157
63 98 158
60 96 154
62 98 160
61 97 153
61 96 155
60 96 152
60 95 145
62 97 146
62 98 159
62 98 156
61 97 150
62 98 156
61 97 148
62 97 158
61 96 142
60 95 145
61 96 148
61 97 151
62 98 159
62 98 152
61 96 151
62 97 148
61 97 149
60 95 142
62 97 156
60 95 143
61 96 140
61 96 142
62 98 156
62 98 155
61 96 148
61 97 151
61 97 153
60 95 141
62 98 157
61 96 145
61 96 148
61 97 149
62 97 151
61 96 143
60 95 141
62 96 147
60 95 135
60 96 141
60 96 144
60 95 142
61 97 149
62 97 152
62 97 148
62 97 150
61 96 151
62 97 145
61 96 145
61 96 147
61 97 153
61 97 148
61 96 152
62 97 149
62 98 157
61 96 148
60 95 142
60 96 147
61 96 143
60 95 147
61 96 142
61 96 139
61 96 148
60 95 135
60 95 143
61 96 144
62 97 147
60 95 135
61 96 144
61 96 140
61 96 139
60 95 135
59 94 134
60 94 137
59 94 124
60 95 136
60 95 137
59 92 134
59 93 131
56 89 116
59 94 139
59 93 121
58 91 120
72 97 104
110 118 0
118 124 0
118 126 0
125 134 0
104 112 0
118 126 0
109 115 0
103 111 0
117 122 0
116 121 0
114 121 0
116 124 0
99 103 0
117 123 0
114 119 0
111 117 0
115 121 0
112 118 0
110 115 0
114 122 0
124 129 0
106 112 0
119 125 0
102 102 0
118 120 0
108 110 0
111 114 0
108 108 0
107 111 0
109 113 0
111 118 0
116 116 0
122 127 0
103 106 0
110 113 0
113 115 0
113 115 0
107 109 0
111 113 0
116 115 0
106 107 0
104 100 0
108 110 0
112 110 0
110 111 0
113 115 0
122 124 0
118 117 0
111 110 0
113 114 0
119 123 0
116 117 0
121 121 0
114 115 0
125 125 0
130 131 0
128 126 0
121 122 0
126 127 0
118 121 0
121 120 0
133 135 0
125 125 0
116 115 0
131 131 0
130 129 0
124 124 0
136 141 0
130 132 0
140 142 0
133 137 0
135 139 0
144 146 0
128 130 0
138 142 0
137 139 0
133 137 0
144 147 0
145 150 0
132 136 0
145 151 0
135 140 0
139 148 0
136 142 0
148 155 0
144 152 0
143 149 0
149 156 0
144 152 0
143 148 0
144 153 0
148 156 0
148 155 0
150 158 0
154 164 0
143 149 0
144 152 0
161 171 0
155 168 0
156 168 0
146 154 0
152 162 0
157 168 0
153 166 0
156 167 0
151 160 0
160 173 0
156 168 0
156 170 0
149 160 0
150 162 0
150 160 0
159 172 0
159 173 0
158 172 0
159 173 0
156 170 0
159 174 0
159 175 0
161 176 0
157 173 0
163 179 0
166 182 0
162 177 0
159 174 0
161 177 0
163 179 0
160 176 0
165 182 0
163 177 0
159 174 0
160 176 0
165 184 0
167 183 0
164 178 0
162 178 0
166 183 0
167 186 0
166 185 0
162 181 0
163 183 0
164 180 0
172 196 57
173 197 72
177 199 84
174 197 44
176 199 72
173 196 67
173 197 76
173 195 67
174 197 72
174 197 72
172 197 62
173 196 67
170 193 51
173 197 57
175 199 76
172 196 76
175 199 76
174 197 80
177 201 95
173 197 67
174 198 105
174 198 62
175 199 67
172 196 92
172 195 72
174 198 72
172 197 62
174 198 62
170 195 72
173 197 88
174 198 80
172 195 44
172 195 76
176 200 80
171 195 76
173 197 84
173 197 67
171 195 72
171 195 80
172 196 67
172 196 80
173 197 72
173 197 92
170 194 80
171 195 76
172 196 84
174 197 76
174 197 76
170 193 62
173 195 84
171 195 72
173 196 92
170 194 67
171 195 80
174 197 76
171 195 92
172 195 67
170 195 67
175 199 88
171 194 76
171 194 72
173 198 95
169 192 80
166 190 92
171 194 67
164 188 72
174 197 92
174 197 76
173 196 76
174 197 67
168 192 67
172 195 74
115 142 151
103 132 174
93 123 166
90 120 170
100 129 181
86 117 173
100 129 171
94 124 172
95 125 176
92 121 166
102 131 174
99 128 179
103 130 165
112 139 178
104 131 166
98 126 162
105 133 176
102 129 164
100 128 161
110 137 154
104 131 158
97 125 170
94 122 178
107 133 166
93 122 169
100 127 168
83 114 174
67 102 178
77 110 181
74 107 180
77 109 178
79 111 177
71 105 172
74 107 179
71 105 174
94 122 185
82 112 171
74 107 174
83 114 181
82 112 172
62 98 169
61 97 165
62 98 167
61 97 166
61 98 163
60 96 166
61 97 155
62 98 168
63 99 163
61 97 162
61 97 164
60 97 162
65 99 157
65 100 159
60 96 156
68 102 162
67 99 151
60 95 152
60 95 148
61 97 155
61 97 156
61 97 154
61 97 155
60 95 155
61 97 151
61 97 163
62 98 162
61 96 151
61 97 159
61 97 154
61 97 151
60 95 155
61 97 159
60 96 150
63 99 166
60 96 150
61 97 155
62 98 161
61 97 159
62 98 156
61 96 151
61 97 157
62 98 160
61 97 164
61 97 158
62 97 154
61 97 151
61 97 151
62 97 155
62 97 155
62 98 159
61 97 153
61 97 159
62 98 157
61 97 153
61 96 147
61 97 157
62 98 159
60 96 150
61 96 157
62 98 154
61 96 150
61 97 153
62 97 155
63 99 164
61 97 153
62 97 153
62 98 161
62 97 157
61 97 151
61 96 152
62 98 155
60 96 147
61 97 152
61 97 153
61 97 150
62 98 160
62 97 149
62 97 154
62 98 149
62 98 153
63 99 161
61 96 152
61 97 151
60 96 142
62 97 148
61 96 144
61 97 149
63 98 160
61 97 149
61 97 150
61 96 148
61 97 152
61 96 148
61 96 147
61 96 145
61 96 149
61 96 143
60 96 143
60 94 142
62 97 151
61 97 144
61 97 148
60 96 144
62 98 156
62 97 154
60 95 139
61 96 144
61 96 143
61 96 152
60 95 134
60 95 147
60 95 141
60 94 140
62 97 155
62 97 144
62 97 150
60 95 141
60 95 141
60 95 141
61 96 144
61 97 145
61 96 145
60 95 137
60 95 142
60 94 142
60 95 136
60 95 145
59 94 137
61 96 136
60 95 135
60 94 125
61 96 140
61 95 140
60 94 120
59 93 131
59 93 130
61 96 143
60 94 136
58 92 125
60 94 127
56 89 113
60 94 133
57 89 113
58 91 123
95 111 72
115 122 0
109 119 0
115 123 0
114 123 0
116 123 0
124 131 0
113 121 0
114 120 0
115 123 0
112 119 0
118 124 0
117 125 0
112 119 0
114 117 0
121 126 0
106 110 0
108 114 0
116 118 0
119 125 0
119 125 0
113 118 0
114 120 0
110 113 0
114 118 0
118 121 0
104 112 0
107 113 0
96 99 0
111 114 0
111 115 0
106 110 0
115 117 0
114 118 0
108 112 0
109 112 0
116 116 0
123 125 0
118 117 0
112 112 0
114 116 0
113 116 0
118 120 0
119 120 0
123 125 0
117 118 0
109 108 0
116 120 0
115 117 0
110 110 0
122 124 0
123 125 0
119 118 0
112 113 0
125 128 0
112 113 0
113 116 0
130 132 0
120 121 0
114 117 0
116 118 0
118 120 0
128 129 0
133 135 0
120 120 0
116 114 0
121 121 0
127 128 0
127 129 0
132 136 0
140 147 0
132 137 0
137 140 0
139 142 0
129 133 0
126 129 0
140 145 0
139 144 0
133 138 0
145 151 0
138 141 0
141 146 0
146 152 0
149 153 0
142 148 0
138 144 0
143 150 0
147 155 0
149 155 0
138 144 0
154 161 0
145 154 0
153 160 0
155 166 0
150 158 0
155 167 0
151 159 0
147 156 0
156 168 0
149 159 0
144 152 0
154 164 0
151 162 0
157 168 0
154 164 0
154 166 0
152 165 0
156 168 0
154 166 0
156 169 0
157 170 0
154 163 0
158 171 0
163 179 0
160 176 0
156 170 0
161 176 0
160 174 0
161 177 0
158 170 0
160 175 0
155 168 0
162 178 0
158 172 0
158 173 0
157 173 0
158 174 0
160 176 0
156 170 0
161 175 0
163 179 0
159 176 0
164 182 0
166 183 0
164 183 0
161 176 0
159 174 0
167 186 0
163 181 0
165 181 0
163 180 0
163 183 0
167 188 0
176 200 84
175 198 80
175 199 76
171 195 51
174 198 57
172 196 62
173 197 62
176 199 76
174 197 76
173 197 76
173 196 62
175 199 72
174 198 67
174 198 67
175 199 76
169 193 51
175 197 57
172 197 72
175 198 67
172 195 80
175 199 72
172 195 72
176 200 67
173 197 72
172 196 80
174 198 62
173 196 67
174 198 84
173 196 88
171 196 67
172 197 72
172 196 72
171 196 67
172 196 80
174 198 80
172 195 80
172 196 72
168 192 62
172 195 80
172 197 92
170 194 67
173 197 72
172 195 72
173 197 80
173 197 72
169 193 67
168 192 62
170 193 76
174 199 88
176 200 102
169 192 76
171 193 67
170 193 51
172 195 36
169 194 57
167 191 72
172 196 84
169 193 57
169 193 84
170 194 84
175 198 95
172 195 51
172 196 72
169 193 72
172 195 67
170 194 72
170 194 76
171 194 44
169 192 67
172 196 67
169 194 72
170 194 72
136 161 139
93 122 160
97 126 175
97 126 170
101 130 177
89 119 161
95 123 155
91 120 164
95 124 174
87 117 166
104 132 170
90 120 163
96 125 169
104 132 162
90 119 169
97 125 174
103 131 164
90 120 174
104 132 163
110 136 163
115 141 158
117 143 164
90 118 170
106 133 165
92 121 159
101 129 167
77 109 160
84 115 176
84 115 186
76 109 178
86 116 183
86 116 183
79 111 181
71 105 175
76 109 175
75 108 176
82 113 179
77 109 177
85 115 180
80 111 175
83 113 177
63 99 160
62 98 164
61 98 170
61 97 162
63 98 164
61 98 167
60 96 159
64 100 169
62 98 161
62 98 163
61 97 162
62 97 157
64 99 153
61 97 163
61 96 157
65 99 154
62 97 151
64 98 158
61 96 156
60 95 150
60 96 163
61 96 150
62 98 159
60 96 153
61 97 162
61 97 157
61 97 154
61 97 156
61 97 155
61 97 155
62 98 157
61 96 147
61 97 157
62 98 165
60 96 158
61 96 151
62 98 160
61 97 153
61 96 152
59 94 143
62 98 163
61 97 159
61 97 156
62 98 158
61 97 155
61 96 154
61 97 156
62 97 155
61 97 149
60 96 151
61 97 156
61 96 152
62 98 160
61 96 154
62 97 154
62 98 166
61 97 156
61 97 153
62 97 154
60 96 147
61 96 145
62 97 153
61 97 156
62 97 156
60 96 150
61 96 152
61 96 143
61 97 151
61 96 145
61 97 150
60 96 147
61 97 152
61 97 156
61 96 151
61 97 154
61 97 149
61 96 140
60 95 149
62 98 159
61 97 154
60 95 144
62 97 150
61 96 145
61 96 152
62 97 150
61 96 148
61 96 149
61 96 147
62 98 155
61 96 147
62 98 160
60 96 147
61 96 142
62 98 160
61 97 147
62 97 143
61 96 148
61 97 149
62 97 152
60 95 147
60 96 140
60 96 142
60 95 137
61 97 145
61 96 148
60 95 144
60 95 137
61 96 139
62 97 149
59 94 135
61 96 147
61 96 140
61 97 145
61 96 143
60 95 141
61 96 137
62 97 149
60 94 133
61 96 139
61 96 141
59 94 133
60 95 137
60 95 144
60 94 140
59 93 124
61 96 137
60 95 135
60 96 143
60 94 129
60 94 137
60 94 142
60 95 141
58 92 125
60 94 135
59 92 124
61 95 131
59 93 138
60 94 132
60 93 130
58 92 118
56 89 120
58 92 122
59 92 125
71 98 123
121 131 26
112 120 0
123 134 0
113 122 0
115 124 0
109 118 0
125 133 0
114 120 0
123 131 0
118 125 0
121 132 0
117 123 0
121 129 0
117 125 0
121 132 0
124 129 0
108 113 0
120 128 0
116 123 0
114 121 0
117 122 0
118 122 0
128 136 0
111 118 0
119 126 0
122 126 0
103 107 0
107 111 0
112 117 0
111 113 0
124 128 0
110 112 0
114 118 0
116 119 0
115 119 0
117 118 0
113 114 0
120 121 0
120 122 0
106 108 0
129 131 0
107 110 0
121 124 0
118 121 0
122 127 0
115 118 0
125 127 0
125 128 0
114 117 0
108 109 0
117 116 0
121 122 0
114 116 0
117 121 0
123 125 0
125 129 0
123 123 0
124 125 0
119 121 0
119 122 0
124 129 0
132 138 0
129 130 0
123 127 0
130 134 0
128 128 0
132 137 0
141 144 0
137 140 0
132 135 0
129 132 0
132 135 0
133 136 0
139 145 0
132 134 0
135 140 0
139 142 0
137 139 0
141 146 0
144 149 0
137 143 0
145 152 0
142 148 0
139 146 0
151 157 0
144 153 0
139 145 0
141 149 0
157 166 0
150 158 0
144 152 0
153 162 0
157 169 0
141 150 0
156 167 0
148 156 0
150 157 0
147 155 0
150 159 0
151 161 0
147 157 0
156 167 0
157 169 0
157 170 0
161 170 0
153 164 0
159 171 0
152 164 0
154 167 0
157 168 0
154 168 0
153 167 0
160 173 0
160 173 0
153 165 0
158 174 0
155 167 0
158 171 0
158 173 0
165 183 0
158 170 0
160 177 0
160 176 0
163 179 0
158 174 0
160 176 0
159 175 0
159 173 0
168 186 0
161 178 0
166 183 0
163 182 0
163 178 0
163 178 0
159 175 0
161 179 0
162 179 0
163 179 0
164 180 0
166 184 0
168 187 0
163 182 0
167 187 0
176 200 88
177 200 88
178 201 102
174 198 57
174 197 72
178 201 92
173 196 67
172 196 67
174 198 84
171 194 62
173 197 67
171 195 80
172 196 76
175 199 67
171 195 62
173 198 76
176 200 88
174 199 80
175 199 92
170 194 76
171 195 62
172 196 62
172 196 84
173 197 76
173 197 80
173 198 76
174 197 57
174 198 95
172 196 51
171 195 80
173 197 84
173 197 62
174 197 80
172 196 57
175 198 88
172 196 76
174 197 67
171 194 80
172 196 67
173 196 76
170 194 67
174 196 62
170 194 76
167 192 72
174 198 80
169 193 88
169 193 72
171 195 95
172 196 62
168 191 44
172 195 76
172 196 84
177 200 95
169 192 57
167 191 76
170 194 51
169 193 72
171 194 95
172 196 76
170 193 57
171 194 80
172 196 88
168 192 80
168 192 57
170 193 76
170 192 44
170 194 76
169 192 67
174 198 72
171 195 88
169 193 67
174 197 88
166 190 88
98 128 172
103 131 168
95 124 169
99 127 172
102 131 178
96 125 173
99 128 169
99 128 167
96 125 163
93 122 168
105 131 160
101 129 165
93 123 166
96 125 166
99 127 175
98 126 161
96 125 160
106 134 160
101 129 164
105 132 160
106 133 162
104 131 162
114 140 174
97 125 165
103 129 175
102 130 167
95 124 167
90 119 169
76 108 177
73 107 175
84 115 181
68 103 176
81 113 182
79 110 171
87 117 181
79 110 172
79 110 174
92 120 181
77 109 174
75 107 172
80 111 176
62 98 165
61 97 165
62 98 170
64 100 164
61 98 166
61 97 166
62 98 165
61 97 157
60 96 160
62 98 166
60 95 149
61 97 159
69 102 151
72 105 154
69 103 158
62 96 151
66 100 152
67 101 155
63 99 167
61 97 156
62 98 165
61 97 154
60 96 148
60 95 150
61 97 154
61 97 159
62 98 159
61 97 154
61 96 147
62 99 166
60 96 154
59 95 146
62 97 157
60 96 153
60 96 151
61 97 159
62 98 161
60 96 149
61 96 149
60 96 154
61 97 154
61 97 161
62 98 157
61 97 152
61 97 153
62 97 153
60 96 148
61 96 152
61 97 151
62 97 158
62 97 150
60 96 153
61 97 152
61 96 145
62 97 152
61 96 153
61 97 158
62 98 164
61 96 145
62 97 152
61 96 149
61 97 156
62 97 159
63 99 162
62 98 159
62 98 158
62 97 151
59 95 144
62 97 155
61 96 150
62 97 158
62 97 155
62 97 154
62 98 154
60 95 134
61 96 147
61 97 151
61 96 148
62 97 150
62 97 149
60 96 145
61 96 143
61 96 148
61 97 153
62 97 154
61 96 144
61 96 143
61 96 141
62 97 154
62 97 150
60 95 141
61 96 144
61 96 144
60 96 142
61 97 150
60 95 141
62 97 153
61 97 149
61 96 144
59 94 135
62 97 152
61 97 151
61 96 152
60 95 145
62 97 154
62 97 153
61 95 143
61 96 145
60 96 142
60 96 137
60 95 145
62 98 156
60 95 143
61 96 144
60 96 144
60 96 143
61 96 150
60 95 140
61 96 139
60 95 135
61 96 147
60 94 142
61 95 140
61 96 140
59 94 137
61 96 147
61 96 147
60 95 137
60 94 131
59 93 127
59 93 130
61 95 139
59 93 131
57 90 118
59 92 127
60 94 133
59 93 124
59 92 119
57 89 120
58 91 123
58 90 126
58 91 122
96 114 84
122 132 0
111 119 0
119 128 0
117 128 0
113 120 0
122 134 0
122 132 0
117 123 0
121 129 0
108 116 0
128 137 0
113 120 0
127 135 0
123 131 0
105 112 0
123 129 0
117 124 0
114 123 0
114 118 0
125 131 0
115 121 0
108 114 0
107 113 0
114 122 0
125 130 0
113 119 0
103 103 0
104 108 0
128 135 0
118 122 0
124 130 0
110 113 0
123 129 0
109 114 0
116 118 0
114 117 0
127 134 0
108 109 0
113 117 0
115 114 0
118 121 0
116 121 0
101 101 0
122 124 0
123 127 0
114 117 0
124 126 0
124 127 0
110 108 0
118 121 0
117 118 0
128 131 0
111 112 0
120 121 0
123 127 0
121 122 0
127 128 0
129 130 0
124 127 0
128 128 0
121 123 0
122 125 0
123 124 0
119 121 0
123 123 0
127 128 0
133 136 0
131 133 0
142 149 0
137 139 0
130 135 0
140 144 0
141 145 0
142 147 0
143 150 0
139 143 0
140 146 0
151 159 0
134 138 0
141 146 0
141 149 0
144 152 0
144 151 0
150 158 0
144 150 0
139 147 0
148 156 0
147 154 0
144 149 0
148 156 0
147 154 0
141 145 0
147 156 0
154 165 0
144 153 0
145 154 0
151 161 0
151 162 0
156 167 0
159 169 0
143 153 0
145 151 0
150 160 0
152 162 0
153 166 0
147 159 0
156 172 0
160 175 0
157 170 0
163 178 0
155 169 0
159 173 0
156 169 0
155 169 0
157 171 0
156 168 0
153 166 0
156 172 0
157 173 0
163 177 0
158 171 0
155 170 0
166 183 0
161 179 0
163 180 0
163 180 0
164 179 0
164 179 0
165 183 0
157 171 0
159 175 0
167 185 0
162 180 0
165 181 0
162 180 0
156 171 0
158 177 0
164 181 0
166 184 0
169 186 0
162 178 0
165 182 0
162 177 0
172 196 67
177 201 92
178 201 88
173 197 72
173 197 80
172 195 44
172 196 57
170 194 51
176 200 76
173 197 67
173 198 62
170 195 80
176 200 80
171 195 57
175 199 88
174 198 51
174 198 80
172 196 72
173 197 57
174 197 76
174 197 84
171 195 76
173 196 62
173 197 57
171 195 72
170 193 67
175 199 67
171 194 44
174 197 51
170 194 80
173 196 76
174 198 57
170 193 62
174 197 57
172 195 62
172 196 88
172 196 62
170 193 84
170 194 62
172 196 67
171 194 67
175 198 95
171 195 62
168 192 62
173 196 67
170 194 76
175 198 62
169 192 62
169 191 76
172 195 76
170 195 84
169 193 72
172 196 62
169 193 57
173 195 51
170 193 62
171 195 67
170 194 72
169 192 76
169 193 67
175 198 99
170 194 76
172 195 88
168 191 51
170 194 62
170 193 51
172 196 72
168 191 62
171 195 44
168 191 80
167 191 72
168 190 57
171 195 88
118 143 142
96 126 168
103 132 171
97 126 172
91 121 160
88 118 165
86 117 161
92 122 171
94 123 163
98 126 173
94 122 159
92 121 165
98 126 170
92 121 158
95 123 175
96 125 158
103 131 170
97 125 161
93 122 165
101 129 159
97 124 160
111 137 168
111 138 158
104 132 165
96 123 160
96 124 173
86 116 159
94 123 164
83 114 171
77 109 175
86 117 186
73 107 173
76 109 179
87 117 184
91 120 183
71 105 173
80 112 179
82 113 176
80 111 175
80 111 174
83 113 178
68 102 164
62 98 159
62 99 169
61 97 163
61 98 168
61 97 156
60 96 159
62 98 160
63 98 156
61 97 163
62 98 162
64 100 164
64 99 163
63 98 157
64 99 159
65 99 158
59 94 147
61 97 162
60 95 153
62 98 162
60 95 147
61 97 162
61 97 165
60 96 150
61 96 155
62 97 158
61 96 149
61 96 156
62 98 165
61 96 153
60 95 147
61 97 157
61 97 157
60 95 150
61 96 159
61 97 157
60 96 155
61 97 151
61 97 151
61 97 159
62 98 154
60 96 151
61 97 151
62 98 160
62 98 159
61 97 156
61 96 151
62 97 151
62 97 153
61 96 145
61 96 153
62 97 157
61 97 149
62 97 150
60 95 140
61 97 153
63 99 159
60 95 143
61 97 154
61 96 149
62 98 159
61 97 158
62 98 156
60 96 145
61 96 154
61 97 145
61 97 149
61 97 153
61 97 154
62 97 161
61 97 151
61 95 142
61 97 149
62 97 148
59 94 142
61 97 156
61 97 153
62 97 155
60 95 136
62 97 153
61 96 151
62 97 150
61 96 150
61 96 148
60 95 144
61 96 144
60 95 145
61 95 145
62 97 151
61 96 143
61 97 149
60 96 143
61 96 150
61 96 147
62 97 149
62 98 153
61 96 149
61 96 144
62 97 153
60 95 140
60 95 147
59 94 142
62 98 154
60 95 140
61 96 149
61 96 141
61 97 144
61 96 143
60 95 143
59 93 136
61 96 142
61 96 148
60 94 127
60 94 139
61 96 139
60 94 137
60 95 137
61 96 143
60 95 142
61 96 141
60 95 139
61 95 140
61 96 143
60 95 142
60 95 140
60 95 136
59 94 135
62 97 141
60 95 133
59 93 140
58 92 116
60 95 137
60 94 139
59 93 129
60 94 132
59 93 126
58 91 126
58 91 120
59 93 118
59 93 131
58 91 126
64 92 103
111 122 25
124 134 0
114 125 0
114 120 0
123 132 0
128 138 0
121 132 0
118 127 0
115 123 0
123 134 0
119 126 0
122 131 0
125 133 0
111 118 0
107 113 0
116 123 0
116 125 0
118 128 0
116 125 0
124 133 0
118 126 0
123 128 0
126 132 0
119 123 0
107 114 0
128 137 0
109 115 0
122 127 0
105 110 0
115 120 0
115 121 0
116 122 0
128 136 0
126 130 0
112 113 0
124 127 0
125 131 0
115 117 0
122 125 0
112 117 0
110 113 0
103 106 0
121 127 0
121 126 0
119 123 0
134 141 0
128 132 0
130 131 0
111 114 0
122 126 0
121 126 0
131 134 0
129 136 0
116 118 0
115 120 0
129 135 0
125 129 0
123 125 0
119 126 0
128 132 0
122 126 0
129 131 0
132 135 0
134 138 0
137 141 0
129 132 0
135 141 0
138 142 0
138 142 0
132 136 0
139 145 0
131 134 0
136 141 0
132 137 0
130 137 0
140 147 0
141 147 0
137 142 0
145 150 0
146 154 0
141 147 0
143 151 0
142 149 0
152 161 0
143 148 0
150 157 0
146 154 0
144 149 0
153 159 0
146 155 0
139 146 0
149 159 0
144 151 0
145 155 0
152 163 0
154 163 0
142 147 0
150 162 0
151 158 0
149 159 0
151 159 0
160 172 0
151 164 0
147 155 0
156 170 0
161 174 0
162 173 0
155 164 0
156 166 0
157 169 0
158 172 0
153 165 0
162 175 0
152 166 0
158 169 0
162 179 0
158 171 0
165 180 0
160 176 0
154 167 0
156 170 0
164 179 0
164 180 0
164 178 0
159 174 0
163 178 0
161 174 0
158 172 0
161 177 0
165 183 0
160 176 0
163 182 0
163 178 0
166 184 0
162 179 0
158 173 0
161 178 0
167 183 0
164 181 0
163 180 0
165 183 0
166 184 0
167 186 0
162 179 0
176 199 99
173 197 51
175 199 88
175 199 80
173 197 67
172 196 67
172 195 67
171 195 67
176 199 84
171 194 62
173 197 62
173 197 80
172 196 72
171 195 72
174 197 62
172 196 51
173 197 72
174 198 67
173 198 92
171 195 76
173 196 57
172 196 62
173 197 67
172 195 67
173 197 84
173 197 80
174 198 95
173 197 62
170 194 57
173 197 92
172 197 76
167 190 62
170 193 72
173 197 92
169 192 72
169 193 51
171 196 76
170 194 72
172 197 99
173 195 84
171 194 57
168 192 88
169 194 72
171 195 88
172 196 72
170 194 80
168 192 57
171 195 80
168 192 88
173 197 88
166 189 57
167 191 76
169 194 57
172 196 76
170 192 67
173 196 80
169 193 67
172 195 76
168 192 72
169 192 76
167 191 72
169 192 67
170 194 67
169 192 62
172 196 80
172 196 62
170 194 84
170 194 62
169 192 67
172 195 72
174 197 76
169 193 67
172 195 72
156 180 99
95 124 170
85 116 172
96 125 164
88 118 167
88 118 166
85 116 163
91 121 175
102 130 176
93 122 167
95 124 163
90 120 174
94 123 169
102 130 177
84 114 165
104 132 177
90 120 157
105 132 162
97 125 156
94 123 161
99 126 164
111 137 163
109 136 158
115 141 151
101 128 163
103 130 159
92 121 161
88 118 160
83 113 157
99 127 175
84 114 171
71 105 177
76 109 177
74 107 178
84 115 181
77 110 182
71 105 173
88 117 181
77 109 173
87 117 175
83 113 172
88 117 178
69 103 170
62 98 165
61 97 164
61 96 160
61 98 167
61 97 159
62 98 167
62 98 164
61 97 160
61 97 161
62 98 162
60 96 155
65 100 155
62 97 155
65 99 158
65 99 151
62 96 145
62 96 145
61 96 156
61 96 155
60 96 155
63 98 159
61 97 159
61 97 156
61 96 147
61 97 153
62 97 158
61 96 152
60 96 150
61 96 156
62 97 157
60 96 155
61 97 154
61 97 151
61 97 156
61 97 153
61 97 157
61 97 151
61 97 151
62 98 157
62 98 159
61 96 147
61 96 143
60 95 147
61 97 150
62 97 155
61 97 155
60 96 147
61 97 151
60 95 147
62 97 150
62 98 160
61 96 151
61 97 150
61 97 150
60 96 151
61 97 154
62 97 153
61 97 154
61 96 148
61 96 149
61 97 157
61 97 155
60 95 139
61 97 145
61 97 156
61 96 148
61 97 155
60 96 149
60 95 141
61 97 145
61 96 143
62 97 153
62 98 157
61 96 143
61 95 144
62 97 153
61 97 149
61 96 145
61 96 150
62 97 148
61 97 152
61 96 152
60 96 145
60 95 142
62 97 153
61 96 145
61 96 150
61 97 150
62 97 147
60 96 143
61 96 150
61 96 149
62 98 153
61 96 149
61 96 141
61 96 149
62 97 144
61 96 147
61 96 148
60 96 147
61 96 143
60 95 142
61 97 144
61 97 145
61 96 142
61 96 144
61 96 134
61 96 145
60 95 139
60 96 141
59 93 131
61 96 156
61 96 143
60 95 137
60 95 141
59 94 133
60 95 140
61 96 137
60 94 139
62 97 144
60 95 141
61 96 139
59 94 130
58 93 134
60 94 137
59 93 133
60 95 134
60 95 134
58 92 129
61 95 140
60 94 142
59 93 129
57 90 126
60 94 132
58 92 129
58 91 113
57 91 113
57 90 124
56 88 109
75 98 90
113 121 0
132 145 0
118 130 0
115 125 0
116 125 0
113 122 0
120 127 0
124 134 0
121 129 0
118 125 0
125 136 0
113 124 0
113 119 0
134 144 0
126 136 0
109 117 0
120 125 0
119 124 0
114 123 0
122 129 0
123 130 0
124 133 0
120 127 0
113 121 0
119 128 0
123 129 0
114 120 0
129 135 0
117 126 0
111 116 0
124 132 0
115 120 0
113 116 0
109 111 0
110 117 0
117 123 0
121 129 0
126 130 0
124 130 0
120 126 0
114 120 0
122 126 0
119 122 0
112 118 0
115 117 0
130 136 0
120 124 0
124 129 0
123 128 0
127 133 0
115 118 0
124 127 0
124 127 0
129 134 0
115 120 0
123 124 0
124 127 0
125 128 0
124 127 0
121 124 0
132 136 0
130 135 0
126 132 0
130 133 0
125 128 0
127 131 0
136 142 0
135 137 0
136 142 0
136 139 0
139 141 0
131 136 0
142 146 0
134 138 0
137 145 0
134 140 0
141 147 0
147 152 0
138 144 0
137 143 0
148 156 0
146 153 0
143 151 0
150 158 0
152 160 0
148 156 0
145 153 0
140 148 0
150 160 0
144 152 0
142 147 0
149 159 0
149 158 0
148 156 0
154 166 0
150 159 0
154 163 0
151 160 0
154 163 0
150 159 0
152 160 0
146 159 0
151 163 0
151 161 0
151 161 0
153 164 0
154 169 0
157 167 0
157 170 0
159 171 0
158 171 0
156 169 0
160 173 0
157 169 0
152 166 0
152 164 0
161 176 0
158 174 0
157 170 0
152 164 0
167 185 0
160 176 0
161 178 0
158 175 0
154 167 0
161 177 0
162 175 0
161 177 0
160 176 0
161 179 0
165 181 0
167 183 0
163 180 0
164 180 0
163 181 0
163 180 0
162 178 0
164 182 0
167 184 0
163 180 0
163 181 0
160 178 0
161 180 0
166 184 0
174 198 67
169 193 62
170 193 62
173 197 67
174 197 62
175 198 72
171 195 62
173 197 72
175 199 95
172 196 76
170 194 80
175 198 80
172 197 72
171 195 72
173 197 62
171 195 62
176 200 67
173 197 88
170 194 84
173 198 62
174 198 84
173 196 80
167 191 62
174 198 84
174 198 76
171 194 57
167 190 62
173 197 92
170 194 51
172 196 80
171 195 72
170 194 67
173 197 67
172 196 84
175 197 80
171 196 84
171 196 72
171 195 72
172 196 99
170 194 76
167 190 76
169 194 80
167 192 67
171 195 84
169 193 76
169 194 67
167 190 57
172 195 51
173 197 84
174 199 88
172 195 76
173 196 67
169 193 51
171 194 72
167 191 51
172 196 57
173 197 67
168 192 57
166 190 76
173 197 95
173 197 76
169 192 88
165 188 76
172 195 51
163 186 67
171 195 84
172 195 67
169 193 72
169 193 44
173 195 62
169 192 95
167 190 84
166 189 67
169 193 72
111 138 151
88 119 171
102 130 162
95 124 171
100 128 172
91 120 164
90 120 156
84 115 172
90 119 162
91 121 165
104 131 165
95 124 170
93 123 171
93 122 172
105 132 170
99 127 168
94 123 168
97 125 165
106 133 170
97 125 167
109 135 165
97 125 171
105 132 153
100 127 159
116 142 155
98 126 165
103 130 166
89 118 155
94 123 162
85 115 163
77 109 172
81 113 181
73 106 178
77 109 178
73 106 175
74 107 170
68 103 173
77 109 180
77 109 170
85 115 177
75 107 171
88 117 181
78 109 172
61 98 164
62 99 168
62 98 168
61 98 166
62 98 161
61 97 162
61 97 161
61 97 158
61 96 155
60 96 162
60 95 154
65 99 154
64 98 159
69 102 153
64 99 158
62 97 154
64 97 144
62 97 158
61 97 155
61 97 155
60 96 153
61 96 152
61 96 158
60 95 151
61 97 153
62 97 154
62 97 153
60 95 152
62 98 156
61 96 147
62 97 152
62 97 154
61 97 154
61 97 155
61 97 152
60 95 149
62 97 154
61 97 154
61 97 154
62 98 156
62 98 157
62 97 154
61 96 150
62 98 155
61 97 153
62 97 157
62 98 157
62 98 158
61 97 149
60 96 154
62 97 151
62 98 155
61 96 151
62 98 156
62 98 158
61 96 148
60 96 147
61 97 155
60 95 148
60 96 147
61 97 153
63 98 154
61 96 149
60 96 152
60 96 145
60 96 152
60 96 148
61 97 148
61 96 142
61 96 145
62 97 148
61 97 148
62 98 157
60 95 141
61 96 150
61 96 147
60 95 142
61 96 148
61 96 151
61 96 142
62 98 158
60 95 135
61 96 147
61 97 149
61 97 151
61 97 151
61 96 141
61 96 142
60 95 144
61 96 144
61 97 148
62 97 151
61 96 149
62 97 148
59 94 140
61 96 144
62 97 150
60 95 140
60 96 143
61 96 140
60 95 147
60 95 134
60 95 144
60 95 140
61 96 145
61 96 141
60 95 142
60 95 134
60 94 140
61 96 139
61 96 142
60 96 148
60 95 135
61 96 145
61 96 142
61 95 139
59 93 130
58 93 127
61 96 143
61 96 143
61 96 140
59 94 124
60 94 135
59 92 126
60 95 133
60 95 139
60 94 133
60 95 131
60 94 139
58 92 118
59 94 134
60 94 129
58 92 118
59 93 127
58 92 115
57 90 126
58 91 125
60 90 114
106 120 44
126 137 0
111 120 0
121 132 0
126 136 0
117 126 0
117 128 0
122 129 0
116 126 0
116 126 0
121 129 0
121 130 0
110 119 0
126 137 0
108 118 0
121 130 0
112 121 0
110 118 0
110 116 0
116 122 0
109 116 0
113 120 0
108 113 0
105 113 0
122 130 0
124 133 0
120 129 0
118 126 0
116 122 0
123 130 0
133 141 0
119 123 0
121 126 0
123 128 0
125 130 0
121 127 0
123 126 0
115 118 0
113 118 0
123 129 0
121 126 0
118 122 0
118 122 0
130 135 0
130 134 0
118 119 0
125 128 0
129 131 0
121 129 0
117 122 0
113 117 0
130 134 0
123 128 0
124 130 0
119 123 0
125 128 0
127 133 0
117 119 0
133 138 0
128 132 0
122 126 0
139 144 0
131 134 0
131 136 0
135 141 0
135 144 0
138 145 0
135 143 0
136 139 0
138 146 0
132 136 0
131 135 0
138 142 0
142 146 0
141 147 0
139 144 0
139 144 0
146 153 0
147 154 0
145 150 0
138 144 0
143 146 0
139 147 0
148 154 0
143 152 0
153 162 0
143 150 0
149 158 0
149 158 0
151 161 0
147 155 0
146 153 0
153 164 0
152 163 0
156 168 0
155 166 0
149 159 0
159 169 0
152 164 0
156 165 0
161 174 0
155 167 0
158 168 0
156 167 0
157 168 0
148 159 0
160 172 0
157 168 0
157 168 0
161 175 0
163 177 0
160 172 0
154 165 0
153 166 0
156 169 0
155 167 0
158 172 0
161 177 0
160 175 0
163 180 0
156 169 0
160 175 0
160 176 0
161 176 0
161 175 0
161 179 0
160 174 0
164 179 0
159 174 0
159 176 0
164 184 0
162 180 0
163 179 0
159 177 0
159 176 0
162 179 0
168 185 0
164 181 0
168 185 0
165 184 0
166 184 0
164 182 0
164 181 0
165 183 0
162 177 0
176 199 80
175 198 67
174 198 62
174 198 72
174 198 62
173 197 57
171 194 36
172 196 76
174 196 57
174 198 76
172 197 92
175 198 95
170 193 67
175 199 84
171 195 62
174 197 84
172 196 80
172 195 51
175 198 67
170 193 62
170 194 72
170 194 67
174 196 44
173 197 67
174 198 72
173 196 51
171 195 62
172 196 57
170 194 62
169 192 72
173 196 76
171 195 76
168 193 92
173 196 57
170 193 76
167 192 67
172 197 105
171 195 67
172 196 84
173 196 51
170 194 62
174 197 57
166 190 57
166 190 72
170 193 57
168 191 67
169 193 72
172 196 62
169 193 67
172 197 99
166 190 57
171 194 84
172 195 72
165 189 84
171 195 92
168 190 84
171 195 76
172 196 76
166 189 62
168 193 88
163 188 67
167 190 51
170 195 88
171 196 76
169 192 62
168 192 72
168 191 80
171 194 67
168 192 92
170 193 76
170 192 67
163 186 76
168 192 92
167 190 76
148 172 125
92 122 173
88 118 169
98 127 162
83 114 164
99 127 169
99 127 176
98 126 160
93 122 164
99 127 166
102 130 157
84 114 162
88 118 162
84 114 155
88 117 162
92 121 178
99 127 171
92 121 165
101 129 153
82 113 159
101 129 157
96 124 167
80 111 154
112 138 166
101 127 156
118 144 154
102 129 169
103 130 169
88 118 160
87 117 157
75 107 162
86 116 169
79 111 179
77 110 182
82 113 181
62 99 173
80 111 178
74 107 174
82 113 179
85 115 175
82 112 171
80 110 170
86 114 169
62 98 166
61 97 161
61 97 164
62 98 162
61 97 159
61 97 159
61 97 162
61 98 164
62 98 159
60 95 152
64 100 162
64 99 157
63 98 153
63 98 156
66 99 150
62 96 149
61 95 148
60 95 150
60 96 152
61 97 163
62 97 157
60 94 147
61 97 158
62 98 158
61 98 161
61 96 151
61 96 156
62 98 158
62 97 157
61 97 152
61 97 151
60 95 147
60 96 148
61 97 154
62 97 154
61 96 154
61 97 151
62 97 160
62 97 148
61 97 154
61 96 149
62 97 150
61 97 154
61 96 149
61 96 149
61 97 151
62 97 155
62 97 154
61 96 151
61 96 152
62 98 154
60 95 137
60 96 144
61 96 152
62 97 152
61 97 150
62 97 150
61 96 145
62 97 150
61 96 149
61 97 153
62 97 152
60 95 137
61 96 143
61 97 153
61 96 150
61 97 148
60 95 140
61 96 147
60 96 149
62 97 153
60 95 144
62 98 157
61 97 151
61 97 147
61 97 148
60 96 140
62 97 151
61 96 143
62 97 153
61 97 151
60 95 141
61 97 150
62 97 148
61 97 145
59 94 133
60 95 140
60 95 145
60 95 139
61 96 150
62 97 150
61 96 148
60 95 141
62 98 152
61 96 143
61 97 155
60 95 145
60 95 143
61 97 147
60 95 147
60 94 136
60 95 141
60 95 139
60 95 142
61 96 139
61 96 147
61 96 149
61 96 144
60 94 135
61 96 142
61 96 144
61 95 140
59 94 130
61 96 141
61 96 143
59 93 129
61 96 143
60 95 133
61 96 139
59 94 133
59 93 126
59 93 127
60 94 133
59 93 134
59 93 134
59 93 130
61 95 140
61 96 142
58 92 126
59 94 129
59 93 129
59 93 134
58 90 120
58 90 124
58 92 127
60 94 125
56 89 122
91 110 83
123 133 0
114 124 0
118 130 0
116 126 0
110 119 0
111 123 0
130 142 0
122 131 0
114 124 0
135 146 0
111 120 0
119 127 0
127 137 0
120 130 0
120 130 0
113 120 0
115 123 0
123 131 0
114 123 0
119 129 0
109 116 0
133 140 0
123 131 0
118 125 0
114 121 0
117 123 0
116 123 0
119 124 0
121 127 0
115 120 0
117 125 0
120 126 0
119 127 0
128 134 0
117 122 0
121 126 0
129 136 0
120 126 0
120 126 0
126 131 0
117 124 0
118 122 0
126 132 0
118 120 0
128 134 0
127 136 0
125 132 0
130 134 0
123 127 0
125 130 0
128 134 0
135 138 0
127 131 0
134 140 0
124 130 0
117 120 0
136 141 0
127 134 0
132 139 0
123 129 0
141 149 0
127 132 0
130 133 0
136 138 0
133 139 0
135 140 0
132 137 0
130 133 0
135 137 0
145 150 0
132 139 0
144 153 0
141 148 0
131 136 0
139 147 0
131 137 0
140 145 0
142 147 0
135 143 0
143 152 0
141 149 0
138 147 0
144 151 0
140 149 0
146 155 0
141 150 0
153 163 0
143 151 0
149 159 0
149 158 0
149 160 0
145 155 0
152 160 0
156 167 0
149 156 0
153 164 0
151 161 0
159 172 0
154 166 0
145 155 0
147 158 0
150 161 0
154 164 0
157 168 0
154 166 0
154 168 0
155 167 0
152 162 0
157 172 0
152 165 0
161 173 0
161 177 0
161 175 0
155 170 0
157 171 0
161 177 0
160 175 0
160 173 0
157 171 0
157 171 0
157 172 0
161 177 0
162 177 0
162 176 0
159 174 0
166 184 0
161 177 0
164 179 0
166 181 0
166 184 0
164 182 0
161 178 0
160 175 0
161 177 0
161 179 0
162 179 0
170 188 0
163 180 0
165 183 0
166 184 0
166 183 0
164 182 0
166 186 0
163 179 0
167 186 0
174 197 44
174 197 51
170 194 67
172 196 72
173 197 72
175 198 57
173 197 76
176 199 72
175 199 67
171 195 62
173 196 84
172 196 80
174 197 67
171 195 36
174 198 80
172 197 76
173 196 80
172 195 62
172 196 84
170 195 72
174 198 76
171 195 62
170 193 51
170 194 62
168 192 67
173 197 67
171 195 62
173 197 72
171 195 67
167 190 51
170 195 88
168 192 80
171 195 67
167 191 76
172 197 80
169 193 76
172 196 62
172 196 72
169 192 44
170 194 62
171 196 95
168 192 72
171 196 95
174 198 84
168 191 62
171 194 67
165 189 76
167 190 57
173 197 80
166 190 72
170 194 72
169 192 80
173 196 76
170 193 67
171 194 84
170 194 62
169 193 80
167 191 92
168 192 84
171 195 99
166 189 72
171 194 51
166 190 67
168 191 51
163 186 67
170 194 72
171 195 62
173 195 62
169 192 62
172 195 88
168 191 80
168 192 67
162 185 57
167 189 84
168 191 51
114 140 149
85 116 166
105 133 175
92 122 174
93 122 159
90 120 171
105 133 173
99 128 168
87 117 165
97 125 165
98 127 163
95 123 162
100 128 161
86 116 155
106 133 162
92 121 165
99 127 165
108 135 174
93 122 158
98 126 163
102 129 165
87 116 161
104 130 154
103 130 158
104 131 149
116 142 159
118 142 162
89 119 158
100 128 156
85 115 158
79 111 165
84 114 168
76 109 175
80 111 180
76 109 177
82 113 179
92 121 184
77 109 176
77 109 176
82 113 176
74 107 172
80 110 164
68 100 159
62 98 160
62 98 163
62 98 169
62 98 166
62 96 153
61 97 162
61 97 158
62 98 160
60 96 161
60 96 153
62 97 158
63 98 154
65 99 147
63 98 155
69 102 153
62 97 158
68 101 150
63 97 146
61 96 156
62 98 163
60 96 150
61 96 150
60 96 147
61 97 155
62 97 154
60 96 154
62 98 159
60 95 145
61 97 148
61 97 159
60 95 145
62 97 155
62 98 156
61 96 155
62 97 158
61 97 154
61 96 150
62 98 155
61 97 155
61 97 151
61 96 154
61 96 150
61 97 152
61 97 153
60 96 151
61 97 151
62 97 151
62 97 154
60 95 148
61 97 150
61 96 145
61 97 153
62 97 155
61 96 148
61 96 145
61 96 147
61 97 149
61 97 148
62 98 155
61 97 156
61 97 150
61 96 144
62 97 152
62 97 150
61 97 153
61 96 149
60 95 143
61 96 139
60 94 139
61 97 150
62 98 153
60 95 140
61 96 144
61 97 150
60 95 142
61 97 149
60 95 135
60 96 141
62 98 151
63 98 155
61 97 151
62 97 152
60 95 147
62 97 152
60 95 143
60 95 135
60 95 137
61 97 151
61 96 145
60 95 145
61 97 142
59 94 135
60 95 133
60 96 145
61 96 141
61 96 144
59 94 136
60 94 130
61 97 141
62 97 152
61 96 144
61 96 143
61 96 136
61 96 147
62 97 145
60 95 144
60 95 142
61 96 133
60 95 131
60 95 141
60 95 140
60 95 140
61 96 142
58 92 122
60 95 131
61 96 142
60 95 133
59 94 135
58 93 122
59 93 127
60 95 130
59 93 125
60 95 136
60 95 135
60 95 135
58 91 121
59 93 122
59 92 128
59 93 125
59 92 119
59 93 133
57 90 123
58 92 125
58 91 121
55 87 107
63 94 115
112 126 40
116 125 0
107 116 0
123 135 0
121 132 0
110 121 0
131 140 0
108 116 0
121 132 0
120 134 0
122 132 0
122 132 0
124 137 0
124 136 0
114 123 0
121 129 0
124 133 0
112 121 0
120 129 0
124 134 0
118 127 0
128 139 0
122 131 0
126 137 0
115 124 0
112 121 0
116 125 0
126 132 0
122 132 0
120 127 0
121 128 0
119 126 0
117 121 0
121 129 0
116 122 0
132 138 0
118 126 0
110 115 0
127 132 0
121 129 0
128 132 0
122 128 0
122 127 0
114 118 0
117 123 0
115 120 0
127 136 0
118 120 0
128 132 0
117 121 0
128 134 0
131 137 0
127 131 0
132 140 0
134 140 0
126 133 0
132 138 0
133 139 0
133 138 0
134 135 0
132 136 0
137 142 0
131 135 0
135 141 0
131 135 0
131 135 0
133 140 0
132 137 0
128 134 0
143 150 0
142 150 0
130 136 0
144 152 0
145 155 0
136 144 0
147 151 0
138 143 0
144 148 0
145 154 0
141 146 0
142 147 0
146 152 0
147 153 0
146 153 0
150 159 0
145 154 0
148 159 0
149 158 0
149 158 0
151 159 0
151 160 0
149 160 0
149 159 0
148 157 0
148 158 0
156 168 0
154 163 0
153 166 0
148 161 0
152 162 0
152 163 0
151 161 0
154 166 0
156 168 0
157 169 0
157 170 0
156 170 0
147 158 0
157 170 0
152 165 0
155 168 0
152 164 0
159 173 0
160 175 0
152 166 0
157 171 0
156 170 0
163 178 0
159 174 0
156 169 0
157 172 0
160 175 0
153 168 0
158 173 0
157 170 0
156 171 0
166 183 0
158 176 0
159 175 0
166 182 0
165 181 0
157 171 0
164 182 0
168 187 0
165 183 0
165 184 0
160 176 0
164 183 0
165 184 0
160 179 0
167 184 0
167 185 0
161 177 0
164 182 0
163 181 0
165 185 0
176 200 88
174 197 84
171 195 80
174 197 72
175 198 76
175 199 76
175 199 95
172 196 67
174 198 92
171 195 84
172 195 72
170 194 62
174 197 72
173 196 67
175 198 84
175 199 92
173 196 62
174 197 57
172 196 51
174 198 76
170 195 88
170 195 72
172 196 67
172 196 62
171 195 80
174 198 99
171 195 67
168 194 72
171 195 62
172 195 67
170 193 72
173 198 92
175 199 84
172 197 72
172 196 72
169 193 76
173 197 67
168 192 76
172 195 67
169 193 88
174 198 72
167 191 62
170 194 72
170 193 72
167 192 67
168 192 84
172 196 80
162 186 62
171 195 92
172 195 84
168 193 80
171 194 76
169 192 44
172 196 72
170 194 80
172 194 80
169 192 62
170 194 36
165 189 67
171 195 80
168 191 92
171 195 72
171 195 76
171 195 84
171 195 88
163 186 72
164 188 67
171 195 84
164 187 62
166 189 72
161 184 51
167 191 76
165 188 67
168 192 84
167 191 72
154 178 110
95 125 170
90 120 166
95 124 164
85 116 162
82 112 160
97 126 164
94 123 173
89 119 169
102 130 170
105 133 175
95 124 174
89 119 172
97 125 165
90 119 166
88 118 162
104 131 173
95 124 165
99 127 162
100 127 170
104 131 164
98 125 170
107 133 165
107 134 164
103 130 158
105 132 157
102 129 151
102 129 160
96 124 160
84 114 159
94 122 147
86 116 160
82 112 158
82 113 181
71 105 177
74 108 179
83 114 180
69 103 173
79 111 175
78 109 174
69 103 173
83 113 175
80 109 172
71 102 163
62 98 168
63 98 159
62 98 165
61 97 160
61 97 160
62 98 161
64 99 162
60 96 157
61 96 158
61 96 157
61 97 154
64 99 158
71 104 146
63 98 150
64 98 152
64 98 153
67 101 154
59 94 150
61 97 154
59 94 144
59 94 145
62 97 155
60 95 147
61 96 154
61 96 153
61 96 149
61 96 157
61 96 155
61 97 159
60 96 148
61 96 147
60 95 143
61 97 148
62 98 156
61 97 152
60 95 142
61 97 145
60 96 154
61 96 147
60 96 141
61 95 149
61 97 144
61 97 154
63 99 158
61 96 150
61 97 155
61 97 158
61 97 153
60 95 136
60 96 144
61 97 151
61 96 141
61 96 148
60 96 148
61 96 153
61 97 152
62 98 154
62 97 151
61 96 149
60 96 144
62 98 156
62 98 155
60 96 141
62 97 147
61 97 153
62 97 152
61 97 151
62 97 153
60 96 149
61 96 147
61 96 147
61 96 149
61 97 149
61 96 147
61 96 147
62 97 144
59 93 140
61 97 151
62 97 156
60 96 145
61 96 148
60 95 139
60 95 144
61 96 142
61 96 147
60 95 133
61 96 149
61 96 147
60 95 145
60 95 137
61 97 145
62 98 150
59 94 142
62 97 150
60 95 139
60 95 136
61 96 142
60 95 135
60 95 139
61 96 145
61 96 144
61 96 151
61 96 139
59 94 131
59 94 134
61 96 144
61 96 143
60 95 137
61 96 142
61 96 139
60 94 131
59 93 130
60 94 133
61 96 149
59 94 129
61 96 139
60 95 139
61 95 137
60 95 134
59 93 122
59 94 131
60 94 127
59 94 126
59 93 125
60 94 126
60 95 140
59 93 125
58 92 122
58 91 121
60 94 133
59 93 124
58 90 123
57 90 118
60 93 132
87 104 77
126 138 0
105 114 0
113 122 0
119 132 0
111 121 0
132 142 0
118 132 0
118 129 0
113 124 0
120 128 0
112 124 0
113 123 0
113 123 0
120 130 0
123 133 0
118 131 0
134 144 0
117 126 0
116 126 0
116 127 0
122 134 0
118 128 0
120 129 0
123 135 0
108 113 0
118 127 0
115 122 0
124 134 0
129 136 0
123 132 0
119 126 0
121 130 0
117 124 0
122 131 0
127 137 0
125 133 0
109 115 0
128 138 0
126 131 0
127 133 0
126 134 0
130 137 0
126 135 0
121 129 0
124 132 0
120 127 0
121 127 0
127 137 0
126 134 0
129 134 0
133 139 0
126 131 0
130 137 0
141 145 0
138 146 0
131 138 0
130 137 0
123 125 0
134 138 0
134 141 0
132 139 0
126 131 0
132 135 0
138 146 0
134 140 0
137 146 0
135 146 0
137 144 0
146 157 0
143 151 0
142 149 0
137 143 0
136 142 0
150 160 0
137 145 0
144 151 0
148 155 0
145 154 0
146 153 0
147 155 0
142 149 0
148 156 0
141 146 0
151 161 0
148 154 0
149 157 0
151 162 0
146 156 0
146 154 0
147 156 0
155 165 0
152 161 0
149 160 0
146 156 0
153 164 0
150 159 0
147 157 0
146 157 0
153 165 0
149 159 0
155 167 0
149 160 0
156 171 0
148 159 0
154 168 0
152 165 0
159 172 0
159 172 0
153 167 0
158 172 0
154 166 0
160 173 0
157 171 0
157 171 0
158 171 0
155 172 0
160 174 0
158 173 0
158 172 0
154 166 0
164 180 0
162 177 0
162 179 0
162 180 0
158 174 0
160 174 0
164 180 0
166 184 0
159 174 0
163 181 0
167 183 0
161 176 0
162 178 0
160 175 0
158 175 0
166 182 0
165 181 0
165 183 0
163 180 0
162 179 0
167 185 0
165 184 0
167 185 0
169 187 0
165 184 0
164 182 0
172 196 62
174 198 92
171 194 67
174 197 76
173 196 62
171 195 57
175 198 72
171 195 80
174 198 88
170 194 57
173 197 95
174 197 84
173 198 92
172 197 62
172 195 72
171 195 62
172 196 57
171 196 84
173 197 67
172 196 44
171 195 67
175 198 76
169 192 44
170 194 51
173 197 80
175 198 67
172 195 62
172 195 67
169 193 72
169 193 62
171 195 80
174 197 67
169 194 80
169 194 80
170 193 51
169 193 80
168 193 67
170 193 80
169 192 36
171 195 72
171 194 62
170 194 67
169 192 62
172 197 80
171 195 102
169 193 44
170 195 92
172 195 36
168 192 67
169 193 76
169 192 72
171 194 62
169 193 57
169 194 80
168 192 57
167 192 92
166 190 84
170 194 57
162 187 72
166 190 76
173 197 80
172 195 72
170 194 84
164 189 92
167 191 67
167 190 44
168 190 57
168 192 67
166 190 88
168 191 57
166 189 44
172 196 72
166 190 84
163 186 62
167 191 80
166 189 62
105 132 127
90 120 169
84 115 158
102 130 168
88 118 163
94 123 169
99 127 168
93 123 166
95 123 167
97 126 173
89 119 164
92 121 168
98 127 160
97 125 164
89 118 156
87 117 164
88 118 159
97 125 163
102 129 162
99 127 163
95 122 165
97 125 169
101 128 173
101 128 166
94 122 163
99 126 153
95 122 160
106 132 165
92 121 163
96 124 160
97 125 172
86 115 161
75 107 167
74 107 177
77 109 170
87 117 183
82 113 175
85 115 179
77 109 174
83 113 174
77 109 174
86 115 177
69 100 156
65 99 158
62 98 158
62 98 162
62 98 163
61 97 159
62 98 163
63 99 159
61 97 156
61 96 156
60 95 153
61 96 151
63 98 152
71 104 151
71 103 154
66 100 154
62 97 145
63 98 154
63 97 139
60 94 143
63 98 168
59 95 147
61 96 149
62 98 156
62 97 155
60 95 145
61 96 155
59 94 147
62 97 153
60 95 147
61 96 159
61 96 157
61 97 149
59 95 141
61 96 148
61 96 148
61 97 155
61 96 150
61 96 150
62 98 153
61 96 150
61 96 151
61 96 152
62 97 152
61 96 145
62 97 154
62 98 155
61 96 148
61 96 148
61 97 151
61 97 148
62 97 152
61 97 152
61 96 151
61 96 147
61 96 140
61 97 150
61 96 141
60 96 147
62 98 159
62 97 155
60 96 147
62 97 148
62 98 155
62 97 156
62 97 154
61 96 143
60 96 139
62 97 154
60 95 137
60 95 148
61 96 141
62 98 152
61 96 149
61 96 145
60 94 144
61 96 144
60 95 141
61 96 147
60 94 133
61 96 142
61 97 142
60 94 139
61 96 144
60 95 140
62 97 147
61 96 142
60 95 137
61 97 151
61 95 140
60 95 143
61 96 145
60 95 139
61 96 142
61 96 142
61 96 141
61 96 139
61 95 144
60 95 145
60 95 137
60 95 140
61 95 144
60 94 133
59 93 137
61 96 142
61 96 142
61 96 145
61 97 144
60 95 135
59 94 129
60 95 133
60 95 140
59 93 131
60 94 133
60 95 136
61 96 139
61 96 143
58 92 118
60 94 136
61 95 136
59 94 133
60 94 129
61 96 144
59 94 135
58 93 124
60 94 135
61 95 134
59 93 129
57 90 128
59 93 121
57 90 119
58 91 121
57 90 117
58 91 127
60 90 110
123 138 25
118 130 0
120 131 0
109 120 0
113 124 0
130 144 0
118 129 0
109 119 0
119 130 0
111 120 0
119 130 0
116 125 0
130 140 0
133 143 0
125 133 0
113 121 0
118 125 0
118 127 0
118 126 0
116 127 0
114 123 0
131 141 0
113 124 0
121 126 0
132 143 0
124 134 0
118 126 0
121 130 0
123 131 0
124 135 0
117 125 0
121 128 0
127 136 0
116 124 0
129 137 0
120 129 0
128 135 0
116 122 0
132 142 0
131 142 0
130 137 0
124 129 0
122 130 0
136 144 0
125 134 0
128 134 0
127 135 0
120 128 0
126 136 0
132 139 0
128 132 0
134 142 0
123 131 0
136 143 0
127 133 0
130 137 0
119 125 0
127 133 0
138 147 0
136 142 0
139 146 0
127 132 0
145 154 0
140 146 0
136 145 0
134 139 0
135 141 0
139 146 0
138 147 0
133 139 0
141 149 0
140 146 0
144 151 0
133 141 0
135 142 0
137 144 0
141 147 0
138 148 0
144 153 0
142 153 0
137 145 0
146 156 0
155 166 0
151 162 0
155 165 0
144 151 0
139 150 0
141 150 0
149 160 0
149 161 0
147 154 0
148 157 0
145 152 0
155 166 0
149 159 0
154 165 0
151 161 0
145 155 0
156 169 0
153 163 0
154 166 0
153 164 0
146 156 0
151 161 0
154 166 0
153 165 0
161 173 0
158 171 0
159 173 0
157 173 0
161 175 0
163 180 0
161 176 0
156 170 0
159 174 0
154 168 0
163 177 0
159 173 0
161 176 0
157 173 0
156 170 0
154 165 0
158 174 0
159 174 0
158 173 0
159 174 0
155 169 0
162 179 0
159 175 0
163 177 0
165 181 0
165 184 0
160 177 0
169 188 0
166 184 0
166 182 0
162 180 0
162 180 0
162 179 0
164 182 0
158 175 0
162 180 0
166 185 0
166 185 0
164 181 0
163 180 0
164 181 0
175 198 67
175 199 84
172 196 84
175 199 80
174 198 80
172 196 80
168 192 62
172 197 67
174 198 92
171 196 80
171 195 67
174 198 67
170 194 62
170 194 76
171 194 67
174 197 76
170 194 36
168 191 51
169 192 57
173 198 67
170 194 67
173 197 67
171 195 72
172 196 76
172 197 84
169 193 76
171 195 80
172 197 84
167 192 72
170 194 62
169 193 67
167 190 57
170 193 80
170 194 62
173 198 76
169 193 76
173 197 72
174 198 102
169 194 62
171 195 72
172 195 67
166 190 76
167 191 76
173 196 72
170 193 62
170 193 62
169 193 62
171 195 84
166 189 44
169 193 72
165 189 76
165 188 88
167 191 57
170 194 88
170 194 67
171 194 76
169 193 80
168 192 76
167 191 72
169 193 67
166 189 84
167 189 36
164 187 51
166 188 57
167 191 51
169 192 62
170 193 67
163 187 84
166 190 62
163 186 57
164 187 57
165 189 67
165 189 67
166 189 57
168 191 62
167 190 99
152 175 80
96 125 152
102 131 175
95 124 169
94 123 158
92 122 168
89 118 168
100 128 172
101 129 167
91 120 167
103 130 173
90 119 170
98 126 171
91 120 167
98 125 165
104 131 163
101 128 179
100 127 156
110 137 171
93 121 160
92 121 160
92 121 154
92 120 157
99 127 173
96 124 158
100 128 159
105 131 156
114 140 156
98 126 153
82 112 160
96 125 157
90 119 168
86 116 160
83 114 172
65 101 174
80 111 178
85 115 175
83 113 181
77 108 171
85 114 169
85 115 176
86 115 176
76 106 165
71 102 156
70 102 164
62 98 162
63 99 172
64 99 161
62 98 165
62 98 163
61 97 165
61 97 156
61 97 160
61 97 161
62 98 159
63 98 153
68 101 147
65 100 162
67 101 159
69 102 147
60 95 155
65 99 150
61 96 151
61 96 151
62 97 151
60 95 147
62 97 156
61 96 143
59 94 134
61 97 153
62 97 151
60 95 148
62 98 155
60 95 147
60 95 147
61 97 155
61 97 151
61 96 149
62 97 159
60 95 142
61 97 157
60 96 144
61 96 147
61 96 148
61 96 151
61 97 152
61 97 148
61 96 155
60 95 143
60 96 154
62 97 148
61 96 155
61 97 148
62 98 153
62 97 154
62 97 154
62 97 151
62 98 154
60 96 153
62 97 150
61 97 147
60 94 139
60 95 139
62 97 155
60 95 142
61 96 144
61 97 151
62 98 155
60 95 141
61 96 147
61 97 153
60 95 135
62 97 152
61 97 155
61 96 148
60 95 142
61 97 145
60 95 141
60 96 150
62 97 145
61 96 150
60 95 140
61 97 143
61 96 145
61 96 142
61 97 145
62 97 144
61 97 147
61 96 144
61 97 145
62 97 144
61 96 151
62 97 151
60 95 135
62 97 148
60 95 141
59 94 125
61 96 144
61 96 142
59 94 129
59 94 136
60 95 139
61 96 140
59 93 127
60 95 131
62 97 145
60 95 141
60 95 136
60 95 135
60 94 137
61 96 141
61 96 136
61 96 147
60 95 134
62 97 142
58 92 125
60 95 139
60 94 136
60 94 131
60 94 136
60 95 144
61 96 144
59 93 126
60 94 137
59 92 128
60 94 135
60 94 127
59 92 129
62 96 136
58 92 122
60 94 127
58 92 118
59 93 130
58 92 127
58 92 115
57 90 110
99 119 72
122 136 0
116 128 0
120 133 0
114 124 0
105 116 0
131 141 0
120 130 0
119 129 0
126 138 0
119 130 0
110 119 0
113 123 0
120 133 0
113 123 0
118 129 0
130 142 0
115 124 0
125 136 0
110 116 0
125 134 0
125 137 0
121 131 0
107 117 0
125 136 0
126 136 0
115 121 0
126 137 0
124 132 0
128 142 0
131 141 0
119 126 0
121 128 0
125 130 0
127 137 0
130 138 0
139 149 0
130 137 0
122 130 0
120 129 0
120 126 0
121 129 0
133 142 0
129 138 0
136 142 0
133 141 0
133 140 0
124 131 0
126 133 0
137 145 0
137 147 0
124 130 0
135 144 0
126 134 0
134 140 0
130 137 0
127 136 0
140 147 0
130 134 0
141 151 0
136 142 0
135 142 0
138 144 0
130 136 0
138 144 0
143 153 0
139 146 0
138 145 0
142 149 0
137 145 0
139 148 0
145 156 0
133 140 0
141 149 0
142 151 0
141 151 0
143 152 0
138 149 0
144 151 0
142 150 0
142 150 0
147 156 0
149 160 0
146 157 0
147 158 0
152 161 0
152 163 0
140 147 0
151 163 0
144 151 0
155 167 0
151 159 0
150 163 0
149 160 0
151 159 0
149 159 0
152 162 0
149 161 0
148 159 0
155 168 0
146 157 0
154 166 0
150 162 0
151 160 0
151 163 0
154 167 0
156 171 0
158 172 0
151 162 0
157 170 0
154 167 0
151 164 0
151 165 0
153 165 0
153 168 0
149 163 0
162 180 0
163 179 0
154 169 0
155 171 0
163 178 0
159 172 0
162 176 0
158 172 0
162 180 0
155 169 0
160 177 0
158 172 0
163 181 0
156 170 0
165 183 0
159 175 0
160 176 0
157 173 0
165 182 0
164 181 0
164 181 0
160 179 0
168 186 0
164 179 0
163 183 0
163 180 0
169 186 0
164 183 0
162 179 0
163 180 0
159 174 0
162 179 0
170 194 72
174 198 80
173 197 84
171 194 62
173 198 76
172 197 95
174 197 62
172 196 57
174 198 72
174 196 62
170 194 67
171 195 76
172 197 72
173 197 92
168 193 62
173 197 51
170 195 57
169 193 76
172 196 72
173 197 84
172 195 72
170 193 57
169 194 80
163 186 67
169 193 44
171 194 67
166 190 72
168 192 80
167 190 51
168 192 62
170 195 72
172 196 62
167 190 51
169 193 62
171 195 67
171 195 88
168 191 44
168 192 62
170 194 72
171 196 99
166 190 80
170 194 76
168 191 62
169 193 67
167 191 76
169 193 99
164 188 72
164 188 51
168 192 88
168 191 51
171 195 57
167 191 72
167 191 76
168 192 76
167 191 57
166 190 84
168 191 67
169 193 80
166 191 92
162 186 76
164 188 72
171 194 62
168 192 57
169 192 84
169 192 92
166 190 72
169 193 62
166 191 80
166 190 62
162 185 51
168 192 67
167 190 72
169 191 57
163 186 72
163 186 72
169 191 62
170 193 62
120 145 125
87 117 141
91 120 161
98 125 166
76 108 160
87 116 154
103 131 165
100 128 165
87 117 167
94 122 164
95 123 161
92 121 169
88 117 162
93 121 160
89 118 155
90 119 169
92 121 173
91 119 166
101 128 150
99 127 156
101 127 168
112 138 165
104 130 154
97 125 154
101 128 158
94 122 157
109 135 164
101 128 151
107 133 170
87 116 153
93 121 149
90 120 157
95 123 157
75 107 172
91 120 176
84 115 177
69 103 172
77 109 172
87 117 176
90 119 181
83 113 175
77 109 165
70 101 152
68 100 158
63 98 162
61 97 159
61 97 162
62 98 167
61 97 158
61 96 154
61 97 160
63 98 157
60 96 152
61 96 151
61 97 161
66 100 154
67 100 151
67 101 154
62 97 146
65 98 149
64 99 156
61 96 148
60 95 145
61 95 145
60 95 145
60 95 151
60 95 144
62 97 154
61 96 154
61 96 151
61 96 144
62 97 151
61 96 149
60 96 150
61 96 151
61 96 150
62 98 158
63 99 161
60 96 139
60 95 142
62 98 161
61 96 153
61 96 147
62 97 155
61 96 149
61 96 149
62 97 151
61 97 156
61 96 147
62 98 156
61 97 152
62 97 152
62 97 151
61 97 154
62 97 153
61 97 150
61 96 141
60 95 142
61 96 148
62 97 149
61 97 153
62 98 156
60 95 145
60 96 148
61 96 149
61 96 144
61 97 150
61 96 150
61 96 143
59 94 144
61 97 152
60 96 145
60 95 136
61 96 137
60 96 137
60 95 143
61 95 141
60 95 139
61 96 147
61 96 140
62 97 144
60 96 147
60 95 143
62 97 144
61 96 137
60 94 141
60 95 136
60 96 145
60 95 135
62 97 149
60 95 144
61 96 140
60 95 137
61 96 143
60 95 136
60 95 133
61 96 144
59 94 130
61 96 139
59 94 126
61 96 141
61 96 143
61 96 142
60 95 139
60 94 129
61 96 144
60 95 136
60 95 139
61 96 143
61 96 144
60 94 126
61 95 136
59 93 134
61 96 139
61 95 135
59 94 126
59 93 130
60 94 133
60 95 134
59 94 133
58 92 125
60 94 124
59 94 129
59 94 129
59 94 129
59 93 126
59 93 125
58 92 125
60 94 131
58 91 120
60 93 135
58 92 121
58 91 111
57 90 118
63 91 106
122 134 0
127 142 0
123 136 0
119 129 0
123 131 0
115 123 0
117 127 0
112 124 0
115 125 0
119 132 0
126 136 0
117 130 0
128 139 0
117 128 0
133 145 0
112 122 0
126 135 0
135 147 0
128 139 0
122 131 0
124 134 0
125 136 0
127 139 0
126 135 0
127 137 0
125 132 0
131 141 0
119 124 0
121 128 0
125 135 0
116 125 0
133 142 0
129 141 0
126 134 0
128 139 0
127 138 0
128 135 0
126 134 0
130 139 0
126 135 0
126 136 0
123 135 0
119 125 0
127 136 0
123 131 0
129 135 0
131 137 0
131 139 0
133 143 0
138 147 0
130 137 0
131 137 0
128 135 0
127 132 0
131 136 0
133 143 0
132 141 0
134 139 0
140 147 0
131 141 0
132 139 0
139 149 0
134 140 0
135 143 0
134 140 0
134 142 0
153 163 0
141 147 0
135 142 0
140 146 0
139 148 0
132 141 0
136 145 0
153 163 0
147 155 0
143 150 0
147 156 0
144 153 0
138 146 0
149 157 0
153 164 0
140 149 0
145 155 0
146 156 0
141 151 0
145 154 0
146 157 0
150 161 0
149 158 0
149 159 0
153 163 0
151 162 0
144 152 0
148 157 0
153 167 0
151 166 0
151 163 0
147 156 0
151 163 0
155 168 0
157 171 0
149 162 0
153 166 0
156 168 0
155 167 0
154 165 0
150 162 0
152 164 0
159 174 0
150 165 0
151 164 0
154 168 0
158 173 0
159 171 0
155 169 0
155 169 0
154 165 0
160 177 0
162 179 0
153 166 0
160 175 0
159 175 0
158 176 0
166 184 0
159 174 0
167 185 0
158 176 0
161 175 0
161 178 0
161 181 0
160 176 0
164 182 0
162 179 0
163 181 0
166 183 0
162 180 0
165 184 0
160 176 0
163 182 0
165 184 0
164 182 0
162 179 0
164 181 0
168 188 0
167 185 0
167 188 0
166 185 0
166 185 0
175 199 88
172 196 92
173 197 67
172 195 76
171 195 67
172 195 67
172 196 88
171 196 80
171 194 67
171 195 76
170 194 67
172 196 62
171 194 36
171 195 95
174 198 95
173 197 76
172 197 76
172 196 76
171 195 84
173 197 72
170 194 67
173 197 67
170 194 62
171 195 44
171 195 84
171 195 84
170 194 72
174 197 72
170 194 72
169 192 62
164 188 84
172 196 62
170 194 67
170 194 57
168 193 80
167 192 84
170 194 84
170 193 76
169 193 62
171 195 80
171 195 92
172 196 67
170 194 76
168 191 62
169 193 80
165 189 72
170 195 84
167 190 80
170 194 51
171 194 76
168 192 62
168 193 67
167 192 80
166 189 62
164 188 57
169 192 44
166 190 67
168 193 72
163 187 72
167 191 72
165 190 76
167 191 76
167 189 36
167 191 92
164 187 62
163 187 72
167 190 51
168 192 67
165 188 88
162 185 67
167 191 67
165 189 84
167 191 67
162 186 57
161 184 67
163 186 76
164 187 76
157 180 113
100 128 152
92 121 150
87 118 169
96 124 152
89 119 166
103 131 175
88 118 171
110 137 177
99 126 162
87 117 166
101 128 168
98 126 165
93 122 166
97 125 158
96 125 161
95 124 169
88 117 162
91 119 167
88 118 162
91 119 158
96 122 148
94 122 148
106 131 153
108 134 168
99 127 152
106 132 160
115 140 158
99 126 150
92 120 153
86 116 159
81 113 166
79 110 162
88 118 162
85 115 171
82 113 179
79 111 175
85 115 174
77 109 174
74 107 174
74 106 164
86 116 177
71 102 161
73 102 143
68 101 161
62 97 156
62 98 162
62 98 161
60 96 157
62 98 162
62 98 159
61 97 154
62 98 165
61 96 149
61 97 161
62 97 159
63 99 155
70 102 143
66 100 150
67 100 144
65 99 145
63 98 149
61 96 152
62 98 156
60 95 148
61 97 157
61 96 147
59 94 144
60 95 142
61 96 147
60 95 156
60 95 150
60 95 149
61 97 155
61 97 155
62 97 155
61 96 147
60 95 142
61 96 150
60 95 145
61 96 150
61 96 148
62 97 154
62 97 153
61 96 149
62 98 153
60 96 143
62 97 148
62 98 155
63 98 154
61 96 150
61 97 152
61 96 142
60 94 143
61 97 151
61 96 141
62 98 159
62 98 151
61 97 152
61 96 143
61 96 150
61 96 150
61 97 152
61 96 150
62 97 149
61 97 149
61 97 153
61 96 137
59 95 140
61 96 141
61 96 147
59 94 141
60 95 150
60 95 142
61 96 143
61 96 145
61 96 144
62 97 145
61 97 149
61 96 144
61 97 151
61 96 148
61 96 140
60 95 137
60 95 139
61 96 147
61 96 142
61 96 148
60 95 135
60 95 143
61 96 136
61 96 145
62 97 149
61 96 144
60 96 143
61 96 143
62 97 142
60 94 137
60 95 139
60 95 134
60 95 144
60 96 142
60 94 137
59 93 127
60 95 135
60 95 134
60 94 131
61 96 136
62 97 142
59 94 129
59 94 136
61 96 141
59 93 122
59 94 133
60 95 140
59 93 120
60 95 134
59 93 124
61 95 139
59 94 134
60 95 133
60 95 140
59 93 121
60 94 128
59 94 127
59 94 125
59 93 125
60 93 133
58 91 114
58 91 120
57 90 125
57 90 107
57 90 97
57 89 118
107 122 54
112 124 0
119 129 0
119 130 0
122 134 0
114 125 0
124 137 0
126 139 0
113 124 0
125 137 0
134 145 0
130 142 0
133 146 0
126 140 0
123 135 0
122 134 0
122 129 0
123 136 0
124 136 0
127 137 0
121 131 0
122 135 0
119 130 0
129 140 0
125 136 0
128 138 0
126 137 0
108 116 0
117 125 0
124 135 0
129 141 0
121 132 0
120 130 0
124 134 0
125 134 0
127 138 0
118 127 0
116 126 0
137 148 0
133 143 0
127 133 0
122 129 0
132 143 0
129 139 0
136 143 0
129 139 0
134 143 0
132 144 0
133 141 0
132 140 0
127 134 0
134 141 0
137 144 0
135 142 0
135 143 0
135 144 0
135 143 0
124 133 0
133 141 0
130 141 0
134 142 0
139 147 0
147 157 0
133 142 0
133 140 0
135 144 0
134 143 0
129 140 0
138 146 0
145 155 0
142 150 0
129 134 0
146 155 0
144 153 0
139 145 0
135 143 0
141 151 0
144 153 0
137 147 0
141 152 0
146 159 0
147 156 0
147 158 0
149 158 0
148 156 0
147 158 0
141 149 0
141 150 0
142 152 0
149 160 0
142 150 0
146 156 0
153 164 0
150 161 0
148 161 0
147 156 0
142 154 0
151 161 0
145 158 0
152 164 0
161 175 0
157 171 0
157 169 0
155 166 0
154 166 0
154 163 0
156 170 0
156 168 0
155 170 0
156 170 0
160 175 0
153 164 0
164 182 0
155 167 0
151 165 0
160 175 0
160 175 0
152 165 0
155 168 0
163 179 0
159 174 0
162 179 0
161 176 0
158 173 0
164 180 0
158 174 0
159 173 0
162 179 0
164 182 0
161 178 0
163 182 0
159 175 0
165 184 0
166 182 0
164 181 0
161 177 0
165 183 0
168 184 0
164 183 0
168 186 0
161 178 0
160 176 0
165 182 0
161 180 0
165 184 0
164 181 0
164 182 0
162 181 0
168 185 0
173 196 80
176 200 99
172 196 62
172 195 76
172 196 67
175 198 88
174 198 84
172 196 72
167 191 57
170 193 72
172 197 95
175 199 92
171 195 92
171 195 67
173 197 80
169 193 62
172 195 72
173 198 84
170 193 57
169 193 72
175 198 57
171 195 84
171 194 62
169 193 72
171 196 92
169 192 62
170 195 84
168 193 67
173 197 80
168 191 57
172 196 80
169 194 88
169 194 84
172 195 62
172 197 108
169 193 67
170 195 72
168 192 88
168 191 57
173 197 51
169 193 72
170 194 51
168 192 76
169 193 62
172 195 67
169 193 76
169 192 67
164 186 62
172 195 76
169 192 72
167 189 36
168 191 51
171 195 76
167 191 57
166 191 80
170 194 76
162 185 44
168 193 76
170 193 84
160 183 51
165 187 67
168 192 67
169 193 72
167 192 92
167 190 67
168 191 84
165 188 57
164 187 84
165 189 84
162 186 72
164 187 80
169 193 88
165 188 44
161 185 84
164 188 76
170 193 84
167 191 67
169 192 67
128 152 115
85 115 147
86 115 126
93 121 154
101 128 137
103 130 151
94 123 162
96 125 172
95 123 162
101 129 176
80 111 165
98 126 165
94 123 161
97 125 163
97 125 163
77 108 160
94 122 153
84 114 159
94 122 159
98 126 161
106 131 166
98 125 166
100 127 166
91 119 156
100 127 153
102 129 159
107 133 152
108 134 151
106 133 156
91 119 150
91 120 169
95 123 163
100 128 162
84 114 154
88 117 170
80 112 182
82 112 171
82 113 174
80 111 176
90 118 171
80 110 170
80 110 167
69 102 161
69 100 157
66 100 159
61 97 162
61 97 154
61 97 159
61 97 154
63 98 159
61 96 152
63 99 161
62 98 161
61 97 157
60 96 151
61 97 145
62 97 156
64 98 155
62 97 148
60 95 151
68 101 141
60 95 147
61 96 147
62 97 159
60 95 150
61 96 142
62 97 153
62 98 153
61 96 148
62 97 151
61 96 144
61 95 144
62 97 149
61 96 147
60 96 149
62 98 156
61 97 154
61 97 151
61 96 154
61 96 144
62 97 151
61 96 142
62 98 155
61 97 149
62 98 151
62 97 152
61 96 139
62 97 152
61 96 147
61 96 145
61 96 147
61 96 149
61 96 147
61 96 149
61 96 151
62 98 148
60 95 139
61 96 147
60 95 149
61 96 148
62 97 153
62 97 150
62 97 147
61 96 142
61 95 147
62 98 153
62 97 157
61 95 147
60 95 144
62 97 149
61 96 147
61 96 142
60 95 141
62 97 152
60 95 141
61 96 144
60 95 135
61 96 142
59 94 143
59 94 134
61 96 149
60 95 143
60 95 145
60 96 139
62 97 145
61 96 143
61 96 145
59 93 130
61 97 149
61 95 140
60 95 137
61 96 142
60 94 141
61 95 143
60 95 142
60 95 136
62 97 141
60 95 136
59 94 133
60 95 136
60 95 141
60 95 135
60 94 127
60 95 136
60 95 139
61 96 140
60 95 141
60 94 137
60 94 130
60 95 143
60 95 135
60 95 140
60 94 126
61 95 140
60 94 136
59 93 126
60 94 137
59 94 125
59 92 128
61 95 136
59 93 124
59 93 127
58 92 116
59 93 122
59 92 125
59 93 129
59 93 125
57 89 113
57 90 114
59 93 121
57 90 111
56 88 115
84 105 92
119 129 0
134 150 0
121 133 0
119 132 0
119 131 0
123 138 0
111 122 0
127 139 0
112 123 0
119 129 0
120 133 0
120 133 0
127 138 0
120 133 0
128 143 0
118 128 0
130 142 0
121 131 0
118 128 0
126 135 0
132 142 0
119 131 0
120 130 0
121 131 0
131 143 0
132 144 0
124 134 0
119 128 0
133 142 0
128 136 0
124 132 0
134 149 0
125 136 0
124 135 0
136 147 0
123 132 0
122 134 0
129 139 0
125 132 0
134 143 0
128 137 0
135 145 0
132 141 0
135 143 0
119 129 0
126 137 0
135 144 0
128 134 0
125 134 0
133 144 0
140 151 0
134 141 0
136 145 0
128 137 0
143 156 0
136 145 0
135 144 0
130 140 0
124 133 0
137 144 0
139 146 0
141 148 0
150 160 0
139 145 0
143 151 0
137 150 0
134 142 0
128 135 0
141 152 0
140 151 0
140 151 0
130 137 0
142 150 0
138 147 0
137 143 0
140 147 0
137 145 0
142 154 0
147 155 0
143 154 0
140 149 0
147 157 0
145 156 0
147 155 0
150 161 0
142 152 0
148 160 0
143 155 0
152 160 0
147 158 0
148 159 0
148 159 0
145 154 0
143 157 0
154 166 0
155 168 0
150 162 0
156 169 0
147 161 0
154 168 0
155 164 0
150 162 0
159 172 0
157 171 0
150 163 0
157 171 0
160 176 0
150 162 0
152 165 0
158 174 0
162 176 0
159 174 0
157 171 0
157 170 0
157 171 0
156 173 0
161 177 0
152 167 0
160 175 0
161 177 0
147 160 0
159 176 0
156 171 0
160 174 0
162 177 0
162 179 0
160 178 0
165 182 0
162 177 0
167 184 0
158 174 0
158 177 0
159 177 0
158 175 0
163 183 0
160 175 0
162 179 0
164 181 0
167 185 0
159 177 0
164 184 0
165 182 0
166 185 0
164 184 0
165 184 0
157 173 0
158 176 0
162 180 0
163 181 0
174 198 76
170 193 62
170 194 51
173 197 80
170 194 72
173 198 99
171 195 72
175 199 84
174 198 80
168 193 62
172 196 76
169 193 62
172 196 92
171 195 57
171 195 67
169 193 67
170 194 62
169 193 51
170 194 72
170 194 67
168 192 72
172 197 84
168 193 76
171 195 80
170 194 57
170 193 57
171 194 67
169 193 67
168 192 67
172 197 84
173 197 67
168 192 57
173 198 95
171 194 62
167 191 44
172 196 76
164 190 62
169 192 76
167 191 88
171 195 72
169 194 84
167 192 84
168 192 76
170 194 72
169 194 92
168 193 72
168 191 57
167 191 88
169 192 57
172 196 80
168 191 67
162 186 80
169 193 72
169 193 76
167 191 62
167 191 62
165 189 76
164 188 95
164 188 80
168 191 76
167 190 84
165 189 76
166 190 80
163 187 72
166 190 84
162 184 76
163 187 80
167 189 62
164 188 72
169 192 95
159 182 44
171 195 51
164 186 92
161 184 62
167 189 57
160 183 57
159 182 67
159 182 51
156 179 74
89 117 125
82 112 131
90 119 146
89 117 126
90 118 134
93 122 159
88 117 156
96 125 168
101 129 171
82 113 174
92 120 156
89 118 163
93 121 163
96 123 159
77 109 159
90 119 155
102 129 162
100 127 158
92 120 151
86 115 158
107 132 168
100 126 166
92 119 156
107 133 157
99 126 156
103 129 151
97 124 145
107 134 160
100 127 140
86 115 148
89 117 150
96 124 162
86 116 155
93 121 164
87 116 173
71 104 167
69 103 171
77 109 169
79 110 167
92 120 177
84 114 169
76 107 166
77 105 166
72 102 158
73 103 157
63 99 166
62 97 154
62 97 159
61 97 158
60 96 153
61 97 158
62 97 151
62 97 153
60 95 152
63 98 155
63 97 156
71 103 142
63 98 154
65 99 152
68 102 155
64 97 139
62 97 149
61 96 150
62 97 151
61 96 156
62 97 152
62 97 151
61 96 146
62 97 149
63 97 152
60 95 140
61 96 145
60 95 144
62 97 151
61 96 145
62 97 155
60 95 149
61 96 150
60 94 135
61 96 150
61 96 149
61 96 149
61 96 148
61 96 145
60 95 149
60 96 139
62 97 151
61 96 145
61 97 148
61 96 144
61 97 151
62 98 156
61 95 149
61 96 147
61 96 141
62 97 151
62 97 149
61 96 148
61 97 150
62 97 151
61 97 154
62 97 144
60 95 136
61 96 152
62 97 149
62 97 149
62 98 154
60 95 144
61 96 153
60 95 134
60 94 135
60 95 137
60 95 142
61 96 147
60 95 134
60 95 137
60 95 144
60 95 136
61 97 149
61 96 143
62 97 153
61 96 141
61 96 142
61 96 141
60 94 131
62 97 147
61 95 141
61 96 145
61 96 147
60 95 137
61 95 135
61 96 144
61 96 140
61 96 148
60 95 140
61 95 134
60 94 131
61 96 139
61 96 149
59 93 124
60 95 141
60 95 131
59 94 136
59 93 125
61 96 144
60 95 140
60 95 133
61 96 131
59 94 129
58 93 129
60 94 135
60 95 139
61 96 144
60 94 134
58 91 120
59 94 127
59 93 131
60 95 133
61 96 133
59 94 121
58 92 135
58 91 115
59 93 122
60 94 129
60 94 136
56 89 105
59 93 125
59 93 132
57 90 116
58 92 122
57 87 103
112 123 32
118 132 0
109 121 0
118 129 0
110 121 0
123 138 0
111 124 0
115 125 0
124 138 0
127 140 0
118 131 0
123 135 0
113 126 0
127 140 0
126 141 0
127 139 0
123 135 0
121 132 0
124 137 0
125 137 0
137 153 0
124 135 0
130 140 0
127 137 0
131 141 0
129 139 0
127 137 0
128 139 0
122 132 0
132 143 0
120 129 0
128 140 0
133 144 0
128 142 0
121 131 0
123 132 0
115 124 0
118 127 0
120 129 0
122 134 0
125 135 0
131 140 0
125 136 0
132 144 0
132 142 0
130 140 0
138 148 0
129 139 0
140 151 0
131 140 0
122 129 0
125 132 0
133 143 0
131 142 0
133 142 0
133 139 0
136 146 0
139 149 0
134 142 0
138 148 0
136 144 0
141 152 0
127 137 0
138 146 0
136 144 0
134 142 0
130 139 0
141 148 0
138 146 0
144 154 0
140 149 0
138 147 0
138 149 0
144 156 0
140 150 0
152 161 0
145 156 0
141 151 0
147 159 0
153 166 0
140 147 0
150 163 0
148 158 0
148 158 0
149 162 0
144 153 0
148 161 0
151 160 0
147 159 0
152 164 0
149 158 0
153 164 0
156 169 0
143 154 0
146 156 0
145 153 0
157 170 0
148 157 0
147 158 0
152 164 0
149 161 0
146 157 0
152 165 0
155 168 0
154 167 0
156 170 0
154 169 0
153 166 0
152 166 0
150 161 0
159 173 0
158 173 0
154 168 0
159 176 0
160 173 0
159 174 0
159 171 0
154 167 0
160 176 0
157 171 0
157 174 0
153 166 0
154 170 0
160 177 0
156 171 0
159 175 0
161 180 0
159 172 0
161 176 0
157 174 0
162 179 0
163 179 0
165 183 0
159 175 0
162 179 0
163 180 0
161 177 0
160 176 0
160 178 0
162 178 0
164 182 0
164 183 0
159 178 0
161 179 0
162 179 0
169 189 0
167 186 0
166 187 0
166 186 0
163 182 0
177 200 84
174 197 76
171 194 62
173 198 80
171 195 72
172 196 88
173 196 80
169 193 84
176 199 80
173 198 72
168 192 62
174 198 76
167 191 62
171 194 44
167 191 51
171 195 67
172 197 72
170 194 76
168 192 72
169 194 72
169 193 72
172 196 76
173 197 76
172 196 84
171 195 57
169 193 72
171 195 76
164 188 76
170 194 80
170 193 80
168 192 80
169 193 80
170 195 80
167 191 80
170 195 105
167 191 67
159 183 57
171 195 80
170 194 88
171 195 72
170 194 76
167 191 80
168 193 67
173 197 72
163 188 80
165 188 51
169 194 80
164 189 62
166 192 62
166 189 67
169 191 62
174 198 88
169 193 72
170 193 57
166 191 80
165 189 57
164 188 76
169 193 72
163 187 72
170 194 76
165 189 51
166 191 84
163 187 84
163 187 51
160 185 80
161 184 51
168 192 57
164 187 80
167 190 88
164 188 67
161 184 76
163 187 57
169 192 72
167 190 76
164 188 72
165 189 72
164 187 84
168 190 67
160 183 80
143 168 117
87 116 111
83 111 118
92 120 136
85 114 135
91 120 142
96 124 157
97 125 158
93 123 170
100 127 166
92 121 165
97 125 164
97 126 174
93 121 165
111 137 167
92 120 157
99 127 162
81 111 156
86 114 147
87 115 158
97 125 164
90 118 157
108 134 165
79 109 151
96 123 150
105 131 153
105 131 156
117 142 164
97 124 151
108 134 159
82 112 150
76 107 156
85 114 154
84 114 159
83 113 148
79 111 172
80 111 177
77 109 167
75 107 168
88 117 173
83 114 172
83 113 174
70 103 165
71 101 156
73 103 159
65 99 160
62 97 162
61 97 154
63 99 157
60 96 147
60 96 152
62 97 159
61 97 155
61 97 154
61 96 153
63 98 153
67 100 144
66 99 148
67 100 149
63 96 141
60 94 139
72 104 148
62 97 148
62 97 150
61 96 150
61 96 135
62 97 145
62 97 153
61 96 143
61 96 140
61 97 150
62 97 158
62 97 153
62 97 153
61 97 153
60 94 141
62 98 158
60 95 151
60 95 142
61 96 149
60 95 140
62 97 154
62 98 156
61 96 145
61 96 142
60 96 148
60 95 146
61 96 156
60 95 137
61 96 140
61 97 145
61 97 145
61 96 140
60 95 140
61 96 149
62 97 149
61 96 147
61 96 149
62 97 154
61 96 145
61 96 147
61 96 152
60 95 142
60 95 135
61 96 148
61 96 135
61 95 139
62 97 150
60 95 136
60 95 143
60 95 140
60 94 135
61 96 136
61 97 143
62 97 143
61 96 147
62 97 151
60 95 140
61 96 149
62 97 153
61 97 149
60 95 137
60 96 136
61 96 145
61 96 144
61 96 136
62 97 145
60 95 141
61 95 134
60 95 145
60 94 140
60 94 135
60 94 131
59 94 135
61 96 141
61 95 137
60 95 135
61 96 142
60 95 140
59 93 127
61 97 145
61 96 144
60 94 137
60 95 134
60 94 136
58 93 129
60 95 134
59 93 130
60 94 131
59 94 131
59 94 133
59 93 134
58 92 126
59 93 135
59 93 131
60 94 127
61 95 135
58 92 126
58 93 121
57 90 114
58 92 124
58 92 123
59 93 131
58 91 115
58 92 125
57 90 114
58 91 117
58 90 127
58 91 118
57 91 111
105 121 70
124 136 0
116 128 0
123 136 0
129 144 0
117 130 0
121 131 0
119 133 0
115 126 0
114 127 0
121 134 0
118 129 0
119 129 0
130 141 0
118 129 0
125 139 0
123 136 0
124 135 0
124 135 0
120 132 0
133 145 0
132 144 0
125 138 0
126 137 0
118 130 0
120 131 0
123 134 0
130 143 0
131 143 0
130 141 0
131 141 0
129 142 0
123 132 0
130 141 0
130 140 0
126 134 0
121 132 0
131 141 0
128 140 0
119 128 0
131 144 0
125 136 0
133 144 0
132 142 0
135 145 0
133 141 0
127 138 0
132 143 0
139 145 0
130 142 0
130 141 0
127 136 0
135 143 0
137 146 0
134 145 0
137 148 0
138 148 0
135 145 0
126 138 0
131 139 0
138 147 0
138 148 0
142 151 0
142 149 0
136 147 0
144 155 0
133 146 0
145 156 0
145 153 0
138 148 0
130 139 0
143 156 0
141 154 0
138 145 0
133 142 0
147 157 0
138 147 0
139 148 0
146 157 0
145 156 0
140 153 0
141 152 0
144 153 0
141 152 0
143 155 0
147 159 0
144 157 0
141 153 0
146 155 0
142 152 0
148 158 0
156 168 0
154 167 0
156 168 0
153 167 0
148 162 0
157 172 0
156 168 0
154 167 0
153 166 0
161 176 0
151 166 0
157 171 0
152 165 0
156 173 0
151 163 0
153 166 0
159 175 0
146 161 0
153 169 0
155 170 0
152 166 0
153 170 0
152 167 0
159 174 0
158 173 0
155 169 0
157 171 0
154 169 0
159 174 0
160 176 0
161 178 0
162 179 0
161 175 0
163 179 0
161 178 0
161 178 0
159 177 0
162 179 0
159 174 0
161 179 0
162 180 0
166 183 0
165 182 0
161 180 0
168 186 0
158 175 0
164 184 0
162 180 0
163 182 0
164 183 0
162 181 0
162 178 0
160 177 0
168 185 0
167 186 0
165 182 0
160 179 0
167 186 0
167 186 0
165 185 0
172 196 76
171 195 80
174 198 80
172 195 51
174 197 76
171 195 88
172 196 84
169 193 76
171 195 80
172 195 67
172 195 51
172 196 84
170 194 51
169 192 92
172 196 72
168 193 80
169 193 72
172 196 72
172 196 62
171 196 84
171 196 62
173 198 95
170 194 57
172 196 72
171 195 76
169 194 80
171 195 88
171 196 95
171 195 62
169 193 67
170 195 84
167 192 62
171 195 62
169 194 76
169 194 88
170 195 92
167 191 76
170 194 76
171 195 80
172 196 76
169 193 67
170 194 57
171 195 76
171 197 99
165 190 76
166 190 62
169 194 80
169 193 84
164 189 80
166 190 76
167 191 67
161 185 72
169 193 67
165 188 62
167 191 84
164 187 57
167 191 88
162 185 76
162 185 44
168 193 92
165 190 99
169 193 88
166 189 88
165 188 76
163 186 67
162 185 76
166 190 62
157 181 62
162 185 67
165 188 76
169 193 62
160 184 80
162 186 57
162 186 67
156 179 76
162 186 67
165 189 76
161 184 57
162 185 76
156 179 74
93 121 108
103 129 135
87 116 124
88 116 131
94 122 135
88 117 143
87 116 149
98 126 168
95 124 162
102 128 154
89 117 160
96 124 165
94 122 162
89 118 164
98 125 164
92 120 158
91 119 161
94 123 158
78 109 158
90 117 151
86 114 143
102 128 155
109 135 165
98 125 159
106 132 168
102 130 159
109 134 137
98 125 158
103 130 141
91 119 142
83 113 169
88 117 153
96 124 161
92 121 156
68 102 160
76 108 167
80 111 173
87 117 176
80 111 166
71 104 159
86 115 176
83 111 167
72 102 164
73 102 158
66 99 154
64 98 156
62 97 157
61 97 153
62 98 162
61 97 154
60 96 151
65 100 158
62 98 160
61 96 150
61 96 148
63 97 149
66 100 150
65 99 151
65 99 149
62 96 144
69 102 145
60 94 135
61 96 144
60 95 149
60 95 144
60 96 144
60 96 144
61 96 153
61 97 155
60 95 134
61 97 148
61 96 149
60 96 149
60 95 146
60 94 144
61 97 147
60 95 139
61 96 146
61 96 147
60 95 141
61 96 148
61 96 144
62 97 147
61 96 149
62 97 152
61 96 141
62 97 150
61 96 150
60 95 145
61 96 145
62 97 149
60 95 144
61 96 140
62 97 145
61 96 153
60 94 137
59 94 142
60 95 137
60 95 144
60 95 139
62 97 149
62 97 152
61 96 144
62 97 149
61 96 142
61 96 144
61 96 147
61 97 144
60 95 135
60 94 135
63 98 152
61 96 147
61 96 139
62 97 148
60 95 137
61 96 141
61 97 145
60 95 147
59 95 140
61 96 145
62 97 155
61 96 142
60 95 143
60 94 134
60 95 134
61 96 143
59 94 122
61 96 139
62 98 152
60 95 134
60 95 140
61 96 144
61 96 142
60 95 137
59 94 127
60 95 131
60 95 137
60 95 141
60 95 137
60 94 130
60 95 131
60 94 136
60 94 135
60 95 142
60 95 136
60 95 136
59 94 125
58 93 120
60 95 136
59 94 125
60 95 141
59 93 126
60 95 142
59 93 118
60 94 130
59 93 126
57 91 121
59 93 126
60 94 126
58 92 118
58 92 121
60 94 130
57 90 114
57 90 118
59 93 126
59 92 117
57 89 113
57 89 108
83 102 82
117 131 0
119 134 0
122 132 0
109 122 0
115 124 0
121 135 0
118 131 0
116 128 0
132 146 0
115 126 0
123 135 0
124 136 0
123 136 0
107 119 0
119 132 0
121 135 0
119 132 0
126 139 0
129 142 0
130 144 0
122 134 0
130 141 0
128 140 0
124 139 0
133 146 0
134 145 0
124 134 0
121 132 0
133 146 0
132 145 0
130 142 0
126 136 0
129 141 0
131 144 0
140 152 0
129 140 0
131 143 0
129 140 0
121 133 0
139 150 0
134 146 0
132 143 0
134 145 0
132 143 0
130 138 0
138 147 0
133 143 0
137 149 0
126 138 0
134 143 0
133 143 0
134 145 0
139 150 0
136 146 0
143 155 0
132 143 0
138 149 0
141 152 0
132 143 0
138 147 0
139 149 0
144 156 0
131 140 0
132 143 0
141 151 0
135 147 0
143 153 0
149 162 0
143 155 0
138 149 0
145 157 0
143 152 0
140 149 0
144 152 0
146 155 0
141 151 0
150 164 0
142 152 0
140 150 0
144 154 0
146 157 0
155 166 0
146 156 0
139 149 0
144 155 0
139 149 0
160 175 0
146 157 0
146 159 0
153 164 0
148 161 0
149 160 0
144 153 0
148 162 0
156 170 0
155 170 0
149 164 0
152 164 0
149 161 0
155 165 0
156 169 0
151 163 0
153 166 0
149 163 0
155 171 0
152 166 0
155 169 0
160 174 0
155 168 0
159 174 0
155 171 0
160 174 0
152 165 0
150 165 0
153 168 0
158 174 0
164 180 0
157 171 0
151 164 0
161 177 0
157 174 0
158 172 0
154 170 0
155 171 0
158 175 0
160 176 0
160 174 0
160 177 0
156 173 0
162 177 0
164 181 0
163 179 0
163 180 0
162 179 0
159 176 0
161 178 0
168 185 0
161 177 0
162 180 0
159 176 0
160 178 0
160 179 0
163 181 0
159 177 0
163 182 0
163 178 0
165 181 0
167 184 0
165 182 0
164 183 0
167 183 0
172 195 76
169 193 62
170 193 57
172 197 84
172 195 51
168 191 44
173 197 84
166 190 44
171 195 76
174 197 67
172 195 51
174 198 80
173 195 67
167 191 62
171 196 95
169 194 80
173 197 84
173 197 44
173 197 76
172 196 80
169 194 76
172 196 72
172 196 72
173 197 67
168 193 84
167 191 76
174 198 76
169 193 76
169 193 62
171 194 51
171 196 67
170 195 76
170 194 72
168 193 72
171 195 67
169 194 67
171 196 84
168 192 62
172 197 102
170 193 36
168 192 67
164 189 76
168 193 92
166 191 67
160 183 57
165 189 76
162 186 72
166 190 62
164 189 76
166 191 62
165 188 62
166 189 84
172 196 88
168 191 80
164 187 72
169 194 72
169 193 92
164 187 67
166 190 80
167 192 88
164 187 72
163 187 72
154 178 57
169 192 88
167 191 80
164 188 72
166 191 80
169 194 72
165 188 80
167 190 57
159 182 67
160 184 57
163 187 76
162 186 57
164 187 67
160 185 72
164 187 57
160 183 72
162 185 76
162 185 76
146 170 99
88 117 137
89 117 129
90 118 144
91 120 145
95 122 145
109 135 153
91 120 152
93 121 149
78 109 150
98 126 165
90 120 167
108 135 160
89 117 148
100 127 157
97 124 164
86 115 152
103 129 170
89 117 147
89 117 156
105 131 159
103 130 173
96 124 159
107 132 161
101 127 160
93 120 158
102 129 140
96 123 146
108 134 162
102 128 145
96 123 141
82 112 157
90 119 161
89 118 154
87 117 158
94 122 169
84 115 176
73 106 168
80 111 175
83 113 171
85 114 168
76 107 159
71 101 161
66 99 155
72 102 156
76 104 149
62 98 160
61 97 157
65 100 166
61 97 154
61 96 148
61 97 148
61 97 154
62 98 155
61 97 150
65 100 145
68 101 144
62 96 150
63 98 151
61 96 149
64 97 139
59 93 137
62 97 151
62 97 151
62 97 154
62 97 151
61 96 140
61 96 145
60 95 144
61 96 147
62 97 150
62 97 155
60 95 135
60 95 143
60 95 144
62 97 152
61 96 145
62 97 151
61 97 152
61 96 151
61 97 150
61 96 147
62 97 147
62 97 150
60 94 137
61 95 139
61 97 148
61 96 147
62 97 143
61 96 140
61 97 145
62 97 151
61 96 141
62 97 149
62 97 154
60 96 148
62 97 148
61 96 149
60 95 136
59 94 135
61 96 142
60 95 137
62 97 147
62 97 147
61 96 142
61 96 143
62 98 153
61 97 143
61 96 142
61 96 149
61 97 147
61 96 143
60 96 140
60 94 141
60 94 136
59 94 135
61 96 143
60 95 131
60 95 142
60 95 142
60 94 139
61 96 142
60 95 137
60 95 135
60 95 137
60 95 134
60 94 136
59 93 126
61 96 140
60 95 134
61 96 144
61 96 140
59 93 133
61 96 139
59 94 136
61 96 137
60 94 129
59 92 130
59 93 125
60 95 137
58 92 125
60 95 135
58 93 127
60 95 137
60 94 135
60 95 135
59 93 129
60 95 140
60 95 134
60 95 130
59 94 130
59 93 136
59 93 133
60 94 124
60 94 122
60 94 125
59 93 135
60 94 134
59 93 125
59 93 127
60 95 133
58 91 118
58 92 126
57 90 110
56 88 102
57 90 115
56 88 110
64 93 99
106 120 31
113 125 0
115 129 0
119 131 0
118 131 0
123 136 0
120 134 0
119 130 0
116 126 0
116 128 0
117 132 0
120 135 0
119 133 0
123 133 0
132 145 0
114 127 0
115 130 0
120 131 0
119 129 0
132 143 0
129 144 0
135 149 0
127 140 0
123 133 0
125 139 0
122 135 0
129 141 0
119 130 0
127 138 0
126 136 0
126 137 0
121 133 0
131 144 0
137 151 0
128 142 0
135 148 0
129 143 0
124 137 0
135 146 0
138 147 0
127 138 0
141 153 0
131 144 0
123 133 0
131 142 0
136 146 0
129 141 0
135 146 0
131 139 0
129 138 0
136 147 0
129 141 0
131 140 0
134 143 0
131 141 0
145 160 0
132 143 0
138 149 0
124 135 0
138 151 0
133 144 0
146 160 0
138 148 0
134 145 0
137 145 0
141 152 0
148 158 0
141 153 0
141 151 0
144 156 0
140 150 0
140 153 0
140 151 0
139 153 0
134 143 0
146 156 0
139 150 0
142 153 0
145 157 0
148 162 0
143 154 0
144 157 0
149 162 0
151 164 0
147 157 0
156 169 0
146 158 0
151 162 0
146 161 0
148 160 0
154 167 0
153 167 0
157 168 0
153 165 0
146 160 0
145 157 0
145 158 0
147 160 0
152 166 0
152 167 0
154 166 0
156 170 0
154 169 0
149 162 0
155 167 0
153 166 0
161 176 0
156 170 0
155 169 0
161 175 0
152 167 0
150 166 0
154 170 0
155 167 0
154 168 0
154 170 0
163 180 0
159 173 0
158 175 0
159 175 0
160 177 0
164 180 0
155 169 0
163 179 0
162 179 0
149 164 0
162 178 0
158 173 0
165 181 0
166 183 0
163 181 0
161 177 0
164 182 0
155 171 0
162 180 0
163 180 0
159 179 0
165 182 0
165 184 0
165 182 0
163 180 0
167 183 0
162 180 0
154 170 0
163 179 0
166 183 0
167 187 0
166 183 0
165 183 0
168 188 0
167 185 0
167 187 0
173 196 80
170 194 72
172 196 62
169 194 76
171 195 72
173 197 92
174 198 84
171 196 84
172 195 57
171 195 51
173 197 72
171 196 76
173 196 67
171 195 84
169 193 62
173 196 57
171 196 88
167 190 57
175 200 95
170 194 80
171 196 72
170 194 57
168 193 80
170 194 88
170 194 72
170 194 62
169 192 76
171 195 72
172 196 84
168 193 92
171 195 105
171 195 92
168 191 36
166 190 76
170 193 67
172 196 67
167 191 62
165 190 95
169 193 72
165 189 76
169 193 57
164 188 80
169 194 92
169 193 76
165 189 67
165 188 72
164 188 72
164 187 72
169 193 88
170 194 57
168 192 62
171 194 84
165 189 57
166 191 62
167 191 92
168 192 51
166 191 76
161 184 44
165 188 84
167 191 80
161 184 57
162 186 67
164 188 67
168 191 72
160 184 57
159 183 44
162 187 51
163 186 80
165 188 67
154 178 76
163 186 51
161 185 80
161 185 62
157 179 72
167 190 76
163 186 95
160 183 80
163 186 57
158 180 57
156 180 72
165 188 62
111 137 110
94 121 134
81 110 112
85 114 129
90 119 131
102 129 139
92 120 141
109 136 155
96 124 155
98 126 161
97 124 163
105 132 149
91 120 161
86 115 149
81 111 162
87 115 150
93 121 154
91 120 163
96 123 150
82 111 150
87 115 160
87 117 162
93 121 156
93 121 149
101 127 153
105 131 155
108 134 159
103 129 148
100 126 153
95 122 145
95 122 153
93 122 155
95 123 149
97 124 151
92 119 161
69 103 162
80 111 174
74 107 167
77 108 165
68 102 162
72 105 164
71 103 161
66 99 159
82 107 150
79 107 157
68 101 160
61 97 163
62 97 159
60 96 160
61 96 151
61 97 152
62 97 156
61 97 152
61 97 160
61 96 149
63 97 146
68 102 147
70 103 150
64 98 148
61 95 139
64 97 127
63 98 153
62 97 148
61 95 142
62 97 150
61 96 147
61 96 151
61 96 148
60 95 142
61 96 145
61 96 145
61 97 147
61 97 154
60 95 149
60 95 143
61 96 137
62 97 155
61 96 137
60 94 144
62 97 149
63 99 160
62 97 156
59 94 143
63 99 162
62 97 151
62 98 150
60 96 140
61 96 141
61 96 145
62 97 153
61 96 144
60 95 133
60 95 143
60 94 140
61 96 147
61 96 140
61 95 142
61 96 137
61 96 147
60 95 145
61 96 140
61 97 148
60 94 129
61 96 144
61 96 143
62 97 144
60 94 140
61 96 148
61 96 141
60 95 139
61 96 140
61 96 141
61 96 145
61 96 144
61 96 143
61 96 142
60 95 140
60 95 139
61 95 141
60 95 137
60 94 134
61 96 136
61 95 135
60 95 133
60 95 141
59 94 129
60 94 130
61 96 147
59 94 133
59 94 130
61 96 139
60 95 135
59 95 137
61 96 148
58 92 134
61 95 133
59 94 129
58 92 127
61 96 143
59 93 125
58 92 126
59 93 125
60 94 131
59 94 122
60 94 131
59 93 130
60 94 135
60 95 140
60 94 127
60 94 129
58 93 117
58 92 121
59 93 133
59 93 124
59 93 124
60 94 127
59 93 111
59 93 125
58 91 107
58 92 124
57 90 105
60 94 130
56 90 118
57 90 120
56 89 107
59 90 110
109 126 54
115 130 0
124 138 0
119 132 0
127 142 0
122 137 0
121 134 0
116 130 0
129 143 0
119 130 0
114 128 0
114 127 0
125 137 0
118 133 0
125 136 0
134 145 0
121 131 0
133 146 0
132 147 0
133 147 0
131 143 0
123 135 0
129 143 0
127 140 0
112 124 0
137 150 0
121 130 0
130 143 0
123 136 0
123 134 0
127 141 0
130 143 0
121 131 0
125 137 0
123 134 0
139 152 0
128 140 0
129 140 0
129 142 0
142 155 0
129 141 0
141 154 0
133 144 0
129 142 0
137 147 0
135 147 0
134 147 0
136 148 0
130 139 0
123 135 0
132 143 0
134 144 0
134 144 0
141 152 0
141 152 0
134 147 0
136 148 0
135 145 0
129 137 0
134 146 0
132 144 0
136 148 0
140 148 0
141 154 0
138 150 0
142 153 0
145 157 0
142 156 0
137 148 0
138 151 0
144 156 0
134 148 0
138 149 0
154 167 0
136 144 0
145 157 0
138 150 0
141 152 0
148 158 0
147 158 0
141 153 0
152 164 0
151 165 0
158 172 0
145 154 0
145 157 0
147 160 0
149 164 0
149 160 0
154 164 0
150 164 0
153 166 0
151 164 0
144 153 0
152 164 0
151 163 0
155 168 0
153 165 0
151 162 0
159 176 0
161 175 0
151 162 0
153 167 0
151 165 0
156 170 0
156 170 0
156 170 0
155 169 0
158 173 0
153 166 0
151 164 0
159 173 0
155 171 0
157 169 0
155 171 0
160 175 0
160 177 0
155 169 0
158 173 0
162 177 0
153 167 0
157 173 0
158 176 0
156 173 0
153 170 0
159 175 0
161 178 0
156 172 0
158 175 0
167 183 0
161 179 0
160 177 0
158 174 0
165 183 0
162 181 0
159 173 0
160 178 0
159 176 0
165 182 0
166 182 0
163 180 0
161 180 0
167 186 0
155 173 0
157 172 0
162 180 0
163 180 0
160 178 0
163 183 0
162 181 0
161 180 0
159 178 0
164 180 0
173 197 80
172 196 57
175 198 84
171 195 88
172 195 62
173 196 57
170 195 51
170 194 80
172 197 72
173 196 67
169 193 95
172 195 62
170 194 67
173 196 80
169 194 102
165 189 76
169 192 51
169 193 57
166 190 76
172 196 76
168 193 80
171 196 88
170 195 76
169 193 67
171 196 57
168 192 72
169 193 51
172 197 72
172 196 72
170 195 80
172 195 57
168 192 51
165 190 67
170 194 57
172 197 84
170 194 88
169 192 67
172 196 80
167 192 72
169 192 76
168 192 62
165 189 95
166 190 62
169 192 76
171 195 72
165 188 25
165 190 72
166 190 57
166 191 72
164 188 76
165 190 80
165 190 67
162 185 80
166 191 84
159 184 76
162 186 84
162 187 84
166 191 88
168 192 76
169 193 72
160 184 80
161 185 72
167 190 88
165 190 80
168 192 76
164 187 72
163 187 90
165 188 88
164 189 95
158 182 76
163 186 76
157 180 44
167 190 72
165 188 62
166 189 88
162 184 72
162 184 62
159 183 84
164 186 80
162 185 67
163 185 62
152 175 92
101 128 122
95 122 135
79 109 131
91 119 124
93 121 129
82 111 118
92 121 139
97 125 143
83 113 152
81 111 149
93 121 163
95 123 160
96 124 160
100 128 166
94 121 163
90 119 157
93 121 157
95 123 160
97 125 158
90 117 149
98 125 152
90 117 145
105 131 151
98 125 160
86 116 149
108 133 156
104 130 150
101 128 147
108 133 149
98 124 154
101 126 151
93 121 147
72 104 148
72 103 146
89 117 148
68 102 160
80 111 173
88 117 173
74 107 167
86 115 173
75 108 170
72 102 153
71 102 158
63 97 153
80 107 161
66 99 157
60 96 155
61 97 150
61 96 145
61 97 152
62 97 158
62 98 158
59 94 149
60 94 141
65 99 150
63 98 149
62 97 145
60 95 139
63 97 133
72 103 130
69 101 146
59 94 144
59 94 136
62 96 149
61 96 142
61 95 147
61 95 145
61 96 149
62 97 150
62 97 151
60 95 137
60 95 144
61 96 150
61 97 149
62 97 148
60 95 144
60 94 136
60 95 148
61 96 149
62 97 145
61 96 148
62 97 149
61 95 141
60 95 144
62 97 147
61 96 144
60 95 144
61 96 147
61 96 153
60 95 143
61 96 144
59 93 138
61 96 141
62 97 141
61 95 136
61 96 148
59 94 129
61 96 144
60 94 136
61 96 152
61 97 142
61 97 148
59 94 138
61 96 140
61 96 148
60 95 140
60 95 136
60 95 133
61 97 150
61 96 145
61 96 149
60 95 142
61 95 140
60 95 137
61 96 143
60 95 140
60 94 136
62 97 150
60 95 136
61 96 139
61 96 141
60 94 137
60 95 141
58 93 136
62 97 149
60 95 136
60 95 134
61 96 141
60 94 133
59 94 135
59 94 133
59 94 122
60 94 133
59 94 130
59 93 129
58 93 122
60 95 133
60 94 135
58 91 124
59 93 125
61 95 134
59 93 133
59 94 130
59 94 125
59 94 124
57 91 121
59 93 125
59 93 129
58 92 122
60 94 125
59 93 122
60 94 129
59 93 127
59 93 121
59 93 122
58 92 121
58 91 108
56 89 105
59 93 122
57 89 108
58 91 111
56 88 105
56 89 115
57 89 120
86 105 70
120 135 0
117 131 0
123 136 0
124 138 0
120 134 0
120 134 0
116 128 0
121 134 0
121 133 0
121 136 0
118 132 0
127 141 0
120 134 0
122 136 0
116 130 0
115 124 0
120 134 0
125 137 0
117 129 0
124 139 0
122 134 0
122 133 0
134 149 0
118 131 0
129 143 0
121 133 0
132 144 0
123 137 0
145 160 0
120 131 0
128 140 0
134 148 0
129 140 0
123 136 0
128 140 0
132 144 0
127 136 0
139 150 0
134 147 0
136 151 0
127 138 0
131 143 0
130 142 0
137 149 0
124 134 0
130 141 0
130 139 0
136 148 0
144 156 0
139 154 0
137 147 0
146 161 0
133 145 0
127 140 0
139 150 0
134 145 0
131 143 0
149 161 0
136 147 0
134 145 0
133 144 0
138 152 0
136 147 0
138 149 0
132 141 0
137 146 0
131 140 0
135 148 0
137 147 0
144 159 0
146 156 0
135 143 0
146 161 0
140 151 0
142 156 0
146 158 0
145 157 0
141 150 0
147 157 0
149 162 0
146 157 0
146 159 0
147 157 0
143 154 0
142 153 0
145 156 0
151 163 0
151 163 0
153 164 0
149 162 0
149 162 0
150 163 0
152 164 0
146 157 0
154 168 0
152 166 0
151 164 0
154 168 0
158 172 0
156 171 0
159 173 0
157 172 0
154 167 0
156 171 0
158 174 0
156 171 0
156 169 0
152 164 0
158 174 0
156 170 0
162 178 0
151 163 0
165 179 0
154 166 0
158 174 0
157 172 0
155 170 0
157 172 0
153 168 0
162 179 0
158 174 0
158 174 0
164 180 0
164 183 0
160 174 0
165 179 0
155 171 0
163 180 0
157 173 0
166 183 0
159 174 0
165 181 0
162 179 0
155 170 0
154 170 0
165 183 0
165 183 0
161 179 0
163 181 0
161 177 0
164 182 0
165 184 0
163 182 0
166 185 0
164 182 0
167 184 0
160 177 0
166 183 0
168 186 0
164 183 0
163 182 0
165 185 0
162 181 0
176 199 67
173 197 76
173 197 84
174 198 95
168 193 72
170 195 57
172 196 76
171 195 67
172 195 67
171 194 84
171 194 57
170 193 57
170 194 84
172 196 88
166 189 67
170 193 72
169 193 67
170 194 76
171 195 67
169 194 95
172 195 36
167 192 67
170 193 51
170 195 76
169 192 62
171 194 62
168 192 67
169 193 57
170 195 92
172 196 88
169 192 72
167 191 62
169 193 51
170 194 67
168 191 72
171 195 80
168 193 99
164 189 62
168 191 67
164 189 84
167 192 92
163 187 67
163 186 62
163 187 57
163 188 72
159 183 67
168 193 84
165 189 88
169 193 72
167 192 88
157 180 67
167 191 84
170 194 80
165 189 67
160 184 84
166 189 84
163 187 72
164 187 62
162 186 80
163 187 72
162 186 67
164 188 80
165 190 88
167 192 76
162 187 72
166 189 76
158 182 67
159 182 72
163 186 65
160 184 80
158 182 72
167 191 80
160 184 72
157 180 62
160 183 72
159 183 92
163 185 72
159 182 76
163 185 92
160 183 67
153 175 76
164 187 67
144 167 110
96 123 130
86 115 128
96 124 146
95 123 149
95 122 124
95 123 131
83 111 124
91 119 130
94 120 133
106 133 155
94 122 166
89 118 162
86 115 152
103 129 159
82 112 159
100 126 165
95 122 153
90 118 158
101 128 171
89 116 153
92 119 150
90 118 143
92 121 153
102 128 157
99 126 159
100 127 154
100 127 154
89 117 148
93 120 156
99 126 145
85 114 145
96 123 149
93 121 161
97 123 160
80 110 162
87 116 168
77 109 173
85 114 168
78 109 167
75 107 167
73 104 157
65 98 154
68 100 162
69 100 152
65 99 161
62 98 153
62 98 152
61 97 153
61 97 157
61 97 155
61 96 144
61 96 143
61 97 158
61 96 147
68 101 148
65 99 154
60 94 142
71 102 133
65 99 145
64 97 131
60 94 148
62 97 154
61 96 151
61 96 151
62 97 153
62 97 148
61 96 148
62 96 140
61 96 140
63 97 148
61 97 147
62 96 139
61 96 144
62 97 149
61 96 152
61 96 147
60 95 139
60 94 133
61 95 145
62 97 147
62 97 145
62 97 150
61 96 147
60 95 145
60 96 143
61 95 143
62 98 150
62 97 150
61 95 145
62 97 148
61 97 144
61 96 143
61 96 149
61 96 147
61 96 148
61 96 138
61 97 142
61 96 139
60 95 139
60 95 137
61 96 142
60 94 134
60 95 133
62 97 149
62 97 150
62 97 143
60 95 136
62 97 147
62 97 151
60 95 133
60 95 141
61 96 144
60 94 139
60 94 134
60 96 144
60 94 133
61 96 143
60 94 127
59 93 127
61 95 134
61 95 133
61 95 145
61 96 139
62 97 145
59 94 129
59 93 122
59 93 129
59 94 131
61 96 143
59 93 125
61 95 134
59 93 122
61 95 137
61 95 136
60 95 130
60 94 133
60 94 133
59 94 126
60 95 135
59 94 131
58 93 121
59 93 124
60 95 139
59 93 126
58 93 126
58 92 129
60 94 129
59 94 130
59 92 125
59 93 126
57 91 126
58 92 114
57 90 113
58 92 121
58 91 118
59 94 124
59 93 121
58 91 117
57 90 114
56 89 120
56 89 105
55 88 108
80 104 83
110 122 0
129 145 0
114 125 0
125 139 0
123 137 0
116 129 0
117 127 0
116 131 0
114 125 0
124 138 0
121 136 0
118 133 0
126 139 0
119 132 0
126 139 0
121 135 0
125 139 0
125 139 0
131 145 0
121 134 0
120 135 0
132 147 0
131 145 0
134 148 0
124 138 0
122 133 0
139 154 0
129 144 0
137 149 0
132 147 0
128 138 0
131 144 0
128 141 0
130 143 0
128 141 0
140 154 0
133 144 0
126 141 0
129 142 0
132 144 0
131 142 0
141 152 0
118 128 0
128 141 0
137 149 0
131 140 0
134 147 0
139 150 0
140 156 0
140 152 0
133 146 0
128 139 0
144 157 0
140 151 0
132 147 0
139 152 0
148 161 0
139 155 0
141 154 0
138 151 0
137 148 0
139 153 0
146 159 0
141 150 0
137 149 0
139 152 0
143 155 0
143 152 0
142 153 0
136 147 0
137 147 0
136 146 0
144 155 0
149 163 0
150 162 0
147 159 0
144 156 0
141 152 0
148 164 0
150 162 0
143 155 0
143 156 0
146 160 0
135 147 0
150 165 0
151 164 0
149 162 0
155 166 0
146 160 0
148 160 0
142 154 0
148 160 0
154 170 0
148 162 0
145 155 0
149 164 0
153 167 0
150 165 0
148 160 0
155 169 0
149 162 0
154 168 0
152 165 0
153 166 0
154 168 0
156 171 0
156 173 0
154 167 0
157 170 0
159 176 0
155 171 0
152 167 0
159 175 0
160 173 0
156 171 0
157 170 0
154 169 0
154 169 0
159 175 0
160 175 0
164 179 0
160 177 0
162 180 0
157 175 0
161 179 0
159 174 0
157 175 0
166 183 0
162 179 0
159 176 0
157 174 0
158 173 0
161 177 0
165 184 0
161 180 0
163 181 0
162 179 0
156 175 0
162 180 0
164 182 0
158 174 0
164 180 0
162 178 0
160 175 0
164 183 0
164 183 0
163 182 0
162 180 0
164 184 0
163 183 0
168 189 0
160 178 0
162 181 0
166 186 0
172 195 72
171 196 95
171 194 80
171 196 76
172 196 80
173 197 62
168 192 62
170 193 80
169 194 76
171 195 51
172 196 80
174 198 99
171 194 62
173 197 72
172 196 62
170 195 84
168 191 57
170 194 76
171 195 88
170 194 72
167 191 67
170 195 72
169 194 88
170 195 88
171 195 72
174 197 80
167 191 44
172 195 57
167 191 57
166 190 67
171 195 76
169 194 99
170 193 84
174 197 67
170 194 76
168 192 76
165 189 67
165 189 67
166 190 76
164 188 80
170 194 80
162 185 36
167 191 72
169 193 76
164 188 57
164 189 80
164 188 62
166 190 84
171 195 72
168 193 88
165 189 57
164 188 76
164 188 84
169 192 80
164 188 67
168 192 67
168 192 67
168 192 80
165 189 80
168 192 76
168 191 51
158 181 51
162 185 67
162 185 57
163 187 88
168 192 72
162 187 67
163 187 80
160 183 80
162 185 76
160 183 80
163 187 62
161 185 62
156 179 67
157 179 80
160 184 72
161 184 57
164 188 67
159 181 72
159 183 76
167 191 111
156 179 74
154 177 51
112 137 103
104 131 141
83 111 131
85 112 129
90 118 124
92 119 124
106 132 135
113 139 155
85 114 137
97 123 141
104 131 157
93 121 155
90 118 166
91 120 155
87 116 158
106 132 164
92 120 148
84 112 152
91 118 151
98 125 161
91 119 156
92 119 158
104 129 150
92 120 148
94 121 150
106 132 151
104 130 158
103 130 147
100 126 157
97 122 139
97 123 134
75 107 139
93 120 156
86 116 153
83 113 156
78 109 165
92 120 172
71 104 161
74 106 164
80 111 166
69 103 165
71 101 157
68 100 155
74 103 151
67 99 158
73 102 153
63 98 154
62 97 153
62 98 157
62 97 159
62 97 150
60 95 147
61 96 154
61 97 148
62 96 143
66 100 146
64 98 144
66 100 144
65 98 136
72 103 130
64 97 131
61 96 150
62 97 148
62 97 148
62 97 147
59 93 134
61 96 139
59 94 144
62 97 148
60 96 146
62 97 144
60 95 139
61 95 139
61 95 140
61 96 151
61 96 151
60 95 142
62 97 152
60 94 134
59 94 134
61 96 139
62 97 143
61 95 143
62 97 143
59 93 130
62 97 149
62 97 145
60 95 140
60 95 134
62 97 144
61 95 136
61 95 137
61 96 145
62 97 150
60 95 144
61 96 144
61 96 144
60 95 140
59 94 134
61 96 146
61 96 141
60 94 137
61 96 144
60 94 141
61 96 141
61 96 142
61 96 140
62 97 145
60 95 133
61 96 143
61 96 145
60 95 139
61 97 145
61 96 140
61 95 143
60 95 131
61 96 144
60 95 136
61 96 141
60 94 131
60 94 134
60 95 140
60 95 142
61 96 141
61 96 142
58 92 130
59 93 114
59 94 134
59 94 127
61 95 140
58 92 120
59 94 130
60 95 135
60 95 140
60 94 121
60 94 135
60 95 131
59 94 120
58 92 127
59 94 129
60 94 133
58 92 115
60 94 133
60 94 125
59 93 111
58 91 121
59 93 122
58 92 125
59 93 126
56 89 118
59 94 115
58 91 111
58 92 117
58 93 124
58 92 124
57 90 114
58 92 113
57 90 107
57 90 117
58 91 108
54 86 94
62 92 100
91 105 40
115 128 0
120 134 0
117 131 0
111 125 0
118 132 0
128 143 0
118 132 0
119 133 0
112 127 0
130 145 0
130 142 0
123 139 0
123 135 0
116 131 0
129 142 0
115 126 0
133 149 0
128 141 0
132 146 0
122 134 0
114 129 0
126 138 0
129 144 0
121 133 0
121 134 0
131 145 0
132 146 0
126 139 0
125 139 0
130 143 0
134 146 0
131 143 0
132 145 0
135 148 0
128 140 0
130 143 0
138 153 0
140 154 0
122 133 0
121 134 0
137 151 0
135 148 0
136 148 0
129 141 0
136 150 0
141 155 0
139 153 0
125 139 0
121 134 0
131 144 0
134 147 0
132 142 0
139 151 0
139 151 0
132 144 0
141 152 0
138 149 0
136 147 0
137 148 0
138 149 0
137 151 0
138 151 0
135 148 0
143 154 0
140 152 0
139 153 0
136 147 0
149 161 0
140 151 0
133 145 0
144 157 0
134 147 0
148 162 0
150 165 0
141 152 0
149 160 0
147 160 0
145 156 0
141 154 0
146 161 0
151 164 0
146 160 0
149 165 0
147 160 0
147 158 0
143 157 0
147 160 0
154 168 0
148 160 0
143 155 0
149 159 0
143 156 0
146 158 0
150 161 0
151 164 0
149 164 0
153 163 0
157 170 0
154 169 0
155 168 0
146 159 0
147 161 0
159 172 0
157 175 0
154 167 0
158 171 0
156 171 0
152 166 0
156 173 0
153 168 0
158 174 0
160 176 0
155 171 0
150 164 0
157 170 0
160 176 0
160 177 0
163 179 0
155 170 0
146 161 0
159 174 0
158 173 0
161 178 0
155 173 0
162 178 0
157 173 0
158 176 0
161 178 0
156 172 0
153 169 0
164 181 0
162 179 0
165 183 0
163 182 0
168 185 0
158 175 0
160 176 0
163 181 0
160 178 0
164 181 0
160 179 0
160 179 0
167 184 0
168 188 0
163 182 0
163 180 0
166 186 0
160 178 0
167 188 0
162 180 0
162 182 0
165 185 0
168 186 0
166 186 0
172 196 88
172 196 80
170 194 76
170 194 62
170 194 88
175 198 72
169 193 84
173 196 67
172 195 80
172 195 62
171 195 57
173 197 84
170 194 62
173 197 57
170 193 72
173 197 72
173 197 76
168 191 57
165 189 67
170 195 62
170 195 84
170 194 67
173 197 84
168 192 51
168 191 36
169 194 80
167 191 57
167 191 57
168 192 80
166 190 84
167 191 62
166 190 57
169 193 62
166 190 76
168 192 88
170 195 80
171 196 76
163 188 88
166 189 67
168 192 88
167 193 84
169 194 80
167 191 51
166 191 72
170 194 72
166 190 92
164 189 76
166 189 57
163 187 76
169 194 95
163 187 72
165 189 84
162 186 84
167 191 25
161 185 62
163 187 57
164 187 44
169 193 88
161 186 72
162 185 76
163 187 76
170 194 88
161 185 67
159 183 72
162 186 72
165 189 92
160 183 62
162 184 62
162 184 76
169 191 65
160 183 92
155 179 72
154 176 72
158 182 72
164 188 72
159 182 62
153 176 76
157 181 99
164 187 67
162 185 84
157 181 80
155 178 51
158 181 67
150 173 70
98 125 118
83 111 122
77 106 115
95 122 132
86 115 137
81 111 127
100 127 131
85 114 134
78 107 138
101 128 140
101 127 150
100 127 155
98 125 162
97 124 164
90 118 159
103 129 155
98 124 155
91 120 165
109 135 171
94 122 164
99 125 155
104 131 158
96 122 149
105 131 150
112 136 161
95 122 150
112 137 148
111 136 164
103 128 150
96 124 137
83 110 146
87 116 148
99 126 158
90 119 155
84 114 148
85 114 169
78 109 172
86 115 173
69 103 162
80 111 163
85 113 165
68 100 156
72 102 151
74 104 152
74 103 158
70 101 154
61 97 153
61 97 157
62 98 157
62 97 156
61 96 149
62 98 158
61 97 148
61 96 139
65 99 144
61 95 156
65 100 152
64 98 130
69 101 139
72 103 132
61 95 136
61 96 140
63 98 155
62 97 155
59 93 134
62 97 147
58 92 131
62 97 150
62 98 152
61 96 151
60 94 139
62 96 138
61 96 144
61 96 144
61 96 146
60 95 143
60 95 135
62 97 150
61 95 139
62 97 149
61 96 147
60 95 144
61 95 141
60 94 147
62 97 148
60 94 136
62 97 153
61 96 148
60 95 141
61 95 139
62 97 150
61 96 142
60 95 137
60 94 142
60 95 134
61 96 147
62 97 153
62 97 142
59 93 129
61 96 145
61 96 143
60 95 141
60 95 129
60 94 133
59 94 134
59 93 131
61 95 142
60 95 133
59 93 126
60 95 144
60 94 133
59 94 125
60 94 139
61 96 144
61 96 144
59 93 137
59 93 125
60 95 137
60 95 133
58 93 127
60 94 134
61 95 141
60 95 144
60 95 133
60 95 140
59 93 117
58 93 127
61 96 135
58 92 127
60 94 129
60 94 136
61 95 136
58 93 120
59 93 122
61 96 140
61 96 139
60 94 129
60 94 129
59 94 125
61 95 133
59 93 122
58 91 126
59 93 127
58 91 122
58 92 124
60 94 135
58 92 125
58 91 121
58 92 120
59 93 117
58 92 111
58 92 110
58 91 124
58 92 118
58 91 114
57 90 117
58 92 115
57 89 120
56 88 108
56 88 108
98 112 47
110 124 0
115 129 0
116 129 0
115 128 0
120 133 0
126 139 0
114 128 0
119 133 0
110 122 0
115 127 0
121 133 0
133 147 0
110 123 0
131 146 0
125 139 0
126 138 0
122 137 0
127 141 0
127 141 0
127 141 0
128 145 0
124 138 0
117 129 0
124 136 0
127 141 0
135 148 0
135 148 0
136 149 0
133 146 0
138 152 0
124 137 0
127 142 0
136 152 0
127 140 0
135 148 0
128 140 0
132 147 0
139 152 0
128 140 0
130 143 0
129 141 0
131 144 0
133 147 0
135 150 0
144 159 0
140 150 0
135 148 0
141 153 0
132 144 0
133 147 0
137 149 0
140 153 0
132 145 0
141 156 0
140 154 0
132 145 0
141 153 0
144 156 0
143 155 0
137 150 0
139 150 0
140 152 0
138 151 0
139 150 0
139 151 0
141 154 0
139 152 0
142 155 0
144 158 0
143 157 0
149 163 0
141 155 0
141 154 0
143 155 0
145 157 0
148 161 0
158 170 0
148 161 0
149 162 0
147 160 0
145 157 0
148 161 0
143 153 0
147 160 0
146 159 0
145 159 0
151 164 0
145 158 0
148 159 0
145 160 0
151 165 0
150 165 0
159 175 0
154 168 0
154 170 0
147 161 0
148 162 0
149 165 0
150 162 0
153 168 0
156 169 0
150 164 0
153 169 0
157 172 0
150 164 0
153 166 0
158 173 0
151 165 0
158 175 0
151 164 0
162 177 0
154 170 0
155 170 0
158 172 0
161 177 0
155 171 0
162 180 0
156 172 0
152 167 0
154 168 0
159 177 0
163 182 0
164 183 0
156 171 0
159 175 0
159 175 0
163 181 0
157 175 0
157 173 0
163 180 0
162 177 0
163 180 0
161 177 0
162 178 0
156 173 0
159 177 0
164 183 0
164 184 0
158 173 0
160 178 0
157 173 0
162 179 0
163 184 0
167 185 0
167 188 0
163 184 0
163 182 0
163 179 0
158 175 0
164 185 0
161 178 0
169 189 0
170 187 0
162 179 0
167 188 0
172 196 80
167 191 67
175 199 92
173 197 88
172 196 67
168 192 62
170 194 76
173 197 88
170 194 62
170 194 67
169 194 84
171 195 80
172 195 67
168 192 76
172 195 76
169 194 76
166 191 76
169 194 76
171 195 88
171 195 72
166 191 76
164 188 57
164 188 51
169 194 88
168 191 51
168 193 84
168 192 62
166 190 51
169 193 72
171 195 88
165 189 62
166 190 80
168 193 76
169 193 72
170 195 95
164 189 76
165 189 72
170 194 62
166 191 80
168 192 67
166 190 76
168 193 67
163 188 57
163 187 67
167 191 80
168 192 62
167 191 80
164 189 80
163 188 84
168 193 92
162 186 72
167 191 76
165 189 76
161 184 62
165 189 67
168 192 80
165 189 84
156 181 57
160 184 67
162 186 72
165 188 62
165 189 88
160 184 62
157 180 67
166 189 80
164 188 95
164 187 72
162 187 72
166 189 92
158 181 72
158 182 72
156 179 76
158 181 76
161 184 80
156 180 88
160 183 72
164 187 62
160 184 80
159 182 76
160 182 62
159 182 67
150 172 72
153 176 76
154 177 72
134 158 76
89 116 129
91 118 121
85 114 141
93 120 134
91 118 138
88 117 140
92 119 130
83 111 125
92 120 138
82 111 137
84 113 134
89 117 157
98 125 163
92 119 157
99 126 161
96 121 153
94 121 160
97 124 152
97 124 147
84 113 153
89 117 149
106 132 161
88 115 150
95 122 156
102 128 156
100 126 144
103 129 155
92 120 144
104 127 145
103 128 137
78 109 154
80 110 136
92 122 154
92 120 155
89 118 165
88 116 173
71 104 164
90 118 171
88 117 169
74 105 154
68 100 144
74 102 151
78 105 151
70 101 155
72 102 148
66 99 145
61 96 153
61 96 144
61 97 153
61 96 151
61 96 153
60 95 148
59 94 138
63 98 144
65 99 140
63 97 143
66 98 131
63 96 136
61 94 133
67 99 131
60 95 133
60 95 136
59 94 135
61 96 141
60 95 142
62 97 149
61 95 147
61 96 141
60 95 149
61 96 143
61 96 143
60 95 131
61 96 139
60 95 144
61 96 147
62 97 149
62 97 144
62 97 142
61 95 137
62 97 147
61 96 144
61 96 136
60 95 138
61 97 151
60 95 145
61 96 137
60 95 134
62 97 153
60 94 131
59 93 131
61 97 147
61 96 149
61 96 143
62 97 142
59 94 137
60 95 141
60 95 137
61 97 149
60 95 136
61 96 142
61 96 139
60 95 135
62 97 148
58 92 126
60 95 129
60 94 135
60 94 136
59 93 135
61 96 139
58 92 124
61 96 141
60 95 137
60 94 133
61 96 137
61 95 130
59 94 127
60 94 125
62 97 148
61 96 136
60 95 140
61 95 139
58 92 126
59 93 126
59 94 127
60 94 135
60 95 134
59 93 126
61 96 136
59 93 122
58 92 117
61 96 130
60 95 140
60 95 125
60 95 134
57 90 114
58 93 118
59 93 135
60 94 131
60 94 134
59 93 120
59 94 131
59 93 121
58 92 120
59 93 127
59 94 127
59 93 117
58 92 114
58 91 115
58 91 114
58 91 122
57 91 120
58 92 125
55 87 99
56 89 100
56 88 103
59 93 127
58 91 119
55 87 101
93 111 57
122 138 0
113 127 0
120 134 0
122 137 0
115 128 0
119 135 0
121 132 0
106 119 0
122 136 0
127 141 0
125 140 0
118 132 0
118 132 0
122 137 0
125 138 0
118 132 0
119 133 0
117 130 0
123 139 0
125 140 0
129 143 0
127 140 0
128 143 0
113 130 0
128 143 0
128 142 0
127 141 0
128 142 0
132 145 0
140 156 0
134 148 0
142 158 0
142 156 0
141 158 0
127 141 0
128 140 0
133 149 0
140 156 0
138 152 0
135 149 0
142 156 0
130 141 0
125 136 0
129 143 0
133 146 0
132 146 0
137 151 0
132 146 0
134 147 0
141 156 0
141 152 0
129 140 0
130 142 0
141 155 0
139 154 0
141 153 0
140 154 0
135 148 0
136 149 0
146 160 0
145 158 0
131 143 0
145 160 0
147 162 0
141 157 0
141 158 0
142 155 0
141 152 0
141 152 0
138 151 0
143 155 0
149 162 0
143 156 0
142 152 0
143 156 0
149 161 0
142 155 0
146 159 0
146 156 0
149 165 0
145 159 0
150 163 0
146 159 0
146 157 0
143 157 0
158 174 0
154 169 0
154 167 0
153 165 0
154 171 0
150 164 0
145 157 0
151 165 0
149 163 0
148 161 0
146 159 0
148 162 0
152 166 0
144 157 0
151 168 0
154 171 0
154 168 0
151 163 0
146 161 0
153 168 0
158 171 0
159 176 0
152 169 0
154 169 0
155 168 0
153 168 0
156 173 0
164 182 0
155 170 0
158 171 0
149 165 0
155 171 0
160 174 0
156 173 0
159 177 0
157 175 0
165 183 0
156 172 0
164 181 0
158 175 0
161 180 0
165 183 0
157 171 0
158 175 0
157 175 0
164 181 0
161 176 0
159 176 0
163 180 0
162 181 0
168 186 0
163 180 0
163 181 0
163 181 0
163 179 0
160 178 0
164 183 0
162 179 0
161 180 0
159 178 0
161 178 0
161 179 0
164 183 0
162 179 0
164 185 0
166 187 0
167 187 0
164 182 0
166 186 0
163 183 0
161 178 0
173 196 62
169 193 44
172 196 80
167 191 72
171 195 72
170 194 36
169 192 57
170 194 57
170 193 67
171 195 72
171 194 76
170 194 84
171 196 80
167 191 44
169 193 84
172 195 72
170 193 62
167 191 67
172 196 72
169 193 76
172 195 67
170 195 72
170 195 95
168 193 62
168 192 51
169 193 76
169 195 76
168 193 51
168 192 67
168 192 62
171 195 51
165 189 84
166 191 88
167 191 57
167 191 57
169 193 62
162 186 80
171 195 72
167 191 67
168 192 67
168 193 88
164 188 57
162 187 67
166 190 67
164 188 57
168 191 76
167 191 88
168 192 95
161 184 51
169 194 76
161 185 80
170 195 95
166 190 72
158 181 67
164 188 80
166 190 62
166 189 67
160 184 62
162 185 62
160 184 88
160 183 92
161 185 72
157 180 92
155 179 57
160 185 72
165 189 62
159 182 62
156 179 76
161 185 67
162 186 62
159 183 84
160 183 67
157 180 57
154 176 36
160 182 72
166 189 99
153 175 67
160 182 62
165 189 76
158 181 80
155 178 62
160 183 72
152 174 51
155 178 88
152 174 67
112 137 111
92 119 115
89 117 124
84 112 121
99 126 136
82 111 134
98 124 138
92 119 138
84 113 139
83 112 134
85 114 136
90 118 134
93 121 129
101 128 154
82 111 148
97 125 165
92 119 147
95 123 164
94 121 156
100 126 161
89 117 163
93 121 162
93 120 146
101 127 144
98 126 144
101 127 155
101 128 154
112 136 153
105 130 140
101 127 141
99 124 135
87 115 146
94 121 154
95 122 155
95 122 150
76 108 169
71 104 162
93 120 173
82 112 167
77 108 162
82 111 163
72 102 160
74 103 148
75 104 157
68 100 149
72 101 146
65 99 158
61 96 152
61 97 150
63 98 155
60 95 140
61 96 151
60 95 137
66 100 142
68 101 131
65 99 150
60 94 126
63 96 125
62 96 137
80 109 127
60 94 139
62 97 149
60 95 137
59 93 128
59 93 133
61 95 140
59 94 133
60 94 139
59 93 131
61 95 137
61 96 149
61 95 137
61 96 139
61 96 140
60 95 141
61 96 148
61 96 141
61 96 144
61 97 145
62 97 139
61 96 136
59 94 134
62 97 147
61 96 143
59 94 137
59 93 127
62 97 143
60 94 139
60 95 139
61 95 141
61 96 140
61 96 141
63 98 154
60 95 137
60 95 137
61 96 148
61 96 144
60 95 134
60 95 130
60 94 131
60 95 135
60 94 135
61 96 143
60 95 142
59 94 133
60 94 134
60 95 139
60 95 137
60 95 136
60 95 136
59 94 133
61 95 143
61 95 137
60 95 135
59 93 139
60 94 127
60 94 134
60 95 131
61 96 142
58 93 125
60 95 141
59 94 131
58 91 121
61 96 136
60 95 135
60 95 131
60 94 134
60 94 133
59 92 125
60 94 130
59 93 122
61 95 135
59 94 134
59 94 127
59 92 122
58 92 121
61 96 140
59 93 121
58 92 111
59 94 125
59 93 126
57 91 111
58 92 121
58 92 113
59 93 127
60 94 129
59 93 118
59 93 118
59 93 125
57 89 113
58 92 120
58 91 120
58 92 126
56 88 111
57 90 118
57 90 117
56 89 110
87 108 88
120 136 0
111 124 0
116 130 0
120 135 0
119 133 0
124 139 0
116 129 0
132 144 0
125 139 0
126 138 0
118 132 0
122 136 0
109 124 0
125 138 0
123 136 0
128 144 0
108 121 0
127 142 0
120 136 0
129 142 0
129 144 0
127 140 0
118 132 0
132 147 0
124 138 0
120 135 0
132 147 0
118 133 0
130 144 0
127 140 0
129 145 0
142 155 0
135 148 0
130 143 0
129 143 0
128 142 0
133 145 0
125 137 0
126 139 0
139 153 0
136 153 0
137 153 0
137 152 0
130 142 0
142 157 0
140 154 0
137 152 0
139 154 0
136 150 0
135 150 0
141 153 0
130 144 0
137 151 0
131 143 0
133 147 0
139 152 0
139 150 0
135 148 0
150 166 0
134 147 0
142 155 0
149 163 0
141 155 0
130 142 0
145 159 0
139 153 0
142 156 0
145 161 0
153 168 0
136 147 0
141 151 0
141 153 0
151 165 0
143 153 0
142 156 0
148 160 0
152 167 0
138 151 0
150 166 0
141 152 0
152 168 0
141 155 0
147 161 0
145 158 0
148 160 0
150 164 0
149 161 0
145 158 0
145 160 0
154 167 0
150 163 0
149 162 0
152 165 0
150 165 0
148 162 0
154 169 0
154 170 0
156 171 0
153 168 0
153 168 0
150 165 0
152 165 0
150 164 0
158 172 0
154 166 0
153 169 0
150 163 0
156 172 0
153 170 0
152 167 0
153 169 0
150 163 0
159 177 0
152 166 0
157 174 0
160 176 0
153 167 0
157 174 0
155 170 0
154 172 0
155 172 0
153 170 0
157 174 0
157 173 0
155 172 0
161 177 0
154 171 0
160 177 0
154 169 0
158 173 0
164 183 0
163 178 0
165 182 0
163 180 0
159 175 0
165 184 0
162 180 0
154 173 0
163 180 0
161 178 0
163 182 0
157 174 0
164 181 0
162 181 0
164 181 0
163 184 0
163 180 0
167 187 0
162 179 0
165 183 0
162 181 0
162 180 0
166 187 0
160 180 0
162 183 0
166 187 0
164 182 0
171 196 95
170 194 57
172 196 80
174 198 80
168 192 44
173 197 80
170 194 67
171 195 67
169 194 95
172 197 84
170 194 67
170 194 76
168 192 76
167 192 84
174 198 88
166 190 80
167 191 76
168 192 84
173 198 72
169 194 80
166 190 62
171 196 92
166 191 72
173 196 67
171 195 80
166 190 62
168 191 36
164 188 67
171 195 88
170 194 62
167 191 72
169 192 62
170 195 76
167 191 62
171 196 84
168 193 84
169 194 62
168 192 76
163 186 57
165 190 80
165 189 67
167 191 67
168 192 51
161 185 67
164 189 92
163 187 62
163 187 62
166 190 67
163 188 88
166 190 67
166 190 72
168 193 80
163 186 51
169 194 80
169 192 57
164 188 80
162 186 84
163 187 51
163 187 44
164 188 62
165 189 57
165 189 88
165 189 67
163 186 76
162 187 72
164 189 57
165 187 92
158 181 62
162 186 44
158 182 72
147 171 70
155 178 80
161 185 99
161 184 67
152 174 62
155 178 95
161 185 80
154 177 62
157 180 80
158 180 88
151 174 80
154 177 76
162 184 80
157 180 72
152 175 67
156 179 100
97 123 115
94 122 127
95 122 137
79 108 116
89 116 127
97 124 139
87 116 133
85 113 127
92 119 134
86 113 129
101 126 144
94 120 140
78 107 131
84 113 144
94 121 152
88 117 158
77 106 156
90 118 153
90 118 149
102 128 168
99 125 148
89 118 160
100 126 155
88 117 158
96 123 150
88 116 147
105 131 144
101 127 143
93 121 149
99 124 156
93 119 148
78 108 144
93 120 149
86 115 143
91 118 152
80 110 161
74 106 159
71 104 158
71 103 155
75 106 160
79 107 158
66 98 147
71 101 145
72 102 155
79 106 152
64 97 148
62 97 148
60 95 142
60 95 145
61 96 144
62 97 152
63 98 145
63 97 145
66 99 148
64 99 142
69 101 124
63 96 136
61 94 126
71 100 112
59 93 126
58 93 120
59 94 139
59 93 131
60 94 129
59 93 131
60 95 133
60 94 138
59 93 130
60 95 131
60 95 131
59 94 131
60 95 134
59 93 133
61 97 145
60 95 135
62 97 147
60 95 139
61 95 137
62 97 142
60 94 130
61 96 143
60 95 135
59 93 134
61 96 141
61 95 134
59 94 133
60 94 136
60 94 137
61 95 140
60 95 136
62 97 147
62 97 143
59 94 136
59 92 133
60 95 140
60 94 127
60 94 134
61 95 141
61 96 145
60 95 136
61 96 136
61 96 136
62 96 140
62 96 140
61 96 136
61 95 141
60 94 134
62 97 144
61 96 139
60 95 136
60 95 129
61 95 135
59 93 118
59 94 135
60 95 133
60 95 133
60 95 133
60 95 139
59 93 135
59 93 126
60 94 144
59 94 127
58 93 122
59 93 127
57 90 110
57 91 117
58 92 130
59 94 122
60 95 141
59 93 129
60 94 134
59 94 122
60 95 134
58 92 125
58 92 120
59 93 120
57 91 105
58 91 115
58 92 120
58 92 125
59 93 124
58 93 122
58 91 124
57 90 118
58 92 118
57 90 110
58 92 117
59 92 118
57 89 114
58 91 108
56 89 114
56 88 111
57 89 111
55 87 100
58 91 122
81 105 86
113 127 0
105 118 0
115 129 0
125 140 0
121 137 0
109 125 0
104 119 0
124 137 0
121 136 0
124 139 0
129 144 0
122 137 0
124 139 0
129 143 0
126 139 0
134 147 0
131 148 0
113 128 0
136 151 0
126 140 0
125 140 0
129 142 0
129 144 0
128 141 0
123 136 0
132 146 0
124 138 0
137 152 0
130 146 0
135 148 0
134 148 0
128 141 0
140 157 0
132 146 0
127 142 0
126 140 0
134 150 0
130 144 0
128 142 0
134 149 0
125 138 0
139 152 0
133 146 0
136 151 0
143 157 0
138 150 0
132 148 0
138 152 0
128 142 0
144 159 0
126 141 0
140 153 0
141 156 0
147 161 0
140 154 0
134 147 0
139 154 0
138 152 0
141 155 0
136 150 0
137 150 0
140 154 0
141 157 0
141 156 0
144 158 0
149 163 0
138 152 0
145 158 0
144 156 0
137 149 0
138 151 0
143 157 0
137 153 0
149 162 0
149 164 0
140 155 0
143 158 0
148 164 0
143 156 0
145 161 0
144 158 0
150 164 0
152 167 0
151 165 0
153 168 0
138 153 0
145 159 0
148 163 0
159 174 0
146 161 0
144 158 0
155 169 0
154 167 0
153 169 0
154 169 0
153 167 0
149 163 0
148 162 0
155 170 0
153 166 0
153 167 0
154 168 0
155 170 0
153 168 0
157 173 0
150 163 0
151 167 0
153 169 0
158 174 0
151 167 0
153 167 0
161 178 0
154 170 0
155 173 0
148 161 0
158 175 0
155 171 0
163 179 0
152 169 0
154 170 0
155 171 0
160 177 0
158 177 0
154 170 0
160 177 0
160 177 0
158 172 0
159 178 0
164 183 0
154 172 0
168 185 0
157 175 0
157 174 0
165 182 0
156 173 0
161 179 0
163 182 0
163 182 0
161 179 0
159 176 0
155 171 0
167 185 0
164 183 0
160 177 0
159 178 0
161 178 0
164 183 0
162 180 0
161 180 0
164 182 0
164 184 0
159 178 0
162 179 0
165 185 0
162 180 0
162 182 0
166 184 0
162 180 0
173 198 88
173 197 76
171 195 95
175 199 99
168 192 36
172 195 84
174 198 76
168 192 99
169 192 57
171 194 51
171 195 67
173 198 92
173 197 67
174 199 80
167 191 67
165 189 62
170 195 72
169 193 67
172 196 62
166 191 76
170 194 80
170 193 62
172 197 102
171 195 88
166 190 88
170 194 67
168 192 62
166 190 72
169 194 72
170 195 76
167 191 72
167 191 76
169 194 72
165 190 76
166 191 84
166 191 62
165 189 62
167 192 80
165 190 92
167 191 62
168 192 80
166 189 67
163 187 72
168 192 84
169 194 88
161 185 62
164 187 57
161 185 67
164 187 57
166 190 67
160 184 76
167 191 84
166 190 62
162 186 76
166 191 88
161 183 62
160 184 67
160 184 76
166 191 80
167 191 67
162 185 57
165 190 76
162 186 67
157 181 62
161 185 57
166 190 88
163 186 72
160 184 72
165 189 72
164 187 62
154 177 51
160 184 76
153 176 80
162 185 80
155 179 72
154 178 62
160 182 57
159 181 72
157 180 76
157 181 90
161 184 84
160 183 92
157 179 80
148 171 67
152 175 57
148 170 62
135 158 67
85 113 122
86 115 138
98 124 133
91 117 110
94 122 138
94 121 122
90 118 134
104 130 141
82 111 133
81 109 119
94 121 143
84 111 134
85 113 129
80 109 130
93 119 133
91 118 147
83 112 148
110 135 156
91 118 155
97 124 160
101 127 161
94 123 150
92 120 153
92 121 156
105 131 156
105 131 140
102 128 143
104 129 141
101 126 145
91 118 143
96 123 153
86 115 133
90 118 145
95 123 134
76 107 156
88 117 169
65 99 157
83 112 164
78 109 159
80 109 155
78 106 154
79 105 144
72 103 152
67 100 151
73 102 146
65 99 156
61 96 148
61 96 150
60 95 143
61 97 151
60 95 142
62 96 140
61 95 142
65 98 141
65 98 136
69 101 126
65 98 135
61 94 131
77 107 129
58 92 119
61 95 135
59 94 130
60 95 135
59 94 134
60 95 136
58 93 129
59 94 140
58 92 126
59 94 131
59 93 129
59 93 122
60 95 137
59 93 118
60 95 140
61 95 135
61 96 145
61 95 137
60 94 130
60 95 134
60 95 137
61 97 148
60 95 140
61 96 131
61 96 140
61 96 140
61 96 146
60 95 136
60 95 140
60 94 139
61 95 137
63 98 145
60 95 135
59 93 122
61 95 137
61 95 137
61 95 135
60 94 139
59 93 140
60 95 141
60 95 137
59 94 127
60 95 134
61 96 137
59 93 127
62 96 145
60 95 136
60 95 136
61 95 131
59 93 129
59 93 126
61 96 143
60 94 130
61 95 133
61 96 139
60 95 134
59 93 126
60 94 135
60 94 122
59 94 126
59 94 130
61 95 134
58 92 115
58 92 122
60 94 127
60 94 129
60 94 133
59 93 127
59 93 126
58 92 122
59 94 129
58 92 115
59 93 118
58 92 124
59 93 120
60 94 127
59 93 130
58 91 118
58 92 122
61 95 135
58 93 122
57 90 107
57 90 115
59 92 118
58 92 126
57 91 114
58 92 117
59 92 113
58 91 122
58 92 110
58 92 110
56 89 102
58 91 113
55 87 110
79 104 86
117 132 18
112 127 0
120 134 0
104 119 0
120 135 0
122 134 0
108 123 0
126 140 0
119 134 0
114 130 0
124 139 0
116 131 0
119 132 0
119 133 0
124 138 0
124 137 0
123 136 0
135 150 0
116 130 0
118 133 0
118 132 0
133 146 0
120 136 0
118 133 0
129 145 0
124 137 0
118 133 0
123 136 0
131 145 0
135 150 0
115 129 0
130 145 0
139 155 0
132 147 0
147 163 0
136 151 0
124 137 0
124 136 0
134 148 0
126 137 0
135 149 0
134 149 0
130 145 0
127 145 0
128 141 0
137 150 0
141 155 0
143 158 0
131 144 0
132 145 0
139 153 0
146 162 0
130 144 0
132 147 0
139 153 0
135 150 0
130 144 0
140 154 0
145 158 0
136 151 0
135 149 0
152 169 0
144 157 0
145 157 0
145 158 0
137 151 0
134 149 0
130 143 0
144 157 0
136 150 0
149 163 0
147 163 0
134 148 0
145 161 0
130 140 0
142 156 0
146 161 0
144 158 0
148 159 0
148 163 0
148 162 0
141 154 0
144 158 0
150 165 0
144 158 0
153 167 0
156 174 0
149 163 0
143 158 0
148 161 0
147 158 0
148 163 0
155 170 0
146 161 0
150 164 0
152 165 0
152 168 0
148 164 0
153 167 0
154 169 0
149 166 0
155 168 0
154 170 0
156 172 0
153 169 0
160 174 0
157 172 0
157 171 0
160 176 0
155 171 0
149 164 0
145 160 0
148 161 0
155 170 0
162 178 0
159 177 0
157 173 0
155 172 0
156 170 0
158 176 0
159 176 0
164 181 0
152 168 0
156 171 0
158 175 0
156 172 0
157 174 0
155 170 0
156 172 0
165 183 0
157 175 0
157 173 0
162 179 0
159 175 0
159 176 0
163 181 0
164 182 0
161 180 0
159 174 0
165 180 0
159 178 0
164 184 0
166 185 0
163 183 0
160 179 0
159 176 0
160 180 0
162 182 0
163 181 0
163 183 0
163 183 0
164 184 0
166 186 0
160 178 0
159 178 0
167 187 0
163 182 0
162 181 0
167 186 0
171 195 80
171 195 76
169 193 44
169 193 84
169 193 72
169 193 62
168 191 62
172 196 92
166 190 51
171 195 76
173 198 76
171 195 67
172 195 72
170 194 67
169 193 51
170 195 51
175 199 84
166 190 36
172 197 80
169 193 57
165 189 62
164 189 76
172 196 84
167 191 76
164 189 76
167 191 44
169 193 67
169 193 76
171 196 80
169 194 84
171 196 67
163 187 76
171 195 72
167 191 76
168 192 57
168 192 76
168 192 76
166 192 95
171 195 84
165 190 62
165 188 57
170 194 72
164 188 76
162 186 72
168 193 99
168 192 76
167 191 67
168 192 95
158 183 84
159 183 51
165 190 84
163 187 88
164 187 51
169 193 76
163 186 72
160 184 88
160 184 62
160 184 62
158 182 76
164 188 88
166 190 62
160 184 67
160 183 62
160 184 76
164 188 84
163 185 72
158 181 67
154 177 57
159 183 80
159 183 76
159 183 67
152 176 44
158 182 44
162 184 51
163 186 67
157 180 76
166 189 80
155 179 62
160 182 67
155 178 72
154 176 67
156 178 80
158 182 88
153 175 88
162 185 80
149 172 76
150 172 62
136 160 100
99 125 117
89 116 120
92 118 109
83 112 121
86 114 120
93 120 133
83 111 134
93 120 133
81 109 134
89 116 125
89 117 137
95 122 133
84 112 136
95 122 148
94 121 141
91 117 142
92 118 155
85 113 142
94 120 147
101 127 153
99 125 153
100 127 155
93 119 141
100 128 162
102 128 154
115 139 138
88 116 143
93 118 130
109 134 138
93 120 148
83 112 152
94 122 150
96 123 150
82 111 143
76 107 156
77 108 166
77 108 158
72 104 159
78 108 156
76 107 161
74 103 148
68 99 149
86 110 146
72 101 147
77 104 148
61 96 148
61 97 145
58 92 130
60 95 139
60 95 142
60 95 141
63 98 149
66 99 144
64 98 129
62 97 134
61 94 124
61 94 120
76 105 120
59 93 128
60 95 138
61 95 129
58 93 126
60 94 130
58 92 122
60 94 125
59 93 126
59 93 120
59 94 121
60 94 129
59 94 135
60 95 129
60 95 130
61 95 137
59 94 136
60 95 140
60 95 140
60 94 136
61 95 136
60 94 136
62 96 149
59 94 135
60 94 136
61 95 139
61 95 139
61 95 139
60 94 137
61 97 145
61 95 134
61 96 144
61 96 143
62 96 142
60 94 136
61 96 139
61 95 136
61 97 145
60 95 134
60 94 134
61 96 136
60 95 126
59 93 122
61 96 137
61 95 141
59 93 129
61 95 137
61 95 142
61 95 143
61 95 136
60 95 137
60 94 127
60 94 125
60 95 130
60 94 133
58 92 114
61 95 140
60 95 131
59 93 121
58 92 111
59 93 131
59 93 129
59 93 126
57 91 105
59 94 127
59 94 130
60 94 133
58 92 118
58 92 125
59 93 118
59 92 120
58 92 115
59 93 125
58 92 124
59 93 115
58 92 121
58 91 125
59 93 127
57 91 105
59 93 125
59 93 127
57 91 117
58 91 121
58 92 124
55 87 100
58 92 118
57 90 115
59 93 124
58 91 115
57 90 115
56 89 110
56 89 110
56 88 99
57 90 111
70 96 92
107 123 25
116 132 0
111 125 0
116 131 0
113 127 0
110 124 0
113 126 0
114 129 0
112 126 0
124 139 0
116 130 0
118 131 0
122 138 0
112 126 0
123 138 0
113 128 0
122 136 0
126 141 0
113 126 0
126 141 0
128 142 0
135 149 0
127 143 0
128 144 0
124 138 0
112 128 0
121 137 0
128 144 0
133 147 0
137 154 0
137 153 0
128 142 0
127 142 0
136 152 0
127 144 0
127 143 0
123 136 0
142 157 0
130 143 0
137 153 0
133 145 0
130 145 0
139 154 0
142 155 0
131 146 0
142 155 0
144 159 0
133 149 0
129 141 0
131 145 0
139 151 0
138 155 0
140 154 0
133 149 0
139 152 0
139 152 0
139 154 0
142 157 0
145 160 0
133 147 0
149 165 0
143 159 0
142 156 0
143 160 0
143 156 0
141 155 0
143 156 0
135 150 0
150 165 0
139 153 0
140 153 0
145 160 0
145 161 0
151 167 0
139 153 0
136 151 0
139 152 0
138 152 0
148 161 0
133 145 0
149 164 0
155 171 0
151 166 0
156 172 0
141 155 0
144 157 0
156 170 0
149 166 0
152 170 0
148 161 0
154 169 0
143 159 0
150 165 0
150 165 0
148 165 0
157 173 0
156 172 0
150 165 0
149 165 0
146 161 0
160 176 0
154 167 0
158 175 0
154 167 0
148 165 0
157 173 0
153 169 0
155 171 0
155 170 0
149 163 0
150 166 0
157 174 0
157 176 0
156 171 0
160 178 0
158 174 0
155 172 0
159 175 0
164 182 0
158 175 0
155 172 0
158 176 0
158 176 0
160 177 0
161 179 0
151 169 0
154 170 0
160 177 0
160 176 0
161 180 0
161 176 0
158 174 0
166 185 0
163 181 0
156 173 0
162 180 0
166 183 0
158 177 0
164 184 0
166 185 0
164 183 0
165 183 0
162 180 0
162 179 0
161 180 0
162 180 0
166 185 0
162 181 0
162 183 0
163 181 0
161 181 0
165 183 0
167 186 0
165 186 0
165 184 0
165 184 0
164 184 0
164 185 0
171 190 0
166 185 0
171 195 62
172 197 80
168 192 76
170 194 72
171 194 84
175 199 76
170 194 62
168 192 95
171 195 67
173 197 92
169 193 76
168 191 57
174 196 72
171 195 76
168 192 72
171 195 80
173 198 88
171 194 67
168 193 67
169 193 72
170 193 67
171 195 76
167 192 80
170 195 88
169 194 80
168 192 67
166 191 62
169 193 92
169 193 67
166 190 57
167 192 88
170 195 80
171 195 84
167 190 51
170 194 67
166 190 92
163 187 62
170 193 84
169 194 76
167 192 92
167 192 62
169 193 62
165 189 76
169 194 76
165 189 67
166 190 67
171 195 80
161 183 57
167 192 80
166 191 95
163 187 36
161 185 57
158 182 84
165 189 67
164 189 80
163 187 72
163 187 88
155 179 51
167 191 72
166 190 95
168 192 76
161 185 51
162 186 76
160 183 88
154 178 80
160 185 80
157 181 44
161 185 84
150 173 72
163 187 88
157 180 44
160 183 67
160 183 84
155 178 57
151 175 72
157 181 88
158 181 80
157 180 72
160 184 84
154 176 92
154 176 62
148 171 76
153 175 72
159 182 80
150 172 84
155 176 57
158 180 76
155 178 92
103 128 105
92 118 127
75 104 118
89 116 124
98 124 131
84 112 122
94 121 132
77 107 127
87 114 118
93 119 134
84 111 109
89 116 114
95 121 140
86 113 131
90 116 132
87 114 131
94 119 125
93 121 153
96 122 149
97 124 146
99 126 147
90 118 159
102 128 154
102 128 158
110 136 161
97 123 145
104 129 137
101 127 148
95 122 145
110 134 152
86 112 132
100 126 148
87 117 157
78 109 145
83 112 158
83 113 168
93 120 167
79 109 153
85 114 164
74 106 162
74 103 157
77 104 146
63 97 150
75 103 142
78 104 147
65 99 154
61 96 149
61 96 144
60 95 136
64 98 145
61 95 137
61 96 148
62 96 140
59 93 125
63 97 136
66 99 135
62 96 131
71 101 118
77 107 124
59 94 134
58 92 126
59 93 131
60 95 133
60 94 127
58 91 114
60 95 135
59 93 131
60 95 129
58 92 115
60 94 130
57 91 115
60 95 131
60 94 135
60 94 131
59 93 127
60 95 145
62 97 151
59 94 134
60 94 142
60 95 136
61 96 141
59 94 136
60 94 134
60 95 139
63 98 145
61 95 137
61 95 140
62 97 142
60 95 127
62 97 143
61 96 144
62 97 151
61 96 141
61 96 140
61 96 141
60 95 133
60 95 136
61 95 139
60 95 140
60 94 130
59 93 120
60 94 124
59 94 127
59 92 122
59 93 124
60 95 133
60 95 139
60 95 131
60 94 139
58 92 125
60 94 127
59 93 115
60 95 129
60 94 127
59 93 122
60 95 127
59 93 135
59 93 124
59 93 127
59 93 120
57 91 113
56 90 114
59 93 129
59 93 122
59 92 122
60 94 121
60 94 130
58 91 113
57 91 110
60 94 130
60 94 129
58 92 124
57 90 118
59 92 124
59 93 118
59 94 126
59 92 122
58 91 110
56 89 107
57 91 114
57 90 108
59 92 124
56 89 103
57 90 113
58 92 121
54 87 99
56 89 108
56 89 111
56 89 110
58 91 115
65 92 95
112 126 31
116 131 0
108 122 0
105 120 0
108 123 0
119 134 0
118 131 0
118 131 0
124 138 0
123 137 0
125 140 0
119 133 0
121 136 0
121 137 0
123 138 0
121 137 0
123 139 0
130 147 0
122 135 0
128 142 0
132 147 0
126 141 0
128 145 0
131 146 0
128 143 0
138 153 0
122 138 0
130 146 0
132 146 0
130 145 0
130 144 0
137 152 0
140 155 0
142 158 0
135 148 0
135 150 0
130 144 0
134 148 0
138 155 0
137 151 0
129 146 0
141 156 0
129 142 0
131 146 0
136 151 0
140 155 0
144 162 0
130 144 0
135 150 0
142 157 0
142 157 0
138 154 0
149 164 0
138 152 0
137 153 0
137 153 0
143 159 0
136 151 0
131 145 0
139 154 0
145 161 0
135 149 0
137 149 0
132 145 0
140 155 0
144 159 0
144 158 0
148 161 0
146 161 0
144 158 0
143 159 0
147 161 0
146 161 0
144 161 0
146 162 0
142 155 0
141 154 0
147 161 0
134 148 0
147 163 0
155 170 0
147 161 0
153 169 0
148 162 0
148 165 0
148 164 0
155 169 0
140 154 0
155 172 0
146 161 0
149 163 0
156 171 0
149 163 0
153 167 0
149 164 0
150 165 0
157 173 0
143 157 0
150 166 0
157 173 0
155 171 0
155 172 0
150 166 0
158 172 0
155 170 0
155 171 0
158 175 0
157 173 0
157 174 0
155 172 0
157 175 0
153 169 0
151 165 0
158 175 0
152 168 0
158 174 0
158 174 0
155 171 0
157 173 0
156 174 0
160 177 0
161 177 0
161 178 0
159 175 0
156 171 0
158 174 0
162 181 0
157 176 0
162 179 0
161 176 0
154 170 0
162 180 0
167 186 0
161 179 0
158 175 0
159 178 0
164 182 0
163 182 0
163 181 0
160 177 0
157 175 0
157 173 0
158 174 0
164 182 0
163 180 0
163 182 0
165 185 0
161 180 0
160 177 0
164 183 0
160 179 0
160 179 0
166 186 0
170 189 0
163 183 0
161 181 0
166 184 0
163 182 0
165 184 0
167 186 0
162 182 0
171 195 62
174 198 72
170 194 76
167 191 76
170 194 80
168 192 84
168 193 80
168 192 72
169 194 84
173 197 76
172 197 80
172 196 84
169 193 80
166 190 57
173 197 72
163 188 84
166 191 84
170 194 67
169 194 84
169 193 76
169 193 62
168 193 76
169 194 76
170 194 62
170 194 67
168 193 76
169 195 102
169 194 80
165 189 51
170 195 72
169 194 57
169 194 88
166 190 67
164 188 80
170 194 62
166 190 76
164 188 62
163 187 67
167 192 80
164 188 36
163 187 62
164 187 51
169 194 67
164 188 88
165 188 62
166 190 72
164 189 84
163 187 72
157 181 72
161 184 51
163 186 62
159 183 57
165 188 51
163 186 88
163 187 84
171 194 67
167 191 80
160 184 67
160 183 62
163 186 57
163 187 57
157 181 57
159 182 57
165 189 84
163 188 76
151 175 62
164 187 76
156 179 76
154 178 76
159 182 80
159 182 57
161 185 72
153 176 36
157 181 80
160 183 62
159 182 72
159 182 76
156 179 67
157 180 84
160 183 67
154 176 84
155 177 84
160 182 57
152 175 57
151 174 80
150 172 44
151 173 67
145 167 72
143 166 62
101 126 123
83 111 127
83 111 117
91 118 135
92 119 121
101 127 137
82 110 129
76 106 118
95 122 126
93 120 144
92 119 137
92 118 134
89 116 139
101 126 139
86 114 131
84 112 133
87 115 125
86 114 130
89 116 137
94 121 151
97 124 150
90 117 141
88 117 145
100 125 139
91 119 151
91 119 153
111 136 156
101 126 141
98 125 142
98 124 141
87 115 136
90 117 132
95 121 152
94 120 149
83 113 168
77 108 160
75 107 161
77 108 154
73 105 154
85 114 165
66 98 144
69 100 147
67 98 138
66 98 148
68 99 142
66 98 144
61 96 143
60 95 137
59 93 131
62 98 148
60 95 142
59 93 134
64 97 121
64 97 127
61 95 126
63 97 137
62 95 133
75 104 122
59 94 126
57 92 127
58 92 122
59 93 127
58 92 120
57 91 126
58 93 127
59 93 126
60 95 127
59 93 125
59 93 124
59 94 127
59 94 129
60 94 130
59 94 124
59 94 131
59 93 127
60 94 127
58 92 130
61 96 140
60 95 129
61 96 133
61 95 141
60 95 129
61 96 135
61 95 131
59 93 135
59 93 136
61 95 134
60 94 129
60 94 127
60 94 137
60 95 131
59 94 126
60 94 127
60 95 127
59 94 134
60 95 131
60 94 134
59 93 127
60 94 127
59 93 127
59 93 133
59 93 121
60 94 125
59 94 134
60 95 135
60 95 129
59 94 129
59 93 124
60 94 134
58 92 114
58 91 117
58 92 129
61 96 137
58 92 113
58 92 129
59 94 126
60 94 126
59 94 125
58 93 122
59 93 118
58 91 117
58 92 125
58 92 117
59 93 117
59 94 124
57 91 111
59 93 121
59 92 127
58 91 115
58 92 117
58 92 121
58 92 127
58 91 124
57 91 115
56 89 103
60 94 127
57 90 108
56 89 105
56 90 107
58 92 122
57 91 111
56 89 103
57 90 114
58 91 115
55 87 96
56 88 107
56 89 95
56 88 103
72 99 99
99 113 0
107 121 0
109 120 0
105 120 0
117 133 0
118 134 0
116 132 0
104 121 0
126 140 0
112 128 0
117 132 0
117 132 0
121 137 0
113 129 0
123 139 0
113 129 0
116 129 0
120 135 0
129 145 0
119 133 0
126 142 0
129 145 0
119 135 0
119 133 0
123 140 0
136 152 0
132 149 0
136 152 0
128 142 0
134 151 0
135 151 0
131 147 0
135 150 0
133 150 0
134 148 0
131 146 0
134 150 0
132 148 0
132 148 0
133 146 0
137 154 0
138 154 0
142 158 0
143 158 0
143 157 0
139 154 0
140 157 0
136 150 0
124 139 0
136 153 0
138 153 0
134 149 0
138 150 0
135 150 0
144 162 0
137 151 0
134 149 0
133 146 0
141 157 0
139 154 0
148 163 0
140 155 0
143 159 0
142 157 0
142 156 0
131 142 0
136 149 0
149 165 0
145 161 0
147 161 0
143 160 0
142 156 0
142 159 0
149 166 0
144 159 0
148 165 0
146 163 0
136 150 0
148 162 0
153 169 0
145 161 0
149 164 0
135 149 0
154 169 0
145 160 0
141 154 0
147 163 0
148 161 0
151 166 0
144 159 0
148 162 0
154 168 0
150 166 0
144 156 0
153 168 0
146 160 0
148 163 0
145 160 0
151 168 0
151 166 0
152 168 0
152 172 0
150 164 0
153 170 0
154 171 0
153 171 0
151 166 0
148 165 0
149 165 0
151 167 0
153 169 0
157 173 0
154 169 0
153 171 0
156 174 0
158 175 0
161 179 0
155 170 0
159 177 0
152 168 0
151 167 0
160 177 0
162 180 0
157 175 0
158 176 0
160 177 0
160 177 0
161 180 0
158 177 0
164 181 0
154 169 0
162 181 0
160 175 0
153 172 0
166 183 0
155 171 0
163 181 0
158 173 0
153 170 0
161 178 0
158 177 0
160 179 0
157 173 0
164 184 0
160 177 0
164 183 0
165 185 0
162 182 0
165 181 0
159 178 0
163 182 0
162 180 0
165 184 0
165 186 0
163 182 0
167 187 0
167 186 0
157 177 0
165 183 0
166 185 0
162 181 0
165 185 0
170 195 62
171 195 72
168 193 80
166 189 51
170 194 84
170 194 72
172 195 57
171 195 88
167 191 62
171 195 72
166 192 80
171 195 62
171 196 99
171 195 76
171 195 72
170 195 57
171 195 57
170 195 88
169 194 57
170 194 72
171 195 88
172 196 80
169 193 88
169 193 67
167 191 84
168 192 51
168 192 57
172 195 62
165 189 62
165 190 76
168 192 62
170 194 76
166 191 80
168 191 62
168 193 95
163 186 57
166 191 72
162 186 44
164 189 92
171 196 76
166 189 51
166 190 67
164 188 51
166 191 88
166 190 80
166 190 51
163 187 57
163 187 80
164 189 80
166 191 84
167 191 84
163 188 76
159 184 76
164 188 62
164 188 80
165 188 51
160 185 72
159 183 76
161 185 62
167 191 67
160 183 80
156 180 62
158 182 62
161 184 67
156 179 36
163 186 88
161 183 76
161 185 62
155 178 80
159 183 67
160 184 76
159 181 62
156 180 67
149 172 84
156 179 62
153 176 88
157 181 76
151 174 84
145 168 51
159 182 72
154 177 67
152 173 51
149 172 67
157 179 57
154 176 51
154 177 102
149 171 57
149 170 80
150 171 72
146 168 84
86 113 114
79 108 113
91 118 127
75 103 125
75 104 118
98 125 126
93 119 123
86 113 122
84 112 119
86 113 127
83 110 129
83 110 115
80 107 116
102 128 140
108 132 130
104 129 136
89 115 128
91 117 125
91 118 139
92 121 150
103 129 157
109 134 153
109 133 150
100 126 154
102 127 143
99 125 156
109 134 155
101 125 125
97 123 140
86 115 147
92 120 147
101 127 129
85 114 143
70 103 143
83 113 164
79 109 159
74 105 155
77 108 162
86 114 162
76 106 155
69 100 149
70 100 143
77 104 138
75 103 138
75 103 149
62 97 136
61 96 145
60 94 139
61 96 141
62 97 145
59 93 133
59 94 127
69 101 140
64 97 124
62 96 126
62 96 134
69 100 120
78 107 115
60 94 131
59 93 118
59 94 131
59 94 130
59 93 124
59 93 132
59 94 124
60 95 127
59 93 125
58 92 121
59 93 124
60 94 130
58 92 121
59 94 126
58 92 121
59 93 126
60 95 134
60 95 135
59 94 130
60 94 132
60 94 124
58 92 125
59 94 131
60 95 134
58 92 124
58 92 120
58 92 114
60 95 129
58 93 122
59 94 125
59 93 127
61 95 135
60 95 121
58 93 125
60 95 130
59 94 124
59 93 121
59 93 117
59 93 122
58 93 126
60 94 131
60 95 140
59 93 126
58 92 120
60 95 133
60 94 124
60 94 125
59 94 131
60 95 136
59 94 131
60 94 136
59 94 133
59 93 122
59 93 118
57 91 118
59 94 129
58 92 117
60 94 131
59 93 120
58 92 121
60 95 129
57 91 113
59 94 125
58 91 110
59 93 121
58 92 122
60 94 131
60 95 129
57 91 114
59 93 126
59 92 120
57 91 110
58 91 117
58 91 108
59 93 125
60 94 130
60 94 127
58 92 117
57 91 111
57 90 117
56 89 111
58 91 123
56 88 100
56 89 107
56 88 105
57 89 110
57 90 100
57 89 103
73 97 80
126 141 0
99 113 0
108 120 0
112 126 0
120 137 0
112 128 0
129 144 0
118 133 0
112 126 0
119 133 0
111 126 0
121 135 0
127 143 0
126 141 0
128 143 0
121 138 0
124 139 0
117 134 0
126 141 0
128 144 0
130 146 0
128 143 0
127 143 0
114 128 0
128 144 0
122 138 0
126 142 0
113 129 0
127 142 0
130 145 0
120 135 0
138 154 0
130 146 0
133 146 0
130 149 0
127 143 0
126 141 0
134 149 0
134 150 0
138 154 0
129 145 0
134 150 0
147 162 0
133 145 0
139 157 0
142 160 0
140 157 0
134 149 0
135 150 0
135 150 0
142 159 0
140 158 0
144 160 0
138 152 0
138 154 0
136 150 0
140 157 0
143 160 0
147 163 0
133 148 0
152 168 0
139 154 0
136 149 0
142 158 0
140 153 0
140 156 0
142 156 0
150 163 0
138 153 0
138 153 0
147 163 0
146 158 0
147 163 0
148 162 0
137 153 0
145 159 0
140 157 0
146 159 0
148 163 0
146 161 0
144 160 0
152 169 0
151 168 0
143 160 0
153 169 0
142 158 0
146 157 0
151 164 0
151 164 0
145 158 0
150 165 0
155 170 0
156 174 0
153 168 0
149 162 0
146 163 0
155 171 0
153 171 0
157 174 0
155 171 0
153 170 0
153 167 0
153 166 0
152 168 0
158 174 0
154 172 0
153 168 0
152 167 0
159 177 0
161 178 0
154 170 0
155 172 0
159 176 0
155 171 0
161 179 0
157 176 0
160 177 0
155 171 0
151 168 0
157 175 0
157 174 0
153 170 0
166 185 0
156 173 0
156 174 0
160 178 0
160 177 0
158 173 0
161 179 0
160 175 0
161 178 0
160 180 0
158 175 0
157 175 0
158 175 0
161 179 0
164 183 0
158 177 0
161 177 0
165 185 0
165 182 0
164 183 0
164 183 0
161 178 0
160 176 0
157 176 0
165 182 0
162 179 0
162 182 0
160 177 0
166 183 0
165 185 0
163 182 0
165 183 0
165 184 0
164 184 0
166 184 0
163 184 0
166 184 0
166 187 0
164 185 0
164 184 0
166 185 0
172 197 88
171 196 72
171 195 67
168 192 72
170 193 67
170 194 67
171 195 80
171 194 80
168 192 51
174 199 102
171 195 67
171 195 76
168 192 72
170 193 62
171 194 51
169 193 57
169 193 67
169 193 76
169 193 44
167 191 84
166 190 51
165 188 51
167 191 57
169 194 80
168 192 80
166 191 76
165 190 62
163 188 72
168 192 44
170 194 62
167 192 80
162 186 76
167 191 84
166 190 80
163 186 67
169 193 80
169 194 72
162 185 51
168 193 72
166 189 44
162 187 80
165 190 80
163 188 76
166 191 76
164 189 99
160 184 67
165 190 67
169 193 62
166 191 76
165 189 62
163 187 62
159 183 84
159 183 72
161 184 88
163 187 67
167 191 80
160 185 80
165 189 51
161 184 76
162 186 76
162 185 88
168 191 51
152 176 57
156 180 76
157 180 67
163 186 84
167 190 67
166 189 92
158 180 72
160 183 76
161 184 62
155 179 80
161 184 92
157 181 62
151 174 57
156 179 95
157 179 62
156 178 62
153 176 51
158 180 76
151 173 51
147 169 62
154 177 67
148 171 72
143 165 60
158 180 62
145 167 67
151 173 72
154 177 76
149 171 72
123 146 84
100 125 126
95 121 127
86 113 107
92 118 121
88 116 129
92 118 122
95 121 124
86 114 128
88 114 131
96 123 133
87 114 130
94 120 135
90 117 127
99 124 131
85 112 120
88 115 147
105 130 142
92 118 138
101 127 139
97 124 139
100 126 147
90 118 147
106 131 163
90 117 150
104 129 151
118 141 161
94 121 139
102 126 130
105 128 148
99 124 157
99 125 147
91 118 151
85 114 130
85 113 162
68 101 152
83 112 158
96 122 165
94 121 172
80 109 149
64 97 147
67 98 146
77 103 145
75 103 146
77 103 134
67 98 132
61 96 145
61 96 148
61 96 145
61 96 143
60 94 138
61 95 127
66 99 130
68 100 126
60 93 121
66 98 120
65 97 126
70 100 110
57 91 113
57 91 113
59 94 120
59 93 118
59 94 127
59 94 124
58 93 125
58 92 122
59 93 125
59 93 126
59 93 131
59 94 126
58 93 124
59 93 119
59 93 121
58 92 118
59 93 128
58 93 120
59 94 129
59 94 125
59 93 124
60 95 127
60 95 127
58 93 120
60 94 127
59 93 127
59 93 115
59 93 125
60 94 131
59 93 114
60 95 125
60 94 131
60 95 130
58 92 118
60 95 131
58 92 119
58 91 125
59 94 117
59 93 129
60 94 122
60 94 127
58 92 120
58 92 129
60 94 122
59 93 127
58 92 122
60 94 125
59 93 117
59 93 124
60 95 133
59 93 131
58 91 113
59 93 127
59 94 130
59 94 115
58 92 124
57 91 111
59 93 126
58 91 114
58 92 113
58 92 118
59 92 122
59 93 130
58 93 121
57 91 111
57 89 113
58 92 117
59 93 126
57 90 110
60 94 129
57 90 113
58 92 115
58 92 120
57 89 115
58 92 117
57 90 114
58 92 115
59 92 125
56 89 113
57 90 102
55 87 103
58 91 122
55 87 95
56 89 105
54 86 88
56 88 105
55 87 100
72 95 90
119 133 18
119 133 0
114 127 0
115 129 0
119 134 0
112 126 0
116 131 0
108 123 0
121 134 0
122 138 0
109 122 0
112 129 0
123 138 0
116 133 0
114 130 0
112 127 0
128 145 0
118 134 0
133 149 0
118 133 0
119 133 0
129 146 0
130 144 0
130 147 0
127 144 0
126 142 0
131 148 0
131 146 0
127 142 0
121 135 0
124 138 0
130 146 0
133 148 0
134 150 0
136 151 0
124 140 0
137 152 0
134 151 0
129 147 0
148 164 0
126 141 0
136 153 0
127 141 0
141 157 0
132 147 0
132 148 0
134 149 0
137 152 0
140 155 0
128 145 0
142 159 0
139 156 0
131 144 0
139 153 0
140 155 0
140 155 0
136 150 0
133 150 0
129 144 0
142 158 0
141 157 0
132 147 0
149 166 0
143 158 0
144 163 0
151 167 0
151 167 0
146 163 0
144 159 0
136 151 0
142 155 0
141 156 0
144 159 0
146 162 0
149 164 0
154 170 0
141 156 0
148 163 0
143 158 0
144 161 0
147 162 0
146 160 0
150 167 0
148 165 0
141 158 0
141 157 0
143 158 0
148 164 0
146 162 0
156 174 0
145 161 0
154 168 0
147 162 0
152 168 0
155 173 0
150 166 0
152 168 0
152 169 0
150 165 0
153 171 0
156 172 0
148 165 0
148 162 0
153 169 0
151 168 0
153 172 0
152 168 0
158 174 0
155 169 0
154 170 0
154 170 0
156 173 0
155 172 0
150 168 0
158 177 0
162 180 0
149 166 0
157 176 0
157 174 0
161 178 0
157 175 0
149 165 0
160 179 0
154 169 0
155 169 0
158 175 0
152 167 0
159 176 0
160 179 0
149 168 0
160 180 0
160 179 0
166 184 0
157 174 0
156 173 0
161 178 0
159 179 0
163 182 0
159 177 0
159 177 0
162 180 0
160 179 0
161 181 0
164 182 0
164 186 0
167 185 0
166 185 0
164 183 0
164 184 0
165 184 0
158 178 0
163 183 0
160 178 0
160 178 0
165 185 0
161 180 0
161 179 0
165 182 0
166 185 0
158 178 0
166 185 0
163 182 0
162 182 0
167 187 0
170 194 76
173 196 67
170 194 84
167 193 88
174 197 76
170 194 62
171 195 72
171 195 76
169 193 84
168 192 72
169 193 92
166 190 51
172 196 76
172 196 51
170 193 99
166 190 51
170 195 76
170 195 80
169 193 92
170 195 67
169 194 72
168 192 44
168 193 72
165 189 72
169 194 84
166 189 51
164 188 76
167 192 72
167 191 80
166 190 62
167 192 88
167 192 80
164 187 44
165 189 57
164 187 72
163 188 76
166 191 80
167 190 80
164 189 76
170 194 88
168 192 80
168 192 72
164 189 62
166 190 84
162 186 76
166 190 62
164 188 57
167 191 80
167 192 80
166 190 95
162 187 72
165 189 72
158 181 51
154 176 51
163 187 57
163 188 88
161 185 80
157 180 57
164 189 95
156 179 67
153 177 57
162 186 62
159 182 57
160 183 76
160 183 80
161 185 76
160 183 67
157 180 51
157 180 67
161 184 72
157 180 72
154 177 72
152 175 76
160 182 62
155 178 80
158 182 80
152 175 62
157 181 76
159 182 92
159 183 62
154 177 76
148 170 65
154 177 84
158 180 70
156 178 72
152 174 80
153 175 80
152 174 92
143 164 57
142 164 62
145 166 62
120 142 102
89 115 105
92 118 111
97 121 115
93 119 116
75 105 110
94 121 127
90 117 127
93 120 128
90 116 133
100 125 133
86 113 134
85 111 122
99 124 133
95 120 136
87 113 124
86 114 129
84 112 126
85 113 135
109 132 144
93 120 140
89 116 134
97 124 147
100 126 152
106 132 146
97 123 155
91 119 150
99 122 138
97 123 132
87 113 135
101 126 134
94 120 145
91 119 140
79 109 150
77 108 154
82 111 151
75 107 158
77 109 171
89 116 161
82 111 153
71 102 149
70 98 140
68 98 138
76 102 134
66 98 141
64 98 146
60 95 141
61 96 149
60 94 141
62 97 148
59 93 122
61 95 127
64 97 134
61 96 135
62 95 118
68 99 125
92 119 108
58 92 127
58 91 117
59 93 120
58 92 121
58 92 121
59 94 121
58 92 116
58 92 112
56 90 120
59 93 118
58 93 115
57 91 113
58 92 111
58 92 114
60 95 133
59 94 130
58 91 111
58 92 124
59 93 121
59 93 122
58 93 122
61 95 133
60 94 130
59 94 131
59 93 125
59 93 121
59 93 120
58 92 118
58 92 118
59 93 121
60 95 134
58 92 118
59 92 114
59 93 127
59 94 127
58 93 125
59 92 118
58 92 113
58 92 122
59 93 127
59 93 124
58 92 117
59 94 129
58 92 118
59 93 125
59 93 122
60 94 129
57 91 111
59 94 121
59 94 123
58 92 130
60 94 131
59 94 127
58 92 121
59 94 124
59 93 127
59 93 125
59 93 126
58 91 124
58 92 120
60 95 134
59 93 127
59 92 121
60 94 125
59 93 133
59 93 126
59 93 120
58 91 113
60 94 126
58 92 111
56 90 111
56 89 102
58 91 117
55 88 102
57 90 111
58 91 113
56 89 99
57 90 107
58 91 122
55 87 103
57 91 100
55 87 94
58 91 108
56 88 97
56 89 99
56 89 120
79 102 72
124 139 18
116 131 0
101 115 0
108 122 0
104 119 0
120 136 0
124 140 0
102 117 0
113 127 0
120 134 0
116 132 0
125 140 0
115 130 0
117 132 0
122 138 0
127 141 0
111 126 0
127 140 0
121 134 0
127 143 0
136 151 0
133 150 0
128 143 0
129 143 0
132 148 0
122 137 0
136 153 0
131 148 0
132 149 0
125 140 0
131 146 0
136 153 0
134 151 0
135 150 0
135 150 0
136 152 0
134 152 0
124 140 0
140 158 0
135 152 0
135 150 0
137 154 0
135 153 0
138 151 0
144 160 0
138 152 0
140 159 0
133 149 0
141 158 0
142 159 0
149 164 0
139 155 0
143 157 0
139 155 0
143 160 0
138 154 0
143 159 0
147 161 0
139 154 0
139 154 0
138 154 0
141 158 0
146 161 0
135 150 0
137 155 0
138 150 0
145 162 0
140 154 0
142 159 0
153 171 0
141 157 0
149 164 0
146 161 0
144 160 0
143 157 0
149 164 0
144 160 0
153 170 0
145 159 0
148 163 0
142 158 0
138 151 0
147 161 0
154 169 0
151 168 0
144 158 0
150 166 0
144 160 0
147 162 0
151 167 0
153 170 0
154 168 0
150 168 0
145 160 0
147 162 0
146 162 0
152 165 0
155 169 0
156 174 0
149 164 0
153 169 0
149 164 0
151 167 0
158 175 0
156 173 0
154 171 0
150 168 0
158 172 0
153 171 0
154 170 0
158 176 0
160 176 0
147 164 0
147 161 0
152 168 0
152 169 0
155 173 0
154 172 0
159 175 0
155 173 0
151 167 0
164 183 0
163 181 0
158 174 0
158 176 0
158 175 0
160 177 0
154 171 0
158 178 0
155 174 0
150 167 0
162 181 0
156 173 0
161 181 0
158 176 0
155 174 0
158 176 0
156 174 0
161 177 0
160 178 0
162 180 0
159 180 0
159 177 0
165 185 0
162 180 0
167 186 0
163 182 0
161 180 0
165 186 0
155 172 0
162 179 0
164 184 0
165 184 0
165 183 0
158 175 0
163 180 0
168 188 0
158 177 0
162 182 0
164 184 0
163 183 0
168 188 0
160 179 0
166 185 0
164 185 0
172 195 67
168 192 44
172 196 67
169 193 67
169 193 84
166 189 57
168 192 62
167 191 62
171 195 80
171 197 92
168 194 111
167 191 51
168 192 72
169 194 95
169 193 44
172 196 80
170 194 84
169 194 84
171 196 76
171 196 84
171 196 84
166 190 76
165 189 76
169 194 72
169 193 76
167 192 80
171 195 84
170 195 72
167 191 76
167 190 44
164 188 62
166 190 62
166 191 80
170 194 72
163 186 51
169 193 67
169 193 80
166 190 67
166 190 57
163 187 62
164 188 72
163 186 57
163 187 57
169 193 76
165 189 62
165 189 57
164 188 62
162 187 72
160 183 72
169 194 76
162 186 92
162 186 76
163 186 67
162 186 84
164 188 72
160 183 62
164 188 92
151 174 62
166 189 72
158 181 67
168 192 76
161 185 76
158 182 80
159 183 92
160 184 92
160 184 76
159 183 72
166 190 72
161 184 67
158 182 67
163 186 72
152 176 67
157 180 67
156 179 72
160 183 72
149 171 67
152 175 76
156 179 88
157 180 84
145 168 62
156 178 88
154 176 76
145 168 92
148 171 62
147 169 25
151 172 72
146 167 62
150 171 84
148 169 76
148 169 76
146 167 80
150 172 74
104 128 95
86 113 113
110 136 140
99 124 130
86 113 122
94 120 131
67 98 98
87 115 126
92 119 135
93 119 118
107 133 144
98 122 128
87 114 129
94 120 139
95 121 130
91 118 130
85 113 133
98 123 129
96 122 136
89 115 121
97 123 130
89 116 135
90 116 133
94 121 141
94 121 133
100 126 147
105 131 157
111 134 138
102 126 137
86 113 127
97 123 138
98 124 142
83 112 137
72 104 158
71 103 158
83 112 157
69 102 154
91 118 162
89 116 167
75 105 154
74 102 144
73 101 139
71 99 142
74 101 139
77 102 129
64 98 145
60 95 141
61 96 145
62 95 122
59 94 124
64 97 129
66 99 129
65 98 118
64 96 120
56 89 105
85 112 105
71 102 117
58 92 119
57 91 120
57 91 117
58 92 117
59 92 117
59 93 121
57 90 107
58 93 125
59 93 123
58 92 110
58 92 119
60 94 127
59 93 129
59 93 124
59 93 120
57 91 114
59 93 115
59 94 125
60 95 124
59 93 128
57 91 121
59 93 115
58 91 108
59 93 120
59 93 118
59 93 127
58 92 107
58 92 118
60 95 129
58 92 117
59 93 124
57 91 118
60 94 122
59 93 125
59 94 133
59 94 126
58 92 114
59 93 122
58 92 117
59 94 127
59 93 122
58 92 121
58 92 125
59 93 121
59 93 121
58 92 117
59 94 129
60 95 133
58 92 120
58 92 115
59 93 125
57 90 110
60 95 130
57 91 117
58 92 122
58 92 122
59 92 125
60 94 127
59 93 121
58 93 117
58 92 120
59 93 124
58 91 121
59 93 117
59 92 113
59 93 122
57 91 107
57 89 102
57 91 108
57 89 103
57 90 117
57 90 114
59 93 120
58 92 120
57 90 100
57 90 107
56 89 105
56 89 102
57 91 111
57 90 105
55 87 97
55 87 97
55 87 94
54 86 92
78 99 60
116 130 0
107 123 0
114 128 0
113 127 0
111 126 0
104 118 0
122 137 0
120 135 0
117 133 0
112 126 0
109 126 0
116 131 0
109 122 0
127 143 0
121 135 0
120 136 0
121 137 0
129 147 0
112 127 0
117 133 0
120 135 0
122 138 0
128 144 0
122 138 0
124 140 0
125 140 0
125 143 0
125 140 0
129 145 0
126 141 0
125 142 0
137 154 0
145 162 0
126 140 0
131 147 0
118 133 0
125 139 0
137 153 0
130 145 0
138 155 0
138 155 0
128 143 0
136 153 0
126 141 0
144 161 0
137 153 0
136 152 0
139 156 0
140 155 0
138 153 0
135 151 0
145 161 0
137 153 0
147 165 0
138 153 0
140 157 0
137 153 0
142 158 0
140 156 0
143 159 0
151 165 0
142 159 0
139 153 0
140 157 0
140 157 0
142 157 0
149 164 0
140 156 0
146 161 0
153 169 0
151 167 0
145 161 0
144 160 0
146 162 0
136 153 0
146 162 0
141 157 0
149 166 0
153 171 0
143 158 0
154 171 0
146 164 0
154 171 0
149 164 0
154 170 0
145 161 0
154 171 0
154 168 0
151 167 0
148 161 0
155 170 0
155 170 0
146 163 0
153 169 0
151 166 0
151 169 0
151 165 0
149 166 0
150 168 0
156 173 0
158 175 0
154 173 0
154 171 0
157 174 0
157 173 0
155 172 0
158 174 0
152 168 0
155 171 0
145 162 0
148 164 0
155 172 0
154 170 0
149 166 0
159 176 0
157 173 0
156 174 0
157 175 0
155 174 0
157 176 0
161 178 0
159 177 0
163 180 0
158 177 0
152 170 0
156 173 0
157 175 0
159 177 0
159 176 0
157 176 0
161 181 0
159 177 0
158 176 0
162 181 0
165 184 0
164 183 0
160 180 0
164 184 0
156 172 0
163 182 0
162 182 0
160 180 0
163 183 0
157 176 0
163 183 0
163 178 0
165 182 0
166 186 0
162 180 0
158 177 0
163 181 0
162 181 0
161 183 0
162 180 0
160 180 0
165 184 0
163 181 0
163 184 0
163 183 0
165 184 0
165 186 0
164 183 0
162 182 0
162 180 0
162 180 0
166 186 0
172 196 62
169 193 76
168 192 72
168 192 62
173 196 62
169 193 76
170 194 67
171 195 72
166 190 72
174 198 67
171 196 88
171 195 76
168 193 51
170 194 76
165 189 84
167 192 92
164 188 57
169 193 57
170 194 92
168 192 62
170 194 80
170 195 76
169 193 80
169 193 88
168 192 57
169 195 80
163 187 72
167 191 57
170 192 57
164 187 62
167 191 80
170 194 72
168 193 88
166 191 84
167 191 80
163 187 80
171 196 88
170 194 92
165 189 76
162 186 62
158 182 67
162 188 80
163 187 51
167 191 51
167 191 62
157 182 88
161 185 57
158 181 62
164 188 92
160 184 62
167 191 76
161 185 84
162 186 80
161 184 51
165 189 80
161 184 67
160 184 51
165 189 95
160 184 67
168 192 67
164 188 67
157 181 95
157 181 80
164 188 92
167 189 72
150 174 72
158 180 62
154 177 72
157 180 88
155 179 67
155 179 76
156 179 84
160 183 62
155 179 76
158 181 88
162 185 92
149 171 67
150 173 51
146 168 62
153 176 67
154 177 84
150 172 51
150 172 67
148 171 57
153 175 80
139 161 76
148 170 76
149 171 62
149 170 67
142 163 51
150 172 76
147 169 76
139 160 57
108 131 114
78 106 117
99 123 130
88 115 125
88 115 107
74 103 111
82 110 117
102 128 139
95 120 122
93 120 126
94 121 125
101 126 134
97 122 143
101 125 131
88 114 127
74 103 108
95 120 131
102 126 139
99 124 148
91 117 129
90 117 142
101 127 148
93 119 133
100 126 142
97 124 154
89 116 128
88 114 130
99 124 140
99 125 140
88 115 131
95 119 138
84 113 147
82 111 150
79 109 148
70 101 145
73 104 144
77 107 153
89 117 161
74 105 154
79 106 152
71 101 143
75 102 142
73 100 130
80 104 134
70 99 137
60 95 130
61 96 142
60 94 127
60 94 129
67 99 130
62 96 126
61 95 130
63 96 127
58 92 118
78 106 114
82 110 108
57 91 113
57 91 118
57 91 114
57 92 110
57 91 118
59 93 124
59 94 125
59 93 119
57 91 107
59 94 124
59 93 120
58 92 119
59 94 127
59 93 127
60 94 122
58 92 110
59 94 129
58 92 100
59 93 134
57 91 113
57 90 116
60 95 131
58 92 118
57 91 115
60 94 134
58 91 110
58 92 117
58 91 121
59 94 130
59 93 124
60 95 129
58 92 121
59 93 124
61 95 133
59 93 118
58 92 122
57 91 124
59 93 117
59 93 124
59 93 124
57 90 118
59 93 124
57 90 110
60 94 125
59 93 121
59 93 118
57 91 120
59 93 126
60 94 124
60 95 130
59 94 127
58 93 119
59 93 115
59 93 121
59 93 126
58 91 110
60 94 122
59 94 129
58 91 115
58 92 118
56 90 107
59 93 113
59 93 125
58 92 126
58 92 115
57 89 120
58 92 115
58 91 113
58 92 118
56 89 107
56 89 105
57 90 115
56 88 105
58 92 107
57 89 113
57 89 110
57 89 105
55 87 97
56 89 107
55 87 95
56 88 114
54 86 92
56 89 99
85 106 60
116 130 0
110 124 0
103 118 0
112 124 0
110 123 0
117 131 0
106 120 0
115 130 0
107 121 0
116 130 0
115 131 0
136 153 0
114 130 0
114 126 0
118 133 0
117 134 0
128 145 0
126 141 0
119 136 0
118 134 0
123 141 0
120 135 0
127 145 0
127 144 0
125 141 0
119 135 0
134 149 0
140 157 0
116 133 0
135 150 0
134 151 0
133 150 0
132 148 0
125 141 0
133 147 0
128 144 0
127 143 0
145 163 0
135 153 0
140 159 0
136 154 0
131 146 0
129 144 0
141 156 0
135 151 0
140 159 0
129 144 0
141 157 0
136 152 0
130 145 0
133 149 0
144 160 0
136 151 0
133 148 0
143 159 0
140 153 0
141 156 0
144 160 0
138 153 0
142 158 0
138 153 0
147 161 0
141 158 0
146 163 0
144 161 0
144 158 0
145 161 0
142 157 0
144 163 0
144 160 0
147 160 0
140 155 0
139 155 0
150 166 0
144 161 0
145 160 0
143 158 0
146 162 0
151 168 0
154 171 0
143 160 0
138 154 0
143 158 0
144 161 0
144 161 0
141 155 0
145 159 0
153 172 0
154 171 0
158 177 0
147 164 0
152 167 0
152 168 0
149 166 0
148 166 0
153 169 0
152 169 0
157 175 0
153 169 0
151 169 0
146 162 0
149 166 0
147 163 0
152 169 0
155 174 0
152 167 0
158 176 0
158 177 0
151 165 0
160 176 0
152 169 0
152 169 0
151 169 0
146 161 0
154 172 0
153 172 0
158 177 0
153 171 0
157 173 0
160 177 0
155 172 0
153 170 0
161 181 0
158 176 0
156 173 0
158 175 0
160 178 0
159 177 0
159 175 0
155 172 0
162 180 0
154 170 0
160 179 0
162 181 0
161 181 0
163 181 0
165 184 0
160 179 0
159 177 0
161 180 0
160 177 0
162 179 0
163 181 0
161 181 0
165 184 0
161 179 0
156 173 0
166 184 0
158 177 0
164 183 0
161 180 0
162 182 0
165 185 0
166 184 0
162 181 0
159 179 0
162 181 0
164 183 0
163 182 0
161 180 0
168 188 0
164 184 0
161 182 0
165 183 0
165 184 0
161 181 0
162 184 0
169 192 62
172 195 88
167 192 88
167 191 84
172 197 76
170 195 80
168 193 72
168 192 76
171 195 57
171 195 72
170 195 76
170 194 67
171 194 62
171 195 72
167 192 62
170 194 62
170 195 84
171 196 76
167 191 25
165 191 76
171 195 62
164 188 57
166 190 67
167 191 62
166 191 57
165 189 72
164 188 57
164 187 67
164 188 84
165 189 36
170 194 76
169 193 72
168 192 57
167 192 76
165 191 80
165 189 62
167 191 57
161 185 67
168 192 57
168 192 88
164 187 72
165 189 76
168 193 102
170 194 95
170 194 72
166 190 84
169 191 80
167 190 102
168 191 84
171 194 105
167 191 114
158 182 88
165 190 62
163 187 62
168 191 62
157 180 72
167 191 95
160 184 62
163 185 88
164 187 95
161 184 92
161 183 88
157 181 88
160 183 88
160 183 84
163 186 88
163 186 99
162 185 88
167 189 99
162 184 105
159 181 84
161 184 76
157 179 76
158 182 80
156 178 67
147 170 72
152 175 80
153 175 67
149 171 88
155 178 76
155 177 88
151 174 88
149 171 57
153 175 72
150 172 76
146 168 84
155 177 62
148 170 62
149 170 80
150 173 80
151 172 80
143 164 36
146 167 62
122 144 65
100 124 131
94 120 115
90 117 132
98 123 124
80 108 113
101 126 137
91 117 118
84 112 123
99 124 111
97 122 134
86 112 119
104 128 132
88 116 130
80 107 123
99 124 131
88 114 121
87 114 119
105 130 140
94 120 140
84 112 141
95 121 139
107 131 138
104 129 137
90 117 144
84 113 137
98 125 148
98 124 145
100 124 125
92 118 132
99 125 143
91 117 129
82 111 150
80 109 156
88 115 158
75 107 161
88 116 157
87 115 161
78 108 152
81 108 149
79 106 143
77 104 134
65 95 132
70 99 136
69 99 132
61 94 137
60 94 131
60 94 136
57 91 112
66 99 134
59 93 126
63 95 119
66 98 124
60 92 106
64 96 114
90 117 97
57 90 97
56 90 107
57 90 114
58 92 110
57 91 118
58 92 121
58 92 118
58 92 110
56 90 110
58 92 122
58 92 114
58 92 116
57 91 113
59 93 118
58 92 106
59 93 117
59 94 122
58 91 114
59 93 122
58 92 123
59 93 131
59 93 122
59 94 130
59 93 121
60 95 133
58 92 121
59 93 121
59 93 124
59 92 124
58 91 101
58 92 117
59 93 125
58 91 115
58 92 114
59 94 129
58 92 116
59 94 126
58 92 115
59 94 121
58 92 124
59 93 124
58 91 118
58 92 117
57 91 111
59 93 117
59 93 115
58 92 111
59 93 122
59 93 124
59 92 117
58 91 115
57 90 113
58 91 111
58 91 115
58 91 118
57 91 109
58 92 111
58 92 121
58 91 117
59 93 115
56 90 111
58 92 122
59 93 113
57 90 113
57 90 114
59 94 124
57 90 103
58 92 114
56 89 107
56 89 105
58 91 115
57 90 115
56 88 107
56 89 99
55 87 103
56 89 105
55 87 102
57 90 107
56 88 99
56 88 115
52 83 82
56 88 107
94 110 62
92 106 0
98 112 0
101 114 0
105 118 0
109 126 0
118 131 0
123 138 0
110 127 0
110 126 0
112 128 0
124 141 0
124 139 0
122 137 0
128 145 0
111 128 0
111 126 0
124 139 0
135 150 0
116 131 0
125 141 0
116 133 0
128 143 0
120 134 0
127 143 0
120 135 0
129 146 0
129 145 0
131 147 0
119 135 0
125 141 0
131 147 0
127 144 0
121 137 0
134 150 0
139 155 0
124 140 0
132 147 0
138 154 0
124 141 0
131 146 0
141 158 0
127 145 0
129 146 0
135 151 0
134 149 0
142 159 0
133 150 0
139 157 0
143 161 0
142 160 0
135 151 0
140 158 0
134 149 0
133 147 0
143 160 0
145 162 0
144 162 0
137 156 0
135 150 0
139 153 0
140 157 0
146 162 0
140 156 0
147 163 0
138 155 0
144 160 0
143 159 0
137 152 0
143 160 0
145 163 0
145 163 0
145 161 0
142 159 0
152 169 0
142 158 0
144 159 0
151 168 0
149 164 0
152 167 0
147 161 0
152 167 0
146 163 0
154 171 0
147 163 0
145 163 0
150 167 0
158 175 0
153 171 0
145 162 0
154 171 0
152 168 0
151 168 0
152 169 0
149 164 0
149 166 0
147 162 0
157 174 0
152 170 0
153 169 0
147 163 0
157 174 0
147 162 0
153 170 0
154 172 0
152 166 0
159 174 0
159 178 0
150 170 0
154 169 0
152 169 0
149 165 0
152 168 0
156 172 0
157 174 0
158 177 0
161 180 0
156 173 0
155 172 0
155 170 0
162 180 0
160 179 0
159 177 0
159 175 0
152 169 0
158 177 0
152 170 0
158 177 0
161 177 0
155 172 0
158 174 0
159 179 0
158 177 0
161 180 0
159 177 0
158 175 0
155 174 0
160 177 0
162 180 0
159 179 0
166 183 0
161 179 0
156 176 0
155 171 0
164 184 0
165 184 0
166 184 0
160 181 0
168 188 0
161 181 0
164 184 0
163 184 0
163 181 0
165 184 0
162 181 0
162 182 0
160 177 0
157 175 0
162 183 0
161 180 0
164 182 0
166 185 0
166 185 0
159 178 0
163 183 0
167 188 0
163 181 0
167 189 0
163 183 0
170 194 72
172 196 72
168 192 57
169 193 51
166 190 51
169 193 62
173 197 76
168 191 80
170 194 62
168 192 67
169 193 72
167 191 44
169 193 76
168 193 84
165 188 51
167 191 57
166 190 67
169 193 57
171 196 88
171 195 67
163 189 105
170 194 62
169 193 67
172 197 84
163 188 76
171 196 88
168 194 102
167 191 76
165 189 57
171 195 62
168 192 72
163 187 72
169 195 84
164 188 72
168 192 76
164 188 57
165 189 80
166 190 84
168 192 88
173 196 84
168 192 84
169 194 95
171 195 108
166 190 80
169 192 92
167 190 88
163 186 80
172 194 76
162 185 92
166 191 102
162 185 51
166 189 80
164 187 76
167 190 95
165 188 72
168 192 84
159 182 76
162 185 76
163 187 105
162 186 92
166 189 111
154 177 88
160 183 102
157 180 80
162 186 76
160 183 92
159 183 67
157 181 95
158 180 105
159 182 92
158 180 80
159 182 88
150 173 99
156 179 76
163 187 95
155 179 62
153 176 80
152 175 57
142 165 76
157 180 72
154 177 80
156 178 72
146 169 67
149 172 80
151 173 72
152 175 67
151 173 76
144 167 88
140 163 62
154 177 84
137 157 72
145 167 54
143 163 88
143 163 76
125 147 86
84 111 97
94 120 124
96 121 120
89 115 120
96 122 131
87 113 125
87 114 125
78 107 114
97 122 121
80 107 123
110 134 135
90 116 125
95 120 118
81 108 110
93 118 129
94 120 134
104 129 138
75 105 123
100 125 134
91 118 133
99 125 140
99 124 127
108 132 140
101 126 133
111 135 153
90 117 136
105 130 137
103 128 130
96 121 143
97 122 140
92 119 141
65 100 145
85 114 160
71 102 144
80 109 154
78 108 151
84 112 155
96 122 165
71 103 141
72 101 140
84 106 143
71 100 142
70 99 139
78 103 139
63 97 141
60 95 142
59 93 130
58 91 124
60 94 129
64 96 126
65 98 124
59 91 120
59 92 107
72 100 94
66 98 113
56 89 107
57 91 123
56 90 126
57 91 109
58 93 111
59 94 126
59 93 115
59 92 115
58 92 115
59 93 126
58 91 107
59 94 122
58 92 115
58 92 114
58 92 122
58 92 111
60 95 125
58 92 115
58 92 117
58 92 115
58 93 116
59 93 126
56 90 117
59 93 122
59 94 124
58 92 114
59 93 122
58 92 113
58 92 122
58 92 115
57 91 107
58 92 120
58 91 113
60 94 125
61 95 130
60 95 130
58 92 122
60 94 131
59 93 121
58 92 122
58 92 118
57 91 110
58 91 121
58 92 110
59 93 120
57 91 117
59 93 118
58 92 122
59 92 121
58 92 108
57 91 111
57 91 108
58 92 118
59 93 121
57 91 108
57 90 113
57 91 114
58 92 114
58 92 120
57 90 107
57 90 103
58 92 115
58 91 117
56 90 113
56 89 110
54 87 103
58 91 115
56 90 107
56 89 110
58 92 117
59 92 117
56 88 108
56 89 108
56 89 103
57 89 114
55 88 103
57 89 110
56 88 94
57 90 107
58 85 80
105 121 40
106 120 0
113 129 0
99 113 0
121 136 0
112 128 0
113 128 0
105 119 0
109 123 0
110 124 0
113 129 0
112 128 0
119 134 0
118 133 0
110 126 0
116 132 0
112 129 0
131 146 0
128 144 0
116 132 0
132 148 0
124 139 0
127 143 0
123 136 0
125 143 0
139 156 0
128 146 0
119 137 0
125 143 0
127 144 0
130 148 0
132 150 0
129 146 0
129 147 0
140 158 0
138 153 0
132 149 0
131 147 0
138 155 0
130 146 0
131 150 0
140 157 0
130 147 0
133 151 0
136 155 0
135 150 0
137 155 0
137 154 0
149 165 0
133 152 0
141 158 0
124 140 0
137 154 0
131 145 0
143 158 0
134 152 0
143 161 0
129 147 0
146 162 0
145 160 0
139 155 0
141 155 0
146 163 0
141 158 0
136 150 0
141 159 0
148 165 0
148 165 0
147 164 0
143 159 0
143 158 0
150 167 0
140 153 0
146 161 0
145 163 0
149 167 0
154 171 0
135 152 0
148 168 0
150 167 0
149 165 0
139 155 0
146 163 0
149 165 0
150 166 0
144 159 0
145 163 0
151 168 0
154 172 0
153 171 0
146 163 0
151 167 0
146 164 0
149 164 0
156 173 0
150 168 0
156 172 0
154 171 0
156 173 0
151 167 0
148 164 0
155 173 0
149 168 0
148 166 0
156 175 0
149 167 0
156 175 0
151 168 0
149 167 0
161 178 0
152 171 0
151 166 0
156 174 0
153 168 0
155 173 0
156 172 0
160 176 0
159 178 0
154 173 0
161 179 0
157 174 0
153 167 0
161 179 0
154 170 0
161 181 0
157 174 0
153 169 0
162 180 0
161 180 0
158 176 0
162 181 0
152 169 0
160 178 0
159 177 0
163 179 0
155 175 0
160 177 0
156 173 0
164 183 0
159 178 0
155 172 0
164 183 0
165 185 0
161 179 0
159 178 0
160 177 0
167 185 0
157 177 0
158 177 0
157 173 0
162 183 0
165 185 0
159 177 0
163 183 0
159 176 0
157 178 0
159 179 0
166 187 0
166 186 0
159 178 0
163 182 0
167 188 0
165 184 0
168 188 0
162 182 0
166 187 0
165 186 0
164 184 0
164 184 0
167 185 0
172 195 80
171 195 44
170 194 67
170 194 72
170 195 88
168 192 44
167 191 80
173 198 84
170 194 76
169 194 80
170 193 36
170 193 72
170 194 80
170 194 67
167 192 80
167 191 57
173 197 84
171 195 67
172 197 84
167 190 44
172 196 80
164 188 51
171 195 76
164 188 76
170 195 80
168 193 102
164 189 76
164 189 80
170 193 57
164 189 76
164 189 88
168 192 72
168 193 84
169 194 72
168 192 84
176 199 105
171 194 111
170 194 95
172 195 84
171 196 111
168 190 99
166 189 80
165 188 76
171 195 80
170 193 84
162 186 67
170 194 95
164 187 72
165 189 80
162 185 72
162 187 88
164 187 72
160 184 62
171 194 84
168 192 95
164 187 95
173 196 88
165 189 80
165 188 92
164 188 76
162 184 84
159 182 108
164 187 88
166 189 102
163 185 84
154 177 84
159 181 80
160 182 88
163 186 114
155 179 76
155 178 84
156 179 67
152 174 62
163 185 84
147 170 80
162 184 80
146 167 80
156 179 84
151 173 72
160 182 92
148 170 57
150 173 72
146 168 57
150 173 76
145 167 57
152 174 76
145 168 72
148 169 72
142 164 51
148 169 67
143 163 67
156 177 92
137 158 67
147 169 62
144 165 92
129 151 86
93 118 124
80 108 116
87 112 114
80 107 115
94 119 123
95 120 127
101 126 118
96 121 128
98 123 136
91 116 112
82 109 125
98 124 147
95 121 136
87 114 115
93 118 131
98 123 125
96 122 127
96 121 121
94 119 115
92 117 141
93 119 120
102 127 140
98 124 127
104 129 132
94 121 127
112 133 124
96 121 134
97 121 133
86 113 140
92 118 129
85 113 139
83 112 158
71 103 147
83 112 158
75 106 156
81 110 158
77 106 146
74 106 142
73 103 145
72 100 142
69 98 128
72 99 137
72 101 129
69 97 129
60 95 124
59 94 132
58 92 117
63 96 117
64 96 105
66 98 115
62 95 121
65 97 125
72 101 102
77 105 110
57 91 102
58 92 120
59 93 118
56 89 100
59 93 125
57 91 108
57 91 115
58 92 114
58 91 120
57 90 110
58 92 113
57 91 110
59 93 125
57 91 114
58 91 108
58 92 113
57 90 112
58 92 117
58 91 107
58 92 120
58 92 113
57 91 108
58 92 118
59 94 126
58 92 114
58 92 117
59 93 118
59 93 122
56 90 107
57 91 110
58 92 122
57 91 117
56 89 102
58 91 118
58 92 115
57 91 114
57 90 110
58 92 114
58 92 111
59 94 129
58 92 114
58 92 111
59 93 125
59 94 133
57 91 113
57 91 100
59 94 121
57 91 111
58 92 117
58 91 114
58 91 110
58 92 118
58 92 121
58 91 115
58 91 117
55 88 100
59 93 121
59 93 108
55 87 102
56 89 107
58 92 126
58 92 115
56 90 107
58 91 121
58 91 108
58 91 121
57 91 115
56 89 102
56 89 108
58 92 113
56 89 111
56 89 107
55 88 102
55 86 92
55 87 102
54 85 82
55 87 95
54 86 92
85 104 62
98 112 18
110 122 0
106 122 0
112 126 0
118 134 0
100 114 0
98 113 0
116 132 0
120 136 0
106 120 0
119 135 0
120 136 0
120 135 0
124 140 0
126 142 0
116 130 0
117 133 0
117 132 0
118 131 0
127 143 0
122 140 0
130 146 0
126 140 0
124 141 0
122 138 0
137 154 0
125 141 0
126 141 0
129 149 0
137 154 0
137 156 0
131 148 0
137 155 0
127 142 0
135 153 0
131 148 0
137 154 0
131 145 0
132 149 0
133 150 0
131 149 0
128 143 0
131 149 0
142 158 0
133 151 0
124 138 0
137 153 0
137 153 0
137 154 0
136 152 0
135 152 0
142 160 0
147 166 0
133 149 0
147 165 0
139 158 0
142 161 0
139 158 0
143 162 0
155 171 0
137 154 0
144 163 0
136 152 0
143 158 0
141 158 0
150 169 0
153 168 0
137 154 0
137 155 0
146 163 0
148 164 0
147 164 0
146 164 0
148 166 0
153 171 0
145 162 0
147 164 0
151 167 0
150 167 0
149 167 0
152 168 0
142 159 0
149 165 0
144 159 0
142 159 0
142 157 0
144 160 0
153 171 0
151 170 0
149 166 0
152 170 0
144 161 0
140 156 0
155 172 0
152 170 0
155 172 0
159 176 0
152 167 0
152 172 0
153 169 0
153 170 0
154 171 0
148 163 0
155 173 0
147 164 0
149 167 0
155 170 0
156 175 0
151 168 0
161 179 0
159 177 0
160 179 0
162 180 0
161 180 0
159 178 0
161 180 0
150 165 0
158 174 0
149 167 0
159 177 0
151 168 0
156 173 0
161 175 0
161 178 0
160 178 0
155 171 0
158 175 0
154 172 0
157 175 0
159 178 0
157 175 0
158 177 0
159 178 0
158 176 0
162 182 0
159 177 0
163 182 0
158 177 0
153 173 0
165 183 0
163 181 0
160 181 0
161 180 0
160 179 0
159 178 0
162 182 0
159 179 0
165 185 0
161 180 0
165 183 0
163 184 0
164 183 0
161 179 0
169 190 0
163 183 0
166 186 0
164 185 0
160 179 0
166 188 0
163 183 0
161 179 0
165 187 0
168 188 0
165 185 0
161 180 0
160 180 0
162 182 0
164 184 0
167 187 0
165 185 0
165 184 0
170 195 92
169 193 62
173 197 62
170 194 62
166 191 72
166 190 62
168 193 84
169 193 67
170 195 88
169 193 62
169 193 88
169 193 72
171 195 76
167 192 67
173 197 72
164 189 80
167 191 62
168 193 84
168 192 57
171 195 92
166 191 80
167 192 76
163 187 57
170 194 62
166 189 44
166 190 76
170 193 67
168 192 76
164 188 84
158 182 80
168 191 88
162 187 72
174 197 95
173 196 105
167 191 88
163 186 92
167 191 80
166 190 76
168 191 76
165 189 80
161 185 92
166 189 72
168 192 99
171 194 88
168 192 95
167 191 80
165 189 99
162 185 84
165 189 99
162 185 84
167 190 102
156 181 62
174 197 95
162 185 111
167 190 88
167 190 92
166 189 99
167 190 102
161 185 102
166 190 99
164 187 92
157 180 88
163 186 111
161 184 105
161 183 92
162 185 105
164 187 76
164 186 84
153 176 80
161 184 80
160 183 84
164 186 80
149 171 67
164 187 102
156 179 67
158 179 88
160 182 95
155 177 84
155 177 80
151 173 84
157 179 108
154 177 95
158 180 88
142 163 67
153 175 80
137 158 76
146 167 72
142 164 62
151 173 88
154 175 76
153 174 72
141 163 62
140 161 62
132 152 51
138 158 51
143 163 67
124 145 100
77 105 95
82 108 105
82 108 105
91 116 124
84 110 122
84 111 130
85 111 108
94 120 128
90 117 125
102 127 115
87 114 120
99 124 128
88 114 128
89 115 131
79 106 112
92 117 120
89 116 125
98 122 122
80 108 128
90 117 127
97 122 129
108 133 132
102 128 133
116 139 149
95 121 129
104 126 132
100 123 123
95 118 125
93 118 136
97 122 150
85 112 150
88 116 160
86 113 151
77 107 152
74 105 148
84 112 145
76 107 131
71 103 137
69 100 144
67 97 129
76 104 135
76 101 132
68 95 123
63 95 120
59 93 126
64 96 122
65 97 126
64 96 118
58 92 117
61 93 117
59 91 120
63 94 108
94 118 94
59 92 108
55 88 107
57 91 113
58 92 120
59 94 120
58 92 117
57 91 106
58 92 110
58 92 111
57 91 118
57 91 102
58 91 108
57 91 105
58 92 113
58 92 108
58 92 113
58 92 110
58 92 113
58 92 111
58 92 109
56 89 111
58 91 107
57 90 120
58 92 122
57 91 100
58 92 115
59 93 125
59 93 114
58 92 110
58 92 115
59 93 110
57 90 107
58 92 113
59 93 130
58 93 122
58 92 120
56 90 108
57 90 118
57 91 110
58 92 113
59 94 127
59 93 122
60 94 117
57 90 111
59 93 117
58 91 110
56 89 105
56 89 102
57 89 113
57 91 110
58 91 115
58 91 115
59 93 120
57 91 110
58 91 111
57 90 118
58 91 111
58 93 117
58 92 121
56 89 105
58 91 114
58 92 120
57 91 108
56 89 100
53 84 103
56 89 100
58 91 120
56 89 111
56 88 108
55 88 102
57 90 111
56 89 105
56 89 99
54 86 88
55 87 100
52 83 84
63 91 102
102 120 57
87 102 0
115 130 0
101 114 0
108 122 0
105 120 0
116 131 0
116 133 0
114 128 0
95 112 0
106 123 0
119 134 0
120 136 0
124 141 0
118 133 0
121 138 0
115 131 0
119 135 0
112 128 0
103 120 0
124 142 0
118 134 0
122 139 0
119 135 0
120 136 0
123 140 0
123 136 0
122 138 0
125 141 0
127 142 0
135 151 0
124 141 0
124 141 0
127 142 0
135 150 0
135 152 0
127 144 0
139 156 0
137 154 0
126 143 0
130 145 0
135 150 0
134 150 0
140 156 0
137 152 0
142 159 0
132 149 0
137 156 0
130 148 0
139 156 0
134 153 0
130 146 0
143 161 0
134 152 0
140 157 0
141 158 0
145 163 0
138 155 0
141 157 0
144 161 0
133 150 0
141 159 0
149 167 0
140 156 0
137 153 0
142 160 0
149 166 0
139 156 0
144 163 0
139 156 0
136 153 0
147 163 0
148 166 0
155 174 0
141 159 0
138 155 0
145 159 0
147 163 0
151 171 0
147 163 0
147 163 0
150 166 0
152 170 0
150 167 0
149 165 0
149 167 0
144 162 0
149 166 0
148 164 0
151 169 0
149 165 0
146 161 0
156 175 0
152 169 0
150 169 0
159 174 0
149 166 0
143 157 0
148 166 0
143 160 0
150 167 0
155 172 0
152 170 0
152 168 0
149 166 0
151 170 0
156 172 0
155 173 0
152 171 0
157 174 0
159 177 0
158 175 0
147 164 0
153 171 0
158 177 0
161 179 0
156 173 0
155 173 0
156 175 0
159 179 0
156 173 0
156 176 0
158 177 0
156 174 0
162 180 0
159 178 0
156 170 0
157 175 0
163 183 0
159 178 0
157 175 0
160 178 0
158 175 0
164 181 0
158 175 0
159 179 0
162 182 0
165 183 0
154 173 0
162 181 0
160 176 0
160 180 0
160 178 0
161 179 0
164 182 0
164 184 0
159 178 0
160 178 0
165 183 0
158 177 0
159 178 0
163 183 0
161 180 0
158 177 0
160 179 0
166 186 0
163 181 0
163 182 0
168 188 0
162 180 0
170 193 0
166 187 0
164 184 0
168 188 0
164 184 0
162 183 0
164 184 0
162 183 0
168 188 0
166 185 0
165 185 0
164 185 0
164 183 0
166 191 80
171 195 84
172 196 88
166 190 76
170 195 92
171 195 72
170 195 80
171 195 76
169 194 67
169 194 95
166 190 36
171 194 67
168 193 67
162 186 72
172 196 92
168 192 76
169 193 72
166 190 62
167 192 67
170 195 76
164 188 67
165 189 80
170 194 67
169 193 84
165 190 84
171 194 62
167 191 84
167 192 80
165 189 72
174 197 84
170 193 88
167 190 95
167 190 76
169 194 84
172 196 84
166 189 72
165 189 95
170 194 88
166 191 62
167 191 95
166 189 99
171 194 92
167 190 99
173 195 111
169 192 92
162 185 72
165 188 95
165 188 80
164 186 88
165 187 99
160 183 80
169 193 108
167 191 105
160 183 76
167 191 92
161 184 76
164 187 99
166 188 92
163 185 84
162 186 92
159 183 84
153 175 84
164 187 88
170 193 105
165 188 108
159 181 99
161 184 95
161 184 88
169 193 120
160 183 102
156 178 95
154 176 76
163 186 92
155 177 92
159 181 111
152 173 76
160 182 92
151 173 72
154 176 67
149 170 76
152 173 92
147 168 84
152 174 95
158 180 84
154 176 102
146 168 76
152 174 72
149 171 72
145 166 84
150 171 76
146 166 67
136 157 62
142 164 76
141 161 76
143 164 67
135 155 76
133 153 57
118 140 82
90 115 118
82 108 110
87 112 100
90 115 108
79 106 98
80 108 115
88 115 131
92 118 124
92 118 121
89 115 111
95 120 118
90 116 117
82 110 120
95 120 122
99 125 135
89 115 119
98 123 144
94 120 134
100 125 124
107 131 136
95 121 129
112 134 127
92 118 131
107 132 128
105 129 118
92 116 119
88 115 127
100 123 132
89 114 128
125 135 125
83 112 151
78 108 156
75 105 145
90 117 163
80 109 151
84 114 130
68 100 122
73 104 134
74 102 124
68 98 128
66 96 124
71 98 123
70 98 127
58 92 118
59 92 113
61 94 124
64 96 118
63 95 113
68 99 117
60 93 117
57 89 98
102 126 80
64 96 118
58 91 117
56 89 97
57 90 115
56 89 99
59 93 124
56 88 108
58 92 113
58 92 107
59 93 114
56 89 102
57 91 113
56 89 112
58 92 120
59 93 126
58 92 117
56 90 102
58 92 110
59 93 120
58 91 111
58 92 113
58 91 111
58 92 114
57 90 114
59 93 115
60 94 130
58 92 121
57 91 111
58 92 110
58 91 107
58 91 117
58 92 114
58 92 116
58 92 115
57 90 113
57 90 110
59 93 120
58 92 124
58 92 118
58 91 114
57 91 113
56 89 110
57 91 124
57 90 111
58 92 118
56 90 102
57 91 102
58 92 115
57 90 105
58 91 114
56 89 92
58 91 108
57 91 105
57 90 108
56 89 111
57 90 115
58 91 122
54 86 90
58 92 124
58 92 117
55 87 99
57 90 111
56 89 105
58 91 105
59 93 121
57 89 107
56 89 103
54 86 92
56 89 105
55 88 103
57 90 102
55 88 102
54 86 84
55 87 100
52 84 94
72 96 74
92 107 25
103 118 0
113 128 0
104 118 0
97 113 0
119 134 0
101 118 0
114 131 0
98 114 0
112 128 0
107 122 0
123 141 0
117 133 0
100 117 0
120 136 0
124 142 0
126 142 0
114 129 0
114 130 0
117 133 0
110 127 0
119 133 0
125 141 0
121 136 0
118 134 0
125 141 0
129 147 0
130 148 0
118 135 0
122 140 0
132 149 0
127 142 0
127 144 0
122 138 0
126 141 0
124 138 0
151 169 0
133 148 0
134 152 0
128 146 0
136 152 0
127 144 0
137 156 0
131 146 0
132 147 0
134 151 0
126 143 0
130 148 0
139 157 0
142 160 0
142 159 0
137 153 0
135 151 0
142 158 0
144 164 0
144 162 0
135 153 0
141 158 0
137 155 0
133 148 0
145 163 0
142 158 0
139 158 0
138 154 0
149 166 0
144 161 0
140 159 0
135 152 0
148 166 0
146 163 0
139 155 0
146 163 0
140 156 0
153 172 0
152 170 0
149 168 0
142 157 0
141 156 0
149 167 0
147 163 0
147 164 0
144 163 0
152 168 0
144 163 0
150 167 0
152 170 0
145 162 0
153 169 0
148 165 0
152 166 0
153 172 0
141 157 0
156 175 0
150 167 0
149 166 0
144 162 0
151 167 0
152 168 0
149 166 0
154 172 0
158 175 0
149 165 0
156 173 0
152 169 0
156 174 0
156 172 0
152 169 0
153 170 0
152 169 0
152 170 0
153 171 0
155 172 0
162 179 0
154 170 0
159 177 0
161 179 0
153 170 0
155 172 0
159 175 0
156 173 0
156 175 0
154 172 0
162 182 0
160 179 0
157 176 0
154 171 0
164 184 0
155 174 0
159 178 0
161 181 0
156 174 0
161 178 0
157 176 0
158 175 0
157 175 0
158 177 0
160 180 0
166 186 0
165 184 0
151 169 0
155 174 0
166 186 0
164 184 0
164 182 0
164 184 0
160 177 0
161 179 0
156 174 0
161 180 0
161 179 0
163 183 0
160 181 0
156 174 0
166 187 0
164 185 0
163 181 0
163 183 0
163 180 0
159 179 0
167 187 0
168 189 0
168 189 0
162 181 0
165 185 0
167 185 0
162 181 0
163 180 0
165 185 0
166 186 0
166 187 0
165 186 0
163 184 0
165 185 0
162 182 0
169 194 62
169 194 72
173 197 67
168 192 76
170 195 95
170 194 72
172 196 88
171 195 84
169 193 67
171 195 72
173 197 92
166 191 67
171 196 57
166 190 72
172 195 72
169 193 84
169 194 76
165 189 67
165 189 67
168 193 76
166 191 72
166 190 72
170 194 72
170 194 80
171 195 76
168 192 80
168 192 80
171 194 72
170 194 95
171 194 72
173 197 92
164 188 88
171 194 88
167 192 72
165 188 80
168 190 76
172 196 95
169 193 105
168 192 72
169 192 88
167 190 84
172 196 114
170 194 102
169 193 88
166 190 99
168 191 105
172 194 117
166 189 102
164 188 76
167 190 92
164 187 105
163 186 99
161 185 67
160 182 95
168 190 114
164 188 88
164 188 102
166 189 102
172 195 111
168 191 99
167 190 88
159 181 88
170 192 114
163 185 105
162 183 92
166 189 108
159 181 88
159 182 92
166 188 102
157 180 111
158 181 76
159 181 102
164 186 105
162 184 99
162 185 92
157 180 88
160 182 84
158 182 95
152 174 80
149 172 80
150 173 102
157 178 99
155 176 108
154 176 88
151 172 99
145 166 88
147 167 95
149 170 84
143 165 92
138 159 57
141 163 72
141 163 67
137 157 62
138 159 44
142 162 67
139 159 62
151 172 102
138 159 84
95 117 92
74 102 92
85 112 108
91 116 114
79 106 115
97 120 120
88 115 129
94 120 122
96 122 127
89 116 120
88 113 117
82 111 122
89 116 118
87 114 118
89 116 129
84 111 133
106 130 136
102 126 127
104 128 141
95 121 131
87 114 134
104 128 141
99 124 136
105 129 133
99 123 116
90 115 114
88 115 117
97 120 137
107 129 129
108 123 127
121 129 115
75 106 151
66 99 130
73 103 144
71 101 127
70 102 131
74 106 143
75 106 134
71 103 141
68 96 121
64 95 137
76 101 123
73 99 122
64 95 123
59 93 115
66 97 118
61 94 125
58 91 118
57 91 109
59 92 110
60 92 103
103 126 86
70 99 87
58 92 117
57 90 110
55 89 99
58 92 122
56 89 108
58 92 124
57 90 116
58 92 118
57 90 97
57 91 105
58 91 113
58 92 117
59 93 122
56 90 108
59 93 126
58 92 117
58 92 106
57 91 114
59 93 124
57 91 110
60 94 124
59 92 122
57 91 102
58 92 115
57 90 113
57 90 104
58 92 118
56 90 105
58 91 115
58 92 110
59 93 114
57 90 107
58 92 111
58 91 110
60 95 129
56 89 108
59 92 114
57 90 103
58 91 120
56 89 110
57 91 111
57 90 113
58 92 117
56 89 107
59 93 117
56 89 103
58 92 114
57 91 115
59 94 122
55 88 108
57 91 115
57 91 113
59 93 118
58 92 111
57 90 115
58 92 121
57 91 118
56 89 103
57 90 110
57 90 107
56 88 110
57 91 120
57 91 114
56 88 107
55 88 100
55 88 100
56 89 111
55 88 99
55 87 110
53 85 90
54 86 90
56 88 100
55 86 90
83 105 62
105 119 0
108 122 0
112 127 0
91 103 0
103 119 0
109 125 0
117 132 0
110 125 0
120 135 0
123 139 0
107 123 0
115 132 0
117 134 0
112 129 0
128 145 0
118 135 0
136 153 0
122 138 0
108 124 0
113 127 0
132 148 0
121 139 0
126 142 0
128 146 0
126 141 0
121 138 0
121 137 0
131 149 0
132 148 0
120 136 0
121 139 0
119 133 0
122 136 0
135 153 0
130 146 0
118 136 0
132 151 0
130 146 0
122 135 0
132 148 0
134 151 0
137 154 0
125 142 0
125 142 0
143 159 0
136 155 0
132 148 0
141 159 0
137 155 0
137 156 0
134 151 0
144 160 0
134 152 0
131 147 0
134 151 0
135 151 0
142 159 0
143 159 0
140 155 0
150 167 0
152 171 0
139 155 0
145 164 0
141 158 0
141 158 0
137 155 0
146 162 0
149 168 0
145 164 0
147 164 0
143 159 0
148 167 0
144 160 0
149 169 0
144 163 0
146 162 0
153 171 0
143 161 0
142 160 0
144 161 0
148 166 0
148 165 0
155 173 0
148 168 0
150 168 0
155 175 0
143 160 0
150 167 0
139 155 0
151 166 0
144 158 0
144 161 0
148 163 0
150 169 0
149 167 0
156 175 0
150 167 0
149 166 0
148 165 0
152 169 0
156 173 0
152 171 0
151 169 0
150 168 0
153 170 0
153 171 0
152 170 0
150 167 0
158 175 0
154 174 0
158 175 0
148 167 0
154 172 0
156 173 0
155 173 0
157 174 0
155 176 0
157 176 0
160 177 0
155 174 0
158 175 0
158 175 0
162 180 0
159 176 0
152 170 0
156 175 0
151 168 0
152 169 0
159 178 0
162 180 0
154 173 0
160 181 0
161 179 0
164 182 0
161 178 0
161 178 0
159 176 0
157 174 0
158 178 0
161 180 0
162 182 0
162 181 0
159 178 0
167 184 0
161 181 0
162 183 0
161 180 0
166 185 0
163 184 0
164 184 0
163 183 0
161 180 0
166 184 0
163 183 0
160 179 0
168 189 0
166 184 0
162 181 0
161 180 0
164 186 0
166 186 0
160 180 0
161 180 0
168 188 0
160 179 0
166 187 0
159 178 0
163 184 0
166 186 0
168 186 0
159 177 0
166 188 0
164 185 0
169 190 0
167 187 0
176 199 80
173 197 76
168 192 67
168 192 80
172 196 67
171 195 62
165 190 84
173 196 57
170 195 80
166 190 51
168 192 76
167 191 72
168 192 67
164 188 67
165 189 72
166 191 84
168 192 76
166 189 67
168 191 72
169 194 72
171 194 92
168 193 88
177 201 122
168 192 84
168 192 72
171 196 84
169 193 114
171 194 92
171 195 92
169 193 80
170 194 88
172 195 95
174 196 111
167 190 95
172 195 105
170 193 84
171 195 92
161 185 72
173 197 108
172 194 95
170 193 122
171 193 102
168 192 84
172 194 117
170 192 99
167 191 95
163 186 92
167 190 111
159 182 92
167 190 102
173 196 111
171 194 130
160 183 88
159 182 95
172 194 117
168 192 95
166 189 80
164 187 99
167 189 108
169 191 125
166 189 92
159 181 88
165 187 102
162 184 99
155 177 67
158 181 92
164 187 99
169 191 122
163 185 92
157 179 95
167 190 122
160 183 99
149 172 95
171 194 122
155 177 102
151 172 95
158 180 108
159 180 84
160 182 84
152 175 76
150 173 80
143 165 62
158 179 111
155 176 108
147 168 80
156 176 92
148 169 84
150 171 95
148 168 95
143 164 51
148 168 76
150 171 67
149 169 88
136 156 72
151 172 95
137 158 67
137 156 62
136 156 80
128 147 74
88 111 82
89 114 113
93 118 115
86 111 117
89 115 117
77 103 102
82 108 118
89 114 113
96 122 131
98 122 125
94 119 133
81 107 115
79 107 117
97 122 142
101 125 122
90 116 133
100 125 132
96 121 129
95 121 121
96 121 126
102 128 130
109 133 138
90 117 123
104 129 134
92 119 121
101 126 119
86 111 136
89 114 136
96 119 132
141 141 91
94 113 131
77 107 151
79 108 141
84 113 152
67 100 139
71 102 122
82 112 126
77 109 135
69 100 131
70 97 123
66 95 120
74 99 110
66 96 119
61 93 128
59 93 126
62 95 117
64 97 115
64 97 115
63 95 115
65 96 110
90 114 88
95 119 97
57 90 111
56 89 99
57 91 114
56 88 108
58 92 114
57 91 111
57 90 108
57 90 103
57 90 100
57 91 109
59 93 118
59 93 115
57 91 107
57 90 109
57 90 103
57 91 111
56 90 115
57 91 103
58 92 108
58 91 114
56 90 102
56 89 102
57 91 117
59 92 111
57 91 108
58 92 113
56 89 97
57 91 108
58 92 111
58 92 117
58 91 113
58 92 117
56 89 102
57 91 120
57 91 111
58 91 114
57 91 115
57 90 111
58 92 107
59 93 127
58 91 113
57 91 105
58 91 105
55 88 102
56 90 105
58 91 110
55 88 107
56 89 107
56 88 103
57 90 108
57 90 108
58 92 118
59 94 120
58 91 118
57 90 102
59 92 113
58 92 115
56 88 105
57 90 108
56 89 97
57 90 111
57 90 95
56 89 103
55 87 97
57 89 111
56 88 110
54 86 90
54 86 86
55 87 95
53 84 90
53 84 95
75 99 84
89 104 31
107 122 0
103 119 0
107 122 0
112 127 0
109 123 0
106 122 0
105 120 0
112 126 0
105 122 0
111 127 0
116 133 0
125 141 0
111 128 0
99 114 0
118 134 0
112 129 0
117 134 0
110 125 0
119 134 0
112 126 0
120 136 0
118 135 0
118 134 0
128 144 0
119 136 0
119 136 0
128 144 0
132 148 0
124 141 0
126 142 0
122 139 0
122 139 0
118 134 0
133 150 0
120 136 0
138 155 0
137 154 0
126 144 0
136 153 0
132 150 0
131 150 0
132 149 0
132 149 0
132 149 0
128 147 0
139 157 0
134 153 0
137 154 0
139 156 0
141 156 0
139 157 0
135 154 0
144 163 0
135 152 0
138 156 0
137 156 0
139 157 0
135 153 0
141 158 0
139 154 0
150 166 0
150 168 0
139 156 0
149 167 0
152 171 0
141 159 0
143 162 0
141 154 0
148 166 0
146 164 0
155 173 0
142 158 0
151 169 0
154 172 0
152 168 0
145 163 0
149 169 0
154 174 0
149 168 0
140 158 0
149 167 0
145 164 0
155 175 0
140 157 0
141 160 0
151 167 0
150 167 0
150 168 0
151 171 0
155 174 0
153 172 0
155 172 0
145 165 0
146 164 0
151 168 0
154 173 0
148 168 0
156 174 0
143 161 0
156 174 0
155 174 0
155 174 0
147 166 0
158 175 0
149 165 0
155 174 0
159 175 0
157 174 0
152 170 0
159 176 0
151 167 0
156 172 0
156 176 0
156 174 0
162 180 0
147 166 0
161 179 0
150 168 0
154 169 0
153 171 0
158 177 0
159 177 0
153 170 0
157 175 0
158 177 0
154 173 0
157 177 0
162 181 0
158 176 0
157 174 0
162 182 0
154 171 0
153 172 0
158 175 0
163 182 0
150 167 0
155 172 0
159 178 0
165 184 0
161 178 0
160 179 0
164 185 0
160 177 0
152 171 0
166 187 0
163 183 0
166 186 0
163 183 0
162 180 0
164 180 0
164 183 0
164 187 0
162 182 0
164 184 0
159 178 0
164 184 0
159 180 0
160 179 0
160 180 0
167 186 0
165 186 0
162 181 0
165 185 0
165 185 0
165 186 0
163 183 0
161 181 0
164 185 0
165 185 0
165 185 0
164 183 0
162 183 0
167 187 0
168 188 0
163 183 0
164 184 0
173 197 84
168 192 76
171 195 88
174 199 88
169 193 76
172 196 88
171 195 80
167 191 51
172 196 67
169 193 67
166 189 80
168 192 67
165 189 84
167 191 67
169 193 76
170 194 72
168 192 62
173 197 84
166 191 80
171 195 88
172 195 92
169 193 84
165 189 76
171 195 92
166 191 72
165 189 105
165 190 84
166 190 57
168 192 84
171 196 108
176 198 99
173 196 99
168 191 102
180 202 117
168 192 88
173 195 99
171 194 99
170 192 88
166 188 108
165 188 108
172 194 99
166 190 105
168 191 102
169 192 95
169 191 105
165 189 72
166 188 76
168 191 92
165 188 92
165 189 95
169 192 111
166 189 72
163 186 95
169 192 111
165 187 84
161 184 88
162 185 95
162 185 102
160 183 102
164 186 88
161 184 84
170 192 76
166 189 108
164 187 95
163 186 76
162 185 95
165 187 84
162 184 92
158 180 102
155 178 105
157 179 92
158 180 95
162 184 108
149 171 88
148 170 67
149 171 76
167 189 114
154 176 80
155 177 88
158 180 88
160 182 108
153 175 84
160 182 114
153 175 88
144 165 72
155 176 95
153 174 92
157 178 105
143 163 90
146 167 72
152 172 88
149 170 62
139 160 84
143 163 67
144 165 92
140 161 72
135 155 67
144 164 72
140 160 84
140 160 97
96 119 84
89 114 100
83 109 95
92 115 115
87 112 110
86 110 110
88 114 115
97 122 132
88 114 120
97 121 121
92 118 117
97 121 140
97 121 125
96 120 120
90 115 120
80 108 118
110 134 129
93 119 120
96 122 134
87 114 119
101 126 120
94 120 125
101 127 117
102 127 108
110 134 111
97 123 133
97 120 131
88 113 132
126 129 86
137 137 93
76 104 150
86 114 155
75 105 130
70 103 139
76 107 129
73 105 139
72 104 141
77 108 135
66 99 142
61 93 122
65 96 131
68 95 117
62 93 110
57 91 122
60 93 118
58 92 114
60 93 118
64 96 110
56 88 99
77 104 80
86 112 100
57 90 98
55 88 95
56 89 108
57 91 114
56 89 115
57 90 105
57 91 107
55 88 99
58 92 115
57 90 111
57 90 97
56 90 100
57 91 111
57 91 105
56 89 109
57 91 109
58 91 117
56 90 103
58 92 117
59 94 121
56 90 102
57 91 117
59 93 120
58 91 114
56 89 99
57 90 111
58 92 110
57 90 107
57 91 110
58 91 113
58 92 126
58 92 117
57 91 111
57 91 105
58 92 115
57 91 105
57 90 111
57 90 105
57 91 120
58 91 113
57 91 108
58 92 110
57 91 111
57 90 115
59 94 111
58 91 113
56 90 107
58 92 114
56 89 108
58 91 114
57 90 113
58 91 113
57 90 100
55 87 103
56 90 105
58 91 124
57 90 105
56 89 113
55 88 92
57 91 102
58 92 105
54 87 103
53 84 82
55 87 99
56 89 103
56 89 105
54 86 97
56 88 99
53 84 94
56 86 84
90 107 54
105 119 0
88 105 0
104 119 0
106 122 0
104 120 0
88 103 0
104 119 0
115 129 0
103 118 0
113 130 0
97 114 0
115 131 0
118 134 0
111 126 0
130 147 0
106 123 0
106 123 0
106 123 0
120 137 0
114 129 0
128 144 0
118 137 0
110 126 0
106 122 0
128 145 0
128 146 0
116 132 0
125 143 0
127 143 0
122 138 0
126 142 0
127 145 0
135 153 0
128 144 0
128 144 0
130 147 0
123 139 0
137 151 0
128 147 0
136 154 0
134 151 0
132 150 0
125 143 0
133 151 0
137 156 0
136 154 0
134 152 0
123 140 0
131 149 0
135 153 0
135 153 0
136 154 0
135 151 0
137 155 0
138 156 0
142 162 0
144 164 0
132 147 0
143 161 0
137 155 0
133 152 0
139 157 0
145 160 0
144 162 0
136 153 0
152 169 0
152 172 0
139 157 0
137 154 0
148 166 0
144 162 0
149 166 0
139 157 0
132 151 0
148 165 0
147 163 0
149 168 0
155 173 0
146 165 0
150 169 0
146 164 0
151 171 0
155 171 0
154 173 0
149 166 0
142 160 0
145 163 0
145 163 0
149 166 0
146 165 0
157 177 0
154 174 0
147 164 0
150 166 0
151 170 0
154 172 0
150 166 0
154 172 0
140 157 0
146 163 0
158 177 0
155 173 0
152 169 0
151 168 0
147 164 0
152 169 0
157 175 0
156 172 0
153 172 0
155 174 0
152 167 0
158 179 0
162 180 0
162 181 0
158 177 0
158 177 0
154 171 0
157 175 0
149 166 0
157 175 0
156 174 0
155 172 0
157 175 0
155 172 0
158 177 0
157 172 0
154 171 0
161 179 0
164 185 0
161 179 0
162 181 0
159 175 0
158 176 0
157 177 0
158 177 0
157 176 0
155 173 0
159 178 0
156 174 0
162 181 0
160 180 0
159 178 0
159 178 0
158 175 0
160 178 0
161 180 0
165 184 0
155 174 0
160 178 0
163 184 0
165 185 0
165 185 0
164 182 0
165 184 0
161 180 0
156 174 0
166 185 0
165 185 0
162 182 0
161 180 0
167 186 0
162 182 0
166 186 0
167 187 0
162 182 0
162 181 0
161 182 0
164 185 0
160 180 0
162 182 0
162 180 0
165 186 0
164 186 0
163 182 0
165 186 0
159 179 0
165 185 0
166 188 0
171 196 88
173 198 99
167 192 84
172 196 72
170 194 80
174 198 95
165 188 76
170 194 67
166 191 76
172 197 84
167 191 88
168 192 67
168 192 80
165 189 76
168 191 51
169 193 76
171 195 80
170 193 84
169 192 72
174 197 117
171 195 80
171 196 92
173 195 80
174 197 95
168 192 57
169 193 80
175 198 105
166 188 88
172 195 99
174 197 99
172 196 105
167 190 84
172 194 111
164 188 92
172 195 88
173 196 99
161 185 72
168 191 102
170 193 105
169 192 84
167 191 99
169 193 99
175 199 125
171 195 99
169 193 102
170 193 111
161 184 99
166 188 95
168 192 99
169 192 99
170 193 88
166 189 95
160 183 84
167 190 108
170 192 114
166 190 99
167 189 102
164 187 92
157 179 95
165 187 84
169 192 130
165 187 84
161 184 114
165 188 99
163 185 92
156 179 95
163 185 102
157 179 92
164 186 120
161 183 102
169 191 108
153 175 88
154 177 80
154 174 95
161 182 105
155 176 99
165 187 120
158 180 105
161 183 95
155 177 92
149 171 72
153 173 95
150 170 111
154 175 84
142 163 74
154 175 84
153 174 88
144 165 72
149 170 67
151 172 88
132 152 80
154 176 105
145 165 102
135 156 62
136 156 84
134 155 62
138 159 62
127 147 67
138 158 72
129 148 44
133 152 57
97 120 94
92 116 114
94 118 103
86 112 99
92 116 111
95 119 108
99 124 124
92 117 117
93 118 114
89 115 105
83 110 115
100 126 139
111 135 137
76 104 105
103 127 135
104 128 131
98 123 134
89 115 110
100 124 125
104 128 127
97 122 129
94 120 120
91 118 108
97 122 122
108 132 113
90 116 121
96 120 127
104 120 117
137 134 71
115 119 91
74 104 135
75 104 131
72 105 139
73 105 120
69 101 139
67 99 125
80 110 121
79 108 113
79 108 114
57 91 122
70 98 122
71 96 104
57 89 102
60 93 110
58 91 111
58 91 97
65 96 118
61 94 111
82 107 95
100 123 60
60 91 101
55 87 97
55 88 86
58 91 113
58 92 120
56 90 108
56 89 97
56 89 104
57 90 103
57 91 103
56 90 103
55 88 94
55 87 92
58 91 108
55 88 95
56 89 108
56 89 94
57 90 113
56 89 106
58 91 117
57 91 99
58 91 111
56 88 102
56 90 110
59 93 114
57 90 105
57 91 117
57 91 105
57 91 113
56 89 106
57 90 107
55 88 86
57 90 118
58 91 108
57 90 111
56 89 99
55 88 108
58 91 115
57 91 117
56 88 97
57 90 105
58 91 115
58 92 113
56 89 108
57 90 114
56 89 100
53 85 99
56 89 100
56 88 103
57 90 97
58 91 121
54 87 99
57 90 99
57 90 115
55 87 94
57 91 110
56 89 105
54 85 90
54 87 97
57 91 107
56 89 108
57 89 102
54 86 94
56 89 108
55 87 95
53 85 82
55 86 92
51 82 82
71 94 62
116 133 18
86 101 0
119 136 0
100 114 0
104 118 0
106 121 0
95 110 0
110 125 0
112 128 0
103 118 0
116 132 0
131 148 0
114 129 0
123 138 0
121 136 0
118 134 0
102 120 0
124 140 0
107 123 0
119 136 0
114 131 0
130 149 0
108 126 0
119 137 0
123 141 0
121 138 0
125 143 0
124 141 0
125 141 0
124 142 0
127 145 0
122 138 0
124 141 0
123 141 0
137 154 0
122 137 0
136 154 0
125 144 0
122 140 0
128 144 0
132 149 0
141 159 0
135 154 0
134 153 0
134 150 0
130 149 0
129 144 0
132 147 0
133 152 0
142 159 0
133 151 0
140 158 0
135 154 0
138 156 0
139 157 0
145 164 0
135 151 0
145 165 0
131 148 0
148 167 0
140 156 0
142 159 0
138 154 0
133 150 0
134 151 0
144 159 0
143 161 0
141 158 0
140 159 0
147 165 0
142 158 0
144 164 0
140 159 0
143 160 0
143 162 0
139 158 0
141 160 0
142 161 0
143 161 0
149 167 0
148 167 0
144 161 0
152 169 0
143 159 0
143 161 0
159 177 0
147 167 0
148 167 0
143 162 0
156 175 0
148 165 0
154 172 0
154 170 0
155 175 0
155 173 0
148 166 0
154 174 0
151 170 0
148 167 0
149 169 0
157 175 0
154 173 0
155 175 0
154 173 0
155 173 0
146 163 0
145 163 0
150 169 0
155 173 0
153 173 0
154 171 0
159 179 0
157 176 0
152 171 0
149 167 0
157 174 0
151 169 0
150 168 0
150 168 0
154 172 0
159 179 0
154 172 0
156 174 0
160 180 0
153 172 0
157 174 0
157 174 0
162 181 0
161 182 0
159 177 0
159 176 0
155 173 0
158 177 0
157 178 0
164 182 0
158 176 0
155 175 0
162 183 0
160 179 0
160 179 0
162 181 0
160 179 0
161 179 0
157 174 0
162 180 0
160 178 0
163 183 0
159 176 0
166 185 0
161 181 0
163 183 0
169 190 0
157 176 0
165 186 0
161 179 0
160 179 0
161 179 0
164 182 0
160 178 0
164 183 0
165 184 0
162 183 0
162 181 0
159 177 0
162 180 0
163 184 0
162 182 0
166 188 0
162 183 0
161 180 0
164 186 0
161 181 0
163 183 0
163 183 0
166 188 0
159 179 0
162 181 0
165 187 0
166 186 0
167 186 0
169 194 72
170 194 88
175 198 76
171 194 51
172 195 88
170 194 57
166 191 80
170 194 76
170 194 67
170 194 67
166 190 67
165 189 44
168 193 84
171 194 84
169 192 62
172 196 84
170 194 72
171 194 84
168 192 84
176 201 117
171 194 84
173 196 99
168 192 72
173 195 108
171 194 80
173 197 102
173 195 76
168 192 84
168 192 105
169 193 88
173 195 84
169 192 80
169 192 108
171 194 108
171 194 108
165 187 102
175 198 122
170 193 108
166 188 72
166 189 72
171 195 114
173 196 114
168 191 84
170 194 102
173 196 117
166 189 99
167 190 108
173 195 72
168 192 108
167 189 95
169 192 108
167 191 111
161 184 88
155 179 88
163 187 92
157 180 80
162 185 105
158 182 95
167 189 95
161 184 92
164 187 105
159 182 84
159 182 102
165 187 99
164 186 105
157 180 108
163 185 84
160 181 92
169 190 105
161 184 99
156 178 95
157 180 111
153 175 88
165 187 117
149 172 95
157 179 92
150 171 102
154 176 88
152 173 99
156 177 88
152 174 88
154 175 80
155 175 88
149 171 99
150 171 105
152 173 88
161 184 99
154 175 80
150 171 80
141 162 88
146 167 92
143 163 62
148 169 67
124 144 76
139 158 67
145 166 84
145 165 88
135 155 67
134 153 67
133 153 57
133 151 77
134 152 92
98 122 94
89 114 102
92 116 97
93 118 120
83 110 114
95 119 113
92 116 110
84 110 106
89 114 113
94 119 122
87 114 114
94 118 117
99 125 122
96 120 136
89 114 99
106 129 126
87 113 124
96 121 115
100 124 122
93 119 126
96 121 125
91 119 117
114 137 127
93 120 113
94 118 133
88 114 109
86 111 130
134 132 86
137 134 76
91 109 124
72 103 145
68 100 130
75 106 135
82 112 121
76 106 126
83 111 121
73 105 118
84 112 109
72 103 129
83 110 111
80 106 111
68 96 99
63 96 105
68 99 106
60 93 118
64 95 107
61 93 99
78 104 94
99 122 80
72 101 99
58 91 108
55 87 100
56 89 107
56 90 94
56 89 110
57 90 100
57 90 105
56 89 99
55 88 90
57 90 110
56 90 99
57 90 108
58 91 107
57 91 102
57 90 110
58 91 108
56 89 95
57 90 110
56 89 94
58 92 105
56 89 110
57 90 110
55 87 96
54 87 91
59 93 129
58 92 115
57 90 110
58 91 102
57 90 105
58 91 120
55 88 95
54 87 103
58 92 113
55 88 100
57 90 99
56 89 96
56 88 105
56 89 105
57 90 99
57 90 105
57 91 100
57 90 107
57 90 107
57 90 103
56 89 84
56 89 97
53 84 88
55 88 99
57 90 99
54 87 99
55 87 94
57 90 103
56 88 108
56 89 88
56 89 105
56 88 103
57 90 110
56 88 97
54 86 97
55 88 92
53 84 88
55 87 100
51 82 84
54 86 90
51 82 84
73 97 80
91 107 31
104 119 0
101 116 0
93 106 0
110 125 0
104 119 0
101 116 0
103 118 0
122 137 0
110 125 0
104 119 0
105 122 0
102 116 0
116 131 0
108 124 0
111 126 0
109 124 0
112 129 0
113 131 0
120 137 0
115 130 0
101 118 0
120 137 0
112 130 0
124 138 0
120 134 0
121 138 0
122 140 0
120 137 0
125 142 0
115 131 0
130 146 0
129 148 0
139 156 0
120 138 0
123 141 0
132 149 0
138 155 0
124 143 0
121 138 0
130 147 0
131 151 0
133 150 0
130 147 0
114 131 0
133 150 0
132 149 0
142 160 0
138 158 0
132 149 0
139 157 0
131 149 0
142 163 0
140 157 0
137 155 0
135 152 0
141 159 0
136 155 0
144 164 0
135 154 0
143 160 0
143 159 0
145 165 0
140 157 0
141 160 0
134 152 0
137 155 0
137 153 0
149 165 0
147 167 0
144 162 0
151 170 0
147 167 0
138 155 0
145 164 0
136 153 0
140 157 0
145 162 0
144 163 0
149 168 0
150 167 0
145 164 0
150 168 0
143 161 0
148 165 0
146 165 0
140 158 0
150 166 0
144 162 0
151 170 0
148 165 0
146 164 0
152 169 0
152 171 0
151 170 0
158 177 0
149 167 0
154 172 0
147 165 0
156 174 0
156 173 0
151 168 0
149 166 0
155 174 0
147 164 0
153 173 0
149 165 0
159 178 0
154 173 0
155 174 0
154 172 0
155 173 0
155 174 0
154 172 0
160 177 0
150 168 0
153 170 0
156 174 0
155 174 0
151 170 0
159 176 0
156 173 0
161 180 0
148 165 0
154 173 0
158 174 0
157 175 0
159 176 0
161 180 0
160 179 0
158 177 0
159 177 0
158 176 0
158 178 0
160 180 0
159 178 0
163 181 0
157 176 0
159 178 0
158 176 0
157 174 0
161 182 0
159 179 0
167 184 0
162 184 0
154 174 0
161 180 0
159 178 0
161 182 0
163 183 0
166 186 0
162 182 0
160 180 0
159 176 0
163 183 0
159 178 0
159 179 0
159 179 0
159 177 0
158 178 0
164 185 0
165 186 0
164 184 0
164 184 0
163 181 0
164 184 0
166 187 0
167 187 0
163 183 0
163 183 0
163 183 0
163 182 0
163 183 0
162 183 0
170 191 0
164 183 0
169 188 0
161 181 0
166 184 0
161 180 0
165 183 0
164 184 0
170 195 84
172 196 57
163 187 36
173 197 84
169 193 72
170 193 67
167 191 62
171 195 72
168 191 57
172 195 57
167 192 62
171 196 57
172 195 67
170 194 88
169 192 84
173 196 95
170 194 108
168 192 95
169 194 76
168 192 76
175 198 84
166 190 88
172 196 92
173 196 99
168 191 84
169 192 108
169 193 95
168 190 76
172 195 105
171 193 117
169 193 92
169 192 88
173 196 99
168 190 80
168 191 84
168 192 92
170 193 92
171 194 88
167 191 84
169 194 80
160 184 102
170 192 95
166 189 57
166 189 99
162 186 88
168 191 95
170 193 108
168 191 95
168 191 105
170 194 95
173 195 95
167 191 102
167 191 114
171 194 127
165 189 99
168 191 92
159 183 80
163 187 84
157 180 86
159 182 102
164 187 92
163 186 88
163 185 105
160 183 76
160 182 111
157 179 88
161 184 92
163 187 84
156 178 76
158 180 95
158 181 102
164 186 102
157 179 80
153 175 84
163 184 102
162 184 84
160 181 102
154 174 95
154 175 99
155 176 114
155 175 92
148 170 88
154 176 111
154 174 117
152 173 88
148 169 95
157 178 102
150 170 84
151 171 105
142 163 67
150 170 92
146 166 95
135 155 72
146 166 80
143 163 95
138 157 76
140 159 62
133 153 84
137 158 76
136 155 72
131 150 67
134 152 72
143 162 108
106 127 88
92 117 114
100 124 100
98 121 102
90 115 110
92 117 111
85 110 118
105 128 115
88 115 131
97 121 122
96 121 125
91 117 122
96 120 112
98 123 121
90 117 139
97 120 130
107 132 125
106 130 148
99 124 119
103 126 127
93 119 114
96 122 113
100 126 126
92 117 113
100 124 125
98 122 122
117 121 97
132 130 78
114 112 52
86 109 124
67 100 135
72 103 120
70 101 126
78 108 129
71 102 114
69 100 107
80 108 113
63 95 125
73 100 105
73 101 126
77 102 110
71 97 103
65 96 121
62 95 108
59 93 120
58 92 113
63 93 99
94 118 82
91 116 88
58 91 107
55 87 79
56 89 96
57 90 94
58 92 102
56 89 103
58 91 109
55 88 97
56 89 100
57 90 108
57 90 116
56 88 100
56 89 102
57 91 105
56 89 108
57 91 103
59 92 117
57 90 107
58 91 118
56 89 103
57 90 102
57 90 110
56 89 100
59 92 119
57 90 105
59 93 111
57 90 108
58 91 107
56 88 108
58 92 120
56 89 110
57 90 103
57 90 100
58 92 113
54 86 100
56 90 102
56 89 103
57 90 100
57 90 111
57 91 100
56 88 100
56 89 110
58 91 108
56 90 105
57 90 105
58 91 102
58 91 114
55 87 105
55 87 110
56 89 99
55 88 95
54 85 94
56 90 95
55 87 102
55 87 95
57 90 111
55 87 94
56 89 102
54 86 90
55 87 82
54 85 94
55 87 102
57 89 97
66 91 72
87 104 47
109 125 0
98 113 0
112 126 0
102 116 0
113 128 0
97 111 0
102 114 0
100 115 0
105 122 0
107 121 0
95 109 0
99 117 0
110 126 0
109 125 0
111 128 0
102 117 0
115 131 0
108 124 0
116 130 0
116 133 0
111 128 0
125 142 0
117 136 0
116 130 0
121 137 0
120 137 0
128 146 0
115 133 0
113 131 0
124 141 0
119 137 0
121 137 0
131 148 0
118 135 0
122 140 0
131 148 0
123 142 0
123 139 0
129 147 0
129 147 0
130 147 0
133 150 0
132 150 0
127 143 0
140 157 0
135 153 0
133 151 0
137 155 0
133 151 0
135 153 0
138 156 0
134 151 0
124 139 0
138 154 0
138 155 0
134 153 0
128 146 0
137 156 0
140 158 0
131 149 0
142 159 0
144 163 0
140 158 0
141 159 0
150 169 0
147 165 0
147 164 0
142 159 0
144 163 0
140 159 0
147 167 0
133 152 0
140 158 0
144 163 0
145 162 0
149 166 0
146 163 0
151 171 0
137 156 0
142 161 0
149 169 0
148 165 0
150 168 0
153 169 0
155 174 0
141 159 0
141 159 0
157 176 0
145 162 0
152 171 0
139 157 0
157 176 0
152 173 0
147 164 0
149 167 0
153 172 0
154 171 0
154 172 0
152 171 0
150 166 0
157 177 0
146 163 0
147 166 0
155 175 0
148 167 0
148 168 0
154 173 0
148 165 0
153 171 0
161 181 0
157 175 0
153 171 0
152 171 0
158 176 0
146 163 0
158 176 0
161 180 0
152 173 0
152 169 0
157 175 0
157 175 0
155 171 0
150 168 0
157 175 0
162 182 0
152 171 0
158 176 0
154 172 0
154 172 0
160 179 0
162 179 0
156 175 0
160 181 0
163 184 0
155 174 0
159 180 0
159 179 0
165 185 0
161 181 0
160 179 0
163 184 0
156 174 0
160 180 0
161 179 0
164 183 0
161 180 0
159 178 0
159 177 0
162 183 0
161 181 0
164 181 0
160 179 0
161 182 0
161 180 0
160 178 0
165 185 0
164 184 0
164 186 0
162 180 0
164 183 0
166 187 0
163 183 0
162 182 0
161 182 0
164 185 0
161 179 0
164 182 0
165 187 0
162 181 0
166 186 0
162 183 0
167 187 0
167 188 0
167 187 0
169 190 0
163 182 0
157 177 0
164 186 0
163 183 0
162 184 0
163 183 0
169 190 0
164 186 0
171 194 67
173 197 67
174 198 72
165 190 72
169 192 72
169 194 62
171 195 99
170 194 76
171 194 62
172 197 67
169 193 80
167 190 57
169 193 102
171 195 92
170 194 88
170 193 84
171 194 88
171 195 76
167 190 92
170 193 88
170 192 88
171 193 105
169 193 88
168 191 105
172 195 95
171 193 105
171 194 102
172 196 120
170 193 84
168 191 84
168 192 88
170 193 99
169 193 76
166 189 92
174 197 117
169 192 99
172 195 120
170 192 92
161 185 114
170 193 102
172 197 105
163 187 72
164 188 88
169 192 88
169 193 125
171 194 102
174 197 120
163 186 88
169 192 102
161 183 88
160 183 84
164 187 92
167 189 92
161 184 105
170 193 111
168 191 92
166 188 105
159 183 100
159 181 100
157 181 80
166 188 102
162 185 84
159 182 105
150 173 76
167 189 108
167 190 117
160 182 76
162 185 84
163 185 80
159 182 95
165 187 102
162 184 99
153 175 92
162 185 99
157 180 105
148 169 72
156 178 62
153 175 95
153 175 111
162 183 84
160 181 102
158 179 117
145 166 92
152 173 76
158 179 105
141 163 76
151 173 92
156 176 114
158 179 114
148 169 102
142 163 72
139 159 67
141 161 76
150 170 92
149 169 92
138 159 88
148 168 67
135 153 84
132 152 80
137 157 62
136 155 67
123 140 76
135 154 88
128 147 62
110 130 90
96 119 116
90 115 108
88 113 101
88 114 102
87 113 103
97 120 103
87 111 110
107 129 126
80 108 103
95 120 111
91 117 107
82 109 106
93 118 118
90 115 119
97 122 129
92 117 115
98 123 129
109 133 131
99 125 118
105 129 107
90 117 118
101 126 110
85 111 100
89 116 120
128 139 96
136 144 64
120 118 62
121 130 71
82 111 133
69 101 131
74 104 113
76 107 127
85 114 125
68 100 133
74 105 107
72 102 105
73 103 111
65 95 117
69 96 99
77 101 110
58 91 108
61 93 100
60 92 99
59 93 105
60 90 95
99 122 70
87 112 82
55 87 100
53 85 95
57 90 97
58 92 114
57 91 105
55 87 92
56 89 105
55 87 94
57 90 100
57 90 97
57 91 107
55 88 92
54 87 95
56 89 107
55 88 97
56 89 108
55 87 92
58 92 114
56 88 95
55 88 95
55 87 94
56 88 97
56 89 103
57 90 94
59 93 114
57 91 103
57 91 110
54 85 94
56 90 100
58 91 105
56 89 100
56 89 114
58 92 117
56 88 94
57 90 107
54 86 82
56 89 114
56 88 92
58 91 107
55 88 107
57 90 108
57 90 111
56 89 99
57 90 102
56 89 100
55 87 105
54 86 90
56 89 99
56 89 94
55 88 99
55 87 105
56 88 97
54 86 82
56 89 110
55 87 86
55 87 95
53 84 92
55 87 100
54 85 105
54 86 86
53 85 86
62 87 67
84 101 31
89 105 0
91 106 0
104 118 0
105 120 0
91 106 0
85 100 0
100 115 0
99 114 0
116 132 0
115 131 0
111 127 0
121 137 0
122 137 0
125 140 0
104 121 0
116 131 0
113 128 0
113 130 0
107 123 0
122 138 0
131 149 0
123 140 0
112 126 0
122 139 0
117 134 0
119 136 0
123 140 0
129 146 0
130 149 0
130 148 0
126 145 0
123 140 0
127 145 0
115 132 0
122 138 0
123 139 0
122 139 0
133 150 0
144 162 0
137 154 0
138 156 0
126 143 0
136 154 0
126 142 0
130 148 0
134 153 0
127 144 0
131 150 0
135 154 0
148 166 0
141 158 0
134 152 0
142 160 0
145 164 0
141 160 0
140 160 0
139 158 0
130 147 0
140 157 0
135 153 0
143 160 0
136 154 0
142 161 0
143 160 0
132 150 0
142 161 0
140 160 0
143 162 0
144 163 0
145 163 0
147 165 0
150 169 0
144 163 0
154 172 0
146 165 0
138 157 0
146 164 0
143 162 0
140 156 0
144 163 0
154 176 0
141 159 0
152 172 0
148 168 0
148 166 0
150 168 0
149 169 0
153 171 0
154 173 0
150 166 0
150 169 0
145 162 0
154 174 0
150 168 0
150 169 0
150 169 0
152 169 0
148 164 0
144 163 0
150 165 0
157 177 0
150 168 0
150 170 0
154 173 0
154 173 0
156 173 0
157 176 0
156 175 0
153 172 0
151 171 0
152 171 0
157 175 0
158 178 0
158 176 0
148 167 0
157 176 0
153 171 0
162 181 0
157 175 0
152 171 0
156 175 0
153 168 0
164 183 0
159 176 0
157 176 0
158 179 0
156 173 0
156 174 0
156 173 0
151 170 0
155 175 0
158 178 0
159 179 0
154 174 0
161 181 0
160 179 0
158 176 0
164 184 0
154 172 0
154 174 0
161 179 0
159 178 0
158 177 0
157 177 0
157 176 0
159 177 0
159 178 0
159 179 0
160 180 0
154 173 0
157 176 0
158 178 0
159 179 0
165 186 0
157 177 0
163 183 0
162 181 0
164 184 0
165 184 0
168 188 0
164 183 0
165 184 0
168 186 0
163 183 0
163 183 0
167 188 0
166 185 0
159 179 0
162 182 0
166 188 0
165 186 0
166 186 0
165 186 0
168 188 0
167 187 0
160 179 0
168 189 0
167 187 0
168 188 0
164 182 0
163 183 0
168 188 0
165 187 0
167 188 0
164 184 0
171 195 67
170 194 80
168 192 76
169 192 67
173 196 57
170 195 76
170 193 57
173 196 88
168 193 67
175 196 95
170 193 67
170 194 92
169 194 72
167 191 84
171 196 88
166 190 80
169 193 88
173 197 114
171 195 95
171 193 95
169 193 95
167 190 84
173 196 99
169 192 80
169 192 76
173 196 95
174 198 99
163 188 99
165 189 95
171 195 108
164 188 80
171 193 95
174 196 122
167 191 95
168 191 88
170 194 95
168 192 92
170 194 111
167 191 108
167 191 88
164 187 105
165 189 88
165 189 99
166 189 102
165 188 84
170 194 122
162 186 95
162 185 95
165 189 92
167 190 95
166 189 92
165 188 95
157 182 67
170 194 88
167 189 95
169 191 120
156 180 102
164 187 105
164 187 88
167 189 105
167 191 122
155 178 67
166 189 95
163 186 107
163 186 105
159 182 105
169 191 114
160 182 84
157 179 95
158 180 111
158 181 99
169 192 114
173 195 135
162 185 88
154 177 99
155 178 92
153 175 105
156 178 99
147 169 88
155 177 76
155 176 95
154 175 88
150 172 92
156 177 114
146 166 84
154 174 108
157 178 92
152 172 111
150 170 108
138 158 92
151 171 95
148 168 99
136 155 86
141 160 72
144 164 95
138 158 74
139 159 88
151 171 92
134 153 80
126 145 62
134 153 57
130 148 76
131 149 67
128 146 88
124 141 80
103 124 78
91 114 110
90 114 105
98 120 114
84 108 84
90 116 109
99 122 108
94 117 120
97 122 111
101 124 122
94 117 122
90 114 117
99 122 113
92 117 117
87 113 115
96 120 113
98 122 127
89 116 111
102 128 131
99 125 114
103 128 118
104 128 110
95 121 114
94 120 127
106 130 108
171 189 62
164 178 70
148 158 51
122 134 70
75 106 115
77 107 120
71 102 110
71 102 121
73 104 122
78 106 101
82 109 100
65 96 111
70 99 113
62 91 113
68 96 101
72 98 97
63 95 111
58 92 113
68 99 108
56 89 100
87 111 74
95 118 80
64 95 100
55 88 98
54 87 94
56 89 100
57 90 107
55 88 103
55 87 88
56 89 97
55 88 100
57 90 100
57 91 110
55 88 103
56 88 102
55 88 94
56 88 102
54 87 94
56 89 107
56 89 94
56 90 99
56 89 103
56 88 108
57 90 113
55 87 91
56 89 88
57 90 103
56 89 113
57 90 99
56 89 102
56 89 118
58 92 105
57 90 100
57 90 100
56 89 97
56 89 100
57 90 95
54 87 99
55 88 100
57 90 103
56 88 92
58 92 115
59 92 120
56 89 105
55 88 103
56 88 100
55 87 94
55 87 90
58 91 102
55 88 84
57 90 103
56 89 108
56 88 95
53 84 97
54 86 88
53 84 97
54 85 86
54 87 95
52 84 78
51 82 82
54 86 94
69 92 67
107 122 18
100 113 0
95 109 0
91 106 0
98 113 0
104 120 0
104 120 0
91 108 0
113 130 0
94 110 0
102 118 0
100 115 0
111 127 0
109 125 0
122 138 0
108 126 0
112 128 0
108 124 0
122 138 0
119 135 0
121 139 0
104 122 0
112 128 0
121 138 0
116 133 0
103 121 0
112 129 0
125 142 0
121 138 0
119 136 0
128 144 0
120 139 0
125 144 0
122 140 0
131 149 0
129 146 0
136 155 0
135 153 0
123 140 0
120 137 0
130 148 0
129 147 0
138 154 0
133 151 0
136 152 0
135 153 0
138 158 0
136 155 0
129 145 0
137 155 0
125 143 0
126 145 0
135 152 0
138 155 0
134 151 0
135 154 0
140 158 0
139 158 0
130 149 0
148 168 0
135 152 0
134 153 0
132 150 0
145 166 0
137 157 0
139 158 0
141 161 0
145 165 0
146 165 0
135 153 0
152 172 0
145 163 0
139 156 0
142 161 0
149 167 0
144 163 0
136 154 0
144 162 0
147 164 0
149 169 0
137 154 0
143 163 0
146 164 0
143 161 0
145 163 0
152 170 0
142 160 0
143 162 0
149 168 0
153 173 0
152 170 0
155 175 0
153 172 0
151 170 0
154 171 0
145 165 0
155 174 0
152 171 0
149 166 0
147 166 0
156 175 0
152 170 0
144 162 0
153 174 0
151 170 0
149 168 0
155 174 0
152 172 0
159 180 0
152 170 0
156 175 0
163 183 0
153 172 0
147 166 0
146 163 0
149 167 0
155 172 0
155 176 0
150 170 0
161 180 0
158 176 0
158 176 0
156 176 0
154 171 0
155 174 0
153 172 0
156 173 0
157 175 0
154 173 0
161 180 0
152 170 0
154 172 0
163 179 0
157 177 0
155 175 0
156 172 0
161 179 0
159 180 0
153 171 0
154 173 0
162 182 0
163 182 0
160 180 0
159 180 0
158 178 0
162 183 0
160 180 0
160 180 0
160 181 0
161 180 0
159 178 0
163 183 0
162 183 0
162 181 0
164 183 0
163 183 0
165 184 0
164 184 0
162 181 0
159 177 0
152 171 0
157 178 0
162 184 0
159 178 0
157 177 0
167 188 0
160 179 0
161 180 0
163 184 0
165 183 0
163 184 0
164 184 0
164 185 0
165 186 0
160 180 0
165 185 0
170 191 0
167 187 0
168 189 0
162 181 0
162 182 0
159 181 0
166 187 0
159 179 0
164 185 0
164 185 0
169 190 0
166 186 0
172 196 72
168 192 95
170 193 72
169 193 67
163 187 76
169 194 80
171 194 72
176 199 95
174 197 102
170 193 88
168 191 57
173 197 76
168 192 80
171 195 80
172 195 88
171 194 95
165 188 114
170 193 95
169 193 76
177 199 102
171 195 84
172 196 111
170 193 111
172 194 105
166 189 99
166 189 92
171 194 95
173 196 105
170 192 102
173 196 117
172 196 95
170 193 84
167 191 76
167 190 62
169 192 99
171 194 111
167 191 84
164 186 88
163 186 92
168 192 102
170 193 92
167 189 105
176 200 108
168 191 99
172 194 105
166 189 84
163 186 92
169 192 99
166 190 88
162 185 99
163 186 88
166 189 107
167 191 107
160 183 97
163 186 94
167 190 102
163 187 95
157 180 95
160 183 92
166 189 100
161 184 88
168 191 105
161 184 92
164 186 99
158 181 80
159 181 108
163 186 86
161 184 127
163 185 102
158 180 92
150 172 88
158 179 99
150 173 88
158 181 111
158 178 111
156 178 92
155 176 95
159 181 105
158 179 111
154 176 105
149 172 67
150 172 92
157 179 95
156 176 95
149 171 76
154 174 108
155 176 111
156 176 111
154 175 99
151 173 95
142 163 72
144 163 105
151 171 95
151 171 99
145 164 102
142 163 102
146 167 80
142 160 67
141 160 72
131 150 80
123 143 57
131 149 76
130 149 80
146 165 105
134 152 88
129 146 76
110 128 99
72 96 76
85 110 100
89 113 113
98 121 113
79 106 78
94 118 111
90 115 107
88 112 111
94 118 122
106 128 122
102 126 134
91 117 126
97 122 115
95 120 122
105 129 126
108 133 126
95 120 103
90 115 100
100 125 116
95 120 110
87 113 124
103 128 103
109 133 121
163 181 72
162 178 65
159 171 40
137 144 18
94 114 99
76 106 126
70 101 105
73 103 114
72 102 107
66 98 121
68 98 109
66 97 108
76 103 113
71 99 111
78 104 114
81 106 102
64 94 97
66 96 88
58 90 105
54 86 89
91 114 70
95 117 78
70 98 74
55 87 90
55 88 92
56 88 100
56 88 92
54 86 93
55 87 99
58 91 95
55 87 97
53 86 90
55 88 100
55 87 95
56 89 92
55 88 92
54 86 83
56 89 95
55 87 78
57 90 102
55 88 102
55 88 95
55 87 97
56 89 107
57 89 107
55 87 95
58 92 99
57 90 110
56 89 103
55 88 94
57 90 105
55 88 97
55 87 100
57 89 111
56 89 99
56 89 107
55 88 100
57 90 103
54 86 90
55 87 94
56 88 102
57 90 113
55 88 95
55 88 100
55 87 88
56 88 82
53 84 97
56 89 111
56 88 100
54 86 92
54 87 92
53 85 95
54 85 95
54 86 92
51 82 94
53 85 94
51 82 82
53 83 86
60 90 103
72 92 72
87 101 31
80 94 0
88 103 0
97 113 0
102 119 0
111 127 0
102 117 0
87 102 0
95 111 0
109 124 0
111 127 0
98 113 0
111 127 0
103 117 0
109 126 0
105 122 0
116 132 0
107 123 0
107 124 0
122 138 0
113 130 0
112 128 0
110 127 0
112 130 0
117 135 0
118 137 0
118 137 0
117 133 0
120 136 0
128 146 0
119 135 0
136 152 0
120 137 0
109 126 0
122 141 0
123 141 0
132 149 0
130 145 0
125 143 0
127 143 0
134 152 0
131 149 0
131 149 0
140 158 0
139 158 0
125 142 0
126 143 0
125 143 0
138 155 0
136 154 0
136 153 0
137 157 0
139 159 0
135 152 0
135 152 0
130 148 0
139 156 0
140 159 0
141 161 0
142 161 0
132 150 0
140 158 0
142 160 0
141 160 0
141 161 0
142 158 0
139 159 0
146 164 0
137 154 0
154 172 0
142 163 0
141 159 0
143 163 0
153 172 0
144 162 0
143 162 0
144 164 0
145 164 0
146 165 0
147 165 0
147 168 0
140 158 0
146 166 0
157 177 0
148 167 0
155 175 0
143 163 0
144 163 0
143 161 0
144 160 0
145 163 0
152 171 0
150 169 0
152 172 0
152 171 0
151 171 0
156 174 0
148 165 0
152 171 0
148 166 0
154 172 0
154 173 0
154 174 0
147 167 0
149 169 0
155 173 0
152 169 0
156 175 0
149 168 0
152 170 0
148 165 0
153 172 0
144 162 0
153 172 0
159 178 0
156 175 0
159 177 0
155 175 0
150 169 0
154 174 0
150 166 0
152 170 0
149 169 0
155 173 0
151 169 0
154 174 0
155 174 0
160 180 0
155 174 0
155 174 0
155 175 0
154 174 0
151 167 0
162 182 0
158 176 0
161 178 0
156 175 0
157 177 0
155 175 0
155 176 0
159 178 0
160 179 0
161 181 0
159 179 0
155 173 0
165 184 0
158 177 0
159 177 0
163 183 0
158 176 0
165 185 0
159 177 0
160 179 0
155 174 0
160 181 0
156 175 0
158 178 0
158 176 0
160 181 0
165 185 0
160 181 0
167 187 0
161 181 0
161 180 0
160 179 0
161 183 0
164 184 0
158 178 0
165 186 0
164 185 0
162 182 0
160 180 0
162 183 0
164 185 0
162 184 0
166 186 0
158 178 0
162 182 0
167 187 0
163 184 0
166 185 0
164 185 0
162 183 0
170 191 0
164 185 0
169 190 0
165 186 0
165 187 0
167 189 0
168 189 0
167 191 62
172 196 92
171 195 62
169 193 72
175 199 88
172 195 72
172 194 67
176 199 84
170 194 92
174 198 99
166 189 67
172 195 72
175 199 99
174 197 105
169 192 72
174 197 114
168 192 99
174 197 99
172 195 92
168 191 76
169 193 92
167 190 88
173 196 92
166 190 76
170 193 95
172 195 84
166 189 84
176 199 95
171 194 99
166 190 102
175 198 95
169 193 99
169 193 84
166 189 99
167 191 84
168 191 105
168 192 76
160 183 102
170 194 105
169 192 88
166 189 84
172 195 105
165 189 88
170 193 95
168 191 84
170 192 92
169 192 102
167 191 92
170 193 105
168 191 102
165 188 92
170 192 102
157 181 76
166 189 103
165 188 92
158 181 92
158 182 80
165 187 80
167 190 99
162 184 92
154 178 76
161 183 108
166 189 80
153 176 62
157 180 99
167 190 92
161 184 95
160 183 88
168 190 105
153 176 92
166 189 117
166 189 111
153 175 88
162 184 95
155 178 105
161 183 84
160 181 99
162 184 105
161 182 111
158 180 92
153 175 99
153 173 95
156 176 114
152 174 95
154 175 95
142 162 99
142 164 95
156 177 102
156 176 120
145 166 105
147 167 92
144 165 88
145 165 99
152 172 108
143 163 72
132 151 92
137 156 92
126 145 80
136 155 62
133 152 80
148 168 95
139 158 76
132 150 72
122 139 67
136 154 76
137 154 72
129 145 80
114 133 78
80 103 97
90 113 104
89 111 95
94 118 111
84 109 95
82 109 103
98 122 120
79 105 108
98 121 122
99 124 108
81 107 103
98 122 126
96 121 113
99 124 120
96 121 113
98 122 115
97 122 120
103 126 96
109 133 122
104 127 100
104 128 117
98 123 124
154 173 76
163 179 51
155 165 0
140 145 25
125 131 25
96 119 95
70 100 117
66 97 114
73 103 117
79 108 114
74 102 103
71 101 97
70 99 111
79 104 88
83 109 94
81 104 84
75 104 100
58 90 94
57 89 86
63 92 94
93 115 82
106 129 80
89 115 90
54 86 90
54 87 82
54 85 97
54 87 85
54 86 97
55 87 88
54 86 88
55 87 92
55 88 81
56 89 107
56 89 99
54 87 80
55 88 92
53 84 95
57 90 107
54 85 92
55 88 99
55 87 78
54 86 99
54 86 94
55 87 97
54 87 92
55 87 88
57 90 99
54 86 86
56 89 103
56 90 97
56 88 97
56 89 97
56 88 99
56 89 97
56 88 102
56 89 94
56 88 102
55 88 105
57 89 108
55 87 100
55 87 88
56 88 100
54 87 88
54 86 80
56 88 99
56 89 102
54 86 95
57 90 108
55 87 97
54 85 84
53 85 82
53 85 86
53 84 88
55 87 92
52 83 84
50 80 86
59 84 65
85 103 51
111 127 18
100 114 0
89 104 0
85 99 0
86 100 0
102 116 0
102 117 0
92 106 0
104 120 0
97 113 0
104 119 0
108 124 0
100 116 0
108 125 0
110 127 0
116 132 0
108 125 0
112 128 0
105 121 0
111 127 0
115 132 0
119 136 0
106 123 0
117 131 0
117 134 0
115 132 0
118 135 0
115 133 0
123 140 0
118 135 0
120 137 0
114 131 0
121 138 0
130 147 0
125 141 0
117 134 0
128 146 0
117 132 0
121 140 0
120 138 0
131 149 0
132 150 0
132 151 0
132 151 0
126 143 0
137 155 0
134 151 0
130 147 0
128 147 0
138 158 0
125 142 0
126 146 0
134 152 0
124 143 0
136 156 0
130 148 0
127 143 0
124 144 0
145 163 0
137 155 0
133 151 0
146 164 0
144 162 0
136 154 0
141 159 0
136 154 0
138 156 0
144 164 0
147 167 0
135 155 0
147 166 0
138 158 0
145 163 0
141 159 0
135 154 0
140 159 0
151 171 0
146 163 0
138 155 0
144 161 0
142 160 0
143 161 0
143 161 0
147 165 0
152 170 0
153 171 0
139 156 0
156 176 0
147 168 0
151 170 0
142 162 0
144 163 0
143 161 0
149 167 0
146 165 0
150 167 0
157 176 0
150 167 0
150 169 0
150 166 0
158 177 0
151 169 0
154 174 0
149 169 0
156 174 0
154 173 0
155 176 0
157 176 0
154 173 0
150 170 0
161 180 0
152 170 0
154 174 0
154 172 0
158 178 0
152 171 0
153 172 0
154 173 0
152 170 0
159 178 0
156 173 0
156 177 0
152 170 0
156 175 0
155 174 0
159 179 0
158 177 0
156 174 0
158 179 0
160 181 0
158 175 0
156 176 0
156 175 0
152 172 0
160 180 0
163 184 0
161 181 0
160 178 0
157 178 0
161 180 0
162 181 0
159 178 0
159 179 0
159 175 0
156 176 0
160 179 0
160 178 0
159 178 0
157 175 0
163 183 0
157 176 0
163 182 0
159 178 0
162 181 0
164 183 0
158 177 0
157 175 0
159 178 0
161 181 0
156 175 0
156 175 0
159 177 0
167 188 0
158 178 0
163 184 0
165 184 0
157 176 0
163 185 0
167 186 0
165 185 0
158 177 0
161 181 0
165 184 0
156 176 0
164 184 0
161 180 0
164 184 0
168 188 0
167 189 0
161 181 0
166 186 0
163 183 0
167 188 0
163 182 0
167 188 0
164 184 0
167 188 0
165 185 0
164 185 0
160 180 0
165 186 0
168 190 0
172 196 67
170 195 88
167 192 76
164 188 72
171 195 88
173 198 84
172 195 92
173 196 80
172 195 84
168 192 62
172 196 95
169 193 92
170 193 72
167 191 95
174 198 105
170 194 88
171 195 88
169 193 102
180 202 130
172 196 92
171 195 84
170 194 105
170 193 95
171 194 105
177 200 117
173 195 102
168 191 102
172 195 92
170 194 111
172 197 102
174 197 105
167 190 99
167 190 72
172 196 95
171 193 102
170 193 114
165 188 80
165 188 57
168 191 102
169 191 102
166 189 80
169 192 108
160 183 80
160 183 92
167 190 92
166 189 99
168 192 80
165 188 95
164 186 99
167 191 108
170 193 102
165 189 103
162 186 111
161 183 74
165 187 117
167 189 99
163 186 114
166 189 88
163 186 105
164 187 111
162 185 99
171 193 117
163 185 102
163 186 84
159 181 100
161 185 99
158 181 100
159 181 72
155 177 92
164 187 108
163 186 102
168 190 114
163 184 92
158 179 102
153 174 88
155 177 95
156 177 80
146 169 80
159 180 95
157 179 92
160 181 114
152 174 92
142 162 108
149 170 62
147 168 84
150 172 99
156 177 99
156 176 114
147 166 84
143 163 95
146 167 99
162 182 111
156 175 111
159 178 125
145 164 92
142 161 88
133 152 76
136 155 99
143 163 76
132 150 80
131 148 92
134 153 99
140 158 92
124 142 62
127 145 51
122 140 76
125 143 76
121 138 76
116 134 65
91 114 92
80 104 84
86 111 96
91 115 105
102 125 107
86 111 103
100 123 120
87 113 110
87 111 99
95 119 108
94 119 125
85 111 106
91 116 122
90 117 103
96 122 119
93 120 113
96 121 97
100 126 114
88 115 108
93 119 121
91 117 105
132 152 90
170 185 78
156 168 25
143 150 0
143 152 25
127 138 44
73 102 95
72 102 97
73 103 111
68 99 105
70 99 100
73 102 120
75 102 115
74 100 100
88 113 99
84 107 87
73 98 78
75 100 90
60 90 92
60 91 84
89 110 67
100 123 70
78 104 72
54 86 88
52 82 74
57 89 103
54 86 95
55 87 80
55 88 94
55 87 107
53 84 82
55 87 86
55 88 99
55 87 90
54 85 90
55 88 82
55 87 95
58 91 113
55 87 100
55 87 97
55 87 99
54 86 92
55 87 95
55 88 94
53 85 84
57 90 108
56 89 105
54 86 100
56 89 107
52 84 78
56 89 105
55 88 105
55 87 95
54 86 90
56 89 100
53 85 86
56 89 88
52 83 84
56 88 108
55 88 107
56 88 95
57 90 108
54 86 90
54 86 82
53 84 90
54 86 88
55 87 99
54 86 74
52 83 84
56 89 102
52 83 78
53 84 86
52 82 82
48 75 72
75 95 57
91 106 25
96 111 0
83 97 0
94 110 0
96 111 0
89 103 0
74 88 0
108 124 0
93 108 0
99 114 0
104 120 0
100 115 0
108 123 0
103 118 0
109 124 0
101 117 0
106 123 0
107 123 0
111 125 0
114 132 0
108 125 0
108 125 0
96 113 0
113 132 0
120 136 0
99 115 0
128 143 0
109 127 0
117 133 0
114 130 0
121 138 0
133 151 0
115 131 0
121 138 0
123 141 0
115 133 0
135 154 0
128 146 0
118 138 0
119 137 0
126 145 0
127 145 0
128 146 0
130 147 0
127 146 0
127 145 0
135 153 0
135 153 0
127 145 0
137 157 0
138 155 0
129 147 0
131 148 0
132 151 0
122 139 0
136 153 0
135 152 0
137 155 0
135 153 0
137 156 0
136 155 0
137 156 0
143 163 0
133 153 0
139 158 0
131 151 0
143 162 0
143 161 0
142 161 0
139 159 0
138 157 0
139 159 0
142 161 0
144 162 0
145 164 0
132 152 0
145 163 0
145 163 0
142 160 0
146 165 0
147 166 0
147 168 0
149 170 0
139 158 0
151 170 0
149 168 0
145 164 0
150 171 0
148 168 0
149 168 0
158 178 0
147 166 0
147 165 0
152 171 0
152 170 0
148 167 0
154 175 0
146 166 0
144 162 0
147 164 0
145 162 0
149 166 0
145 164 0
154 176 0
151 170 0
153 171 0
150 166 0
152 172 0
153 173 0
148 167 0
153 172 0
155 175 0
157 177 0
156 176 0
156 177 0
156 175 0
156 175 0
153 173 0
157 175 0
151 170 0
156 176 0
155 175 0
154 172 0
156 176 0
159 179 0
155 175 0
157 176 0
153 172 0
155 174 0
161 181 0
166 183 0
159 179 0
156 174 0
160 178 0
161 182 0
161 182 0
160 180 0
165 186 0
157 174 0
158 178 0
163 183 0
164 184 0
159 178 0
163 182 0
162 181 0
163 184 0
162 181 0
157 177 0
157 176 0
162 181 0
159 178 0
163 184 0
163 183 0
160 180 0
157 176 0
163 185 0
162 183 0
161 181 0
157 176 0
164 185 0
163 183 0
164 185 0
160 182 0
160 180 0
160 181 0
164 184 0
164 186 0
153 172 0
162 181 0
162 184 0
158 178 0
166 188 0
160 178 0
160 180 0
167 187 0
159 181 0
162 183 0
162 182 0
162 183 0
168 189 0
164 184 0
165 186 0
163 182 0
163 185 0
160 181 0
168 189 0
164 185 0
159 179 0
163 185 0
161 182 0
159 180 0
166 186 0
158 179 0
167 188 0
163 184 0
171 194 76
170 193 76
173 196 72
171 195 72
171 195 84
168 192 84
170 194 92
165 189 80
171 195 102
173 196 84
169 192 95
171 194 92
175 198 88
177 200 92
172 196 95
171 194 117
172 195 102
175 198 95
171 193 80
174 198 120
172 196 95
171 195 105
174 197 111
172 195 99
166 189 105
172 196 111
168 191 95
171 195 108
174 197 108
174 197 111
164 189 88
173 196 114
162 186 92
169 193 95
167 191 111
167 191 108
167 191 105
170 194 108
169 192 102
174 198 127
168 191 99
166 189 95
165 188 84
158 181 76
165 188 88
165 188 76
164 187 80
172 195 111
164 187 80
164 187 108
160 183 94
162 184 100
165 187 95
159 183 67
153 177 86
164 187 97
161 184 97
152 175 86
155 178 102
156 179 97
166 189 108
159 182 94
161 183 88
157 181 80
163 186 95
162 185 95
164 186 80
155 179 84
159 181 86
162 184 108
162 185 102
163 186 99
153 175 80
163 186 99
163 184 108
154 175 67
167 189 92
151 173 95
154 174 95
151 172 105
149 171 62
160 181 114
157 179 105
146 167 72
155 176 92
154 175 102
156 178 105
153 173 92
151 171 102
151 171 105
137 157 88
143 163 88
148 168 105
145 165 102
143 162 102
143 164 80
150 169 99
138 157 84
146 165 102
141 161 92
127 146 67
138 155 102
136 155 76
125 144 84
119 137 57
134 151 62
120 138 67
122 139 80
129 146 80
100 117 70
107 128 105
90 112 88
98 119 99
97 120 117
100 122 124
92 116 110
95 118 115
92 118 120
85 111 108
96 120 120
99 123 117
108 130 121
101 126 114
100 124 120
102 127 111
93 119 105
105 129 129
93 118 108
93 117 108
107 131 125
119 140 107
157 172 51
152 166 18
143 153 18
141 150 18
134 146 0
123 139 51
76 103 103
70 100 111
75 105 102
74 101 102
75 103 102
80 107 103
73 98 99
75 102 99
77 101 86
84 106 86
69 94 78
66 95 90
61 92 95
93 113 67
94 117 70
90 114 72
53 84 83
52 82 74
54 86 70
55 87 84
55 87 88
54 86 90
55 87 97
52 84 90
55 88 86
56 88 82
52 84 90
57 90 95
53 85 80
53 85 82
55 87 95
56 88 92
53 85 82
53 85 92
53 85 92
54 86 84
54 86 86
54 86 88
54 86 92
55 88 99
56 89 103
55 88 99
52 84 74
55 87 92
55 87 94
56 89 110
54 86 80
54 86 86
55 88 100
54 86 102
53 84 82
52 83 94
53 84 88
53 85 86
52 83 80
53 84 100
54 85 94
54 85 103
53 84 86
52 83 92
51 81 76
50 81 74
49 79 76
61 87 62
62 81 54
85 101 36
85 100 0
93 106 0
104 119 0
79 94 0
102 118 0
98 114 0
91 108 0
102 118 0
95 111 0
95 110 0
102 118 0
115 131 0
118 135 0
107 121 0
94 110 0
122 138 0
106 123 0
101 116 0
107 123 0
101 116 0
116 132 0
118 135 0
111 127 0
114 130 0
102 118 0
115 128 0
121 139 0
124 141 0
124 141 0
121 138 0
116 134 0
113 130 0
116 134 0
123 140 0
122 139 0
120 137 0
119 137 0
123 141 0
121 139 0
134 153 0
125 141 0
125 144 0
130 147 0
126 143 0
135 152 0
129 147 0
135 152 0
129 145 0
136 153 0
127 146 0
131 149 0
142 159 0
141 160 0
131 149 0
136 154 0
136 154 0
140 158 0
138 157 0
135 154 0
129 147 0
135 154 0
134 152 0
139 159 0
139 158 0
133 150 0
138 157 0
138 154 0
139 156 0
133 150 0
135 153 0
138 158 0
136 156 0
144 165 0
141 161 0
146 166 0
150 171 0
148 167 0
147 167 0
142 159 0
145 164 0
143 162 0
143 161 0
143 161 0
152 171 0
146 165 0
149 169 0
143 161 0
149 169 0
152 172 0
142 161 0
148 165 0
142 160 0
155 175 0
143 162 0
149 168 0
148 167 0
149 167 0
150 169 0
151 170 0
155 175 0
143 161 0
145 166 0
143 161 0
152 172 0
159 179 0
148 164 0
149 167 0
152 172 0
155 173 0
154 174 0
151 171 0
154 174 0
154 173 0
152 171 0
146 164 0
152 172 0
155 174 0
150 169 0
152 170 0
153 170 0
153 174 0
162 181 0
162 181 0
157 177 0
156 176 0
146 165 0
158 177 0
153 169 0
153 171 0
150 168 0
155 173 0
155 175 0
158 177 0
156 173 0
160 179 0
157 174 0
163 182 0
164 183 0
157 175 0
160 182 0
151 170 0
158 178 0
154 173 0
166 187 0
157 177 0
157 176 0
159 177 0
160 180 0
165 185 0
161 182 0
161 181 0
161 179 0
161 181 0
159 179 0
161 180 0
162 181 0
160 179 0
163 183 0
157 177 0
159 178 0
161 181 0
159 178 0
164 185 0
158 178 0
163 183 0
159 178 0
163 182 0
158 177 0
162 181 0
159 178 0
160 181 0
162 183 0
159 180 0
164 185 0
166 186 0
159 179 0
166 185 0
164 185 0
166 186 0
164 184 0
165 186 0
160 182 0
166 186 0
164 183 0
161 180 0
161 181 0
168 189 0
165 186 0
165 187 0
166 186 0
166 187 0
163 183 0
164 185 0
165 186 0
162 181 0
163 184 0
169 191 0
169 194 80
170 193 88
171 194 67
170 193 76
173 196 84
171 195 88
174 197 105
168 192 84
174 196 102
173 195 92
177 199 117
175 198 105
169 193 99
171 194 95
172 195 102
171 195 99
177 200 114
175 199 95
170 193 84
171 195 95
169 193 84
170 193 95
170 193 88
171 194 80
174 197 117
176 199 117
172 195 72
170 193 95
170 194 99
168 192 108
172 196 105
163 187 99
162 186 84
169 193 108
171 194 80
163 187 105
167 191 95
167 190 102
171 195 111
164 187 92
170 193 105
165 187 102
167 191 102
167 190 84
169 192 95
161 185 99
168 192 111
165 188 111
163 185 92
165 187 95
160 184 94
163 185 84
157 181 94
166 189 95
162 185 90
167 191 108
169 192 82
162 184 108
164 188 108
166 190 105
162 185 102
160 184 88
159 182 107
166 189 121
161 184 92
158 180 70
160 183 88
161 184 76
164 187 103
159 181 120
163 185 114
160 182 84
161 183 111
162 185 72
157 179 111
149 171 88
159 181 108
153 174 92
157 179 108
151 174 95
156 178 102
160 182 99
160 181 95
151 172 84
158 179 108
153 175 108
156 177 105
148 168 80
153 174 88
145 165 114
151 172 95
153 173 99
148 168 108
141 161 80
142 161 99
136 154 84
139 158 76
145 165 72
135 154 76
135 154 88
138 157 92
117 135 57
132 151 92
141 159 88
144 163 72
120 137 80
130 147 62
132 150 72
117 134 62
120 137 72
114 129 84
92 114 94
93 116 105
87 111 88
92 116 102
99 122 117
87 111 99
91 115 102
105 127 129
97 121 122
93 117 113
89 115 120
95 119 102
104 128 102
109 134 115
97 121 110
101 126 100
97 121 114
90 115 120
83 109 103
107 130 86
163 177 18
156 169 0
148 161 31
140 152 25
135 146 25
145 159 0
109 129 74
74 104 118
71 102 113
75 105 105
66 95 97
81 107 103
81 106 99
71 99 99
67 95 84
80 105 89
85 112 78
62 90 74
55 85 90
81 100 47
98 120 65
92 115 65
56 86 80
50 81 73
51 82 82
52 83 74
54 85 84
50 81 67
53 84 84
55 88 94
54 86 94
52 83 72
54 85 76
55 87 84
53 84 80
53 85 74
55 87 99
51 82 76
54 86 84
53 85 80
54 85 89
53 84 92
52 83 72
52 83 82
53 85 82
53 84 88
54 86 95
53 85 99
54 86 90
51 82 90
56 88 102
54 86 88
55 87 105
53 85 94
53 85 82
51 82 80
52 83 76
55 87 90
54 85 92
54 86 82
53 84 82
49 80 70
52 83 92
50 81 70
51 81 88
58 87 72
70 95 84
79 97 40
92 109 0
86 101 0
94 108 0
91 106 0
89 105 0
86 100 0
98 115 0
92 107 0
99 115 0
93 109 0
95 110 0
103 118 0
103 118 0
104 120 0
95 110 0
95 112 0
106 123 0
90 105 0
110 126 0
105 122 0
106 122 0
98 114 0
99 115 0
108 125 0
107 123 0
111 127 0
127 143 0
116 133 0
112 128 0
120 139 0
116 134 0
121 139 0
114 130 0
114 133 0
118 135 0
127 145 0
111 128 0
128 145 0
131 149 0
115 131 0
122 138 0
125 144 0
115 132 0
115 130 0
132 150 0
117 133 0
122 139 0
131 149 0
136 152 0
128 147 0
135 153 0
134 153 0
126 144 0
136 156 0
129 146 0
129 148 0
136 154 0
142 158 0
135 154 0
127 145 0
134 152 0
135 155 0
137 157 0
133 152 0
133 153 0
142 160 0
140 158 0
134 153 0
140 159 0
144 163 0
140 158 0
138 156 0
139 158 0
142 162 0
138 157 0
146 166 0
138 157 0
133 152 0
145 164 0
145 163 0
139 160 0
148 166 0
140 159 0
143 162 0
147 166 0
144 165 0
144 163 0
144 165 0
144 162 0
146 166 0
139 157 0
152 170 0
152 171 0
149 168 0
144 163 0
147 166 0
146 166 0
150 168 0
141 160 0
149 169 0
144 163 0
147 164 0
151 170 0
150 171 0
145 163 0
153 171 0
154 175 0
150 169 0
149 168 0
160 179 0
148 167 0
154 175 0
151 171 0
150 168 0
155 174 0
156 178 0
151 169 0
153 174 0
153 173 0
158 178 0
153 173 0
151 169 0
161 180 0
149 169 0
145 163 0
155 175 0
163 182 0
153 173 0
159 180 0
153 170 0
160 180 0
159 180 0
155 176 0
160 180 0
161 178 0
159 177 0
154 175 0
157 176 0
154 173 0
154 173 0
154 174 0
157 174 0
162 183 0
152 171 0
158 176 0
158 178 0
155 175 0
160 180 0
157 176 0
162 183 0
156 176 0
163 183 0
163 183 0
159 179 0
155 175 0
156 177 0
160 181 0
160 178 0
162 182 0
155 173 0
152 172 0
161 181 0
161 180 0
163 181 0
164 185 0
161 181 0
162 181 0
166 186 0
167 189 0
158 177 0
156 175 0
163 183 0
164 185 0
162 183 0
163 185 0
159 179 0
168 188 0
160 180 0
168 189 0
162 183 0
163 185 0
163 182 0
159 177 0
164 182 0
165 185 0
160 180 0
162 182 0
168 190 0
166 187 0
167 187 0
165 184 0
168 188 0
170 190 0
166 187 0
166 186 0
166 186 0
169 191 0
166 188 0
167 188 0
167 187 0
167 188 0
168 192 92
170 194 62
173 196 92
173 196 102
168 192 92
171 195 76
175 199 105
172 195 92
174 197 111
170 193 105
175 199 102
175 199 92
171 195 99
169 192 114
172 195 95
168 192 76
166 190 105
170 193 102
171 194 92
175 198 102
170 194 84
172 196 99
172 195 102
174 197 92
172 196 92
169 192 92
176 198 88
168 192 111
168 192 102
168 191 92
162 186 84
169 192 76
170 194 88
170 193 120
175 198 108
166 190 95
167 190 102
170 193 102
167 191 99
161 185 80
169 191 99
165 187 80
168 191 92
172 194 125
163 186 95
168 191 111
166 189 92
166 190 84
165 188 108
163 187 99
159 182 92
163 187 95
165 189 130
162 186 108
164 188 92
169 192 118
163 187 125
157 180 88
160 184 95
166 189 102
163 186 102
156 178 84
167 189 111
158 181 72
161 185 92
164 188 108
158 181 110
163 185 88
163 186 88
160 184 107
155 177 92
162 184 103
152 175 84
154 177 105
167 189 111
158 181 105
161 183 99
148 169 88
153 175 95
150 171 95
150 172 80
147 168 80
157 178 108
144 165 88
164 185 114
155 175 95
151 172 99
154 175 95
152 173 92
141 162 95
146 167 84
153 173 92
151 171 95
145 166 84
139 158 95
148 168 99
140 160 92
139 157 105
134 153 72
133 153 72
142 161 99
144 162 92
139 157 72
133 151 84
132 150 76
129 147 72
132 150 72
116 134 57
120 137 76
122 139 84
117 133 72
102 118 57
108 126 78
96 118 110
94 116 97
86 111 108
92 115 105
104 125 121
105 128 107
108 130 114
97 121 120
97 121 111
100 125 105
100 125 103
101 125 107
101 126 100
97 123 95
96 120 95
95 118 92
102 126 107
111 131 115
150 169 47
152 165 18
146 159 18
148 161 25
139 153 18
136 148 0
140 155 18
103 123 70
68 97 94
71 100 92
74 100 99
72 100 105
68 95 95
74 101 102
84 107 82
76 102 86
95 118 63
75 102 90
63 89 76
77 96 47
90 111 47
96 119 60
84 104 51
86 105 47
55 80 60
53 82 74
48 76 65
52 83 84
51 82 78
51 81 74
51 82 70
53 85 70
52 83 78
53 85 80
55 87 84
53 85 74
53 85 84
52 84 80
53 85 95
52 83 76
52 84 80
53 84 90
52 83 78
53 84 82
52 83 76
52 83 72
51 82 67
52 84 75
55 88 82
52 83 70
52 84 82
50 80 78
52 83 78
52 83 88
50 80 70
53 84 84
53 84 84
54 86 82
50 80 78
50 80 74
52 81 74
47 74 60
75 96 57
77 96 54
91 106 18
89 104 0
101 114 0
100 115 0
89 104 0
96 111 0
82 96 0
98 112 0
100 115 0
95 109 0
101 116 0
95 110 0
92 109 0
99 115 0
98 112 0
103 118 0
109 124 0
102 118 0
104 120 0
94 110 0
111 127 0
101 118 0
113 128 0
105 122 0
108 123 0
103 121 0
108 125 0
113 132 0
111 128 0
110 127 0
118 133 0
111 127 0
125 142 0
113 131 0
121 138 0
114 132 0
123 141 0
127 143 0
115 132 0
120 137 0
109 124 0
117 136 0
126 144 0
134 152 0
120 137 0
129 147 0
131 148 0
123 141 0
122 141 0
126 144 0
128 145 0
129 147 0
125 144 0
122 141 0
130 148 0
137 156 0
132 152 0
144 162 0
130 149 0
139 157 0
135 153 0
141 160 0
143 162 0
130 150 0
133 153 0
140 159 0
133 152 0
134 154 0
143 162 0
135 154 0
138 158 0
139 158 0
135 155 0
137 154 0
139 158 0
133 153 0
141 160 0
146 166 0
141 160 0
144 163 0
144 164 0
140 158 0
139 159 0
142 159 0
146 166 0
151 172 0
149 169 0
144 164 0
147 166 0
145 166 0
149 169 0
142 161 0
149 166 0
156 176 0
150 169 0
151 170 0
144 164 0
141 160 0
153 173 0
149 167 0
152 170 0
147 165 0
143 161 0
149 168 0
145 166 0
147 166 0
150 171 0
155 175 0
150 169 0
157 176 0
152 171 0
152 171 0
160 180 0
153 171 0
153 173 0
149 168 0
150 170 0
157 175 0
147 167 0
152 171 0
159 179 0
152 173 0
157 176 0
145 162 0
151 170 0
163 185 0
156 176 0
148 168 0
156 176 0
154 174 0
157 177 0
155 176 0
155 174 0
163 182 0
157 177 0
148 165 0
162 180 0
156 176 0
156 175 0
158 178 0
159 179 0
159 178 0
153 173 0
158 178 0
161 183 0
156 174 0
161 180 0
162 181 0
158 176 0
162 183 0
156 176 0
163 185 0
158 177 0
155 176 0
159 180 0
158 176 0
160 180 0
157 177 0
158 178 0
155 176 0
159 178 0
160 180 0
160 180 0
158 179 0
159 178 0
162 183 0
160 179 0
153 172 0
157 177 0
163 183 0
163 183 0
160 180 0
162 182 0
160 181 0
155 173 0
161 181 0
163 184 0
160 178 0
160 180 0
164 185 0
166 186 0
162 183 0
164 184 0
160 180 0
166 186 0
162 181 0
167 187 0
160 180 0
161 181 0
161 183 0
166 186 0
162 181 0
164 185 0
164 184 0
167 187 0
161 180 0
167 189 0
168 189 0
169 191 0
167 186 0
167 186 0
161 180 0
165 186 0
163 183 0
168 189 0
173 197 92
169 193 99
169 194 92
171 194 84
173 196 84
174 197 99
171 194 92
173 196 99
171 194 88
170 193 92
170 193 92
175 197 92
173 196 99
170 193 105
170 193 80
172 197 102
174 197 99
168 192 99
174 198 72
170 193 84
169 192 88
176 199 127
173 196 102
176 200 99
172 196 95
168 193 88
169 193 108
169 193 105
169 191 88
170 194 84
167 190 108
170 193 105
170 194 95
167 191 76
168 191 95
166 190 102
173 196 95
165 188 95
168 191 105
164 188 95
165 188 99
167 190 111
170 194 111
168 191 84
159 183 76
166 190 92
165 188 105
171 193 102
167 190 84
160 183 102
166 190 108
165 188 97
167 190 92
164 187 67
162 185 76
161 185 80
159 182 76
164 188 90
159 182 84
165 189 57
164 187 99
162 185 111
157 181 84
161 183 92
162 183 102
158 181 92
161 183 105
159 182 88
161 183 103
162 184 99
157 179 102
171 193 122
150 172 84
159 180 95
156 178 92
155 176 84
163 186 127
152 174 92
155 177 114
157 180 99
162 183 111
160 181 88
158 179 117
155 176 76
162 183 99
160 181 102
151 172 84
142 163 99
143 164 88
162 182 102
148 168 95
140 160 88
149 169 102
148 168 88
151 170 95
145 164 72
154 173 84
153 172 92
149 168 111
135 153 102
132 151 62
138 157 88
128 147 72
134 152 95
132 150 80
139 157 67
122 139 57
119 136 67
128 144 76
109 125 57
121 138 57
113 128 76
111 126 67
117 135 86
84 106 74
88 110 95
92 116 103
95 119 111
105 128 121
102 125 120
86 111 110
93 117 103
99 123 95
103 127 113
87 112 90
97 122 102
100 124 99
105 128 113
107 128 114
97 120 107
104 125 103
144 163 40
154 168 25
147 158 0
151 166 18
140 151 18
140 157 0
139 155 18
135 152 40
79 102 74
73 100 95
79 106 102
76 102 78
77 103 99
70 99 95
77 103 72
76 102 80
79 104 76
68 95 78
88 110 57
95 115 65
93 113 65
92 116 65
83 102 25
81 95 0
98 112 0
89 104 0
83 97 0
83 100 40
84 102 54
74 94 44
61 85 74
54 81 60
51 80 62
49 79 67
51 81 78
50 79 76
51 82 76
50 80 70
51 82 67
51 82 78
54 86 94
49 79 72
51 82 88
52 83 84
51 82 80
51 82 86
52 83 70
52 84 80
52 84 82
51 81 74
48 77 65
51 82 80
47 77 57
53 83 84
48 77 70
57 83 60
55 81 67
61 83 51
70 90 44
71 87 31
95 110 0
90 103 0
76 89 0
92 106 0
87 101 0
98 112 0
93 108 0
97 111 0
87 101 0
102 119 0
108 124 0
83 99 0
75 90 0
112 129 0
98 114 0
97 111 0
96 111 0
99 115 0
104 121 0
100 117 0
114 130 0
101 118 0
111 127 0
105 122 0
96 111 0
121 138 0
107 125 0
100 116 0
110 125 0
102 119 0
118 134 0
98 115 0
107 124 0
120 137 0
113 131 0
117 135 0
128 147 0
110 127 0
113 131 0
123 142 0
124 139 0
122 140 0
122 140 0
120 138 0
113 131 0
116 134 0
126 144 0
115 133 0
132 151 0
131 149 0
133 151 0
131 149 0
129 149 0
130 148 0
124 142 0
134 152 0
133 152 0
138 153 0
132 150 0
138 156 0
126 145 0
127 146 0
127 146 0
130 149 0
143 162 0
139 157 0
131 150 0
134 154 0
131 150 0
138 156 0
141 160 0
139 156 0
135 155 0
135 154 0
138 154 0
140 160 0
133 152 0
130 149 0
140 157 0
140 160 0
145 166 0
140 159 0
135 154 0
146 166 0
144 163 0
142 162 0
146 165 0
140 160 0
150 171 0
147 167 0
139 158 0
138 158 0
146 167 0
143 162 0
143 161 0
147 167 0
150 170 0
150 170 0
144 162 0
146 166 0
143 162 0
150 171 0
147 167 0
150 170 0
151 171 0
140 159 0
155 174 0
150 170 0
153 172 0
153 173 0
145 164 0
156 176 0
144 163 0
153 175 0
150 170 0
154 174 0
152 172 0
148 168 0
153 173 0
148 167 0
153 172 0
148 166 0
147 165 0
157 175 0
156 175 0
150 169 0
150 170 0
157 176 0
160 180 0
155 174 0
149 168 0
157 177 0
156 175 0
156 174 0
162 182 0
156 175 0
153 175 0
153 172 0
150 169 0
153 174 0
157 176 0
150 169 0
155 175 0
165 185 0
149 170 0
157 177 0
156 175 0
156 176 0
152 169 0
156 177 0
160 180 0
160 181 0
161 180 0
161 182 0
162 182 0
156 173 0
163 183 0
158 178 0
159 180 0
160 178 0
163 184 0
161 183 0
158 180 0
165 186 0
164 184 0
161 180 0
158 178 0
158 177 0
161 182 0
163 185 0
158 176 0
161 182 0
162 183 0
158 177 0
162 182 0
164 186 0
165 185 0
163 183 0
168 188 0
162 183 0
160 181 0
164 183 0
163 183 0
164 183 0
164 184 0
161 183 0
162 183 0
163 183 0
169 188 0
165 185 0
164 184 0
168 188 0
164 185 0
164 185 0
163 184 0
163 184 0
164 186 0
167 187 0
162 183 0
167 189 0
167 187 0
158 178 0
166 188 0
165 184 0
168 189 0
165 186 0
168 190 0
169 189 0
163 184 0
170 194 62
175 198 102
171 195 84
175 198 95
174 197 120
176 198 102
168 192 76
172 195 105
172 196 99
173 197 99
176 199 92
169 192 95
173 196 99
177 200 108
170 194 92
165 190 92
170 193 102
167 191 72
167 190 88
172 196 102
168 191 88
171 195 111
167 190 72
170 194 95
171 195 99
170 193 108
168 192 84
174 197 92
173 197 105
169 193 108
163 186 80
169 192 99
169 192 88
168 191 84
169 193 102
171 194 88
167 191 105
169 192 102
167 190 80
170 193 108
166 189 92
165 188 102
161 185 102
166 190 99
168 191 122
169 193 99
165 188 92
168 192 99
163 187 120
167 190 99
165 188 80
163 185 108
167 190 95
162 185 92
160 183 95
159 182 76
162 185 84
161 184 88
162 185 84
157 180 88
165 187 105
161 185 111
157 179 99
164 187 111
151 174 107
161 184 88
164 186 105
161 184 111
161 182 102
151 174 86
158 180 92
159 182 99
162 184 76
167 190 120
159 181 102
160 181 108
151 173 88
163 184 122
161 183 125
152 173 92
158 179 102
156 177 102
152 172 99
160 182 111
155 176 108
153 173 105
154 176 111
151 172 105
156 177 105
156 176 114
147 168 76
153 174 99
143 163 80
149 169 88
150 169 102
151 170 114
149 168 105
138 156 88
145 164 102
146 165 99
130 147 72
134 152 88
141 158 80
136 154 99
137 156 99
132 149 99
129 147 72
133 151 76
121 138 80
126 143 72
121 136 88
116 131 62
117 133 84
109 125 67
115 129 95
87 108 74
94 115 108
94 116 99
107 128 113
82 108 110
108 130 103
86 112 103
97 120 106
100 124 70
92 116 97
94 118 82
100 125 115
108 133 105
100 124 80
104 127 105
95 119 103
137 154 51
143 155 25
149 163 31
150 162 0
142 155 31
138 151 0
140 156 18
138 156 18
128 145 25
81 105 84
73 100 97
78 105 103
69 97 92
81 108 78
81 105 72
75 101 88
69 95 84
76 101 57
81 100 47
84 103 54
98 118 57
93 115 67
93 113 51
97 113 0
103 118 0
93 107 0
101 116 0
83 97 0
82 99 0
101 116 0
89 103 0
82 96 0
71 83 0
75 88 18
78 95 25
80 98 44
70 88 51
60 81 40
58 80 31
70 92 40
76 97 54
65 86 44
67 89 65
70 92 54
75 97 54
59 83 44
60 82 70
67 87 54
66 85 47
69 89 47
79 98 51
74 92 25
73 90 31
67 83 25
75 90 0
88 102 0
88 102 0
104 118 0
92 107 0
77 90 0
94 108 0
89 103 0
95 108 0
86 100 0
89 103 0
90 105 0
101 116 0
86 102 0
100 114 0
98 114 0
92 107 0
98 114 0
109 124 0
91 106 0
95 109 0
102 117 0
103 118 0
103 119 0
95 111 0
107 124 0
105 122 0
113 128 0
114 131 0
115 132 0
105 122 0
110 125 0
95 112 0
117 135 0
115 131 0
105 122 0
116 132 0
113 130 0
117 133 0
110 126 0
106 124 0
124 142 0
121 139 0
118 136 0
122 139 0
121 137 0
108 124 0
121 138 0
125 143 0
126 144 0
120 139 0
121 140 0
128 147 0
114 133 0
124 141 0
132 150 0
130 149 0
122 139 0
125 144 0
136 153 0
132 150 0
130 148 0
129 147 0
134 153 0
143 162 0
132 152 0
121 138 0
137 155 0
137 155 0
134 153 0
138 157 0
136 155 0
140 160 0
137 155 0
140 159 0
138 158 0
139 159 0
133 154 0
135 153 0
137 159 0
140 161 0
145 164 0
141 159 0
144 164 0
146 166 0
148 167 0
140 160 0
139 160 0
139 159 0
142 161 0
145 165 0
146 168 0
148 167 0
149 169 0
154 173 0
134 152 0
134 151 0
153 173 0
139 158 0
148 168 0
142 161 0
140 159 0
153 172 0
147 165 0
149 169 0
143 162 0
147 166 0
149 170 0
154 173 0
147 165 0
156 175 0
150 170 0
156 177 0
150 169 0
148 166 0
152 173 0
147 168 0
146 165 0
153 172 0
154 174 0
150 168 0
150 168 0
155 176 0
152 172 0
155 176 0
155 175 0
157 176 0
159 178 0
146 165 0
153 173 0
154 173 0
154 173 0
155 175 0
159 179 0
155 173 0
153 172 0
157 177 0
151 169 0
152 171 0
155 175 0
156 176 0
155 176 0
153 173 0
156 178 0
155 175 0
153 171 0
156 176 0
160 181 0
157 176 0
156 176 0
156 175 0
160 179 0
155 174 0
162 182 0
159 179 0
157 175 0
162 183 0
153 171 0
159 180 0
159 179 0
158 177 0
154 176 0
151 172 0
163 183 0
156 176 0
161 184 0
161 182 0
159 178 0
160 180 0
159 177 0
161 183 0
162 182 0
159 181 0
161 181 0
157 177 0
159 178 0
163 184 0
163 182 0
160 181 0
162 181 0
157 177 0
156 176 0
164 183 0
165 186 0
158 179 0
164 184 0
161 179 0
161 182 0
164 185 0
162 183 0
163 183 0
163 183 0
159 178 0
161 180 0
161 181 0
166 187 0
161 181 0
161 181 0
162 181 0
161 180 0
163 185 0
165 187 0
166 187 0
165 185 0
164 185 0
169 190 0
166 187 0
162 183 0
164 185 0
168 188 0
165 187 0
164 184 0
166 187 0
166 188 0
165 185 0
170 194 88
175 198 95
175 198 95
179 201 117
169 193 102
170 193 99
171 195 120
174 197 108
175 198 105
173 196 95
175 198 111
172 195 92
168 192 92
172 195 80
166 191 88
164 188 95
172 195 92
173 196 102
171 195 102
175 198 108
167 191 95
171 194 99
174 197 117
166 189 84
168 191 102
170 194 105
176 199 117
164 188 76
167 190 105
173 197 84
168 191 92
166 190 99
167 190 84
171 194 102
159 183 80
169 193 102
167 191 95
167 191 102
163 186 99
169 192 88
169 193 105
165 189 117
164 188 84
162 185 76
173 195 111
166 190 84
166 189 99
165 188 102
164 188 99
170 193 88
165 188 78
165 188 99
166 189 102
162 185 92
153 176 86
160 183 57
157 181 92
162 184 105
166 190 108
167 190 111
164 187 84
160 184 92
157 180 92
164 187 99
166 188 102
159 181 97
157 180 105
162 185 97
163 186 102
154 175 95
155 177 113
154 177 92
163 186 102
150 172 88
154 176 95
161 182 95
164 187 125
151 173 108
164 187 108
142 163 88
150 172 72
157 178 105
152 174 102
161 182 114
154 176 108
146 167 62
157 178 114
154 175 111
158 178 102
148 170 88
136 155 84
147 168 92
151 171 102
152 172 88
148 167 99
142 162 92
153 173 108
133 152 105
151 170 111
132 151 92
139 158 92
137 155 80
138 157 76
131 149 72
135 154 76
120 138 76
130 147 95
122 141 51
119 137 57
129 145 80
128 144 88
125 140 76
127 142 76
117 132 72
128 142 88
103 116 62
93 111 70
87 109 82
85 108 88
87 110 84
97 119 110
90 114 100
86 111 90
97 122 103
95 118 95
108 132 97
103 128 107
101 124 95
104 126 102
85 110 99
104 127 76
132 150 47
154 171 31
145 162 25
146 162 18
139 155 0
138 154 0
126 142 18
129 148 25
131 148 18
123 138 18
79 102 72
74 100 82
76 102 82
73 99 92
73 99 88
81 106 78
72 99 70
63 88 60
91 106 0
104 120 18
94 111 44
96 117 60
85 107 60
95 109 0
86 101 0
91 105 0
103 118 0
94 109 0
82 96 0
94 109 0
83 96 0
88 102 0
101 116 0
88 101 0
83 96 0
91 104 0
95 109 0
89 104 0
76 91 0
98 113 0
93 106 0
92 106 0
94 108 0
78 92 0
82 96 0
85 99 0
58 72 0
85 99 0
84 99 0
91 104 0
83 96 0
89 103 0
81 92 0
88 103 0
99 114 0
95 109 0
83 98 0
90 104 0
61 75 0
89 104 0
106 122 0
88 101 0
99 114 0
82 97 0
112 127 0
93 110 0
98 113 0
92 107 0
100 115 0
102 117 0
87 103 0
99 115 0
95 110 0
94 110 0
102 120 0
104 121 0
94 110 0
107 124 0
106 123 0
108 123 0
106 121 0
102 119 0
118 135 0
107 125 0
108 125 0
109 126 0
102 120 0
116 131 0
110 129 0
123 141 0
119 136 0
109 128 0
112 130 0
130 148 0
113 132 0
119 137 0
115 134 0
118 136 0
119 138 0
134 152 0
122 141 0
125 142 0
124 144 0
120 138 0
118 135 0
121 139 0
122 139 0
128 146 0
138 159 0
125 142 0
120 138 0
131 149 0
122 140 0
135 154 0
137 156 0
130 150 0
129 147 0
128 146 0
131 150 0
124 141 0
142 163 0
132 152 0
135 153 0
140 158 0
134 154 0
139 158 0
139 158 0
139 157 0
144 163 0
145 165 0
135 154 0
132 151 0
137 156 0
142 162 0
139 158 0
140 158 0
137 156 0
138 157 0
139 158 0
150 169 0
143 161 0
149 169 0
141 162 0
152 172 0
141 162 0
139 156 0
139 159 0
144 163 0
144 163 0
143 164 0
144 163 0
145 165 0
139 158 0
139 158 0
150 170 0
150 168 0
151 172 0
150 171 0
147 167 0
149 167 0
149 168 0
152 172 0
154 174 0
143 164 0
153 174 0
146 164 0
149 168 0
145 162 0
149 168 0
149 168 0
141 160 0
161 182 0
150 170 0
150 169 0
155 175 0
156 175 0
152 174 0
151 170 0
153 174 0
152 172 0
154 174 0
154 175 0
156 177 0
151 171 0
154 175 0
155 176 0
158 178 0
158 178 0
159 179 0
155 173 0
159 179 0
153 172 0
156 176 0
156 178 0
155 174 0
158 177 0
156 177 0
152 171 0
151 169 0
150 171 0
160 180 0
150 171 0
153 173 0
157 178 0
158 178 0
159 179 0
160 180 0
154 171 0
162 181 0
159 179 0
157 174 0
159 179 0
156 177 0
155 175 0
149 169 0
158 178 0
160 179 0
165 186 0
163 183 0
159 180 0
163 184 0
163 182 0
164 184 0
164 185 0
162 182 0
157 174 0
163 183 0
160 180 0
161 181 0
165 187 0
161 182 0
158 179 0
160 181 0
163 185 0
163 183 0
161 181 0
164 185 0
163 183 0
162 181 0
161 181 0
162 183 0
162 181 0
167 187 0
165 185 0
160 180 0
155 176 0
166 188 0
160 181 0
161 181 0
164 184 0
164 185 0
162 183 0
166 188 0
165 187 0
162 181 0
162 181 0
161 181 0
169 189 0
170 192 0
169 190 0
163 184 0
160 181 0
165 186 0
160 182 0
165 185 0
163 186 0
163 185 0
163 183 0
167 189 0
176 199 105
174 196 88
168 191 105
174 197 102
176 199 99
176 199 80
174 197 84
174 196 105
175 199 114
173 196 95
169 193 80
171 194 92
173 197 99
173 197 99
175 198 105
173 196 105
167 190 88
173 196 95
169 192 84
173 196 92
171 195 95
168 192 99
169 192 108
168 192 99
171 194 102
177 200 102
170 194 92
170 195 108
167 190 105
174 197 114
166 190 108
172 195 99
172 195 99
164 188 95
163 187 80
164 187 80
169 193 99
168 192 102
168 191 105
163 186 72
171 195 88
171 194 114
160 183 57
168 191 99
165 188 84
165 187 95
167 190 76
163 187 88
167 190 95
167 190 111
168 191 105
161 185 95
152 176 86
163 185 88
153 177 80
164 187 84
164 188 84
164 187 100
158 181 102
162 185 117
157 180 84
167 190 104
159 182 94
155 178 102
159 182 78
165 188 110
160 182 100
158 181 80
163 186 95
155 178 88
156 178 86
156 179 80
154 175 95
153 175 84
155 176 105
163 186 99
154 176 84
163 184 114
167 188 114
161 183 99
148 170 84
157 178 108
163 184 105
158 180 108
157 179 88
155 175 84
155 176 92
166 187 108
154 175 114
153 173 95
156 177 105
158 179 84
159 180 95
153 172 105
148 167 95
153 173 108
140 160 92
149 169 99
140 159 102
143 162 88
150 168 105
141 159 92
137 155 80
135 154 84
140 159 92
141 159 88
141 158 92
130 147 76
126 143 80
129 146 76
125 142 72
135 152 92
120 135 84
112 127 57
129 143 88
114 129 76
111 126 88
111 124 102
94 113 80
96 116 95
81 105 88
101 124 103
87 112 82
104 127 100
107 130 105
95 121 99
98 121 108
97 120 99
103 126 92
105 128 107
119 140 78
122 138 57
159 175 0
151 168 0
143 158 0
144 162 18
141 154 18
136 154 25
129 147 0
133 151 0
139 156 0
122 140 18
96 113 62
67 94 84
75 101 76
71 100 95
77 102 74
74 98 62
76 100 40
97 110 0
108 124 0
113 130 36
109 130 40
103 122 25
102 117 0
96 111 0
90 104 0
77 94 0
98 112 0
105 120 0
86 99 0
101 116 0
100 115 0
90 105 0
80 95 0
91 105 0
91 106 0
82 96 0
89 105 0
92 106 0
89 104 0
88 102 0
85 99 0
90 103 0
93 107 0
80 94 0
93 107 0
87 101 0
76 91 0
91 106 0
86 100 0
81 96 0
92 106 0
91 105 0
73 86 0
96 110 0
94 108 0
92 106 0
93 109 0
89 104 0
85 100 0
96 112 0
90 104 0
89 103 0
94 110 0
85 102 0
85 100 0
88 104 0
107 123 0
91 107 0
96 112 0
88 103 0
102 119 0
91 108 0
108 123 0
108 124 0
96 113 0
107 123 0
119 136 0
115 132 0
112 130 0
114 133 0
106 124 0
117 134 0
115 131 0
107 123 0
119 136 0
117 135 0
103 120 0
107 124 0
113 131 0
97 113 0
122 139 0
109 127 0
117 136 0
124 141 0
129 146 0
128 146 0
121 140 0
126 144 0
116 134 0
119 137 0
127 146 0
120 139 0
124 142 0
130 149 0
122 140 0
126 144 0
125 144 0
125 143 0
122 141 0
126 145 0
117 135 0
121 139 0
121 141 0
130 150 0
134 154 0
124 143 0
122 142 0
131 151 0
131 151 0
140 159 0
133 150 0
126 146 0
135 153 0
142 160 0
132 149 0
144 164 0
144 164 0
148 168 0
141 161 0
145 165 0
140 159 0
122 140 0
133 152 0
138 156 0
143 163 0
137 154 0
146 167 0
141 160 0
137 156 0
144 162 0
146 165 0
145 164 0
141 162 0
147 167 0
144 162 0
141 161 0
141 160 0
148 167 0
144 165 0
143 161 0
154 175 0
148 169 0
141 160 0
148 168 0
150 168 0
143 163 0
155 174 0
147 166 0
146 165 0
145 164 0
146 167 0
150 170 0
152 171 0
153 172 0
151 170 0
139 159 0
153 173 0
151 171 0
154 173 0
153 174 0
150 168 0
151 171 0
153 173 0
148 167 0
151 171 0
157 178 0
152 171 0
152 172 0
153 175 0
153 174 0
157 178 0
151 171 0
150 169 0
150 170 0
155 173 0
154 174 0
156 175 0
158 179 0
153 172 0
153 174 0
151 173 0
158 177 0
160 181 0
165 186 0
154 174 0
152 170 0
155 175 0
155 174 0
154 174 0
154 174 0
162 184 0
157 179 0
152 172 0
161 180 0
158 178 0
156 176 0
156 177 0
163 183 0
160 179 0
153 174 0
157 177 0
159 178 0
156 175 0
160 181 0
165 184 0
160 180 0
156 175 0
159 180 0
160 182 0
158 179 0
155 175 0
162 183 0
159 180 0
158 179 0
163 183 0
158 178 0
160 180 0
158 177 0
163 184 0
162 182 0
162 182 0
159 178 0
161 181 0
164 184 0
159 177 0
159 179 0
164 186 0
159 181 0
166 187 0
165 187 0
161 180 0
163 185 0
164 184 0
166 189 0
158 178 0
160 180 0
167 187 0
164 183 0
168 191 0
163 184 0
163 185 0
157 177 0
164 182 0
166 187 0
163 181 0
164 185 0
163 184 0
168 189 0
167 189 0
163 184 0
168 190 0
165 186 0
167 187 0
169 191 0
169 191 0
168 190 0
163 183 0
166 188 0
173 196 99
170 193 72
171 194 80
168 191 92
173 197 105
175 199 114
176 199 108
170 193 84
173 195 108
172 195 108
167 190 80
172 196 92
169 193 95
173 196 108
169 192 99
169 192 88
172 196 102
168 191 105
171 195 105
165 188 111
170 193 99
165 189 92
175 198 111
171 195 80
170 194 95
173 197 92
171 196 80
172 196 105
170 193 102
170 193 111
169 191 92
169 192 92
171 195 92
168 192 92
170 193 99
170 194 111
164 187 92
167 191 84
169 192 120
166 190 84
164 188 120
160 184 80
163 186 80
167 190 67
165 188 88
161 184 108
162 186 102
166 190 108
162 186 105
165 188 108
158 180 90
160 184 92
157 180 95
164 187 111
158 181 57
156 179 84
159 182 99
166 190 131
171 194 99
163 186 102
163 187 86
167 190 114
165 188 76
167 189 92
161 184 108
157 181 102
159 183 88
157 180 95
164 187 95
161 183 95
157 179 80
151 174 76
154 176 67
161 183 80
170 192 117
155 177 95
155 177 99
152 175 76
162 183 102
168 190 120
160 182 102
166 187 122
155 176 102
157 177 92
145 166 105
160 181 95
154 176 92
143 163 80
151 172 95
156 176 105
153 174 88
152 174 84
140 161 80
152 172 84
145 164 111
146 166 95
146 166 99
144 163 102
149 169 105
139 158 88
139 156 99
146 166 95
139 157 99
136 153 88
134 153 72
144 163 88
137 154 88
138 155 88
131 149 88
142 160 80
133 152 80
117 132 76
131 148 80
117 134 72
125 140 95
117 132 57
109 124 80
108 123 57
116 130 80
95 111 80
84 106 78
100 121 102
72 97 78
101 124 107
100 122 95
102 125 100
97 121 100
95 118 117
95 119 102
100 122 82
110 131 62
118 137 57
153 169 0
147 163 0
154 169 0
146 163 18
146 163 0
141 158 0
142 159 0
140 158 0
132 149 0
120 136 0
118 134 0
97 115 31
74 100 84
74 100 70
73 99 70
76 98 54
99 116 25
98 114 0
97 113 0
102 119 0
101 119 31
110 126 25
102 118 0
101 116 0
103 118 0
100 115 0
107 123 0
93 108 0
98 113 0
99 114 0
106 122 0
90 105 0
84 99 0
102 116 0
96 110 0
85 101 0
92 106 0
100 114 0
82 96 0
91 105 0
89 103 0
100 115 0
90 104 0
94 109 0
88 103 0
90 106 0
100 114 0
91 105 0
94 108 0
82 96 0
84 100 0
84 98 0
87 102 0
74 89 0
85 100 0
100 116 0
86 102 0
85 101 0
92 107 0
98 114 0
97 112 0
94 109 0
107 123 0
95 111 0
97 112 0
103 119 0
94 110 0
94 111 0
102 119 0
99 115 0
101 117 0
110 126 0
114 130 0
112 128 0
93 109 0
112 128 0
106 123 0
95 111 0
107 124 0
104 121 0
109 126 0
119 137 0
114 133 0
111 127 0
115 132 0
109 126 0
113 131 0
108 126 0
116 134 0
120 138 0
113 130 0
126 144 0
114 133 0
107 125 0
124 141 0
113 131 0
120 137 0
116 136 0
135 154 0
134 153 0
112 131 0
120 137 0
119 139 0
129 146 0
131 149 0
130 147 0
128 145 0
122 141 0
125 144 0
131 149 0
129 147 0
126 145 0
132 152 0
121 140 0
131 151 0
132 152 0
126 145 0
135 156 0
128 146 0
128 147 0
132 152 0
145 166 0
145 164 0
138 156 0
132 151 0
142 161 0
143 163 0
140 161 0
132 153 0
136 155 0
138 157 0
141 160 0
136 155 0
142 163 0
144 164 0
145 164 0
146 166 0
138 157 0
142 162 0
140 160 0
135 155 0
147 168 0
135 156 0
152 172 0
140 158 0
150 169 0
139 158 0
150 170 0
145 163 0
140 158 0
148 167 0
138 157 0
143 162 0
149 169 0
146 165 0
147 167 0
140 160 0
150 170 0
149 170 0
149 169 0
148 168 0
145 164 0
150 171 0
136 155 0
149 168 0
147 165 0
149 169 0
157 178 0
147 168 0
146 167 0
155 176 0
153 171 0
161 183 0
152 171 0
147 166 0
152 172 0
150 170 0
155 176 0
160 179 0
150 170 0
155 176 0
155 176 0
156 176 0
157 176 0
161 182 0
153 173 0
160 181 0
155 176 0
154 173 0
160 180 0
153 174 0
159 180 0
159 179 0
155 176 0
155 174 0
155 174 0
157 177 0
162 181 0
160 181 0
160 179 0
156 174 0
158 180 0
156 178 0
157 177 0
163 184 0
156 174 0
160 181 0
155 176 0
157 177 0
159 180 0
158 178 0
163 184 0
149 169 0
158 178 0
155 175 0
163 184 0
162 182 0
158 177 0
161 182 0
157 177 0
157 177 0
159 179 0
156 178 0
163 184 0
158 177 0
163 184 0
162 182 0
160 181 0
162 183 0
166 186 0
165 188 0
158 179 0
164 184 0
160 181 0
162 182 0
159 179 0
163 183 0
162 181 0
161 183 0
161 180 0
162 183 0
162 183 0
169 190 0
164 186 0
163 182 0
158 177 0
161 182 0
162 183 0
161 181 0
164 185 0
159 180 0
167 190 0
167 189 0
168 190 0
165 186 0
162 184 0
162 184 0
160 181 0
165 186 0
166 188 0
163 184 0
168 189 0
169 191 0
166 185 0
162 182 0
165 186 0
165 185 0
165 187 0
174 197 99
175 199 114
173 196 92
178 200 108
171 195 99
175 197 99
168 191 44
173 197 111
175 198 108
172 195 117
168 191 99
169 192 105
170 193 88
173 196 88
173 196 102
174 197 99
173 196 108
168 191 95
166 189 62
168 191 92
168 191 84
171 195 88
171 194 102
172 196 102
171 194 114
169 193 88
172 195 92
165 189 92
168 191 111
165 189 92
170 193 80
164 187 99
161 184 92
165 189 99
171 194 114
168 192 80
161 185 92
172 196 92
171 194 114
168 192 99
168 192 105
163 185 99
170 193 105
160 184 111
168 192 105
167 190 92
160 183 92
162 185 76
166 188 92
159 183 95
166 190 92
165 188 108
160 184 86
163 186 102
160 183 99
160 183 105
161 184 102
167 191 102
159 182 102
162 185 102
166 190 117
163 186 92
163 186 102
156 179 95
162 184 72
159 181 99
160 182 115
163 186 107
157 179 90
162 184 108
159 181 100
163 185 107
150 172 92
158 180 111
154 175 88
158 181 92
158 180 105
156 178 102
153 176 95
153 175 84
152 173 99
158 180 108
157 178 99
164 185 111
152 173 84
145 167 92
159 180 117
151 172 84
148 169 76
151 172 92
140 160 95
143 164 84
153 173 99
154 174 102
147 167 102
155 174 108
138 157 88
154 173 92
144 164 80
152 170 120
152 171 108
135 154 92
138 157 95
143 161 92
137 155 95
141 160 99
135 154 76
135 152 80
126 144 84
118 136 72
130 147 88
133 150 80
126 143 67
116 132 72
138 154 76
116 132 76
111 125 76
130 145 88
115 130 67
104 117 72
105 121 62
102 121 67
95 118 95
104 126 99
86 110 88
91 115 97
102 125 105
105 127 84
108 129 97
114 135 82
122 139 18
130 147 51
155 174 0
153 170 0
148 166 0
140 156 0
142 158 0
144 164 0
137 155 18
145 164 0
134 153 0
126 143 0
116 134 0
115 131 0
102 119 18
97 113 31
103 120 40
102 119 18
93 108 0
108 123 0
98 114 0
115 132 0
111 128 0
103 119 0
98 114 0
102 117 0
93 110 0
109 125 0
104 119 0
97 111 0
101 116 0
86 101 0
107 123 0
98 112 0
105 119 0
96 111 0
93 108 0
94 109 0
103 117 0
84 99 0
99 114 0
88 102 0
88 103 0
73 87 0
90 104 0
97 112 0
94 110 0
85 99 0
104 120 0
93 108 0
94 108 0
104 121 0
102 117 0
98 113 0
91 107 0
102 117 0
91 107 0
99 114 0
98 113 0
89 104 0
86 102 0
104 120 0
87 102 0
82 98 0
98 114 0
96 112 0
95 111 0
104 120 0
102 118 0
95 110 0
107 124 0
93 109 0
112 128 0
108 125 0
100 116 0
100 116 0
119 135 0
99 115 0
106 123 0
101 117 0
103 120 0
107 124 0
113 130 0
110 127 0
119 134 0
121 140 0
112 130 0
118 137 0
105 121 0
116 131 0
101 119 0
127 145 0
110 129 0
118 136 0
118 136 0
111 130 0
118 136 0
120 138 0
122 141 0
125 144 0
118 137 0
122 140 0
118 137 0
115 135 0
126 146 0
117 136 0
130 150 0
127 144 0
122 140 0
132 150 0
128 145 0
134 153 0
119 135 0
128 146 0
123 143 0
129 148 0
137 156 0
135 153 0
135 156 0
137 156 0
131 152 0
132 149 0
141 162 0
134 153 0
137 157 0
145 167 0
148 169 0
137 158 0
139 158 0
136 155 0
136 156 0
131 152 0
141 160 0
135 154 0
141 160 0
152 172 0
144 164 0
138 157 0
142 162 0
148 168 0
143 163 0
144 164 0
137 154 0
140 160 0
150 169 0
151 171 0
151 172 0
146 167 0
143 163 0
148 168 0
150 172 0
152 173 0
140 160 0
148 170 0
136 154 0
142 160 0
149 169 0
152 173 0
146 166 0
149 170 0
148 168 0
142 162 0
148 168 0
140 159 0
144 163 0
147 167 0
156 175 0
147 165 0
153 173 0
157 177 0
149 169 0
153 174 0
155 173 0
156 176 0
146 164 0
150 171 0
157 179 0
151 172 0
156 177 0
147 168 0
155 174 0
154 175 0
147 167 0
152 172 0
159 180 0
164 185 0
156 178 0
154 175 0
153 174 0
147 166 0
157 175 0
157 177 0
154 174 0
159 178 0
156 177 0
158 179 0
158 177 0
149 170 0
157 179 0
157 176 0
156 176 0
156 177 0
152 171 0
155 176 0
156 176 0
146 165 0
162 181 0
152 174 0
160 180 0
158 180 0
164 185 0
163 184 0
158 177 0
160 180 0
157 177 0
161 182 0
162 181 0
162 183 0
156 174 0
167 187 0
158 178 0
163 183 0
165 185 0
158 177 0
161 182 0
156 177 0
158 178 0
157 176 0
158 179 0
162 183 0
167 188 0
160 181 0
160 182 0
162 182 0
165 188 0
161 182 0
166 188 0
165 186 0
161 182 0
162 182 0
161 181 0
164 184 0
162 182 0
161 181 0
165 186 0
155 174 0
162 184 0
162 183 0
159 179 0
165 187 0
164 185 0
166 187 0
163 186 0
162 183 0
168 190 0
161 183 0
165 185 0
165 187 0
164 184 0
166 187 0
166 188 0
165 187 0
165 187 0
168 189 0
163 184 0
167 189 0
165 186 0
169 190 0
165 185 0
165 188 0
172 197 84
171 194 95
172 196 102
172 195 105
175 198 108
172 195 102
177 200 102
176 199 95
168 192 76
174 198 108
175 199 108
175 198 114
169 192 95
175 197 84
172 196 99
171 194 102
172 195 102
169 192 84
172 195 95
169 193 114
173 196 95
171 195 111
171 194 92
169 192 111
169 192 80
169 193 95
175 198 108
166 190 84
162 186 102
166 190 84
168 191 76
171 194 88
167 190 105
165 190 92
168 191 105
170 194 88
171 195 102
169 193 105
172 195 95
171 194 99
170 194 108
159 182 95
161 185 92
166 190 84
169 192 84
171 194 108
170 194 122
172 196 111
163 187 80
162 185 84
168 190 95
166 189 88
161 184 80
164 187 102
167 190 120
161 184 84
162 185 84
160 183 102
163 186 84
157 180 92
165 188 108
157 181 95
159 182 92
156 179 62
165 188 97
159 181 51
162 185 97
158 181 99
160 183 108
153 176 95
160 184 102
159 182 114
162 184 102
167 190 105
167 189 95
158 181 102
153 175 84
163 186 92
157 179 92
150 172 80
157 179 88
158 180 88
160 182 102
148 169 99
156 177 99
148 169 108
152 173 102
153 174 99
156 177 92
157 179 108
152 173 105
157 177 130
144 163 99
145 166 80
157 177 105
143 164 80
148 168 80
162 182 122
156 175 99
137 156 80
141 160 95
146 165 95
148 167 111
151 170 99
138 157 76
133 152 80
140 158 88
132 149 80
139 157 95
133 151 84
121 138 72
134 151 84
124 140 67
118 135 72
120 138 62
133 149 80
122 137 67
119 134 76
116 130 72
118 134 62
112 127 62
123 137 51
98 113 65
95 114 82
102 125 80
101 123 84
84 108 82
108 129 105
102 123 84
122 140 44
124 143 0
121 141 31
157 175 18
159 178 0
145 162 0
152 171 0
141 162 0
139 158 0
134 153 0
141 159 0
125 143 0
120 138 0
125 142 0
123 139 0
106 122 0
98 112 0
93 108 0
96 111 0
100 116 0
103 120 0
118 136 0
113 131 0
103 120 0
109 126 0
111 128 0
94 109 0
102 116 0
90 107 0
99 115 0
104 120 0
105 121 0
100 118 0
97 113 0
101 115 0
100 115 0
97 114 0
111 126 0
75 90 0
90 104 0
88 103 0
98 114 0
99 115 0
84 100 0
96 112 0
92 107 0
85 99 0
98 114 0
93 109 0
92 105 0
94 110 0
87 103 0
94 109 0
94 110 0
98 113 0
90 106 0
104 120 0
107 124 0
98 113 0
95 110 0
78 94 0
97 114 0
89 105 0
81 96 0
100 115 0
100 117 0
93 108 0
111 127 0
100 117 0
111 127 0
107 125 0
103 118 0
107 123 0
103 119 0
115 132 0
102 118 0
113 129 0
102 120 0
102 119 0
112 130 0
120 137 0
99 116 0
116 134 0
116 133 0
118 137 0
116 135 0
116 134 0
103 120 0
124 141 0
117 134 0
125 144 0
120 137 0
114 132 0
112 129 0
132 150 0
119 138 0
118 136 0
114 132 0
122 140 0
125 144 0
126 144 0
118 136 0
126 144 0
121 140 0
132 150 0
124 142 0
125 144 0
124 142 0
130 147 0
126 146 0
116 135 0
131 149 0
127 146 0
124 143 0
132 151 0
131 149 0
132 153 0
134 152 0
135 155 0
142 161 0
138 158 0
136 156 0
139 158 0
141 162 0
140 161 0
138 158 0
138 158 0
137 158 0
144 164 0
137 158 0
128 147 0
131 151 0
140 161 0
143 162 0
139 159 0
142 162 0
135 155 0
140 160 0
143 162 0
146 167 0
138 158 0
138 157 0
140 160 0
143 162 0
139 158 0
147 169 0
146 168 0
142 162 0
144 164 0
142 162 0
134 153 0
140 159 0
142 162 0
149 169 0
150 170 0
149 170 0
149 170 0
147 167 0
150 171 0
137 158 0
153 172 0
145 163 0
150 171 0
157 177 0
146 166 0
148 168 0
153 174 0
153 173 0
153 174 0
148 166 0
153 174 0
152 173 0
147 167 0
154 175 0
153 174 0
153 172 0
152 172 0
151 173 0
152 173 0
154 175 0
152 172 0
153 174 0
160 180 0
152 171 0
161 182 0
158 178 0
157 179 0
158 177 0
160 180 0
155 174 0
152 171 0
151 171 0
161 183 0
159 181 0
156 177 0
158 178 0
159 179 0
161 181 0
154 175 0
158 177 0
151 171 0
161 182 0
156 176 0
159 180 0
151 171 0
158 178 0
159 178 0
159 178 0
163 183 0
157 177 0
162 183 0
157 176 0
163 184 0
154 173 0
157 177 0
165 186 0
158 178 0
162 183 0
160 181 0
162 180 0
158 180 0
159 180 0
159 176 0
159 180 0
157 177 0
168 189 0
163 182 0
160 181 0
159 180 0
150 170 0
164 184 0
160 182 0
162 182 0
161 182 0
165 187 0
164 185 0
157 176 0
159 180 0
160 179 0
161 180 0
163 184 0
165 187 0
163 183 0
162 183 0
162 184 0
168 187 0
163 183 0
161 182 0
166 187 0
167 188 0
169 189 0
164 186 0
165 186 0
163 184 0
165 187 0
163 185 0
163 184 0
167 188 0
168 190 0
164 186 0
164 183 0
164 186 0
168 189 0
165 186 0
164 186 0
166 188 0
164 182 0
166 186 0
166 186 0
165 188 0
168 188 0
175 199 108
176 198 95
173 197 102
178 201 117
176 199 102
175 198 102
172 194 95
171 193 95
172 195 99
172 196 88
169 193 92
171 193 95
177 200 122
172 195 92
171 194 102
172 196 102
172 195 102
172 196 125
169 192 84
173 196 99
166 189 95
172 196 111
165 188 84
173 196 108
170 193 114
170 194 102
165 189 105
170 193 111
169 192 105
168 192 102
168 192 95
170 194 92
171 194 92
168 191 88
168 190 111
166 189 84
171 195 88
163 186 84
164 188 84
165 189 92
170 193 111
166 189 95
169 193 111
168 192 92
170 194 114
163 186 80
162 185 99
164 187 88
168 191 92
168 192 120
167 190 99
158 181 80
159 182 95
165 188 102
167 190 108
164 187 99
159 182 90
162 185 94
166 189 113
169 192 120
163 186 95
165 188 88
156 179 95
159 181 84
161 183 88
159 182 115
155 178 78
169 192 102
158 181 80
155 178 100
153 175 92
158 180 99
159 182 95
155 178 84
165 187 102
156 179 92
163 185 95
157 178 108
156 178 92
153 175 105
163 185 125
161 183 105
158 179 99
146 169 76
150 170 102
154 176 102
156 177 108
150 171 88
153 174 108
155 176 92
146 166 111
152 173 88
151 171 102
158 179 95
153 173 111
143 163 95
146 166 105
149 169 92
139 158 102
144 164 62
147 167 95
142 161 95
141 161 92
141 159 92
136 154 88
140 158 80
139 156 99
142 159 88
140 158 88
126 142 80
122 140 80
126 142 80
141 158 76
130 146 99
130 146 84
126 142 76
129 146 80
118 134 57
122 139 72
127 144 67
102 118 57
113 128 57
98 113 51
107 121 44
109 124 51
114 132 78
102 119 74
108 126 76
111 127 47
125 142 0
113 131 0
131 150 25
142 157 0
157 177 0
152 172 0
147 166 0
151 170 0
134 151 0
136 153 0
139 156 0
132 149 0
118 136 0
122 140 0
115 131 0
112 127 0
100 117 0
104 120 0
88 104 0
105 120 0
95 110 0
119 136 0
115 133 0
110 129 0
112 129 0
110 127 0
114 130 0
112 128 0
110 126 0
90 107 0
120 137 0
101 118 0
93 110 0
96 112 0
92 108 0
91 105 0
94 110 0
94 111 0
94 111 0
97 113 0
85 102 0
98 114 0
84 100 0
90 106 0
92 107 0
101 116 0
78 94 0
90 105 0
104 120 0
87 103 0
96 111 0
105 121 0
109 126 0
103 119 0
113 128 0
111 126 0
106 122 0
98 115 0
97 112 0
114 132 0
103 120 0
104 121 0
95 111 0
100 116 0
112 129 0
101 117 0
111 127 0
103 121 0
108 125 0
99 116 0
101 117 0
90 107 0
105 122 0
106 125 0
94 111 0
117 135 0
100 117 0
103 121 0
115 133 0
113 131 0
106 124 0
124 141 0
110 127 0
126 144 0
112 129 0
109 127 0
121 138 0
110 127 0
117 134 0
110 129 0
120 137 0
120 138 0
118 136 0
121 139 0
126 143 0
115 133 0
120 138 0
127 147 0
128 146 0
128 146 0
116 134 0
128 147 0
126 145 0
128 148 0
130 150 0
130 148 0
127 145 0
127 146 0
139 159 0
122 141 0
124 142 0
134 154 0
131 150 0
137 157 0
135 156 0
126 144 0
134 155 0
134 153 0
128 148 0
130 152 0
136 155 0
135 155 0
123 143 0
125 144 0
138 158 0
131 151 0
140 161 0
133 152 0
144 163 0
138 158 0
143 164 0
143 163 0
143 163 0
138 157 0
141 161 0
142 162 0
136 153 0
147 167 0
137 156 0
139 159 0
139 160 0
149 167 0
142 162 0
144 163 0
142 162 0
135 156 0
147 168 0
143 163 0
146 165 0
155 175 0
153 173 0
154 173 0
142 162 0
148 167 0
148 168 0
145 164 0
153 173 0
152 174 0
144 165 0
155 176 0
148 168 0
148 168 0
150 170 0
148 167 0
150 171 0
154 174 0
155 176 0
162 183 0
159 179 0
152 173 0
151 170 0
147 167 0
152 173 0
158 178 0
154 173 0
155 176 0
152 172 0
153 174 0
158 177 0
161 182 0
155 177 0
151 170 0
160 181 0
157 179 0
158 177 0
152 170 0
150 169 0
157 177 0
153 173 0
154 173 0
153 173 0
153 172 0
156 177 0
157 178 0
153 173 0
160 182 0
155 176 0
154 174 0
153 172 0
159 179 0
154 174 0
157 179 0
162 183 0
153 173 0
158 180 0
158 177 0
156 176 0
158 178 0
163 183 0
157 177 0
153 172 0
160 179 0
161 181 0
155 177 0
161 180 0
151 171 0
161 182 0
160 182 0
161 182 0
163 183 0
160 181 0
161 182 0
162 182 0
158 179 0
160 180 0
161 180 0
156 177 0
160 180 0
160 181 0
163 181 0
157 178 0
166 187 0
163 184 0
163 185 0
164 185 0
164 187 0
163 184 0
159 180 0
162 183 0
164 183 0
168 188 0
169 190 0
162 184 0
164 185 0
160 181 0
163 184 0
164 184 0
164 185 0
162 182 0
164 184 0
162 182 0
165 186 0
166 186 0
162 182 0
162 183 0
164 184 0
167 188 0
168 190 0
164 184 0
168 191 0
168 188 0
167 186 0
166 186 0
165 185 0
166 187 0
160 181 0
167 189 0
165 186 0
165 186 0
167 187 0
165 187 0
178 201 114
170 193 105
175 198 117
176 199 99
169 192 84
174 197 105
172 195 88
171 194 84
168 191 76
170 193 88
175 197 117
173 197 114
164 187 62
174 197 95
173 197 105
171 195 76
174 197 92
175 198 120
172 195 108
170 194 76
166 190 72
170 194 88
169 192 72
167 189 88
175 199 125
170 194 114
172 196 114
174 198 117
177 200 102
166 190 95
167 191 95
165 188 105
170 193 88
163 187 88
163 186 84
169 192 92
167 191 88
170 193 111
170 194 105
166 190 114
163 186 84
164 188 102
168 192 95
164 187 99
165 188 84
167 189 76
166 190 88
171 195 108
167 190 84
166 190 102
163 186 102
164 186 88
165 188 76
162 185 92
167 190 80
163 186 102
162 185 78
162 185 72
163 186 114
159 182 97
158 181 108
163 186 88
165 188 102
160 183 95
157 180 94
159 181 76
160 182 117
159 182 102
163 185 95
163 187 92
154 176 105
160 182 95
164 186 108
152 174 95
158 181 80
164 186 108
160 183 92
152 174 88
151 173 88
159 181 92
151 172 88
155 176 99
153 174 80
153 175 84
143 166 67
154 175 92
154 175 108
158 178 92
157 178 88
158 178 108
157 178 95
156 177 105
153 172 95
154 174 76
149 169 99
138 158 88
152 173 95
151 170 92
163 183 108
142 162 88
158 177 117
146 164 102
135 153 80
131 150 88
149 168 111
136 154 84
128 146 80
140 158 80
120 137 76
146 165 92
131 149 67
129 147 76
133 150 95
134 152 76
131 149 76
108 124 62
127 143 88
124 140 72
127 144 44
120 138 51
123 140 62
114 130 72
107 122 36
120 136 44
125 140 84
104 120 51
103 119 44
112 127 36
124 140 25
126 143 0
115 133 25
132 151 0
144 163 0
157 175 0
157 176 0
146 165 0
144 162 0
140 158 0
135 151 0
127 145 0
130 150 0
124 142 0
115 133 0
120 137 0
114 131 0
102 119 0
104 121 0
117 134 0
103 119 0
112 129 0
109 124 0
120 139 0
117 136 0
125 143 0
105 122 0
98 116 0
112 130 0
104 120 0
94 110 0
110 127 0
92 108 0
99 115 0
94 111 0
108 125 0
88 104 0
87 105 0
99 116 0
97 113 0
110 126 0
100 117 0
104 120 0
93 110 0
97 112 0
121 137 0
98 114 0
95 113 0
90 105 0
117 133 0
82 97 0
104 120 0
91 108 0
96 112 0
95 111 0
116 132 0
100 115 0
101 117 0
109 127 0
107 124 0
100 116 0
109 126 0
102 119 0
117 134 0
100 115 0
101 117 0
117 134 0
110 126 0
111 128 0
108 126 0
116 134 0
100 117 0
102 118 0
102 119 0
110 127 0
108 124 0
113 130 0
113 132 0
103 121 0
111 128 0
104 122 0
121 139 0
110 128 0
109 127 0
114 131 0
120 137 0
124 143 0
130 149 0
115 133 0
114 133 0
114 132 0
121 138 0
129 148 0
120 139 0
113 132 0
125 143 0
121 138 0
116 135 0
119 139 0
123 143 0
128 146 0
129 147 0
125 144 0
113 131 0
127 145 0
125 143 0
119 137 0
128 149 0
121 140 0
131 151 0
132 150 0
132 150 0
133 153 0
126 146 0
132 151 0
130 147 0
122 139 0
130 150 0
130 149 0
136 156 0
139 159 0
134 153 0
127 145 0
137 157 0
128 147 0
140 159 0
141 161 0
135 155 0
129 148 0
142 161 0
130 148 0
145 166 0
141 162 0
135 157 0
146 165 0
138 157 0
147 166 0
147 167 0
146 166 0
141 161 0
140 159 0
145 165 0
141 162 0
145 165 0
140 159 0
152 170 0
150 170 0
148 166 0
148 169 0
143 164 0
145 166 0
144 164 0
149 169 0
153 172 0
141 161 0
146 164 0
146 166 0
150 170 0
147 166 0
147 169 0
152 174 0
153 175 0
143 163 0
151 171 0
146 166 0
149 169 0
147 166 0
148 168 0
152 172 0
154 175 0
153 173 0
147 166 0
155 177 0
150 170 0
153 173 0
151 171 0
156 176 0
155 175 0
157 176 0
158 179 0
164 184 0
153 174 0
147 166 0
154 174 0
152 172 0
152 172 0
149 170 0
154 174 0
155 176 0
153 174 0
153 175 0
154 174 0
161 182 0
157 178 0
155 174 0
155 176 0
155 173 0
159 179 0
158 178 0
160 180 0
158 179 0
154 176 0
160 180 0
157 177 0
154 175 0
157 178 0
157 177 0
159 181 0
157 180 0
157 175 0
159 181 0
159 177 0
157 179 0
155 175 0
164 185 0
167 188 0
159 180 0
158 178 0
157 178 0
162 183 0
162 183 0
161 182 0
162 184 0
156 175 0
153 172 0
160 180 0
159 179 0
163 183 0
165 186 0
166 187 0
164 183 0
154 175 0
158 179 0
165 187 0
160 180 0
162 183 0
161 183 0
161 181 0
160 181 0
165 187 0
165 186 0
166 187 0
165 185 0
165 185 0
165 186 0
166 189 0
161 182 0
165 187 0
165 185 0
165 187 0
164 186 0
166 187 0
166 185 0
165 185 0
165 185 0
169 191 0
166 186 0
163 185 0
164 186 0
162 185 0
166 187 0
166 187 0
165 187 0
165 187 0
166 188 0
168 189 0
165 185 0
170 191 0
166 187 0
168 190 0
168 188 0
163 185 0
173 196 102
173 196 99
171 195 105
171 194 122
176 199 114
173 196 105
178 201 125
167 191 80
173 197 111
173 197 99
174 197 92
170 194 84
176 199 102
174 197 102
172 196 102
171 194 95
172 196 95
171 193 108
171 193 105
171 195 92
175 198 111
171 194 108
169 192 102
168 192 102
168 192 72
167 190 76
168 191 84
175 198 114
167 190 95
170 193 95
167 190 92
173 197 88
174 197 92
168 191 88
164 188 88
164 188 88
168 192 92
168 192 108
160 183 57
170 194 111
157 180 88
165 188 95
171 193 117
165 188 99
165 189 108
162 186 92
173 196 102
166 189 95
165 188 92
168 192 84
159 181 100
158 181 84
169 193 114
169 193 117
163 186 80
164 187 92
160 183 100
163 186 92
166 189 92
165 188 114
161 184 88
159 183 94
165 187 84
159 182 94
153 176 95
158 180 99
159 182 95
165 187 108
155 178 95
164 187 105
168 190 102
164 186 102
149 171 72
149 170 80
165 187 102
158 179 99
157 179 99
156 178 99
163 185 111
157 180 95
157 178 76
160 181 102
157 178 102
151 173 84
156 177 111
157 179 105
149 171 92
139 159 88
142 163 88
144 165 99
160 181 108
158 179 111
153 173 99
156 176 95
141 161 76
147 166 105
148 168 84
150 170 92
151 170 102
146 167 80
145 164 105
149 167 114
142 162 72
135 154 80
141 160 88
140 157 92
135 154 67
138 157 80
140 158 95
149 167 88
133 151 95
132 150 72
121 138 62
138 157 80
129 148 44
122 139 67
128 145 51
116 132 67
102 116 36
115 131 62
119 135 72
119 136 51
111 127 44
126 141 76
117 133 67
109 124 36
125 140 62
120 136 72
117 134 25
128 147 0
120 137 0
138 157 0
149 167 0
160 178 0
154 173 0
148 167 0
142 161 0
147 167 0
144 164 0
131 149 0
123 143 0
131 151 0
125 143 0
118 135 0
120 138 0
116 131 0
100 115 0
108 124 0
110 127 0
106 124 0
106 123 0
123 141 0
118 136 0
120 137 0
101 119 25
118 136 0
124 141 0
101 118 0
99 116 0
98 114 0
123 139 0
113 131 0
110 128 0
106 123 0
106 125 0
97 112 0
111 127 0
105 123 0
92 108 0
95 111 0
111 127 0
97 113 0
102 118 0
103 120 0
102 118 0
97 113 0
93 108 0
101 118 0
99 115 0
95 111 0
110 127 0
105 120 0
103 120 0
108 125 0
103 121 0
85 101 0
105 122 0
105 120 0
106 123 0
86 103 0
113 131 0
99 115 0
110 127 0
103 120 0
102 118 0
94 110 0
98 115 0
111 127 0
106 123 0
105 124 0
118 137 0
114 133 0
107 124 0
103 121 0
127 143 0
119 137 0
113 131 0
114 130 0
113 132 0
125 143 0
110 128 0
115 132 0
117 135 0
116 136 0
96 114 0
112 129 0
132 149 0
119 137 0
122 140 0
120 140 0
130 149 0
114 131 0
127 145 0
131 148 0
128 145 0
121 141 0
125 144 0
112 129 0
118 136 0
120 140 0
125 143 0
128 148 0
131 149 0
123 140 0
132 151 0
135 153 0
135 154 0
132 152 0
123 142 0
132 152 0
137 157 0
134 152 0
131 151 0
134 152 0
137 156 0
139 159 0
136 157 0
139 159 0
133 154 0
139 158 0
138 158 0
131 151 0
139 158 0
133 153 0
135 155 0
134 155 0
140 158 0
140 161 0
139 157 0
146 167 0
136 156 0
142 162 0
135 155 0
144 165 0
138 159 0
138 159 0
138 157 0
142 163 0
147 168 0
135 154 0
149 169 0
150 170 0
141 159 0
148 168 0
153 174 0
140 161 0
143 164 0
143 162 0
145 165 0
146 167 0
154 174 0
149 169 0
150 168 0
147 168 0
146 166 0
155 176 0
149 169 0
149 169 0
150 172 0
158 178 0
155 175 0
156 177 0
154 174 0
143 163 0
153 173 0
145 164 0
143 162 0
153 172 0
150 171 0
157 178 0
150 171 0
159 180 0
154 175 0
148 168 0
159 180 0
154 174 0
151 171 0
154 173 0
152 171 0
158 178 0
150 170 0
152 171 0
152 173 0
153 171 0
155 174 0
158 180 0
156 179 0
155 174 0
152 173 0
150 172 0
162 184 0
155 175 0
157 176 0
156 178 0
161 184 0
162 183 0
159 178 0
156 176 0
160 180 0
152 171 0
155 175 0
155 173 0
158 179 0
156 176 0
154 174 0
158 177 0
166 188 0
155 176 0
157 178 0
159 180 0
159 180 0
154 174 0
158 178 0
162 182 0
160 181 0
163 184 0
161 180 0
157 178 0
161 182 0
160 180 0
164 185 0
158 179 0
163 184 0
162 182 0
159 179 0
163 184 0
160 180 0
168 189 0
161 182 0
164 185 0
162 182 0
161 181 0
159 180 0
165 187 0
161 182 0
161 183 0
164 184 0
166 187 0
155 175 0
161 182 0
164 184 0
165 185 0
167 188 0
163 184 0
167 189 0
165 185 0
164 187 0
159 179 0
167 189 0
165 186 0
165 185 0
163 184 0
163 182 0
165 187 0
166 186 0
165 187 0
161 183 0
162 184 0
167 187 0
165 186 0
165 187 0
168 189 0
162 182 0
163 183 0
168 189 0
169 190 0
165 185 0
161 181 0
170 192 0
167 188 0
175 198 95
173 196 88
173 196 92
180 203 114
172 195 88
175 198 99
174 197 92
172 194 88
176 199 108
172 195 92
170 193 76
172 196 88
172 195 111
168 192 95
171 195 117
164 187 76
172 195 125
167 190 92
166 189 95
171 194 111
168 191 95
172 196 99
171 194 99
165 189 95
168 192 84
166 190 88
168 191 76
170 194 108
167 190 95
163 187 99
169 193 105
169 192 105
170 193 99
167 190 92
164 187 62
163 187 102
170 193 108
167 190 102
164 188 99
161 185 99
175 199 130
171 195 122
164 187 92
169 192 84
165 188 92
164 188 111
164 187 76
164 187 88
166 190 105
158 181 80
163 187 95
166 190 99
167 190 99
166 190 99
165 190 102
158 180 88
165 187 80
167 190 99
165 189 99
155 178 105
170 193 95
162 185 108
162 187 102
166 189 111
159 182 88
156 178 88
154 176 84
157 178 95
167 190 114
158 181 102
154 176 76
155 178 95
160 182 72
160 182 80
163 185 105
160 182 127
158 179 95
161 182 92
157 179 88
159 180 111
149 170 80
161 182 111
159 179 114
151 172 99
158 179 99
156 178 88
150 170 105
148 169 99
163 184 108
152 172 108
157 178 99
156 176 108
150 170 99
154 174 84
156 177 92
152 171 117
144 163 88
149 169 80
139 158 95
148 168 92
150 170 95
142 161 99
142 162 92
151 169 105
155 172 120
148 167 111
154 173 99
137 155 72
130 148 51
138 157 80
146 163 108
131 148 88
140 158 84
142 160 72
133 152 57
130 146 95
119 136 62
125 142 72
128 144 57
113 131 44
127 143 72
113 129 51
114 130 62
108 125 36
122 137 72
131 147 80
130 144 76
120 137 44
117 134 0
123 142 0
128 147 36
130 149 0
144 162 25
157 175 0
157 177 0
156 177 0
152 169 0
145 163 0
142 161 0
129 147 0
130 148 0
129 145 0
127 146 0
121 136 0
118 137 0
106 122 0
110 127 0
116 135 0
109 125 0
112 129 0
116 134 0
121 139 0
127 145 0
115 134 0
111 128 0
106 123 0
103 120 0
98 115 0
97 115 0
99 116 0
111 128 0
104 121 0
112 127 0
108 126 0
96 114 0
102 119 0
116 133 0
106 122 0
107 124 0
99 114 0
113 130 0
103 119 0
98 113 0
112 128 0
105 122 0
114 132 0
91 109 0
110 126 0
94 110 0
109 124 0
102 120 0
103 120 0
102 117 0
98 114 0
113 130 0
107 124 0
106 123 0
116 133 0
102 120 0
110 127 0
108 124 0
107 123 0
96 114 0
111 128 0
110 127 0
122 140 0
116 132 0
116 133 0
118 136 0
105 123 0
104 123 0
112 130 0
113 132 0
115 132 0
111 129 0
128 147 0
114 132 0
106 124 0
111 130 0
105 124 0
121 139 0
114 131 0
114 132 0
116 134 0
117 135 0
120 139 0
124 143 0
113 132 0
130 148 0
115 134 0
121 140 0
125 144 0
132 151 0
119 138 0
136 154 0
136 156 0
125 145 0
119 137 0
134 154 0
131 151 0
131 149 0
130 150 0
122 142 0
121 140 0
129 148 0
130 151 0
130 148 0
125 144 0
135 155 0
127 146 0
133 152 0
127 145 0
129 147 0
129 149 0
135 153 0
138 156 0
137 157 0
134 154 0
132 152 0
146 166 0
138 159 0
123 141 0
138 156 0
141 161 0
138 158 0
144 164 0
141 161 0
142 162 0
146 165 0
147 169 0
142 163 0
142 163 0
141 162 0
145 165 0
146 166 0
146 166 0
142 162 0
140 159 0
146 166 0
145 164 0
142 162 0
148 169 0
140 161 0
148 168 0
150 171 0
140 160 0
147 167 0
139 158 0
148 168 0
144 165 0
149 167 0
151 173 0
147 167 0
148 166 0
151 172 0
151 171 0
144 164 0
150 170 0
154 172 0
154 175 0
152 171 0
141 162 0
157 178 0
152 173 0
149 169 0
153 173 0
159 180 0
154 175 0
154 174 0
148 170 0
150 171 0
153 173 0
160 180 0
154 176 0
156 178 0
150 170 0
152 171 0
159 180 0
155 175 0
155 175 0
147 167 0
160 181 0
161 184 0
153 173 0
155 176 0
161 182 0
155 177 0
158 178 0
157 177 0
157 177 0
155 176 0
154 175 0
159 179 0
155 175 0
157 179 0
160 181 0
158 178 0
149 168 0
159 179 0
160 181 0
157 177 0
155 177 0
159 180 0
160 180 0
164 185 0
162 183 0
161 182 0
159 182 0
160 180 0
159 179 0
159 178 0
158 177 0
158 180 0
161 182 0
157 177 0
163 184 0
160 180 0
160 180 0
164 184 0
163 185 0
159 180 0
163 183 0
161 182 0
165 187 0
162 184 0
163 184 0
165 186 0
164 186 0
161 182 0
161 182 0
165 187 0
164 186 0
166 189 0
165 186 0
159 178 0
164 185 0
162 184 0
159 180 0
167 188 0
162 183 0
161 182 0
163 183 0
160 180 0
163 183 0
159 179 0
168 190 0
163 185 0
163 183 0
164 185 0
166 188 0
163 184 0
160 179 0
167 187 0
160 182 0
164 185 0
163 184 0
164 185 0
159 180 0
165 185 0
164 185 0
166 187 0
160 183 0
168 190 0
162 183 0
166 188 0
166 189 0
167 189 0
163 184 0
166 187 0
167 189 0
173 197 92
172 196 95
172 195 92
171 193 92
174 198 92
172 196 80
174 198 133
170 192 95
176 199 108
173 196 88
173 196 105
174 197 117
170 194 102
172 196 92
172 194 76
167 190 57
172 195 102
173 196 120
172 196 92
170 194 88
168 191 99
170 194 92
168 191 92
170 193 114
171 195 102
169 192 108
167 191 92
167 191 80
170 194 105
170 194 108
165 189 92
165 188 88
170 192 102
171 194 95
165 189 84
166 190 99
172 196 84
166 190 84
157 180 102
168 192 95
169 192 92
168 191 108
167 190 99
164 188 108
160 183 92
161 185 95
165 188 80
167 190 105
161 184 92
166 189 95
166 189 84
164 187 80
164 188 105
160 183 67
164 188 102
156 180 92
165 188 88
162 185 44
161 184 95
162 184 105
169 192 97
164 187 92
158 181 92
157 180 76
163 187 97
164 187 114
161 184 90
166 188 122
161 183 99
161 184 111
162 185 95
164 186 120
160 183 95
159 183 120
162 184 88
157 179 88
159 181 111
165 187 105
159 181 105
152 174 80
161 183 117
151 173 95
156 178 92
155 176 92
154 175 114
163 184 114
149 171 84
152 172 95
159 179 111
152 173 95
149 170 88
145 165 88
147 168 67
152 172 105
151 172 95
148 169 84
152 172 99
152 172 105
144 164 76
145 163 105
153 172 114
148 166 108
150 169 99
136 155 102
144 161 99
146 165 92
153 171 120
131 148 80
142 160 76
143 162 72
148 164 130
138 156 76
135 152 80
133 151 92
134 151 72
129 147 72
127 144 84
119 136 36
128 144 62
126 144 57
112 130 44
116 133 36
112 130 36
130 147 67
130 148 51
123 140 51
117 135 36
117 136 25
121 139 25
126 146 0
131 149 36
137 156 0
158 179 0
162 182 0
154 171 0
153 172 0
148 169 0
135 154 0
145 165 0
141 160 0
137 154 0
114 132 0
121 139 0
125 142 0
119 138 0
117 134 0
114 132 0
120 138 0
113 130 0
116 133 0
129 147 0
131 150 0
123 140 0
118 136 0
112 131 0
110 129 0
102 120 0
112 130 0
111 129 0
121 138 0
108 126 0
115 132 0
97 113 0
105 122 0
103 120 0
101 119 0
109 125 0
117 133 0
104 122 0
110 127 0
110 127 0
109 126 0
113 129 0
101 118 0
94 111 0
98 115 0
112 129 0
109 125 0
97 114 0
108 125 0
105 122 0
101 118 0
113 131 0
99 117 0
112 130 0
122 139 0
118 135 0
110 128 0
119 138 0
107 124 0
109 127 0
111 129 0
115 133 0
101 119 0
91 109 0
126 145 0
110 126 0
104 121 0
111 129 0
110 128 0
106 123 0
117 132 0
108 127 0
120 138 0
106 124 0
116 133 0
110 129 0
112 130 0
110 128 0
125 144 0
113 131 0
114 132 0
115 133 0
113 131 0
133 153 0
115 133 0
132 152 0
120 139 0
121 138 0
125 143 0
128 146 0
130 148 0
130 149 0
124 143 0
123 141 0
126 146 0
122 140 0
115 134 0
136 154 0
137 157 0
131 151 0
130 150 0
121 141 0
127 148 0
141 160 0
136 155 0
132 152 0
134 153 0
138 159 0
129 148 0
126 146 0
134 154 0
133 154 0
133 152 0
144 164 0
137 156 0
138 158 0
143 163 0
136 156 0
138 158 0
145 165 0
118 138 0
135 155 0
148 167 0
139 160 0
139 160 0
141 162 0
137 156 0
143 163 0
145 165 0
137 158 0
142 161 0
136 157 0
134 154 0
152 172 0
146 166 0
145 167 0
144 165 0
144 165 0
144 164 0
146 166 0
146 167 0
144 164 0
144 164 0
147 168 0
147 166 0
147 168 0
152 171 0
148 169 0
146 168 0
149 170 0
156 176 0
149 170 0
155 176 0
145 166 0
146 166 0
151 170 0
145 166 0
153 172 0
155 175 0
143 162 0
154 175 0
152 173 0
150 171 0
152 172 0
151 170 0
146 166 0
150 171 0
153 175 0
156 174 0
149 170 0
151 171 0
156 178 0
156 176 0
153 173 0
152 172 0
156 176 0
148 168 0
151 172 0
156 177 0
152 171 0
153 173 0
154 173 0
153 173 0
155 176 0
157 178 0
161 179 0
156 176 0
149 168 0
158 178 0
160 180 0
156 177 0
159 179 0
154 175 0
155 173 0
154 175 0
161 182 0
162 182 0
160 181 0
160 181 0
157 177 0
152 173 0
158 179 0
158 179 0
157 179 0
158 180 0
159 181 0
156 175 0
161 181 0
157 177 0
157 176 0
162 184 0
159 182 0
159 179 0
158 179 0
159 182 0
163 183 0
151 170 0
159 180 0
161 181 0
161 182 0
159 180 0
153 174 0
158 178 0
164 186 0
162 183 0
162 183 0
162 183 0
159 180 0
158 178 0
167 188 0
165 186 0
166 189 0
162 184 0
159 179 0
165 187 0
163 184 0
166 189 0
162 183 0
168 190 0
163 184 0
162 184 0
169 190 0
166 187 0
165 185 0
165 186 0
166 187 0
165 188 0
163 183 0
164 184 0
165 187 0
165 186 0
164 187 0
167 190 0
167 190 0
161 181 0
161 183 0
166 188 0
164 185 0
164 185 0
165 186 0
166 187 0
164 186 0
168 189 0
163 183 0
163 185 0
164 186 0
165 185 0
159 179 0
167 190 0
176 199 108
177 199 108
174 196 111
169 192 67
173 196 92
172 194 99
169 192 84
173 196 102
171 193 84
174 197 92
165 189 72
171 195 105
173 196 108
172 195 105
171 194 108
171 195 105
169 193 84
170 193 114
165 188 99
172 196 95
170 194 84
171 195 95
170 193 114
176 199 92
173 197 120
170 193 99
171 194 105
165 189 88
165 189 67
168 192 92
167 190 105
171 195 105
169 193 114
167 190 92
164 188 105
170 193 99
167 189 99
164 188 92
164 188 88
164 187 84
160 184 88
165 189 88
164 188 72
166 190 102
172 195 108
164 187 95
157 181 76
171 194 95
168 191 102
162 186 102
163 187 108
161 184 95
162 185 80
159 182 99
165 189 95
167 190 92
161 185 92
167 190 105
167 190 105
157 179 67
159 182 84
165 188 92
167 190 102
156 179 62
167 190 95
164 186 95
163 185 92
159 181 88
158 180 99
160 183 92
160 183 120
165 187 95
160 182 95
157 179 76
157 179 88
154 175 99
159 182 88
162 185 105
162 184 111
160 182 102
153 175 95
151 173 88
156 177 102
152 174 99
145 165 80
149 170 95
151 172 99
150 171 92
157 178 95
144 165 84
163 184 114
146 167 114
158 179 102
153 174 111
159 179 114
154 173 105
149 168 84
152 172 99
154 173 114
143 163 95
151 171 99
152 173 88
157 176 105
140 158 108
151 170 99
140 158 95
145 163 105
145 163 99
138 157 72
125 144 62
145 163 95
129 147 67
140 158 84
137 155 80
132 149 62
139 157 92
133 152 72
120 139 36
125 144 62
124 143 44
123 141 62
129 147 67
130 147 67
118 135 67
130 147 67
113 130 51
122 138 51
124 143 25
129 149 25
128 147 0
132 151 25
138 157 0
151 171 0
160 180 0
160 182 0
147 169 0
144 163 0
141 161 0
143 164 0
135 154 0
143 163 0
120 139 0
131 150 0
113 133 0
123 142 0
124 141 0
120 139 0
112 129 0
118 136 0
119 138 0
121 140 0
125 144 0
115 132 0
121 139 0
109 127 0
117 134 0
118 136 0
114 131 0
115 134 0
123 140 0
111 128 0
114 132 0
112 130 0
115 131 0
107 124 0
113 130 0
109 126 0
102 120 0
110 128 0
113 131 0
110 128 0
120 138 0
114 132 0
104 121 0
109 126 0
107 124 0
101 118 0
107 124 0
103 120 0
112 130 0
104 121 0
99 116 0
110 128 0
104 122 0
116 134 0
108 125 0
106 124 0
108 125 0
106 123 0
113 130 0
106 124 0
110 127 0
118 136 0
115 134 0
127 145 0
119 136 0
108 125 0
118 136 0
117 135 0
113 130 0
108 127 0
113 131 0
120 139 0
102 120 0
120 140 0
114 132 0
128 147 0
112 129 0
110 129 0
118 137 0
119 138 0
118 136 0
117 137 0
117 135 0
116 134 0
124 144 0
127 147 0
122 140 0
133 152 0
119 139 0
125 143 0
122 140 0
124 144 0
120 139 0
133 153 0
123 143 0
123 143 0
130 148 0
130 148 0
131 150 0
139 157 0
131 150 0
127 147 0
130 149 0
125 143 0
123 140 0
130 150 0
137 156 0
133 154 0
130 150 0
130 150 0
129 148 0
129 149 0
139 161 0
133 153 0
131 152 0
126 146 0
144 165 0
143 163 0
134 152 0
135 155 0
144 164 0
139 159 0
138 158 0
136 156 0
142 162 0
141 162 0
139 160 0
136 154 0
143 163 0
150 169 0
139 158 0
143 163 0
146 166 0
149 169 0
139 160 0
142 162 0
141 162 0
140 160 0
142 162 0
150 172 0
141 162 0
130 150 0
150 171 0
139 159 0
134 154 0
143 163 0
148 169 0
145 165 0
149 170 0
149 169 0
143 162 0
152 175 0
150 171 0
146 164 0
150 172 0
146 167 0
148 170 0
152 172 0
151 171 0
152 172 0
147 169 0
157 178 0
152 173 0
156 178 0
157 178 0
149 168 0
147 168 0
150 171 0
151 172 0
155 175 0
155 175 0
154 176 0
158 181 0
155 177 0
150 170 0
151 173 0
154 177 0
157 178 0
145 167 0
153 173 0
151 172 0
156 178 0
159 180 0
163 183 0
158 178 0
155 176 0
151 171 0
158 178 0
150 170 0
156 175 0
156 176 0
156 176 0
156 176 0
151 170 0
155 177 0
159 178 0
160 181 0
155 176 0
156 177 0
162 183 0
162 183 0
159 180 0
157 178 0
162 183 0
160 181 0
155 176 0
160 182 0
162 184 0
157 178 0
160 181 0
161 182 0
161 182 0
157 178 0
160 181 0
158 179 0
162 184 0
163 184 0
164 185 0
159 180 0
163 184 0
160 181 0
165 187 0
163 182 0
165 186 0
163 184 0
158 178 0
162 183 0
166 188 0
162 181 0
160 181 0
166 187 0
161 182 0
162 182 0
166 187 0
167 188 0
163 184 0
160 180 0
162 184 0
160 181 0
165 187 0
164 185 0
161 183 0
161 181 0
166 187 0
164 186 0
167 190 0
163 184 0
165 187 0
164 185 0
164 186 0
165 186 0
167 188 0
166 186 0
166 189 0
166 187 0
160 178 0
165 185 0
166 187 0
161 182 0
164 187 0
170 193 0
163 183 0
167 188 0
166 188 0
166 187 0
167 188 0
166 188 0
164 185 0
165 188 0
177 199 108
172 195 105
173 196 105
166 189 92
175 198 108
174 197 84
170 193 99
177 200 111
173 196 102
170 194 88
171 194 95
170 193 114
173 196 114
171 194 92
173 196 102
169 192 114
172 196 108
170 193 80
169 192 67
172 196 80
168 191 99
175 198 99
172 195 122
165 188 105
168 191 102
172 196 102
169 193 105
168 191 105
176 200 125
168 191 84
171 195 102
171 194 88
167 192 108
169 192 105
166 189 76
162 186 95
171 194 92
160 184 67
165 189 84
164 187 72
170 193 67
169 192 72
166 190 117
162 185 102
167 191 105
170 194 99
165 188 102
167 190 108
159 183 72
161 185 95
160 183 76
162 185 95
164 188 105
165 188 111
162 185 92
167 189 99
165 188 80
163 186 114
156 179 72
161 183 84
163 185 95
163 185 95
164 187 102
170 192 105
158 180 80
157 180 92
162 185 95
156 179 84
158 180 62
160 183 88
161 183 95
167 190 105
164 187 130
157 179 114
156 177 88
167 190 92
164 186 92
155 177 62
151 174 99
158 180 102
156 177 84
156 178 92
159 181 102
160 181 80
146 167 88
151 173 95
151 173 76
148 170 76
156 176 108
157 178 117
150 171 67
165 186 130
156 177 88
159 180 99
149 170 102
152 173 80
144 164 92
143 163 88
150 171 102
153 172 105
149 169 88
159 177 102
151 171 102
149 167 99
152 170 108
146 166 88
148 167 102
131 149 88
133 152 62
141 159 99
148 165 88
145 164 80
150 169 88
119 137 72
148 166 84
131 149 62
121 140 44
128 147 44
124 141 67
118 136 57
133 151 51
113 129 44
121 138 51
110 128 57
109 125 51
141 159 51
122 141 36
122 141 0
136 154 25
131 150 25
128 148 25
140 160 25
142 160 0
156 177 0
155 175 0
152 175 0
151 171 0
145 165 0
149 168 0
136 155 0
137 158 0
134 152 0
136 155 0
126 144 0
124 142 0
104 121 0
127 145 0
131 149 0
112 131 0
107 125 0
125 143 0
120 139 0
126 145 0
125 143 0
120 138 0
111 129 0
121 139 0
108 127 0
108 125 0
102 120 0
109 126 0
130 148 0
113 129 0
107 125 0
108 125 0
99 116 0
112 128 0
113 130 0
114 132 0
105 122 0
113 130 0
99 117 0
123 142 0
101 117 0
99 117 0
123 141 0
117 136 0
102 119 0
105 122 0
114 131 0
100 116 0
102 119 0
104 122 0
111 129 0
106 124 0
111 129 0
118 137 0
118 136 0
112 130 0
117 135 0
113 133 0
106 125 0
104 123 0
102 120 0
106 123 0
105 123 0
116 135 0
101 120 0
114 134 0
112 130 0
108 126 0
114 133 0
107 126 0
114 133 0
116 137 0
114 133 0
116 135 0
123 140 0
122 142 0
109 128 0
128 148 0
118 137 0
123 142 0
116 134 0
129 148 0
120 138 0
124 143 0
122 140 0
134 152 0
129 148 0
122 141 0
121 141 0
137 158 0
131 149 0
123 143 0
132 152 0
129 148 0
131 151 0
140 161 0
133 151 0
141 161 0
126 146 0
135 156 0
129 148 0
122 142 0
128 148 0
127 147 0
142 161 0
136 156 0
130 148 0
135 153 0
125 146 0
137 157 0
135 155 0
141 162 0
141 161 0
129 149 0
139 159 0
131 151 0
143 165 0
140 161 0
139 157 0
133 152 0
141 161 0
149 171 0
145 166 0
142 161 0
145 165 0
138 158 0
139 159 0
137 158 0
155 176 0
147 169 0
153 174 0
149 168 0
145 166 0
145 165 0
146 167 0
139 160 0
147 167 0
151 172 0
151 172 0
149 168 0
155 175 0
151 172 0
149 170 0
149 170 0
142 161 0
153 174 0
147 167 0
145 166 0
151 171 0
141 162 0
158 179 0
150 170 0
150 170 0
152 172 0
152 172 0
149 169 0
154 174 0
149 169 0
155 175 0
147 168 0
154 175 0
143 165 0
151 171 0
151 171 0
150 170 0
151 172 0
156 176 0
146 167 0
152 173 0
157 179 0
160 181 0
154 175 0
149 168 0
152 172 0
145 167 0
159 181 0
159 179 0
160 181 0
157 179 0
154 174 0
150 168 0
150 170 0
157 177 0
161 182 0
161 183 0
151 172 0
154 175 0
156 175 0
155 175 0
158 180 0
156 176 0
156 178 0
148 168 0
160 182 0
152 171 0
161 180 0
163 183 0
154 176 0
156 177 0
161 179 0
163 185 0
159 180 0
163 184 0
162 184 0
168 188 0
164 185 0
155 175 0
161 182 0
161 182 0
157 179 0
155 177 0
162 183 0
157 178 0
161 183 0
166 186 0
161 184 0
160 181 0
163 185 0
169 191 0
160 182 0
159 179 0
163 184 0
159 181 0
160 180 0
159 179 0
161 182 0
158 178 0
168 189 0
162 183 0
161 182 0
162 184 0
163 185 0
167 187 0
160 180 0
163 184 0
165 187 0
162 183 0
159 180 0
166 187 0
168 191 0
165 186 0
166 186 0
161 180 0
166 187 0
160 180 0
164 186 0
165 187 0
168 189 0
165 187 0
160 183 0
163 184 0
168 190 0
162 183 0
169 189 0
164 183 0
169 191 0
161 183 0
162 183 0
167 188 0
163 186 0
165 188 0
164 187 0
169 191 0
168 190 0
166 188 0
167 188 0
162 183 0
174 197 102
173 196 95
173 196 99
169 193 88
174 197 105
172 195 88
172 195 99
175 197 102
170 194 84
171 194 92
174 197 114
168 192 80
166 188 80
170 193 99
172 195 95
172 195 102
171 194 84
174 198 88
168 192 95
174 197 114
168 192 99
172 195 95
169 192 111
165 189 99
161 185 84
165 188 84
170 193 92
174 197 92
171 194 99
163 186 99
170 194 99
170 193 99
169 192 76
166 190 62
171 194 114
167 190 102
164 187 99
164 187 84
161 185 76
165 188 92
166 190 92
167 192 108
168 192 92
166 190 84
163 186 92
167 190 88
163 186 84
162 185 102
162 184 95
165 189 102
168 191 99
163 186 92
162 186 99
165 188 102
167 190 88
159 182 88
171 194 99
167 190 99
166 189 102
159 181 114
167 190 102
162 184 102
165 187 108
164 187 111
161 184 105
162 185 111
162 185 84
157 180 111
157 179 95
166 188 105
160 182 95
158 179 102
162 184 92
152 175 95
153 176 88
158 179 117
162 184 117
156 178 108
156 178 80
160 182 72
155 177 95
148 168 84
160 182 105
157 178 88
159 181 102
156 177 114
157 178 88
152 174 102
148 169 80
154 174 114
160 181 99
154 176 80
161 182 114
154 175 72
151 172 95
156 176 114
159 178 102
149 168 114
154 173 92
152 171 114
143 162 95
151 171 84
157 177 111
150 169 92
151 170 105
153 173 105
144 164 88
145 164 88
142 162 88
147 165 99
142 160 88
146 165 95
138 157 84
148 167 80
143 162 72
135 153 80
128 147 36
128 147 44
140 159 57
127 145 44
119 138 36
129 146 62
132 149 80
124 142 36
129 147 57
127 144 51
127 145 36
126 145 0
123 142 0
127 147 36
128 146 0
133 152 0
141 161 0
154 175 0
151 173 0
159 179 0
154 174 0
148 168 0
149 171 0
144 165 0
132 150 0
133 152 0
127 146 0
130 148 0
133 153 0
118 137 0
123 143 0
123 142 0
103 121 0
126 145 0
121 138 0
125 144 0
117 135 0
127 146 0
117 135 0
118 136 0
115 133 0
113 132 0
109 126 0
119 137 0
117 135 0
113 132 0
112 129 0
118 135 0
103 121 0
111 129 0
109 127 0
115 132 0
114 130 0
107 125 0
112 129 0
108 126 0
116 134 0
115 133 0
112 130 0
115 133 0
110 127 0
116 134 0
117 136 0
112 129 0
114 132 0
118 137 0
110 127 0
114 132 0
112 130 0
112 130 0
110 128 0
107 124 0
115 133 0
103 121 0
113 131 0
120 139 0
117 134 0
110 128 0
106 124 0
121 139 0
116 134 0
106 125 0
118 136 0
121 139 0
115 134 0
116 134 0
119 138 0
115 134 0
115 134 0
123 141 0
119 138 0
113 132 0
120 138 0
117 137 0
131 150 0
116 135 0
127 146 0
132 150 0
127 146 0
128 147 0
122 141 0
132 151 0
124 143 0
128 146 0
126 145 0
127 146 0
132 150 0
135 154 0
127 144 0
121 140 0
129 147 0
131 151 0
131 150 0
125 145 0
124 144 0
136 156 0
128 148 0
126 146 0
136 157 0
132 152 0
129 149 0
131 151 0
134 153 0
133 152 0
130 150 0
144 163 0
122 142 0
137 157 0
133 152 0
137 158 0
139 158 0
137 157 0
138 158 0
141 160 0
140 158 0
144 163 0
144 163 0
143 164 0
134 154 0
134 154 0
148 168 0
136 156 0
151 173 0
137 158 0
145 165 0
146 167 0
138 158 0
144 164 0
137 157 0
142 162 0
143 164 0
154 176 0
149 169 0
152 171 0
150 172 0
147 168 0
146 167 0
155 177 0
148 168 0
151 170 0
150 171 0
146 166 0
155 175 0
141 161 0
145 167 0
144 163 0
153 173 0
148 170 0
151 173 0
155 175 0
150 172 0
149 170 0
142 162 0
147 167 0
153 174 0
149 169 0
149 171 0
151 170 0
155 174 0
155 175 0
143 162 0
153 175 0
159 181 0
151 171 0
156 178 0
150 171 0
155 176 0
149 168 0
150 171 0
147 167 0
155 176 0
147 168 0
151 173 0
155 177 0
158 178 0
153 174 0
155 175 0
156 178 0
157 179 0
156 175 0
159 179 0
158 179 0
156 177 0
157 178 0
155 177 0
159 179 0
158 179 0
158 179 0
162 184 0
160 181 0
162 183 0
163 184 0
160 179 0
157 177 0
158 178 0
158 177 0
158 179 0
159 179 0
158 178 0
159 179 0
158 178 0
158 180 0
155 176 0
163 183 0
158 179 0
156 177 0
158 180 0
158 178 0
161 183 0
166 188 0
161 182 0
159 180 0
161 181 0
163 185 0
164 186 0
166 186 0
161 182 0
161 183 0
160 182 0
161 181 0
168 190 0
161 180 0
163 184 0
162 183 0
158 180 0
158 178 0
160 180 0
162 182 0
163 182 0
160 182 0
163 185 0
160 180 0
160 180 0
164 184 0
165 188 0
164 186 0
166 186 0
161 181 0
167 188 0
169 191 0
162 184 0
156 176 0
163 184 0
166 188 0
162 184 0
165 187 0
167 188 0
168 189 0
163 184 0
163 186 0
165 188 0
164 184 0
168 191 0
165 187 0
163 185 0
162 183 0
163 184 0
160 181 0
163 184 0
164 185 0
172 194 0
166 188 0
168 191 0
165 186 0
173 196 62
175 198 92
174 197 108
170 194 105
164 189 67
175 199 111
173 196 108
175 198 114
174 197 80
175 198 111
176 199 102
172 196 105
165 189 92
170 193 92
173 196 108
172 195 108
169 192 76
170 193 95
171 194 76
165 189 92
172 195 99
173 196 76
170 193 72
168 192 95
169 191 76
171 194 108
167 190 92
163 186 102
172 195 105
170 194 99
165 189 80
165 188 105
171 194 88
170 194 88
165 188 84
172 196 108
167 191 99
166 189 80
159 183 80
160 184 108
166 189 72
164 187 84
168 191 88
168 192 114
167 191 95
164 187 92
166 190 105
170 194 105
167 190 84
159 182 72
164 187 102
158 181 88
171 194 95
162 185 105
166 189 105
168 190 92
164 187 108
163 186 105
161 184 99
162 185 111
159 182 88
159 182 84
161 184 84
156 179 72
162 185 92
164 187 99
158 180 84
160 182 95
164 187 117
160 183 111
167 189 92
157 179 117
158 180 105
156 178 99
160 182 114
157 180 80
163 185 92
163 185 105
160 182 95
160 182 117
161 182 88
161 182 95
152 173 95
164 185 111
160 181 92
159 180 84
158 179 95
164 186 95
150 171 84
156 176 84
156 177 105
156 177 88
153 174 99
145 166 76
150 170 99
165 185 102
146 166 99
154 174 108
152 172 84
152 172 72
152 172 105
152 172 84
140 159 102
146 166 84
143 163 76
147 166 105
156 174 111
151 169 111
151 170 102
141 159 92
148 167 99
142 161 62
153 171 95
133 151 80
142 160 76
141 159 76
143 161 62
124 143 62
134 152 67
134 152 62
145 164 88
133 151 67
137 155 62
135 153 62
121 137 57
126 144 0
134 154 25
112 131 0
122 140 0
131 149 0
142 161 25
131 150 0
145 166 0
159 180 0
161 182 0
148 169 0
146 169 0
143 164 0
143 164 0
144 164 0
134 152 0
144 165 0
124 144 0
125 144 0
126 146 0
123 141 0
119 137 0
114 133 0
119 137 0
112 131 0
113 131 0
131 149 0
138 157 0
130 150 0
109 126 0
113 130 0
107 125 0
122 140 0
117 136 0
120 138 0
104 123 0
112 131 0
114 131 0
124 143 0
123 142 0
125 143 0
115 132 0
108 127 0
111 129 0
104 122 0
121 139 0
115 133 0
115 133 0
104 122 0
108 127 0
108 126 0
110 128 0
116 134 0
108 127 0
111 129 0
113 132 0
110 128 0
110 129 0
116 135 0
107 125 0
105 123 0
110 127 0
105 123 0
120 137 0
110 127 0
117 136 0
104 123 0
126 145 0
113 132 0
109 127 0
123 142 0
120 140 0
118 135 0
116 135 0
119 138 0
134 152 0
117 137 0
118 136 0
112 130 0
113 131 0
119 136 0
119 138 0
125 144 0
119 137 0
127 146 0
122 141 0
125 145 0
126 144 0
125 142 0
122 141 0
142 163 0
126 146 0
123 142 0
124 142 0
127 146 0
137 157 0
124 142 0
129 147 0
125 144 0
128 148 0
138 158 0
134 153 0
130 149 0
130 149 0
127 146 0
130 150 0
128 148 0
124 144 0
138 158 0
133 152 0
140 159 0
136 156 0
133 153 0
137 158 0
137 156 0
134 155 0
139 160 0
127 147 0
136 156 0
139 158 0
136 155 0
131 151 0
142 163 0
133 154 0
143 162 0
141 161 0
145 164 0
137 157 0
134 155 0
141 161 0
136 157 0
141 163 0
146 168 0
139 158 0
138 159 0
151 172 0
124 142 0
141 162 0
145 166 0
137 158 0
148 169 0
149 169 0
148 168 0
144 166 0
144 165 0
142 162 0
151 172 0
149 168 0
143 163 0
152 174 0
145 166 0
154 174 0
145 164 0
150 170 0
150 170 0
147 167 0
149 169 0
149 168 0
153 174 0
158 179 0
151 172 0
148 169 0
154 174 0
152 173 0
151 170 0
149 169 0
153 173 0
154 176 0
152 173 0
155 175 0
144 164 0
155 177 0
160 181 0
159 180 0
151 174 0
155 176 0
156 176 0
154 175 0
156 178 0
156 175 0
156 177 0
151 172 0
156 177 0
153 174 0
159 180 0
158 179 0
160 183 0
151 170 0
161 182 0
150 171 0
151 173 0
159 180 0
156 176 0
149 169 0
159 182 0
164 186 0
156 178 0
160 180 0
152 174 0
156 176 0
160 183 0
158 178 0
156 178 0
161 183 0
166 188 0
156 177 0
153 174 0
155 177 0
165 186 0
158 178 0
161 182 0
155 178 0
161 182 0
160 181 0
165 186 0
158 179 0
159 180 0
165 185 0
158 179 0
164 186 0
159 179 0
161 181 0
163 184 0
164 185 0
161 180 0
161 183 0
161 182 0
159 179 0
165 187 0
165 186 0
161 182 0
163 184 0
162 184 0
167 188 0
162 183 0
164 186 0
162 184 0
165 187 0
163 182 0
164 185 0
164 185 0
165 187 0
161 181 0
168 190 0
165 186 0
163 184 0
160 180 0
166 189 0
164 185 0
163 184 0
162 184 0
162 182 0
166 186 0
162 184 0
164 184 0
167 190 0
165 187 0
167 187 0
168 189 0
164 187 0
160 182 0
165 187 0
159 180 0
168 188 0
164 184 0
166 188 0
161 183 0
162 184 0
165 188 0
168 190 0
169 190 0
166 188 0
167 189 0
162 182 0
169 191 0
174 197 108
176 199 92
172 195 76
172 195 88
179 203 144
173 197 88
169 192 84
168 192 72
173 197 105
171 194 88
173 196 95
170 193 88
172 195 102
171 194 120
171 195 102
169 193 102
168 191 92
171 195 102
172 195 99
170 192 84
166 190 95
168 191 84
172 195 88
167 190 92
166 189 99
169 193 102
167 191 99
166 190 102
170 193 92
172 194 95
172 195 95
168 191 88
166 190 99
167 189 80
169 192 95
171 195 111
169 192 92
172 195 92
164 188 80
162 186 95
171 194 102
173 196 84
159 182 67
163 187 95
167 190 95
163 186 88
165 189 99
156 180 80
162 185 88
164 188 84
166 189 92
157 180 88
164 186 95
161 184 92
158 181 80
165 188 105
163 186 95
166 189 105
166 189 95
169 192 105
161 184 111
161 185 88
163 185 108
156 179 88
165 188 105
164 187 92
170 192 95
156 179 84
157 180 80
153 175 95
157 179 105
154 177 95
168 190 117
159 181 84
151 174 72
157 179 88
157 180 80
167 189 111
158 179 92
158 180 80
160 181 95
161 182 84
160 181 102
161 182 111
158 180 108
153 174 88
158 179 84
150 170 92
160 183 80
149 170 102
159 180 92
152 173 102
157 178 105
161 182 117
149 170 99
155 175 125
151 171 92
155 175 111
150 171 80
152 172 114
156 176 99
150 170 95
156 175 108
145 164 99
145 165 72
159 177 102
142 161 108
152 170 99
146 165 80
148 168 84
144 163 99
139 158 67
139 158 92
147 166 88
142 161 67
130 151 62
138 158 57
128 147 36
130 150 44
141 160 57
121 140 36
132 152 44
140 158 62
127 145 62
130 149 44
129 149 36
119 138 0
126 145 0
137 156 36
132 153 0
131 150 25
138 157 36
153 173 0
160 182 0
153 174 0
159 179 0
154 176 0
152 172 0
142 161 0
144 165 0
140 161 0
127 146 0
139 160 0
138 159 0
122 142 0
126 146 0
121 140 0
132 151 0
117 135 0
120 139 0
115 133 0
114 133 0
132 152 0
125 143 0
114 133 0
118 138 0
116 136 0
135 155 0
115 134 0
128 147 0
127 146 0
115 135 0
109 127 0
122 141 0
116 135 0
123 140 0
109 126 0
110 128 0
112 129 0
104 121 0
114 133 0
120 139 0
105 122 0
111 129 0
106 124 0
119 138 0
114 131 0
109 128 0
109 127 0
105 123 0
113 131 0
103 121 0
130 148 0
122 140 0
121 139 0
102 118 0
117 134 0
120 137 0
113 132 0
114 133 0
127 145 0
131 150 0
124 143 0
112 129 0
119 139 0
123 141 0
116 135 0
129 149 0
125 144 0
123 141 0
128 146 0
113 133 0
125 144 0
117 137 0
131 150 0
122 141 0
117 137 0
118 138 0
122 142 0
121 140 0
123 143 0
120 140 0
123 143 0
122 141 0
120 140 0
115 136 0
134 153 0
124 144 0
131 150 0
137 157 0
129 149 0
124 144 0
132 150 0
124 144 0
132 151 0
122 142 0
133 152 0
132 152 0
126 147 0
135 153 0
142 162 0
131 150 0
137 159 0
133 152 0
131 153 0
135 155 0
143 162 0
142 162 0
138 158 0
125 145 0
133 154 0
135 155 0
128 147 0
136 156 0
144 165 0
138 159 0
133 153 0
145 166 0
138 159 0
130 151 0
142 161 0
136 157 0
146 167 0
150 171 0
139 160 0
148 169 0
138 157 0
151 173 0
149 170 0
143 163 0
145 167 0
144 166 0
142 162 0
147 167 0
144 163 0
146 167 0
148 169 0
157 178 0
149 169 0
145 164 0
138 159 0
147 168 0
154 175 0
148 167 0
146 166 0
142 163 0
149 172 0
156 175 0
142 163 0
146 165 0
150 171 0
142 163 0
147 166 0
150 172 0
149 170 0
156 178 0
148 169 0
152 174 0
147 169 0
149 170 0
147 167 0
153 174 0
158 179 0
151 171 0
153 174 0
147 168 0
149 168 0
155 176 0
153 175 0
158 180 0
149 170 0
156 178 0
155 174 0
155 176 0
151 171 0
148 169 0
158 178 0
154 177 0
157 178 0
157 178 0
155 176 0
157 178 0
159 181 0
147 168 0
157 178 0
163 183 0
154 172 0
152 172 0
156 178 0
160 180 0
159 179 0
163 185 0
157 178 0
158 179 0
155 176 0
160 181 0
155 176 0
156 177 0
160 181 0
161 182 0
160 182 0
161 182 0
161 182 0
160 182 0
161 181 0
160 182 0
164 184 0
159 179 0
160 182 0
159 179 0
168 190 0
159 180 0
161 182 0
160 182 0
162 184 0
167 188 0
165 188 0
160 180 0
166 187 0
160 181 0
162 184 0
159 178 0
159 181 0
164 186 0
164 185 0
165 187 0
159 180 0
163 184 0
163 185 0
163 184 0
167 189 0
162 182 0
163 184 0
162 183 0
162 182 0
160 181 0
163 184 0
160 181 0
162 183 0
162 183 0
159 180 0
165 186 0
166 188 0
160 181 0
160 182 0
160 182 0
164 184 0
160 180 0
165 188 0
167 189 0
164 183 0
166 188 0
166 188 0
165 187 0
160 181 0
161 182 0
165 186 0
168 190 0
165 187 0
167 189 0
168 191 0
165 186 0
164 185 0
166 187 0
166 185 0
166 188 0
169 192 0
162 182 0
167 189 0
169 191 0
172 195 92
171 195 72
176 199 99
175 197 108
173 195 111
172 195 95
170 193 88
167 190 84
170 193 92
170 193 92
171 194 95
168 192 105
166 189 95
171 194 92
174 198 105
173 196 92
169 193 102
171 194 99
166 190 92
167 190 102
172 195 88
169 192 114
169 193 111
172 195 99
174 197 117
162 184 84
168 192 92
166 188 99
170 193 102
168 191 92
165 188 102
169 192 102
167 190 84
166 190 84
164 189 99
162 185 84
168 192 92
165 189 76
165 189 95
165 188 84
166 189 72
167 191 114
164 187 99
167 191 105
164 188 102
167 191 125
168 191 99
168 191 99
158 182 84
165 189 108
161 185 122
160 183 88
153 176 95
164 187 99
163 186 84
167 190 99
163 185 88
166 190 95
164 187 80
159 182 114
162 185 92
167 190 102
158 181 102
163 186 88
161 183 88
161 183 88
165 188 114
164 186 88
162 185 95
158 181 88
157 179 102
160 182 99
159 182 95
161 184 95
154 176 76
157 178 72
158 181 99
153 174 102
160 182 111
158 180 105
165 187 84
157 179 108
159 181 105
156 178 95
146 168 88
154 176 84
159 181 84
156 178 102
154 175 105
151 173 105
159 181 105
160 181 102
159 180 105
155 175 92
157 177 102
152 172 76
149 170 51
146 166 105
149 170 92
148 169 84
158 178 108
148 168 88
155 174 84
149 168 95
148 168 102
155 174 99
149 168 84
161 180 125
150 169 105
150 168 84
145 164 95
146 163 105
142 162 67
145 164 84
138 156 62
130 149 51
146 166 57
130 149 44
133 150 76
135 153 72
138 157 62
134 153 44
133 152 44
143 162 51
139 159 36
126 145 25
138 158 25
126 146 25
126 146 0
131 150 0
144 165 25
138 159 25
145 165 0
158 179 0
159 181 0
146 167 0
155 175 0
157 179 0
143 164 0
147 167 0
136 156 0
126 145 0
140 162 0
135 154 0
127 146 0
122 141 0
126 146 0
116 134 0
124 143 0
121 141 0
132 152 0
121 140 0
126 145 0
129 148 0
119 137 0
133 150 0
120 138 0
120 138 0
113 134 0
127 147 0
107 125 0
120 138 0
121 140 0
123 143 0
124 142 0
113 132 0
122 142 0
118 136 0
124 142 0
104 122 0
127 144 0
118 136 0
116 134 0
118 136 0
116 133 0
119 139 0
130 149 0
126 145 0
105 123 0
122 142 0
122 140 0
129 147 0
115 135 0
117 135 0
115 133 0
106 124 0
108 127 0
118 136 0
113 131 0
123 141 0
112 130 0
121 140 0
116 135 0
122 141 0
112 131 0
118 136 0
132 150 0
118 138 0
113 132 0
129 147 0
124 144 0
125 145 0
121 138 0
124 141 0
121 139 0
122 141 0
122 141 0
122 140 0
122 142 0
126 144 0
127 145 0
128 148 0
134 154 0
124 144 0
126 145 0
127 146 0
128 149 0
126 145 0
122 142 0
124 143 0
141 162 0
131 151 0
132 153 0
125 144 0
129 150 0
122 142 0
129 150 0
120 139 0
134 154 0
139 159 0
135 156 0
129 148 0
130 148 0
138 157 0
138 159 0
132 154 0
141 160 0
127 147 0
137 157 0
140 159 0
136 155 0
140 160 0
129 150 0
142 164 0
145 165 0
134 155 0
140 160 0
147 167 0
140 161 0
145 166 0
147 167 0
144 165 0
144 164 0
139 160 0
138 158 0
144 164 0
145 165 0
146 165 0
147 168 0
148 169 0
149 170 0
149 170 0
143 165 0
152 172 0
147 167 0
142 163 0
149 169 0
147 168 0
141 160 0
145 165 0
146 167 0
154 176 0
150 171 0
143 163 0
151 172 0
154 175 0
140 159 0
150 169 0
144 166 0
150 171 0
156 177 0
149 169 0
147 167 0
145 166 0
145 165 0
150 173 0
150 170 0
155 176 0
151 172 0
144 164 0
150 171 0
152 174 0
149 169 0
151 173 0
148 169 0
145 165 0
156 177 0
148 169 0
161 183 0
146 167 0
149 170 0
155 175 0
149 169 0
157 178 0
151 171 0
153 174 0
162 180 0
154 175 0
158 179 0
154 175 0
156 179 0
159 178 0
157 177 0
162 181 0
167 188 0
156 177 0
157 178 0
161 182 0
151 171 0
158 180 0
151 171 0
155 175 0
163 185 0
160 182 0
158 180 0
151 170 0
162 184 0
161 182 0
156 177 0
162 184 0
159 180 0
160 180 0
161 182 0
157 177 0
156 176 0
158 180 0
163 184 0
160 182 0
162 184 0
160 181 0
162 183 0
159 180 0
165 187 0
161 182 0
162 183 0
161 183 0
162 182 0
165 187 0
160 180 0
159 181 0
161 183 0
159 179 0
164 184 0
161 182 0
163 186 0
159 180 0
160 181 0
160 180 0
163 183 0
159 180 0
164 185 0
166 189 0
161 184 0
163 183 0
161 182 0
164 186 0
163 185 0
165 187 0
163 185 0
169 189 0
163 185 0
162 182 0
164 186 0
168 189 0
165 188 0
160 182 0
166 188 0
165 186 0
166 187 0
167 190 0
162 183 0
165 186 0
168 189 0
164 185 0
164 184 0
161 182 0
165 186 0
169 191 0
164 186 0
166 188 0
169 191 0
168 190 0
165 187 0
167 190 0
164 183 0
168 192 0
167 188 0
164 185 0
171 193 0
167 188 0
174 197 102
175 198 117
176 198 92
169 192 102
179 201 130
175 199 105
174 196 105
171 193 76
172 195 102
172 196 84
169 192 99
171 194 84
171 194 88
172 196 95
173 196 111
171 194 95
168 193 88
172 196 67
167 191 105
172 196 102
172 195 99
169 193 92
169 192 114
169 193 105
174 198 114
175 197 88
170 193 108
170 193 95
168 191 105
168 191 99
171 196 102
169 191 92
172 195 80
167 191 88
166 189 88
165 189 95
168 191 92
171 195 95
165 188 95
164 188 80
167 191 105
166 190 99
166 188 99
166 189 88
169 191 92
169 192 88
166 190 95
160 183 92
167 190 102
170 194 80
163 185 92
171 195 111
166 190 95
165 188 88
167 190 95
165 187 92
164 187 111
160 183 88
166 188 108
163 185 84
166 189 111
158 181 108
161 184 84
161 183 80
157 181 88
160 182 95
155 178 102
147 170 95
160 183 95
168 191 114
168 190 105
161 183 117
154 177 99
161 183 102
159 182 95
162 184 92
158 180 99
156 178 95
154 175 92
157 180 80
161 183 105
155 177 92
157 178 95
159 180 99
161 181 102
159 180 92
155 177 95
155 175 99
163 184 105
154 176 76
152 174 80
161 182 92
158 178 92
160 181 76
159 180 95
154 175 111
147 167 102
148 168 92
159 179 105
152 172 95
158 177 108
149 169 102
157 176 114
165 184 105
159 178 114
156 175 99
139 159 88
151 169 111
154 172 99
151 169 120
152 171 88
150 168 105
148 167 80
148 167 80
143 162 72
136 157 51
142 161 72
142 162 67
138 157 51
132 151 57
136 155 62
136 155 51
132 151 62
141 161 44
122 142 25
126 146 25
130 149 25
131 151 0
118 136 25
141 161 0
138 158 0
146 167 0
156 178 0
152 172 0
154 177 0
152 172 0
149 171 0
138 157 0
141 162 0
143 165 0
140 160 0
135 156 0
136 155 0
133 153 0
132 152 0
129 148 0
116 135 0
129 149 0
127 145 0
128 147 0
129 149 0
130 149 0
117 134 0
120 140 0
130 149 0
115 134 0
129 149 0
117 135 0
125 145 0
120 140 0
117 136 0
115 134 0
127 146 0
127 146 0
116 134 0
118 136 0
113 130 0
117 136 0
112 131 0
101 119 0
113 131 0
115 133 0
121 139 0
121 140 0
111 130 0
116 134 0
125 144 0
115 135 0
126 144 0
99 116 0
118 136 0
122 141 0
119 138 0
120 139 0
117 136 0
123 142 0
113 131 0
108 127 0
111 130 0
122 141 0
121 139 0
114 131 0
122 141 0
114 133 0
121 141 0
118 138 0
125 144 0
130 148 0
122 141 0
124 144 0
121 141 0
109 128 0
117 136 0
111 130 0
128 147 0
121 141 0
134 154 0
121 140 0
131 150 0
124 143 0
121 141 0
135 155 0
123 143 0
132 151 0
132 151 0
117 137 0
132 151 0
120 139 0
130 149 0
130 149 0
132 150 0
126 147 0
138 157 0
137 156 0
131 152 0
131 151 0
134 153 0
132 149 0
122 141 0
138 159 0
135 155 0
134 156 0
136 156 0
136 155 0
134 154 0
125 144 0
125 144 0
135 157 0
141 160 0
139 159 0
133 153 0
137 156 0
132 152 0
144 164 0
140 159 0
146 168 0
141 162 0
136 155 0
145 166 0
143 164 0
148 167 0
133 154 0
130 150 0
142 163 0
142 164 0
148 169 0
146 167 0
142 164 0
150 170 0
137 156 0
148 169 0
140 160 0
147 168 0
147 169 0
141 161 0
148 167 0
144 164 0
144 165 0
147 168 0
141 162 0
150 171 0
148 169 0
149 169 0
148 171 0
153 175 0
151 173 0
142 162 0
141 161 0
157 180 0
152 173 0
148 169 0
155 175 0
155 176 0
151 173 0
150 171 0
148 170 0
152 172 0
155 176 0
148 167 0
149 170 0
144 167 0
150 171 0
155 177 0
158 180 0
151 171 0
159 181 0
153 174 0
154 175 0
147 168 0
152 172 0
158 180 0
157 180 0
159 180 0
151 172 0
148 169 0
151 171 0
158 178 0
160 182 0
150 171 0
150 170 0
151 172 0
157 178 0
157 178 0
158 179 0
154 175 0
156 178 0
156 177 0
155 175 0
155 176 0
158 180 0
154 174 0
160 182 0
163 183 0
155 178 0
157 179 0
156 178 0
161 182 0
154 174 0
155 176 0
159 181 0
160 180 0
160 182 0
162 183 0
160 182 0
161 182 0
159 181 0
156 176 0
164 185 0
164 187 0
164 185 0
165 187 0
159 180 0
162 185 0
165 187 0
160 180 0
160 182 0
162 184 0
161 182 0
163 185 0
165 186 0
166 187 0
163 185 0
163 184 0
162 183 0
161 181 0
164 184 0
164 185 0
164 185 0
163 184 0
160 181 0
165 187 0
160 180 0
168 190 0
163 183 0
168 189 0
164 186 0
167 189 0
163 184 0
162 184 0
166 187 0
167 188 0
168 191 0
165 187 0
164 185 0
163 183 0
166 186 0
164 185 0
165 186 0
165 186 0
163 185 0
162 184 0
164 187 0
168 190 0
167 188 0
169 192 0
167 188 0
165 187 0
164 184 0
168 189 0
167 189 0
161 182 0
168 190 0
168 190 0
163 184 0
166 188 0
166 188 0
163 185 0
165 187 0
169 191 0
167 189 0
172 195 102
172 195 99
178 201 92
173 196 105
171 194 92
175 198 88
170 193 95
173 196 95
174 197 108
168 192 67
172 195 84
168 191 95
170 193 84
168 191 84
168 191 76
174 198 120
167 190 57
172 195 88
171 195 108
171 194 76
171 195 76
166 189 84
169 193 102
170 194 76
167 190 105
172 195 114
172 195 102
168 192 92
168 191 108
167 190 95
171 194 92
165 189 95
167 190 99
170 192 92
167 190 72
165 187 72
168 191 99
166 190 72
168 191 88
166 190 99
166 190 105
161 185 84
167 189 95
161 184 84
161 185 84
167 189 88
163 187 76
164 188 102
166 189 108
160 184 84
164 187 99
164 187 102
157 180 84
170 194 99
163 187 92
165 189 120
163 186 92
162 185 102
164 188 102
162 185 95
159 181 108
164 187 99
160 183 95
161 184 105
158 181 84
164 186 95
160 182 102
159 180 62
163 186 99
165 187 99
163 185 114
165 187 102
163 185 88
155 178 88
166 189 122
155 178 67
168 189 95
159 181 105
155 176 108
155 177 84
150 172 72
158 180 114
152 173 57
164 185 108
151 172 72
159 180 95
151 173 84
152 172 99
159 180 99
165 186 111
162 182 95
158 177 105
155 176 99
163 184 102
154 174 88
156 178 84
155 175 95
159 180 88
159 179 105
162 180 108
144 164 99
145 164 92
145 166 57
155 175 95
155 173 127
159 178 120
160 179 105
136 155 95
150 169 99
155 174 111
150 169 95
154 173 92
150 170 76
151 170 88
147 167 72
133 152 36
131 151 51
139 157 76
142 161 57
140 159 57
141 160 76
136 155 57
139 158 76
140 159 25
127 147 0
128 147 0
147 168 0
129 150 0
135 155 25
146 166 36
134 154 0
144 164 25
151 173 0
160 180 0
148 170 0
164 185 0
149 169 0
152 173 0
150 171 0
144 163 0
147 169 0
145 166 0
145 167 0
133 155 0
125 145 0
128 148 0
122 140 0
128 147 0
126 145 0
128 147 0
126 146 0
132 152 0
135 155 0
129 148 0
119 139 0
119 136 0
131 150 0
119 138 0
122 142 0
116 136 0
132 151 0
117 136 0
133 153 0
111 130 0
122 140 0
124 144 0
128 146 0
128 148 0
110 128 0
127 146 0
117 135 0
120 139 0
128 146 0
120 139 0
134 153 0
120 139 0
117 136 0
122 141 0
125 144 0
122 142 0
99 118 0
116 134 0
120 139 0
118 136 0
122 143 0
122 141 0
110 129 0
122 140 0
119 139 0
119 138 0
127 147 0
119 137 0
118 137 0
119 138 0
118 137 0
122 141 0
126 144 0
129 149 0
120 140 0
123 141 0
117 136 0
123 142 0
126 146 0
136 155 0
123 143 0
126 145 0
118 138 0
131 150 0
134 155 0
135 154 0
131 151 0
123 143 0
104 123 0
130 149 0
136 156 0
131 150 0
127 146 0
133 153 0
130 151 0
128 148 0
140 160 0
133 152 0
129 148 0
133 153 0
140 160 0
130 150 0
143 162 0
131 151 0
129 149 0
129 149 0
142 161 0
139 160 0
145 167 0
142 162 0
140 161 0
144 164 0
139 160 0
137 158 0
146 167 0
145 164 0
143 164 0
144 164 0
134 154 0
142 164 0
145 166 0
132 154 0
133 152 0
139 159 0
140 160 0
139 160 0
143 162 0
135 156 0
143 164 0
147 166 0
144 164 0
137 157 0
147 168 0
142 162 0
144 165 0
148 167 0
152 172 0
149 168 0
143 164 0
147 168 0
151 172 0
144 165 0
139 158 0
152 173 0
154 175 0
142 163 0
141 161 0
148 169 0
143 164 0
149 169 0
150 171 0
136 156 0
155 177 0
153 174 0
141 161 0
148 170 0
152 174 0
148 168 0
157 180 0
152 172 0
148 169 0
147 167 0
149 169 0
156 178 0
153 172 0
154 173 0
151 172 0
157 178 0
150 171 0
157 179 0
149 169 0
150 171 0
152 172 0
158 179 0
158 180 0
158 180 0
153 172 0
153 174 0
150 170 0
155 176 0
151 172 0
152 173 0
153 175 0
157 178 0
156 178 0
162 183 0
160 182 0
160 182 0
159 179 0
155 175 0
160 181 0
156 176 0
160 182 0
158 180 0
158 180 0
159 180 0
157 178 0
163 185 0
154 174 0
159 181 0
165 184 0
158 180 0
158 178 0
157 178 0
160 180 0
161 182 0
160 181 0
158 178 0
163 185 0
154 175 0
157 178 0
158 179 0
160 181 0
165 186 0
159 180 0
159 179 0
165 186 0
160 182 0
163 184 0
163 186 0
167 186 0
165 186 0
159 180 0
162 185 0
164 184 0
159 182 0
163 186 0
164 186 0
163 183 0
164 186 0
165 185 0
156 176 0
161 182 0
163 184 0
164 185 0
158 180 0
161 181 0
163 183 0
164 186 0
159 180 0
164 185 0
168 190 0
163 185 0
165 187 0
164 186 0
166 187 0
165 187 0
162 184 0
167 190 0
167 188 0
164 184 0
163 185 0
165 187 0
164 185 0
167 190 0
160 181 0
163 184 0
166 189 0
166 187 0
164 186 0
167 188 0
161 183 0
166 187 0
169 192 0
165 187 0
161 182 0
167 189 0
164 184 0
162 184 0
169 191 0
168 190 0
163 184 0
164 186 0
164 186 0
165 188 0
171 193 0
170 193 76
176 198 99
177 200 95
171 194 95
172 195 84
171 194 84
174 198 117
168 191 95
174 198 95
174 197 99
173 196 80
169 192 99
175 198 111
169 193 80
171 194 88
166 189 76
173 196 102
167 190 80
165 188 84
170 193 99
171 195 102
174 197 92
168 191 99
164 188 95
166 190 76
169 192 92
164 187 76
170 194 105
166 189 108
163 187 95
168 191 92
166 189 95
170 194 108
167 191 84
170 194 99
166 188 84
170 194 114
166 189 105
170 194 105
166 189 92
170 193 108
167 189 80
171 194 111
165 188 95
164 187 95
160 183 84
165 188 99
164 187 117
159 182 84
165 188 88
167 190 111
165 188 102
167 190 105
164 187 99
159 181 88
165 188 102
165 187 57
154 177 88
157 180 102
165 187 88
160 182 95
170 192 92
157 180 95
161 184 105
166 189 92
159 181 84
162 185 88
164 187 102
160 183 99
160 183 111
169 191 117
164 186 92
162 185 111
162 184 108
156 178 92
160 183 92
151 173 99
161 184 105
157 179 95
157 180 102
165 187 99
154 176 80
152 173 92
164 186 99
164 185 111
155 176 92
166 188 92
162 183 99
162 183 105
165 186 108
150 171 84
160 181 95
153 173 95
151 171 80
162 183 105
147 168 84
163 184 108
156 176 102
146 167 72
150 170 92
156 176 67
153 173 108
156 175 105
155 175 105
152 171 92
155 175 105
152 171 102
155 175 99
164 183 120
150 169 88
162 182 105
142 162 84
145 165 76
140 160 51
149 168 76
142 161 72
143 164 57
145 165 62
132 150 57
139 159 67
138 158 57
146 167 44
137 157 0
136 157 25
138 158 36
128 149 25
137 157 25
135 156 0
139 159 0
138 158 0
142 163 0
145 167 0
149 169 0
156 178 0
147 168 0
150 170 0
158 180 0
157 179 0
151 173 0
142 161 0
142 162 0
147 167 0
131 152 0
137 157 0
141 162 0
141 161 0
127 148 0
131 150 0
126 145 0
126 147 0
118 137 0
121 142 0
133 153 0
132 152 0
127 147 0
127 146 0
119 138 0
128 148 0
120 138 0
121 141 0
126 146 0
122 142 0
116 135 0
130 149 0
136 156 0
128 148 0
136 155 0
122 141 0
133 152 0
127 145 0
123 142 0
105 125 0
125 145 0
119 138 0
117 136 0
125 144 0
128 148 0
125 144 0
118 137 0
118 137 0
112 131 0
119 137 0
128 147 0
130 148 0
122 141 0
140 159 0
119 138 0
126 145 0
115 134 0
119 138 0
124 143 0
121 140 0
129 148 0
123 141 0
126 145 0
126 145 0
124 143 0
129 148 0
131 150 0
117 135 0
128 147 0
118 137 0
124 143 0
127 148 0
113 133 0
126 147 0
133 152 0
125 145 0
122 142 0
118 137 0
132 152 0
126 146 0
130 149 0
128 148 0
134 153 0
133 154 0
133 153 0
136 157 0
133 153 0
141 161 0
133 153 0
142 163 0
123 143 0
132 152 0
131 150 0
145 166 0
127 147 0
139 159 0
142 162 0
133 154 0
141 160 0
136 155 0
132 152 0
146 168 0
141 162 0
136 157 0
136 157 0
143 164 0
136 157 0
142 163 0
140 160 0
131 152 0
138 160 0
142 163 0
131 152 0
137 158 0
142 162 0
150 171 0
145 165 0
134 155 0
144 167 0
139 160 0
143 162 0
151 173 0
149 170 0
137 156 0
153 174 0
147 168 0
147 168 0
141 162 0
141 163 0
148 167 0
147 168 0
151 170 0
136 156 0
154 177 0
148 169 0
148 169 0
148 169 0
146 167 0
154 175 0
148 168 0
157 178 0
149 170 0
143 163 0
150 169 0
151 173 0
153 174 0
152 173 0
147 168 0
144 164 0
157 178 0
151 173 0
148 170 0
150 172 0
157 177 0
157 177 0
150 172 0
148 170 0
149 171 0
157 176 0
158 179 0
154 176 0
161 183 0
155 175 0
156 178 0
156 177 0
155 177 0
159 180 0
155 176 0
156 178 0
158 180 0
156 177 0
151 171 0
159 181 0
154 176 0
155 175 0
159 183 0
154 174 0
157 179 0
149 170 0
155 176 0
157 179 0
153 174 0
159 180 0
156 177 0
156 179 0
157 179 0
158 180 0
161 182 0
156 178 0
160 182 0
155 175 0
164 184 0
160 181 0
159 179 0
156 177 0
159 180 0
160 181 0
158 180 0
161 183 0
159 181 0
161 182 0
160 182 0
159 180 0
159 179 0
158 180 0
164 184 0
162 184 0
164 186 0
164 185 0
162 183 0
162 183 0
160 179 0
162 184 0
161 182 0
164 184 0
160 181 0
161 183 0
159 180 0
162 183 0
163 185 0
164 185 0
163 184 0
163 185 0
160 181 0
164 186 0
163 183 0
166 187 0
166 187 0
164 186 0
165 186 0
165 186 0
158 178 0
166 187 0
164 185 0
162 183 0
157 178 0
158 177 0
166 188 0
165 186 0
164 187 0
164 185 0
163 185 0
166 188 0
158 180 0
159 181 0
165 187 0
164 187 0
166 188 0
165 187 0
165 186 0
164 186 0
163 185 0
164 186 0
169 190 0
163 184 0
169 193 0
166 188 0
167 189 0
167 189 0
168 191 0
163 184 0
165 187 0
167 189 0
169 191 0
165 186 0
166 188 0
168 190 0
166 187 0
179 202 117
170 193 114
173 195 88
170 193 84
174 197 105
174 197 102
173 195 80
174 196 114
172 195 80
169 192 105
172 195 88
171 194 72
173 197 92
169 193 108
174 197 99
172 195 102
169 193 84
173 196 117
173 197 108
169 192 102
167 191 95
171 196 92
167 191 80
171 194 111
169 193 76
165 189 99
168 191 95
169 192 92
174 197 105
171 194 108
168 191 111
168 191 117
164 188 92
171 195 108
169 192 111
173 196 114
169 192 84
165 188 99
167 191 88
161 184 99
168 192 108
167 191 130
169 192 111
161 185 111
163 187 92
166 189 80
165 188 88
162 185 108
165 188 92
165 188 92
167 190 92
159 181 80
168 191 114
162 186 108
161 184 72
166 189 102
162 185 88
165 188 99
168 191 117
167 190 84
163 185 99
169 191 99
158 180 80
161 183 88
162 184 111
162 184 102
155 177 80
159 181 84
159 182 111
162 184 99
155 178 92
160 183 95
154 177 105
164 187 99
159 182 95
154 176 99
162 184 92
159 181 88
172 195 108
158 179 114
161 182 99
158 180 102
160 182 95
162 184 108
158 180 92
157 177 88
152 173 92
157 178 84
153 175 95
158 179 105
160 181 120
153 174 76
152 172 102
156 178 102
167 187 108
153 174 84
158 179 114
151 172 99
162 182 99
157 177 114
160 180 102
157 176 99
166 186 120
156 176 92
154 174 102
141 159 95
144 162 117
157 176 114
156 176 105
158 177 80
160 179 122
152 171 67
141 160 76
145 166 76
143 163 84
152 171 80
141 161 62
146 165 44
140 160 25
134 153 36
137 156 67
138 158 57
147 168 36
133 154 25
131 151 44
145 164 0
140 160 0
144 166 25
133 155 0
139 159 51
131 150 36
129 149 25
154 175 0
154 176 0
152 173 0
156 176 0
144 165 0
156 177 0
142 163 0
143 164 0
146 166 0
140 161 0
131 151 0
126 145 0
137 157 0
132 153 0
131 150 0
125 145 0
126 146 0
126 145 0
131 151 0
132 152 0
139 158 0
136 157 0
126 146 0
118 136 0
126 145 0
125 144 0
129 148 0
123 142 0
127 147 0
121 141 0
123 143 0
118 137 0
124 143 0
127 146 0
121 139 0
135 154 0
131 149 0
127 147 0
118 139 0
118 137 0
124 144 0
120 139 0
117 136 0
133 153 0
120 139 0
125 145 0
116 134 0
117 136 0
123 143 0
112 131 0
120 140 0
121 140 0
108 127 0
115 134 0
121 141 0
123 141 0
122 142 0
126 146 0
122 142 0
122 141 0
121 141 0
126 146 0
115 134 0
135 154 0
117 136 0
117 137 0
120 140 0
129 148 0
140 160 0
123 142 0
117 137 0
125 145 0
121 140 0
132 152 0
127 146 0
125 145 0
131 150 0
126 146 0
134 155 0
132 152 0
131 150 0
131 150 0
131 151 0
129 149 0
134 154 0
138 158 0
132 153 0
127 147 0
134 153 0
129 149 0
132 153 0
134 153 0
134 152 0
129 149 0
141 162 0
134 155 0
135 155 0
138 157 0
134 155 0
146 166 0
134 155 0
140 160 0
139 159 0
139 159 0
137 158 0
144 165 0
133 153 0
141 160 0
139 161 0
132 152 0
134 153 0
134 154 0
143 165 0
147 168 0
137 156 0
143 164 0
145 166 0
151 172 0
133 152 0
153 175 0
152 173 0
138 159 0
144 165 0
142 162 0
140 160 0
142 163 0
146 166 0
134 155 0
139 159 0
141 162 0
139 160 0
149 170 0
140 159 0
150 171 0
151 172 0
148 167 0
148 169 0
146 168 0
149 171 0
146 166 0
155 176 0
151 172 0
153 174 0
150 171 0
152 173 0
154 175 0
152 175 0
151 170 0
157 179 0
148 169 0
153 174 0
150 170 0
147 169 0
148 167 0
149 169 0
151 173 0
154 176 0
148 170 0
150 171 0
160 182 0
150 172 0
160 180 0
156 176 0
158 179 0
153 173 0
144 164 0
158 181 0
151 173 0
153 174 0
154 175 0
150 171 0
151 172 0
151 171 0
160 182 0
153 174 0
152 174 0
157 178 0
160 181 0
159 181 0
154 175 0
153 173 0
155 176 0
166 188 0
164 185 0
156 178 0
156 177 0
157 179 0
157 179 0
160 183 0
159 180 0
159 181 0
158 179 0
162 183 0
156 178 0
162 184 0
158 178 0
161 182 0
157 178 0
157 178 0
159 181 0
159 180 0
161 181 0
160 181 0
160 182 0
158 180 0
159 181 0
164 184 0
164 186 0
164 187 0
161 184 0
160 182 0
162 183 0
159 180 0
161 182 0
161 183 0
160 181 0
164 184 0
156 177 0
155 176 0
163 185 0
160 183 0
161 182 0
164 185 0
164 184 0
164 186 0
167 187 0
166 188 0
167 189 0
163 185 0
163 185 0
165 186 0
163 185 0
165 186 0
160 181 0
166 187 0
169 190 0
167 188 0
162 183 0
165 186 0
164 185 0
166 190 0
163 185 0
164 185 0
169 192 0
163 183 0
161 180 0
165 185 0
165 187 0
169 191 0
163 184 0
166 187 0
164 185 0
161 182 0
163 185 0
170 192 0
165 188 0
166 186 0
163 183 0
169 191 0
165 186 0
166 188 0
163 185 0
171 193 0
168 189 0
167 189 0
167 189 0
167 189 0
167 187 0
169 192 108
170 193 88
170 193 99
171 194 80
173 196 88
175 197 117
170 194 99
176 199 117
172 195 92
173 196 99
176 200 117
171 195 108
169 191 95
174 197 99
172 195 95
173 196 102
169 192 99
170 194 95
171 194 95
172 195 95
167 190 111
165 188 95
168 191 92
174 198 102
169 193 105
161 184 95
166 189 72
176 200 125
172 196 95
170 194 120
170 194 99
170 194 108
165 188 84
170 193 88
172 195 102
168 192 99
167 191 108
167 191 102
174 198 122
162 186 76
168 192 92
167 191 105
167 190 99
161 184 84
169 192 120
166 190 84
169 192 76
158 181 62
168 191 114
170 194 88
166 190 95
165 187 88
164 187 102
160 183 92
165 189 105
165 188 111
168 191 102
160 183 108
163 186 92
163 186 88
163 186 105
158 181 88
171 193 102
161 184 108
166 189 111
160 183 92
165 188 99
158 181 88
158 181 102
156 179 105
160 182 88
161 183 88
167 189 95
156 178 108
160 183 92
157 180 95
162 184 92
161 183 99
155 177 92
156 178 114
153 174 95
159 181 99
159 180 95
159 181 95
154 175 105
161 183 84
162 184 95
165 186 92
169 190 114
154 174 102
149 170 99
159 180 99
154 176 84
149 170 95
151 173 99
155 176 105
148 168 84
155 175 105
148 169 88
156 175 99
156 177 99
150 170 95
153 173 92
147 167 67
164 184 114
151 171 102
157 176 122
155 175 105
149 168 95
147 167 76
149 169 76
159 180 62
149 169 62
143 163 80
148 168 67
150 170 67
152 171 62
146 165 62
131 151 57
139 159 36
137 156 44
133 154 25
144 164 25
127 146 36
136 155 36
136 156 36
140 161 44
139 159 0
140 160 51
145 166 0
143 164 25
141 162 25
155 176 0
156 178 0
157 180 0
153 175 0
150 172 0
149 171 0
146 167 0
151 173 0
142 164 0
149 171 0
139 159 0
132 153 0
130 150 0
130 151 0
140 160 0
124 142 0
125 144 0
135 156 0
123 142 0
130 150 0
136 157 0
124 144 0
131 151 0
132 152 0
130 149 0
122 141 0
125 145 0
134 154 0
127 146 0
125 145 0
117 138 0
120 139 0
128 147 0
124 144 0
129 149 0
127 146 0
126 144 0
122 142 0
113 132 0
134 154 0
120 139 0
125 144 0
118 137 0
138 158 0
116 135 0
124 144 0
106 126 0
130 149 0
125 145 0
124 145 0
128 147 0
128 147 0
129 149 0
121 140 0
124 143 0
134 154 0
134 153 0
127 146 0
128 148 0
130 150 0
122 141 0
129 148 0
127 148 0
140 160 0
132 152 0
114 133 0
118 137 0
129 150 0
137 157 0
128 149 0
136 155 0
120 141 0
135 156 0
135 155 0
128 148 0
129 148 0
140 160 0
125 146 0
133 153 0
138 158 0
134 153 0
138 158 0
131 150 0
140 160 0
139 159 0
133 153 0
141 162 0
133 154 0
126 146 0
136 156 0
133 153 0
133 154 0
140 160 0
134 153 0
143 164 0
134 155 0
140 160 0
145 166 0
135 154 0
137 157 0
143 163 0
147 167 0
140 160 0
140 161 0
139 160 0
144 165 0
131 152 0
138 159 0
147 167 0
142 163 0
141 162 0
142 162 0
138 158 0
138 158 0
149 170 0
145 166 0
148 170 0
142 164 0
139 160 0
148 170 0
145 165 0
143 164 0
142 163 0
147 168 0
139 160 0
142 163 0
138 159 0
144 166 0
142 163 0
138 159 0
145 167 0
149 171 0
146 167 0
151 171 0
148 169 0
148 169 0
156 176 0
144 165 0
151 172 0
151 172 0
145 165 0
151 172 0
152 172 0
150 171 0
152 174 0
148 169 0
147 169 0
148 170 0
156 177 0
143 164 0
148 169 0
154 176 0
151 175 0
145 166 0
154 176 0
147 168 0
154 176 0
157 178 0
148 170 0
161 183 0
156 177 0
158 180 0
153 175 0
150 172 0
150 171 0
151 174 0
157 179 0
155 176 0
151 174 0
153 175 0
161 183 0
154 175 0
160 182 0
152 172 0
159 181 0
161 181 0
160 181 0
157 179 0
158 179 0
160 182 0
158 180 0
160 182 0
157 179 0
163 183 0
158 180 0
160 182 0
157 179 0
152 174 0
163 186 0
160 181 0
159 181 0
163 185 0
159 182 0
159 180 0
155 176 0
159 179 0
153 175 0
158 178 0
161 182 0
162 183 0
161 180 0
160 182 0
164 186 0
163 184 0
164 186 0
164 185 0
158 179 0
158 179 0
163 185 0
160 181 0
161 183 0
158 179 0
159 181 0
161 184 0
166 187 0
161 182 0
160 182 0
160 183 0
158 180 0
159 182 0
163 185 0
165 187 0
161 182 0
160 183 0
164 186 0
161 182 0
165 185 0
164 185 0
164 185 0
161 181 0
164 186 0
160 182 0
164 186 0
163 185 0
164 186 0
166 186 0
163 184 0
166 187 0
162 184 0
164 186 0
166 186 0
166 189 0
161 182 0
163 185 0
170 192 0
166 189 0
161 182 0
161 180 0
163 184 0
159 181 0
165 187 0
162 185 0
167 189 0
168 190 0
169 190 0
164 185 0
168 189 0
163 185 0
167 189 0
167 190 0
166 188 0
167 188 0
160 183 0
166 187 0
167 188 0
164 186 0
166 187 0
167 190 0
173 196 84
174 197 108
172 195 92
174 197 99
169 192 99
173 197 95
167 191 72
171 194 102
177 201 117
171 195 105
179 202 127
171 194 88
171 194 76
173 196 111
167 190 114
170 193 102
170 193 92
170 193 88
166 190 80
174 197 92
173 195 84
167 191 92
166 190 88
171 195 102
172 195 108
168 191 84
166 189 72
166 189 99
167 190 88
168 192 102
163 186 92
168 192 114
168 192 95
163 186 80
169 193 105
164 186 84
169 192 102
168 191 88
163 187 72
168 191 80
161 185 84
162 186 92
166 189 88
164 187 80
170 193 95
165 188 105
165 188 84
169 193 95
167 190 95
158 181 92
163 187 95
170 193 120
166 189 102
168 191 114
161 184 102
157 180 72
163 185 88
163 186 111
167 190 102
158 181 84
160 183 88
162 185 92
165 187 80
161 184 108
163 186 133
161 183 92
154 177 108
166 189 108
163 185 76
158 180 95
162 185 84
155 178 80
159 182 102
164 186 92
160 182 105
165 186 95
154 176 88
154 176 88
163 184 111
162 183 114
165 187 122
162 183 105
161 183 105
156 178 80
166 186 102
159 180 99
151 172 80
157 177 92
147 169 80
160 181 108
157 177 84
154 174 99
161 182 102
158 179 92
151 172 99
158 177 111
159 178 102
154 174 105
156 177 95
160 181 80
147 167 92
158 178 102
165 185 114
159 179 99
158 177 102
161 181 111
157 176 111
147 166 99
164 181 120
158 177 122
147 166 99
152 172 92
150 170 76
151 170 76
143 163 62
144 163 92
144 165 51
146 164 72
136 156 44
149 169 67
144 165 44
138 157 25
136 157 44
145 167 0
141 161 36
144 164 25
131 152 0
141 162 25
140 159 0
142 161 25
151 173 25
139 158 0
157 180 0
159 181 0
160 182 0
159 182 0
151 172 0
147 169 0
151 171 0
140 162 0
144 164 0
138 159 0
135 156 0
142 163 0
134 154 0
134 155 0
133 152 0
138 158 0
131 152 0
132 152 0
129 148 0
134 155 0
120 141 0
128 149 0
120 140 0
125 144 0
133 154 0
129 149 0
126 147 0
122 141 0
129 148 0
126 146 0
127 147 0
122 141 0
116 136 0
128 147 0
125 144 0
130 149 0
128 147 0
123 142 0
135 155 0
132 152 0
137 156 0
129 149 0
125 144 0
118 137 0
122 141 0
120 139 0
131 150 0
130 150 0
126 146 0
131 150 0
121 141 0
126 145 0
137 157 0
125 144 0
126 146 0
135 155 0
128 148 0
130 149 0
125 144 0
125 145 0
130 151 0
132 153 0
130 150 0
125 145 0
122 141 0
131 151 0
124 143 0
124 144 0
125 145 0
133 153 0
125 145 0
143 163 0
133 153 0
136 156 0
130 149 0
123 143 0
139 159 0
134 154 0
134 155 0
131 152 0
130 150 0
136 156 0
129 149 0
137 157 0
129 149 0
141 162 0
137 157 0
133 153 0
139 160 0
140 159 0
144 164 0
144 165 0
136 156 0
136 156 0
136 157 0
142 163 0
134 156 0
135 156 0
139 159 0
135 155 0
146 167 0
126 146 0
140 160 0
137 157 0
139 159 0
137 157 0
145 165 0
140 160 0
129 149 0
143 164 0
142 162 0
138 160 0
143 163 0
144 164 0
140 161 0
146 168 0
142 162 0
139 159 0
141 161 0
150 170 0
145 164 0
148 170 0
141 162 0
147 168 0
141 162 0
141 162 0
144 165 0
142 164 0
148 169 0
139 159 0
153 174 0
141 162 0
155 178 0
145 165 0
148 169 0
148 170 0
150 172 0
155 177 0
143 164 0
143 162 0
145 166 0
156 178 0
145 165 0
150 169 0
148 168 0
149 171 0
149 169 0
152 173 0
157 179 0
155 175 0
147 168 0
146 169 0
155 176 0
149 171 0
149 170 0
156 178 0
150 171 0
160 181 0
152 174 0
156 176 0
154 176 0
153 175 0
160 183 0
158 179 0
155 176 0
145 165 0
157 177 0
152 173 0
155 175 0
156 177 0
159 182 0
156 178 0
154 175 0
156 178 0
156 177 0
158 180 0
159 182 0
159 179 0
159 181 0
156 178 0
160 181 0
159 180 0
159 180 0
157 179 0
158 180 0
157 178 0
163 185 0
161 181 0
154 175 0
155 177 0
156 177 0
158 179 0
161 182 0
160 182 0
162 184 0
160 180 0
157 179 0
161 185 0
159 180 0
156 177 0
163 186 0
162 183 0
161 183 0
159 180 0
160 182 0
156 178 0
162 183 0
162 183 0
162 184 0
159 181 0
166 188 0
159 180 0
158 179 0
164 185 0
167 190 0
158 180 0
161 183 0
165 187 0
162 184 0
166 188 0
159 181 0
162 185 0
164 185 0
163 184 0
160 182 0
162 184 0
162 185 0
165 185 0
165 184 0
165 186 0
166 188 0
165 187 0
164 186 0
162 183 0
164 185 0
166 187 0
162 184 0
168 189 0
165 187 0
163 183 0
165 187 0
168 189 0
166 187 0
166 188 0
163 184 0
166 187 0
158 177 0
164 186 0
167 190 0
168 190 0
163 183 0
169 191 0
165 188 0
165 187 0
166 188 0
167 190 0
165 187 0
166 188 0
164 186 0
166 187 0
167 190 0
167 190 0
170 193 0
166 187 0
164 186 0
165 187 0
169 192 0
169 192 0
172 194 108
171 194 92
175 198 102
171 194 80
169 192 111
173 196 99
175 199 95
176 199 102
176 199 102
168 191 88
170 193 105
173 196 92
169 192 94
169 193 80
172 195 92
168 192 108
169 191 92
169 192 102
172 195 92
170 193 92
169 192 108
171 195 105
169 192 95
172 195 102
166 189 62
170 193 80
164 187 95
168 192 117
165 188 72
171 194 117
171 194 76
165 188 95
166 189 108
169 192 88
162 186 95
167 191 99
170 193 105
167 190 102
169 192 88
168 192 92
166 189 105
166 189 72
160 182 72
165 188 84
166 188 102
162 185 84
161 184 84
166 189 95
172 196 102
161 184 99
162 184 95
165 188 88
165 188 92
165 188 88
167 189 111
168 191 105
171 194 92
162 185 88
168 190 95
157 180 88
169 192 102
154 177 88
165 187 95
162 184 102
164 187 105
160 183 92
168 190 92
160 183 84
160 182 95
158 180 99
154 177 105
158 179 95
165 187 108
162 184 95
161 183 108
157 180 92
158 180 95
156 178 88
167 189 117
161 183 105
161 182 95
156 177 95
160 181 88
154 176 88
150 171 84
163 184 105
150 172 84
150 172 92
167 187 114
163 184 99
156 177 108
165 186 108
158 180 84
149 170 76
159 179 114
156 177 95
152 172 84
158 179 80
162 182 108
153 173 84
160 181 108
157 177 105
148 168 88
149 170 88
162 181 102
154 174 105
149 168 92
166 185 114
157 176 92
138 157 36
154 174 88
149 169 88
148 168 80
143 162 80
153 173 84
149 168 84
145 165 67
137 156 57
141 162 51
154 174 62
139 161 0
138 158 0
136 158 0
147 168 44
134 155 44
136 157 0
136 157 0
133 153 0
145 166 36
145 166 36
139 161 36
146 168 25
159 182 0
163 185 0
157 180 0
148 170 0
151 173 0
146 167 0
150 171 0
138 159 0
141 162 0
137 159 0
140 161 0
139 161 0
139 159 0
136 156 0
134 153 0
145 165 0
135 156 0
131 149 0
127 147 0
131 152 0
130 150 0
149 170 0
132 153 0
126 146 0
121 141 0
130 151 0
129 148 0
132 152 0
124 145 0
122 142 0
133 153 0
130 149 0
131 150 0
125 145 0
135 155 0
134 154 0
131 151 0
128 148 0
130 149 0
120 139 0
120 139 0
113 132 0
121 140 0
124 142 0
118 138 0
132 152 0
130 149 0
125 144 0
127 148 0
125 144 0
129 148 0
124 144 0
122 142 0
134 153 0
129 149 0
126 146 0
129 149 0
124 144 0
133 154 0
122 141 0
123 142 0
129 149 0
136 156 0
123 143 0
120 137 0
123 142 0
128 149 0
129 149 0
132 152 0
124 143 0
128 147 0
132 152 0
131 152 0
128 147 0
137 157 0
140 160 0
128 147 0
129 150 0
125 144 0
137 157 0
123 143 0
132 152 0
136 155 0
138 159 0
136 156 0
142 163 0
128 149 0
135 154 0
129 149 0
122 143 0
135 156 0
141 162 0
137 158 0
135 156 0
141 162 0
131 152 0
134 156 0
134 155 0
135 155 0
131 151 0
143 164 0
139 159 0
131 151 0
141 162 0
142 162 0
142 163 0
135 156 0
136 156 0
143 163 0
143 165 0
141 163 0
151 172 0
141 162 0
143 164 0
140 160 0
148 170 0
139 159 0
146 167 0
138 160 0
149 170 0
148 168 0
149 169 0
145 168 0
147 168 0
152 173 0
159 181 0
145 166 0
141 162 0
149 170 0
149 169 0
149 171 0
149 171 0
147 169 0
154 177 0
148 169 0
149 169 0
148 169 0
149 170 0
141 161 0
150 171 0
154 176 0
153 175 0
150 173 0
152 174 0
155 175 0
150 172 0
147 168 0
152 175 0
156 176 0
156 176 0
160 182 0
154 176 0
149 170 0
150 170 0
148 169 0
154 174 0
156 177 0
153 175 0
151 173 0
155 177 0
153 173 0
152 174 0
151 172 0
156 179 0
150 171 0
156 176 0
151 172 0
151 171 0
151 171 0
160 182 0
156 178 0
158 179 0
149 169 0
156 177 0
156 178 0
158 181 0
159 180 0
160 182 0
157 180 0
156 177 0
160 183 0
156 179 0
154 176 0
163 184 0
157 179 0
159 182 0
159 179 0
159 181 0
160 181 0
159 180 0
161 183 0
161 183 0
163 184 0
161 184 0
165 186 0
160 181 0
157 178 0
163 185 0
162 184 0
161 182 0
158 181 0
161 182 0
164 183 0
164 187 0
162 184 0
158 180 0
160 182 0
156 178 0
160 183 0
164 185 0
160 180 0
166 187 0
161 183 0
161 182 0
159 180 0
163 185 0
159 183 0
167 190 0
166 188 0
163 185 0
162 183 0
163 186 0
161 183 0
163 185 0
165 187 0
168 189 0
163 184 0
163 185 0
165 187 0
160 182 0
169 191 0
164 186 0
160 183 0
167 187 0
160 182 0
170 192 0
162 183 0
169 192 0
164 186 0
166 187 0
158 179 0
170 192 0
162 184 0
164 185 0
161 183 0
164 185 0
166 187 0
162 183 0
165 188 0
162 185 0
168 190 0
162 184 0
167 189 0
167 190 0
164 185 0
163 186 0
166 189 0
159 181 0
164 187 0
163 186 0
165 187 0
165 188 0
166 188 0
167 190 0
165 185 0
167 190 0
167 188 0
165 186 0
171 194 105
172 195 80
173 197 108
176 199 111
171 194 95
174 197 105
174 197 84
171 194 92
174 197 105
167 191 57
164 188 88
167 190 88
166 190 76
172 196 92
165 189 80
169 192 84
172 195 111
172 196 95
165 187 72
170 194 80
167 190 84
170 193 102
170 193 114
168 192 92
166 189 95
170 193 88
171 194 108
171 194 105
170 193 88
168 191 80
171 195 105
171 195 114
168 191 99
175 198 99
168 191 76
172 196 117
164 187 102
167 190 76
167 188 76
170 192 67
166 190 99
168 192 108
168 191 102
166 189 72
169 192 108
169 192 105
164 187 92
163 186 108
166 189 105
159 181 80
167 189 84
162 184 105
168 190 84
168 190 99
168 191 99
167 190 99
162 185 88
163 186 99
153 176 76
163 185 80
166 189 108
154 176 76
161 183 102
160 182 88
162 185 57
160 183 88
163 186 99
162 184 105
165 188 88
158 180 95
165 188 99
159 181 88
160 182 80
155 175 84
157 180 102
164 186 105
160 183 88
168 191 120
162 184 111
166 188 105
162 184 105
158 179 92
158 180 84
159 180 92
158 181 84
157 178 108
164 186 111
157 178 99
159 180 88
159 180 102
163 184 102
152 173 80
155 175 95
154 175 95
159 180 88
154 175 88
160 180 102
153 173 111
152 173 84
151 171 72
156 177 88
163 183 95
158 177 99
163 183 105
151 171 84
152 171 95
151 171 99
163 183 108
155 175 92
153 173 80
154 173 88
149 169 76
147 167 62
139 159 72
140 160 67
150 170 67
148 169 44
145 165 57
141 162 0
150 171 25
135 156 0
135 155 25
141 161 25
145 165 36
155 176 25
136 157 25
142 162 0
148 169 25
149 170 36
150 171 0
149 170 25
149 170 0
151 172 0
160 181 0
157 180 0
157 178 0
153 175 0
141 163 0
149 170 0
140 161 0
146 166 0
137 157 0
145 165 0
132 153 0
149 170 0
132 153 0
130 151 0
143 163 0
129 149 0
138 159 0
143 163 0
137 158 0
122 143 0
143 162 0
139 159 0
126 146 0
136 156 0
131 151 0
134 155 0
130 150 0
127 146 0
132 152 0
126 146 0
124 145 0
126 146 0
138 158 0
122 141 0
119 140 0
126 145 0
131 150 0
117 136 0
126 147 0
128 148 0
126 145 0
132 151 0
137 158 0
127 147 0
129 149 0
126 145 0
135 155 0
131 151 0
124 144 0
138 159 0
126 146 0
128 149 0
128 149 0
139 160 0
125 144 0
129 149 0
127 147 0
138 157 0
129 150 0
142 163 0
122 142 0
132 153 0
131 151 0
132 152 0
131 151 0
135 155 0
122 143 0
129 149 0
140 160 0
132 152 0
121 140 0
131 153 0
128 149 0
130 151 0
141 162 0
133 155 0
134 154 0
135 157 0
141 162 0
130 151 0
130 150 0
141 162 0
136 156 0
132 153 0
136 156 0
137 158 0
145 166 0
135 156 0
140 162 0
136 157 0
144 164 0
138 158 0
132 154 0
140 161 0
143 164 0
145 166 0
137 160 0
145 165 0
137 159 0
137 158 0
139 159 0
140 159 0
148 170 0
143 165 0
143 165 0
147 169 0
140 161 0
138 158 0
148 169 0
139 160 0
140 162 0
137 158 0
141 163 0
136 155 0
153 173 0
133 153 0
145 168 0
140 161 0
146 166 0
149 170 0
147 170 0
145 167 0
150 171 0
147 170 0
153 174 0
151 173 0
157 179 0
151 172 0
147 167 0
149 171 0
148 168 0
148 170 0
149 168 0
147 168 0
152 174 0
144 165 0
148 170 0
153 173 0
146 167 0
153 176 0
143 165 0
148 169 0
147 169 0
155 176 0
151 173 0
143 164 0
153 173 0
148 170 0
147 167 0
143 165 0
152 172 0
153 175 0
157 179 0
155 176 0
154 175 0
155 176 0
155 176 0
156 177 0
153 173 0
153 176 0
154 175 0
159 181 0
152 173 0
151 173 0
157 178 0
160 180 0
162 184 0
156 177 0
155 177 0
157 179 0
159 181 0
150 171 0
160 181 0
148 169 0
155 177 0
162 185 0
157 178 0
153 174 0
160 180 0
161 183 0
159 179 0
153 174 0
158 180 0
156 178 0
160 181 0
158 180 0
161 183 0
157 179 0
160 182 0
159 180 0
163 184 0
159 179 0
155 175 0
160 180 0
159 181 0
164 185 0
162 184 0
160 182 0
164 185 0
167 188 0
162 184 0
161 184 0
159 178 0
157 179 0
159 180 0
159 180 0
164 185 0
163 185 0
158 179 0
160 182 0
162 184 0
162 183 0
162 183 0
161 183 0
160 181 0
159 180 0
162 183 0
161 183 0
165 189 0
166 188 0
160 182 0
161 181 0
161 182 0
164 185 0
161 182 0
165 187 0
162 183 0
164 185 0
167 188 0
158 180 0
162 184 0
167 191 0
167 188 0
157 178 0
166 188 0
158 177 0
163 186 0
165 188 0
167 189 0
168 191 0
168 188 0
166 188 0
165 188 0
166 187 0
164 184 0
170 192 0
161 183 0
168 190 0
165 187 0
167 189 0
163 184 0
165 187 0
170 191 0
164 184 0
170 191 0
164 186 0
163 183 0
162 185 0
164 186 0
164 187 0
161 184 0
168 189 0
162 184 0
167 189 0
164 187 0
167 189 0
168 190 0
172 195 84
175 198 120
174 198 105
174 197 99
171 193 84
176 198 117
173 196 88
176 199 105
172 195 114
172 195 99
165 188 62
172 195 84
171 194 95
175 198 102
173 196 108
170 194 95
164 187 62
174 196 92
166 189 92
173 196 114
167 190 102
167 189 80
172 195 88
170 194 108
173 196 108
171 194 84
169 193 92
170 193 80
165 188 76
167 190 84
171 195 120
171 195 108
166 189 92
168 192 92
168 192 99
169 192 99
166 189 84
164 187 95
168 191 95
171 194 122
169 192 92
165 188 95
160 183 84
164 188 92
160 183 80
169 192 84
160 183 67
165 188 105
166 188 105
164 188 95
167 190 99
168 191 102
161 183 84
161 185 84
159 182 67
164 188 105
162 184 76
160 183 92
164 187 95
169 192 130
162 185 88
161 183 88
163 185 102
157 180 92
161 183 88
161 183 92
157 179 92
159 181 88
165 186 102
165 187 95
162 184 108
157 179 95
159 180 62
166 188 99
161 182 76
166 188 105
159 181 88
159 180 95
155 177 76
156 178 95
152 174 62
156 177 92
162 184 111
160 180 84
160 182 95
157 179 88
155 177 108
151 172 84
159 179 105
155 175 88
162 183 102
156 177 72
154 175 105
158 181 92
162 182 105
157 178 105
155 175 105
150 171 95
155 175 102
145 165 80
148 168 84
155 176 105
153 174 102
157 176 108
168 187 108
157 178 102
153 173 99
151 171 84
142 162 72
144 164 67
141 160 62
147 167 76
145 166 57
143 164 72
147 168 57
150 171 76
148 167 62
143 164 51
150 170 25
136 156 0
146 168 36
140 161 0
150 171 36
146 168 44
153 173 44
147 168 0
147 168 36
141 162 0
135 156 0
149 171 44
145 165 25
149 170 36
159 180 0
161 182 0
156 178 0
158 181 0
155 177 0
149 173 0
155 176 0
148 170 0
153 175 0
149 170 0
130 151 0
148 169 0
144 166 0
145 165 0
137 157 0
126 147 0
125 145 0
135 155 0
141 161 0
139 159 0
142 161 0
126 147 0
121 141 0
130 150 0
125 145 0
143 163 0
141 162 0
134 155 0
133 153 0
134 154 0
134 154 0
134 154 0
134 153 0
123 143 0
129 150 0
128 148 0
131 151 0
131 151 0
127 147 0
133 153 0
128 148 0
129 149 0
141 161 0
124 144 0
133 153 0
124 143 0
129 149 0
134 154 0
135 155 0
130 150 0
131 151 0
126 147 0
136 157 0
128 149 0
128 147 0
133 153 0
130 150 0
126 146 0
132 152 0
129 150 0
129 149 0
136 156 0
126 147 0
127 147 0
133 154 0
138 158 0
133 153 0
139 160 0
130 151 0
132 152 0
127 147 0
129 150 0
129 148 0
134 155 0
134 154 0
128 147 0
130 150 0
130 149 0
131 152 0
123 142 0
140 160 0
141 162 0
124 143 0
141 161 0
134 155 0
145 166 0
138 158 0
142 162 0
144 164 0
135 157 0
133 152 0
138 157 0
132 153 0
134 155 0
129 150 0
143 165 0
140 160 0
135 156 0
136 157 0
149 170 0
129 150 0
141 161 0
138 158 0
149 171 0
146 166 0
147 169 0
145 167 0
141 164 0
145 165 0
146 167 0
139 160 0
142 164 0
146 168 0
145 166 0
137 159 0
141 162 0
146 167 0
143 164 0
147 169 0
147 167 0
148 170 0
145 165 0
149 171 0
154 175 0
147 168 0
135 156 0
147 167 0
147 167 0
140 161 0
148 170 0
150 172 0
152 172 0
147 167 0
148 169 0
145 166 0
154 174 0
145 166 0
149 170 0
146 166 0
157 178 0
152 173 0
155 177 0
148 170 0
154 176 0
147 169 0
156 177 0
150 171 0
151 172 0
145 164 0
156 179 0
149 171 0
153 175 0
152 174 0
149 170 0
153 174 0
162 184 0
156 177 0
160 182 0
155 177 0
155 175 0
149 169 0
158 179 0
155 177 0
149 170 0
157 177 0
154 177 0
151 174 0
154 175 0
161 183 0
156 175 0
149 170 0
156 177 0
155 174 0
153 172 0
153 175 0
157 179 0
157 178 0
153 173 0
151 172 0
160 181 0
155 176 0
163 184 0
158 180 0
164 187 0
163 186 0
156 177 0
161 184 0
158 180 0
163 184 0
162 184 0
155 175 0
155 177 0
160 182 0
160 182 0
156 179 0
164 186 0
160 181 0
162 185 0
159 179 0
163 185 0
166 187 0
155 178 0
161 181 0
160 183 0
160 182 0
155 176 0
159 181 0
159 179 0
164 184 0
159 180 0
159 179 0
163 184 0
164 185 0
161 181 0
165 187 0
164 187 0
164 186 0
165 189 0
158 181 0
162 184 0
155 177 0
161 183 0
166 188 0
162 183 0
167 189 0
166 188 0
163 185 0
162 185 0
165 188 0
160 181 0
159 179 0
167 189 0
165 187 0
157 178 0
163 186 0
167 190 0
166 188 0
165 187 0
160 182 0
162 184 0
165 187 0
164 187 0
164 185 0
166 188 0
161 181 0
164 186 0
165 188 0
162 183 0
166 188 0
164 186 0
163 185 0
165 187 0
166 187 0
162 186 0
169 190 0
160 182 0
163 187 0
167 188 0
163 185 0
163 185 0
167 190 0
163 185 0
163 184 0
168 191 0
165 187 0
170 192 0
163 185 0
167 189 0
170 191 102
173 195 105
174 196 88
179 201 114
170 193 88
173 196 105
173 197 99
171 194 102
171 194 105
173 196 92
171 194 102
175 197 92
166 189 92
170 193 84
173 197 111
166 189 95
170 192 95
174 197 108
170 193 105
169 192 80
171 195 88
169 193 117
169 192 105
174 197 95
167 190 88
170 194 99
169 191 99
169 193 108
170 193 95
167 191 95
169 192 117
168 191 67
168 192 102
167 189 84
170 193 130
161 184 88
165 189 84
166 190 99
166 188 99
167 191 105
169 193 99
168 192 108
159 183 88
168 191 120
165 188 67
161 183 84
164 187 80
169 192 92
172 195 117
161 184 80
162 185 92
159 182 99
165 188 99
166 189 102
164 187 95
161 184 102
162 186 102
163 186 88
165 187 80
161 183 102
161 183 88
164 186 108
156 179 95
166 188 99
159 182 99
166 188 105
165 187 120
160 183 102
161 183 88
165 188 88
161 183 99
170 193 108
167 188 102
157 179 92
163 186 92
161 182 102
163 185 95
162 183 80
164 187 102
162 183 102
159 181 95
156 178 92
157 178 95
159 180 95
157 178 108
154 176 99
155 177 80
150 172 88
164 186 88
145 166 67
157 178 84
160 180 102
160 180 105
168 190 92
157 177 111
157 178 102
160 181 92
153 173 84
153 174 95
162 183 88
161 181 105
162 181 108
155 175 84
152 172 105
152 173 88
159 179 99
153 172 88
143 163 76
153 174 62
161 180 105
153 173 84
150 171 72
144 164 62
157 177 92
153 174 88
153 173 62
148 168 76
144 165 36
139 161 0
144 165 44
144 165 36
150 170 36
147 169 25
144 165 25
142 164 25
140 160 44
142 164 0
151 172 57
153 175 0
142 164 25
147 167 44
152 175 36
156 178 0
154 176 0
158 180 0
153 175 0
161 183 0
151 173 0
149 171 0
150 172 0
143 165 0
148 170 0
150 172 0
138 160 0
131 152 0
145 166 0
134 155 0
138 158 0
138 158 0
131 152 0
140 161 0
130 150 0
138 158 0
134 155 0
139 159 0
123 144 0
130 151 0
137 157 0
143 163 0
124 144 0
120 140 0
121 142 0
134 154 0
126 146 0
138 159 0
131 151 0
133 154 0
125 145 0
131 152 0
126 145 0
130 151 0
141 162 0
128 148 0
133 153 0
128 148 0
126 146 0
133 152 0
129 150 0
133 152 0
133 153 0
133 153 0
135 154 0
127 148 0
120 140 0
128 148 0
125 145 0
127 147 0
131 153 0
131 151 0
125 145 0
135 155 0
127 146 0
138 157 0
133 153 0
135 156 0
141 163 0
132 152 0
135 156 0
129 150 0
136 157 0
146 166 0
134 154 0
129 149 0
127 147 0
136 157 0
137 158 0
132 152 0
140 161 0
140 160 0
131 152 0
140 160 0
135 155 0
134 154 0
130 150 0
137 157 0
141 164 0
136 156 0
142 162 0
128 149 0
135 154 0
135 156 0
133 154 0
130 150 0
138 160 0
143 165 0
139 159 0
135 156 0
143 164 0
147 168 0
144 164 0
140 161 0
141 161 0
142 163 0
129 149 0
141 162 0
137 158 0
137 158 0
143 164 0
145 166 0
137 159 0
149 171 0
153 175 0
145 167 0
143 164 0
145 165 0
142 164 0
146 167 0
142 163 0
150 172 0
145 167 0
145 168 0
144 163 0
140 161 0
146 167 0
136 157 0
154 175 0
143 163 0
141 163 0
145 167 0
158 180 0
152 174 0
154 175 0
152 174 0
152 174 0
151 172 0
155 176 0
147 168 0
155 176 0
148 167 0
146 167 0
148 167 0
140 161 0
153 175 0
153 175 0
146 168 0
156 177 0
156 177 0
154 176 0
149 170 0
152 172 0
161 182 0
154 176 0
151 174 0
157 179 0
148 169 0
158 180 0
150 170 0
154 175 0
156 178 0
154 175 0
155 175 0
151 172 0
156 177 0
160 182 0
165 186 0
152 174 0
151 172 0
153 174 0
156 178 0
158 181 0
162 183 0
158 179 0
158 179 0
152 174 0
156 178 0
149 170 0
150 171 0
160 181 0
159 181 0
162 184 0
156 178 0
161 183 0
156 177 0
158 179 0
158 179 0
159 180 0
153 174 0
161 181 0
161 182 0
163 186 0
161 183 0
163 186 0
163 183 0
164 186 0
158 178 0
153 174 0
161 183 0
163 185 0
165 187 0
162 183 0
158 179 0
161 182 0
156 177 0
168 189 0
166 188 0
165 186 0
161 181 0
162 183 0
163 185 0
163 185 0
166 188 0
158 178 0
161 183 0
163 185 0
163 186 0
161 183 0
168 188 0
158 177 0
160 183 0
166 190 0
165 186 0
160 181 0
162 184 0
167 189 0
162 184 0
163 185 0
160 182 0
168 190 0
165 187 0
164 185 0
168 188 0
163 186 0
163 185 0
154 176 0
160 181 0
164 185 0
171 193 0
161 184 0
164 187 0
168 190 0
164 186 0
166 187 0
164 184 0
165 187 0
162 184 0
170 191 0
162 185 0
163 185 0
165 187 0
168 190 0
164 184 0
164 185 0
165 186 0
164 185 0
165 186 0
168 190 0
164 187 0
167 189 0
169 190 0
166 190 0
169 191 0
164 186 0
166 188 0
164 187 0
166 188 0
162 184 0
166 189 0
168 190 0
166 186 0
163 184 0
173 196 88
174 197 108
173 196 111
175 198 84
173 196 99
172 195 88
175 197 105
173 195 102
176 198 92
174 198 99
173 196 99
172 195 102
172 195 76
168 191 105
170 194 95
168 191 111
171 194 95
171 195 111
170 192 67
172 195 95
170 194 80
172 195 102
165 188 92
172 195 99
172 195 95
176 199 99
164 188 84
171 194 105
171 195 111
168 191 99
167 191 88
167 191 99
170 194 88
163 186 76
165 188 99
166 189 95
170 193 88
169 192 105
168 191 88
161 184 88
165 188 76
169 192 120
165 188 105
171 195 111
169 192 95
168 191 102
165 189 102
165 188 92
171 195 125
160 183 72
165 188 108
170 194 108
166 189 102
167 190 102
162 186 102
168 191 95
167 190 127
171 194 122
159 182 88
161 184 99
161 183 95
162 185 88
164 186 95
164 186 111
164 186 108
165 188 92
159 182 92
157 180 99
165 186 99
164 187 102
165 188 95
152 174 95
171 192 95
158 181 102
162 184 92
165 186 114
162 184 108
159 180 99
158 179 88
168 188 111
161 183 67
162 184 102
157 179 92
156 177 95
165 186 105
151 171 95
165 186 105
158 180 88
153 174 88
155 175 92
151 173 84
162 183 95
169 189 117
152 173 99
164 185 105
159 179 95
154 175 99
158 180 92
165 186 72
156 178 92
155 176 80
156 176 72
158 177 102
157 177 88
156 176 99
151 171 88
158 178 92
159 180 95
158 178 80
161 180 88
154 175 72
154 174 88
162 183 92
150 170 72
153 174 51
156 176 92
145 166 44
140 162 44
148 168 36
144 165 25
148 170 0
145 167 62
151 172 36
146 168 0
144 166 25
149 170 36
147 169 25
155 176 44
139 161 36
147 167 0
151 172 0
152 173 0
158 179 0
160 181 0
149 171 0
158 180 0
157 179 0
140 161 0
154 174 0
144 166 0
137 159 0
140 162 0
136 157 0
138 159 0
144 164 0
133 155 0
140 160 0
134 156 0
131 151 0
132 152 0
147 167 0
151 171 0
141 162 0
137 158 0
127 147 0
129 150 0
134 154 0
135 157 0
138 158 0
147 168 0
135 156 0
135 155 0
136 157 0
130 150 0
136 155 0
144 164 0
125 146 0
133 153 0
133 154 0
136 156 0
128 147 0
122 142 0
133 154 0
135 155 0
134 154 0
128 148 0
136 157 0
125 145 0
131 153 0
118 138 0
127 148 0
133 153 0
131 151 0
140 160 0
131 152 0
131 151 0
136 157 0
131 150 0
126 146 0
126 146 0
134 155 0
125 145 0
144 165 0
131 150 0
131 152 0
125 146 0
122 142 0
133 154 0
141 162 0
139 159 0
132 153 0
134 155 0
128 149 0
135 156 0
136 156 0
136 157 0
132 151 0
137 158 0
137 158 0
127 148 0
138 158 0
133 153 0
135 156 0
137 158 0
138 159 0
142 162 0
131 153 0
135 157 0
135 155 0
140 162 0
146 167 0
135 157 0
145 166 0
136 156 0
142 164 0
142 163 0
136 157 0
147 167 0
132 153 0
142 163 0
145 166 0
144 165 0
144 165 0
141 163 0
146 167 0
141 161 0
142 163 0
147 168 0
141 162 0
151 172 0
145 166 0
144 164 0
145 166 0
158 179 0
138 162 0
149 171 0
140 162 0
146 168 0
142 162 0
145 167 0
140 161 0
143 164 0
146 166 0
142 164 0
145 166 0
148 170 0
149 170 0
147 169 0
148 169 0
144 165 0
147 168 0
156 178 0
154 175 0
148 170 0
153 175 0
145 167 0
155 176 0
155 177 0
148 169 0
147 168 0
152 174 0
152 173 0
156 178 0
156 177 0
146 168 0
151 171 0
151 173 0
154 175 0
146 168 0
154 175 0
155 176 0
152 173 0
149 171 0
149 170 0
154 177 0
152 173 0
147 168 0
150 172 0
154 175 0
155 175 0
152 173 0
157 177 0
154 176 0
153 175 0
158 180 0
159 181 0
148 171 0
157 179 0
154 175 0
155 177 0
156 178 0
159 181 0
160 182 0
158 180 0
157 178 0
158 178 0
163 183 0
158 179 0
157 178 0
158 180 0
154 176 0
161 183 0
161 182 0
160 180 0
157 177 0
157 179 0
155 178 0
164 185 0
156 178 0
159 181 0
156 178 0
158 180 0
162 184 0
159 181 0
165 187 0
158 179 0
161 183 0
159 180 0
163 184 0
166 189 0
161 183 0
160 181 0
162 183 0
167 190 0
158 180 0
161 183 0
156 178 0
165 187 0
157 180 0
157 177 0
161 183 0
160 181 0
166 188 0
161 184 0
156 179 0
165 186 0
162 183 0
158 180 0
162 183 0
162 183 0
161 182 0
167 190 0
162 184 0
170 193 0
160 181 0
164 187 0
167 188 0
163 184 0
165 187 0
164 186 0
165 187 0
163 185 0
161 183 0
163 184 0
158 179 0
164 186 0
160 182 0
165 187 0
168 189 0
163 185 0
162 185 0
163 184 0
170 192 0
166 187 0
162 184 0
163 185 0
166 187 0
156 177 0
165 188 0
167 189 0
169 192 0
165 187 0
164 186 0
168 189 0
165 187 0
168 189 0
166 187 0
166 188 0
167 189 0
166 188 0
167 189 0
166 188 0
169 191 0
170 193 0
163 184 0
169 191 0
167 190 0
162 184 0
167 190 0
170 194 0
175 198 102
174 197 92
176 198 92
172 196 76
172 195 92
173 196 111
174 197 95
174 197 99
176 199 105
170 193 114
171 194 99
170 193 80
172 196 99
176 199 122
169 192 105
175 198 95
169 192 88
172 196 114
176 199 111
170 192 84
170 193 102
170 194 102
166 190 84
165 187 95
169 193 92
173 196 92
167 190 102
176 199 122
170 193 92
165 189 88
168 191 76
170 193 92
166 188 62
167 191 95
167 190 88
169 192 111
165 188 84
172 195 108
167 189 102
170 194 111
167 190 99
163 187 84
171 193 102
164 186 88
171 194 80
167 190 88
165 187 76
170 192 99
166 189 95
168 192 105
165 187 92
168 192 92
156 179 80
167 188 95
168 191 95
163 186 102
157 180 76
166 188 95
163 186 92
168 191 102
164 186 95
162 185 84
167 190 99
163 186 105
164 187 80
168 189 99
157 180 102
165 188 102
167 189 92
161 183 84
157 179 114
163 185 92
155 176 99
158 180 92
162 183 108
163 185 102
154 176 95
157 179 80
162 184 95
155 176 102
159 180 88
159 181 88
153 175 67
168 189 92
162 183 105
157 178 88
163 184 84
153 174 99
163 184 88
152 173 95
153 175 76
166 187 99
161 182 88
160 180 92
159 180 105
159 180 88
160 181 102
162 182 111
161 181 105
149 168 88
154 173 92
161 180 102
160 180 99
149 169 76
162 182 102
155 176 88
160 180 92
159 180 84
153 172 84
156 177 80
143 163 76
155 174 84
148 169 67
154 173 88
157 176 102
150 170 88
152 173 44
146 169 0
140 161 36
146 167 0
146 167 36
137 158 25
144 166 36
138 159 25
144 166 0
145 166 0
145 167 0
149 171 0
140 162 25
143 165 25
148 170 0
153 175 0
159 182 0
151 173 0
152 175 0
152 174 0
151 173 0
148 169 0
151 173 0
141 162 0
141 162 0
143 165 0
137 159 0
143 165 0
140 161 0
133 153 0
138 157 0
139 160 0
135 156 0
139 160 0
139 161 0
137 158 0
132 153 0
130 151 0
135 156 0
137 158 0
139 159 0
133 153 0
128 148 0
132 152 0
137 158 0
139 159 0
128 149 0
139 158 0
134 154 0
132 152 0
130 151 0
133 154 0
138 158 0
129 150 0
132 152 0
131 153 0
138 158 0
122 142 0
132 152 0
130 150 0
142 162 0
140 161 0
130 150 0
133 154 0
134 153 0
124 145 0
125 145 0
135 156 0
138 158 0
136 157 0
134 154 0
134 156 0
139 159 0
138 158 0
130 151 0
140 160 0
134 155 0
125 147 0
130 152 0
127 148 0
137 157 0
134 153 0
130 150 0
132 152 0
136 157 0
127 148 0
131 153 0
132 154 0
142 164 0
135 156 0
128 149 0
131 151 0
137 158 0
130 151 0
140 161 0
143 164 0
138 159 0
134 154 0
140 160 0
129 149 0
133 154 0
138 160 0
142 163 0
141 162 0
140 162 0
148 169 0
132 154 0
138 159 0
137 158 0
148 169 0
137 159 0
141 162 0
149 170 0
146 168 0
136 157 0
141 162 0
147 169 0
142 162 0
141 161 0
140 161 0
145 165 0
142 164 0
147 169 0
143 163 0
147 168 0
138 159 0
141 163 0
140 160 0
150 172 0
146 165 0
149 171 0
149 169 0
141 161 0
138 160 0
154 177 0
143 164 0
143 165 0
137 160 0
153 174 0
150 172 0
150 172 0
146 167 0
143 164 0
151 173 0
151 172 0
149 170 0
154 176 0
140 161 0
153 174 0
141 161 0
149 171 0
150 172 0
161 182 0
154 174 0
148 170 0
146 168 0
151 172 0
150 171 0
148 170 0
154 177 0
151 173 0
154 175 0
153 174 0
156 177 0
154 176 0
160 181 0
143 165 0
151 172 0
153 175 0
158 180 0
157 180 0
155 176 0
156 178 0
158 178 0
158 179 0
154 176 0
155 175 0
159 182 0
154 174 0
155 178 0
158 178 0
158 178 0
154 176 0
158 179 0
156 176 0
158 179 0
156 178 0
160 182 0
158 181 0
158 179 0
162 183 0
155 176 0
159 180 0
158 179 0
157 177 0
156 177 0
159 181 0
156 177 0
156 178 0
161 183 0
157 179 0
159 181 0
157 180 0
156 176 0
155 176 0
161 181 0
159 182 0
155 176 0
162 183 0
163 184 0
162 185 0
166 189 0
153 174 0
160 181 0
162 183 0
157 179 0
160 182 0
162 184 0
163 184 0
160 182 0
159 180 0
161 182 0
161 182 0
158 180 0
165 186 0
159 181 0
161 183 0
166 188 0
166 188 0
160 181 0
163 185 0
160 182 0
165 186 0
165 187 0
166 187 0
164 186 0
165 188 0
159 181 0
167 190 0
162 184 0
162 184 0
165 187 0
165 188 0
157 179 0
164 186 0
162 183 0
167 189 0
165 186 0
165 188 0
163 184 0
160 182 0
159 181 0
163 185 0
165 187 0
163 185 0
166 188 0
166 188 0
168 189 0
163 186 0
165 188 0
166 188 0
163 186 0
167 188 0
160 180 0
167 188 0
165 187 0
173 194 0
169 189 0
167 188 0
164 186 0
164 185 0
165 185 0
164 186 0
164 186 0
165 187 0
166 189 0
168 191 0
167 189 0
167 188 0
163 185 0
164 186 0
163 185 0
168 190 0
169 191 0
173 196 99
175 198 99
173 196 95
172 194 57
174 196 111
175 198 102
175 198 88
172 193 102
169 193 99
170 194 105
173 195 111
172 195 92
174 197 99
176 199 111
174 197 108
171 194 80
169 193 99
173 197 117
169 192 88
169 192 84
172 195 114
171 193 105
167 190 80
169 191 99
169 193 108
172 195 122
166 189 76
167 190 88
172 195 111
170 193 105
169 193 105
173 196 88
169 192 72
168 191 84
168 191 108
164 187 92
165 188 92
161 184 95
165 187 88
166 189 36
168 190 92
170 193 102
161 184 84
168 191 88
170 193 76
159 183 72
167 189 99
166 189 80
169 192 92
163 186 80
168 191 120
161 183 92
170 193 108
160 183 99
159 182 84
161 185 76
162 185 92
164 186 122
167 190 99
166 190 105
158 181 95
164 186 92
164 187 88
166 188 84
164 186 92
165 187 80
163 186 102
159 180 92
157 179 95
163 185 99
161 183 80
156 178 88
156 178 76
164 186 92
163 184 92
161 182 88
161 182 99
158 180 99
159 181 111
169 191 117
163 184 108
163 184 105
155 178 92
157 178 84
155 177 95
160 181 99
164 185 117
157 178 80
161 182 92
165 187 95
160 180 117
163 184 111
161 182 122
161 182 114
166 187 117
157 178 84
156 177 95
156 176 102
161 181 95
156 177 88
162 182 102
164 184 111
158 177 99
154 175 92
157 178 105
161 180 95
160 180 95
159 179 99
151 171 76
156 175 92
161 181 102
151 170 92
149 171 44
152 172 72
148 168 67
145 168 57
158 180 51
151 172 0
158 179 25
149 170 44
150 172 0
148 169 25
141 162 25
153 174 51
151 172 25
140 162 25
146 167 36
137 159 0
145 165 25
148 170 25
153 175 0
153 176 0
162 184 0
154 177 0
153 174 0
156 178 0
153 174 0
151 173 0
148 169 0
152 174 0
146 167 0
140 162 0
143 164 0
146 167 0
141 162 0
140 162 0
132 152 0
144 165 0
147 169 0
128 150 0
135 155 0
131 150 0
138 158 0
130 150 0
141 161 0
134 155 0
136 156 0
128 149 0
131 153 0
138 159 0
146 167 0
142 163 0
131 152 0
134 155 0
141 160 0
147 168 0
132 154 0
142 161 0
127 149 0
139 160 0
139 159 0
138 159 0
126 147 0
142 162 0
131 152 0
148 169 0
122 143 0
124 144 0
123 142 0
144 163 0
129 150 0
132 153 0
132 154 0
136 156 0
136 156 0
141 163 0
137 157 0
138 159 0
142 162 0
145 166 0
128 148 0
143 164 0
126 146 0
130 151 0
130 150 0
135 155 0
133 154 0
137 157 0
134 156 0
141 162 0
138 160 0
135 156 0
130 152 0
130 150 0
129 151 0
142 163 0
143 162 0
134 155 0
137 158 0
137 158 0
132 153 0
136 156 0
137 158 0
140 161 0
143 163 0
139 161 0
144 164 0
138 159 0
142 163 0
142 164 0
147 168 0
144 166 0
139 159 0
147 168 0
147 168 0
139 160 0
150 170 0
138 157 0
150 171 0
146 167 0
147 169 0
139 160 0
143 163 0
146 167 0
143 165 0
141 163 0
141 161 0
147 170 0
146 168 0
146 167 0
142 163 0
153 174 0
154 175 0
145 166 0
153 174 0
149 170 0
143 163 0
144 165 0
147 167 0
142 163 0
147 170 0
139 162 0
150 172 0
147 168 0
156 178 0
149 169 0
150 172 0
146 167 0
149 171 0
153 174 0
147 169 0
150 170 0
149 170 0
152 173 0
149 169 0
156 178 0
159 181 0
151 172 0
152 174 0
150 172 0
151 172 0
156 179 0
147 167 0
152 174 0
150 170 0
149 171 0
158 179 0
150 170 0
155 176 0
151 172 0
150 171 0
150 171 0
144 165 0
150 172 0
156 178 0
157 179 0
150 170 0
156 179 0
155 177 0
153 174 0
156 178 0
152 175 0
159 181 0
157 179 0
152 174 0
158 179 0
160 182 0
154 174 0
163 186 0
152 172 0
154 176 0
160 182 0
160 182 0
157 179 0
163 184 0
155 177 0
156 177 0
162 185 0
164 186 0
155 178 0
157 178 0
162 184 0
160 181 0
158 180 0
161 183 0
163 185 0
160 183 0
158 180 0
159 180 0
156 179 0
158 179 0
155 178 0
161 181 0
159 180 0
158 181 0
160 180 0
163 186 0
161 182 0
156 179 0
160 182 0
162 184 0
160 181 0
158 179 0
162 184 0
167 187 0
160 182 0
158 181 0
166 187 0
163 184 0
159 181 0
160 181 0
155 177 0
156 178 0
160 179 0
162 184 0
161 181 0
164 187 0
160 182 0
159 182 0
162 183 0
166 188 0
168 190 0
164 187 0
163 185 0
158 180 0
164 186 0
161 182 0
165 188 0
165 186 0
167 188 0
157 179 0
165 187 0
168 190 0
165 187 0
164 186 0
168 189 0
164 185 0
165 187 0
165 187 0
166 188 0
167 190 0
165 188 0
165 186 0
165 187 0
165 188 0
165 186 0
167 187 0
166 187 0
166 186 0
169 190 0
166 188 0
164 187 0
168 190 0
167 188 0
170 193 0
166 189 0
171 193 0
164 185 0
165 187 0
165 187 0
165 187 0
170 193 0
162 184 0
168 191 0
168 191 0
165 188 0
168 190 0
167 190 0
168 190 0
165 187 0
177 199 102
175 198 120
173 196 102
172 194 114
173 196 99
167 191 76
174 197 105
174 197 88
173 196 114
171 193 111
177 201 133
174 197 102
170 193 84
168 192 76
173 196 92
172 196 95
174 198 105
171 194 114
172 195 105
166 189 95
170 193 99
166 189 108
172 194 99
174 198 102
170 193 114
168 191 99
170 194 95
164 187 111
173 197 120
172 195 84
163 187 99
160 184 92
171 193 95
166 189 92
169 191 80
168 191 111
166 190 108
168 191 99
168 191 67
165 188 84
163 186 99
169 191 111
169 191 88
169 193 95
166 188 88
165 188 102
163 185 72
165 188 105
165 187 84
167 190 95
166 189 108
171 193 88
159 182 72
162 185 84
166 189 108
167 190 95
169 192 102
167 190 95
164 186 88
158 180 95
157 180 105
165 187 99
160 183 99
160 182 95
160 183 102
157 179 88
150 172 84
163 184 108
156 179 80
160 181 72
166 188 99
156 178 84
154 176 84
160 182 99
159 180 92
159 182 95
154 176 51
157 179 84
167 189 108
162 184 76
162 183 84
160 182 84
157 179 88
163 183 105
158 180 105
158 179 95
156 176 105
154 174 57
160 182 108
161 182 102
164 186 105
162 183 111
151 173 88
155 174 84
155 175 95
162 183 92
158 177 114
154 174 88
160 181 95
160 181 92
153 173 80
168 188 117
157 178 95
160 181 95
157 177 102
159 179 72
162 181 105
151 171 88
158 178 76
149 170 76
159 179 105
150 169 67
145 165 57
142 163 51
142 163 44
147 168 36
148 168 44
154 175 36
150 171 0
154 176 25
154 176 44
147 169 0
145 165 25
149 170 36
143 165 0
149 170 62
158 180 36
144 165 0
139 161 25
148 171 36
155 176 36
156 181 0
151 174 0
157 179 0
155 177 0
157 180 0
153 175 0
149 172 0
157 179 0
152 173 0
136 158 0
147 168 0
148 170 0
145 167 0
148 170 0
138 159 0
148 169 0
134 155 0
132 153 0
143 164 0
148 169 0
144 165 0
122 144 0
128 150 0
139 161 0
143 163 0
137 159 0
134 154 0
137 157 0
138 158 0
133 154 0
137 157 0
140 162 0
140 161 0
139 160 0
120 141 0
132 153 0
134 154 0
136 157 0
140 161 0
139 160 0
130 151 0
123 143 0
136 156 0
135 156 0
137 158 0
127 146 0
135 156 0
127 147 0
144 165 0
139 160 0
138 158 0
122 142 0
124 145 0
130 150 0
132 152 0
130 149 0
131 152 0
135 156 0
139 161 0
143 164 0
129 150 0
139 160 0
126 147 0
135 155 0
138 159 0
130 150 0
136 156 0
133 155 0
135 156 0
129 151 0
137 158 0
130 152 0
138 159 0
136 157 0
121 141 0
141 162 0
141 162 0
141 163 0
138 160 0
131 152 0
137 158 0
131 152 0
137 157 0
132 155 0
137 158 0
134 155 0
137 158 0
142 163 0
149 170 0
135 155 0
147 167 0
142 163 0
141 162 0
138 159 0
141 162 0
148 169 0
141 161 0
138 160 0
142 165 0
129 149 0
147 168 0
142 163 0
150 171 0
146 168 0
139 160 0
148 170 0
145 167 0
149 171 0
153 175 0
145 166 0
148 168 0
143 164 0
140 162 0
145 165 0
155 176 0
137 160 0
156 177 0
148 168 0
150 172 0
143 165 0
148 170 0
148 170 0
144 166 0
144 163 0
157 179 0
155 176 0
146 167 0
152 172 0
145 168 0
155 176 0
146 167 0
157 177 0
153 175 0
149 172 0
152 174 0
143 164 0
153 173 0
154 176 0
150 172 0
151 172 0
153 174 0
153 175 0
152 173 0
152 175 0
147 168 0
151 173 0
152 173 0
158 180 0
151 174 0
152 173 0
153 174 0
150 171 0
162 185 0
154 175 0
153 176 0
155 176 0
158 181 0
157 181 0
154 175 0
155 176 0
149 170 0
152 173 0
160 182 0
156 176 0
158 181 0
155 175 0
158 179 0
156 177 0
158 180 0
153 175 0
153 175 0
163 185 0
154 176 0
159 181 0
162 184 0
164 185 0
160 184 0
155 178 0
154 175 0
155 176 0
157 178 0
159 180 0
155 175 0
157 179 0
157 179 0
160 183 0
158 180 0
157 178 0
157 179 0
159 180 0
157 178 0
161 183 0
160 182 0
160 181 0
162 184 0
162 183 0
163 185 0
163 184 0
155 177 0
161 184 0
162 185 0
166 188 0
167 189 0
162 183 0
164 185 0
162 183 0
160 181 0
165 187 0
163 184 0
165 187 0
158 179 0
165 187 0
164 185 0
164 184 0
165 187 0
162 184 0
164 186 0
166 188 0
163 185 0
161 183 0
162 184 0
162 184 0
162 182 0
162 184 0
157 178 0
168 190 0
164 185 0
165 186 0
166 188 0
166 187 0
163 185 0
165 188 0
161 184 0
162 184 0
166 188 0
164 185 0
162 183 0
167 189 0
163 185 0
161 182 0
166 189 0
163 185 0
164 186 0
163 185 0
162 185 0
166 188 0
160 182 0
163 185 0
164 187 0
160 182 0
166 187 0
166 188 0
168 191 0
166 188 0
165 188 0
161 182 0
166 188 0
167 189 0
168 189 0
166 189 0
168 190 0
167 190 0
168 190 0
165 188 0
166 188 0
170 192 0
171 193 0
166 189 0
171 192 0
176 198 108
176 199 102
172 194 105
174 196 102
178 200 108
175 198 92
171 194 102
177 199 92
166 190 84
176 199 117
167 190 88
167 190 88
174 197 108
176 199 117
170 193 102
166 189 76
171 193 111
171 194 92
176 199 120
169 192 105
170 193 67
166 190 102
170 192 92
166 189 95
174 197 102
165 189 80
174 197 99
167 190 114
166 189 94
172 195 114
171 193 88
165 188 95
166 189 99
170 193 99
168 191 95
168 191 95
169 191 111
168 192 99
170 193 102
173 196 102
168 191 102
163 185 95
167 189 95
160 183 95
163 185 72
164 186 84
173 196 105
165 188 92
165 188 84
168 191 102
158 180 99
163 186 108
169 192 95
160 182 105
166 188 95
164 187 92
172 195 92
166 189 114
157 179 80
171 194 105
163 186 84
164 187 117
160 183 95
173 194 105
164 187 84
166 188 80
159 181 99
157 178 76
154 176 62
160 183 95
155 177 111
168 189 117
165 186 88
161 182 95
158 180 102
160 182 84
163 184 95
151 174 76
158 180 67
159 181 102
160 181 102
153 174 84
165 186 92
162 183 92
161 183 117
165 186 88
152 174 72
158 180 105
162 184 108
163 183 105
159 180 88
161 182 99
156 177 80
158 178 105
151 171 95
161 182 105
159 179 88
154 174 67
158 179 102
165 184 122
162 183 95
157 178 99
160 181 84
161 181 80
151 171 88
150 170 92
162 182 105
151 170 95
158 178 92
154 174 95
159 179 92
150 170 72
164 185 72
158 178 62
149 171 51
147 167 67
154 175 51
145 166 0
148 169 36
149 171 0
153 174 36
146 166 36
153 174 51
151 172 44
149 169 36
151 174 36
152 173 51
157 178 25
151 172 36
154 176 0
150 172 36
161 184 0
159 181 0
156 178 0
158 181 0
156 178 0
149 172 0
158 181 0
145 165 0
153 174 0
144 167 0
145 167 0
145 167 0
137 158 0
141 162 0
148 168 0
142 162 0
152 174 0
144 164 0
139 160 0
141 162 0
133 155 0
139 159 0
128 150 0
138 159 0
142 164 0
131 153 0
127 148 0
139 159 0
142 163 0
132 153 0
151 172 0
144 164 0
137 157 0
148 169 0
140 161 0
137 158 0
129 148 0
146 167 0
132 153 0
134 153 0
133 153 0
125 145 0
144 165 0
134 154 0
134 156 0
148 169 0
128 149 0
141 163 0
138 160 0
137 157 0
135 156 0
139 161 0
135 157 0
142 163 0
140 160 0
136 156 0
140 160 0
122 143 0
138 160 0
130 150 0
135 156 0
139 160 0
142 163 0
134 155 0
133 153 0
142 163 0
138 159 0
139 160 0
139 160 0
146 167 0
131 151 0
133 153 0
141 162 0
135 158 0
148 169 0
139 160 0
143 164 0
142 163 0
134 156 0
137 158 0
135 157 0
136 157 0
134 155 0
138 160 0
142 163 0
144 165 0
133 154 0
136 158 0
145 166 0
148 169 0
134 154 0
135 156 0
147 167 0
134 154 0
137 160 0
147 168 0
134 156 0
142 162 0
144 166 0
142 164 0
147 169 0
146 167 0
148 169 0
150 172 0
147 168 0
147 167 0
151 171 0
150 171 0
146 167 0
141 161 0
147 169 0
146 167 0
147 168 0
143 165 0
150 173 0
145 166 0
141 161 0
147 167 0
143 164 0
148 169 0
144 165 0
149 171 0
146 167 0
145 164 0
148 169 0
147 168 0
143 165 0
144 165 0
151 172 0
151 172 0
147 169 0
145 167 0
154 177 0
156 177 0
149 169 0
151 173 0
154 177 0
154 176 0
155 178 0
149 172 0
148 170 0
151 174 0
158 179 0
161 183 0
149 170 0
156 177 0
154 176 0
160 182 0
157 179 0
155 178 0
152 174 0
156 176 0
152 173 0
154 177 0
155 178 0
155 177 0
153 175 0
159 181 0
158 181 0
155 177 0
156 177 0
155 177 0
154 175 0
159 181 0
160 182 0
159 181 0
155 178 0
155 176 0
147 168 0
157 180 0
157 179 0
160 183 0
162 184 0
156 179 0
159 180 0
156 177 0
159 180 0
159 181 0
154 176 0
155 177 0
156 177 0
155 176 0
160 182 0
155 176 0
147 167 0
159 180 0
160 182 0
157 179 0
160 182 0
159 181 0
161 182 0
159 181 0
163 186 0
162 185 0
152 172 0
156 178 0
152 174 0
158 179 0
161 183 0
163 185 0
157 179 0
155 175 0
167 189 0
161 182 0
160 182 0
162 184 0
164 187 0
163 186 0
162 184 0
163 186 0
164 186 0
162 184 0
162 182 0
166 187 0
163 184 0
166 189 0
163 184 0
163 185 0
164 185 0
163 187 0
167 190 0
164 187 0
167 191 0
163 184 0
161 183 0
166 188 0
162 184 0
163 186 0
166 188 0
161 183 0
167 189 0
169 191 0
163 184 0
169 191 0
165 187 0
166 187 0
165 186 0
169 191 0
165 186 0
162 183 0
163 184 0
168 189 0
165 187 0
161 182 0
166 187 0
165 188 0
163 185 0
166 189 0
164 187 0
165 188 0
167 190 0
164 188 0
171 194 0
163 184 0
169 190 0
166 188 0
169 189 0
164 185 0
163 184 0
170 193 0
166 188 0
167 189 0
164 186 0
168 189 0
163 185 0
167 188 0
165 187 0
166 189 0
166 187 0
175 197 84
174 197 105
176 198 102
173 196 105
174 196 102
176 198 84
173 195 80
174 197 117
171 194 99
171 194 88
170 193 92
172 194 88
168 191 95
167 191 99
174 197 99
173 196 95
175 198 105
175 198 108
170 193 95
169 192 88
171 194 92
169 192 95
169 192 92
165 187 95
168 191 84
170 193 102
170 193 108
166 187 80
170 192 102
168 190 84
162 185 99
172 195 92
168 191 108
163 186 76
168 191 88
167 189 108
170 192 92
167 190 95
171 195 111
167 190 95
168 191 80
165 188 95
166 188 99
165 188 84
168 191 88
167 189 105
167 189 111
169 191 117
169 192 105
167 190 99
170 192 92
167 191 108
169 192 102
171 194 95
168 191 102
166 188 117
166 189 108
161 183 92
161 183 102
160 182 80
159 181 80
163 185 88
164 186 88
157 179 84
156 179 72
167 189 105
162 184 95
165 187 88
160 181 88
158 181 84
160 182 102
159 181 67
157 179 95
168 190 105
160 182 102
170 191 95
165 185 88
154 176 72
161 182 114
152 174 88
160 181 111
157 179 84
163 184 105
159 180 67
161 182 92
161 182 88
169 189 133
155 176 95
150 171 95
156 177 88
154 175 95
157 178 76
161 182 92
170 191 99
155 176 99
152 173 99
153 174 108
154 176 76
168 189 67
164 184 88
162 183 92
161 181 105
159 180 84
153 175 99
164 184 95
152 173 102
152 172 95
152 173 72
154 174 72
161 180 88
154 173 92
161 182 80
152 173 62
160 181 25
160 182 62
153 174 36
150 171 44
150 173 0
147 168 0
152 174 0
152 174 51
144 165 51
150 172 36
150 172 25
150 171 44
151 172 44
155 177 36
151 173 25
150 172 44
150 173 25
161 182 0
160 182 0
159 182 0
152 174 0
162 185 0
149 171 0
160 182 0
152 176 0
145 166 0
143 165 0
147 169 0
152 174 0
152 174 0
148 169 0
134 155 0
145 165 0
149 170 0
146 168 0
139 160 0
137 157 0
139 160 0
141 162 0
140 161 0
138 160 0
136 158 0
142 163 0
139 160 0
138 159 0
136 157 0
138 158 0
130 151 0
132 154 0
123 144 0
133 153 0
145 166 0
147 169 0
140 161 0
139 160 0
134 155 0
137 157 0
138 160 0
145 165 0
127 147 0
126 147 0
140 161 0
132 154 0
138 158 0
136 157 0
140 160 0
130 151 0
135 157 0
141 163 0
138 158 0
141 162 0
140 162 0
131 152 0
135 157 0
133 152 0
137 158 0
134 155 0
132 154 0
129 151 0
145 167 0
143 164 0
127 148 0
142 163 0
136 158 0
140 162 0
140 161 0
136 158 0
142 162 0
139 161 0
137 157 0
131 152 0
147 167 0
140 161 0
131 152 0
133 155 0
135 155 0
146 167 0
138 160 0
148 170 0
147 168 0
129 151 0
145 166 0
141 161 0
146 168 0
135 157 0
151 173 0
143 163 0
139 160 0
144 166 0
142 163 0
145 165 0
144 164 0
141 162 0
141 163 0
145 166 0
144 165 0
149 170 0
146 168 0
148 170 0
146 168 0
142 162 0
145 166 0
135 157 0
145 166 0
136 157 0
142 164 0
151 172 0
145 166 0
148 169 0
144 166 0
144 166 0
144 164 0
143 165 0
155 176 0
146 167 0
157 179 0
147 169 0
148 169 0
145 167 0
145 168 0
154 174 0
145 166 0
144 165 0
150 172 0
148 169 0
148 170 0
150 171 0
152 171 0
148 168 0
150 172 0
150 171 0
148 170 0
146 166 0
151 174 0
146 168 0
151 172 0
150 173 0
152 174 0
155 177 0
152 173 0
156 178 0
155 177 0
151 174 0
153 174 0
157 180 0
155 175 0
152 174 0
155 176 0
156 178 0
155 176 0
151 172 0
154 177 0
162 183 0
155 177 0
158 180 0
158 180 0
155 176 0
156 178 0
154 176 0
159 182 0
158 179 0
155 177 0
159 180 0
166 187 0
159 181 0
162 183 0
168 189 0
155 175 0
157 179 0
150 171 0
158 179 0
160 183 0
159 182 0
159 182 0
162 183 0
163 184 0
157 178 0
163 185 0
163 185 0
159 180 0
165 188 0
158 180 0
160 181 0
160 181 0
165 187 0
154 176 0
157 179 0
162 184 0
162 185 0
160 182 0
157 180 0
158 181 0
159 180 0
164 184 0
160 182 0
159 182 0
161 182 0
159 181 0
167 188 0
164 186 0
158 179 0
159 181 0
165 187 0
162 184 0
157 179 0
156 178 0
159 180 0
160 183 0
166 188 0
165 187 0
158 179 0
163 185 0
163 185 0
160 183 0
166 189 0
161 183 0
162 183 0
162 185 0
161 183 0
166 189 0
162 186 0
164 186 0
165 187 0
160 181 0
163 185 0
165 187 0
165 187 0
164 187 0
163 185 0
160 181 0
165 187 0
165 187 0
167 188 0
161 183 0
169 191 0
164 186 0
161 183 0
159 182 0
167 189 0
165 187 0
167 189 0
170 192 0
163 185 0
164 185 0
169 190 0
170 193 0
167 189 0
166 189 0
163 185 0
164 187 0
169 192 0
163 184 0
167 189 0
166 188 0
165 187 0
166 189 0
164 185 0
170 192 0
167 189 0
163 185 0
165 186 0
172 194 0
164 186 0
171 193 0
164 187 0
167 189 0
168 191 0
174 197 99
173 197 88
169 192 67
177 199 125
174 197 84
172 195 80
171 194 80
171 194 102
171 193 80
169 192 102
170 193 92
170 193 99
172 195 99
173 196 108
173 196 102
174 197 80
168 192 88
171 195 95
172 195 105
174 197 108
170 194 95
170 193 105
169 193 100
168 192 88
169 192 108
173 197 108
162 185 84
170 193 88
169 192 95
171 194 95
169 192 76
161 184 84
173 196 115
170 192 84
168 191 108
165 188 95
168 190 99
168 191 88
167 190 117
171 194 84
161 186 114
168 191 92
167 189 80
167 190 92
172 195 102
165 188 105
158 182 102
165 187 92
170 192 108
174 196 99
162 184 84
167 189 108
165 187 88
162 184 99
166 188 88
166 188 92
161 183 88
165 186 92
163 185 84
162 184 88
170 192 111
166 188 92
161 183 88
163 185 95
169 191 92
166 188 88
166 188 120
161 184 108
166 189 122
163 185 111
162 184 88
162 184 88
166 188 108
158 180 111
158 179 84
161 183 99
163 185 99
162 184 72
159 181 88
165 186 99
161 182 114
162 184 102
160 181 92
168 189 105
159 181 88
157 179 80
152 174 88
157 178 105
162 183 105
167 188 108
165 185 99
158 179 84
163 183 117
160 180 99
168 188 120
163 184 88
165 185 108
165 186 111
164 183 92
156 177 76
147 167 44
155 175 62
154 174 67
164 185 105
164 185 95
147 167 67
157 178 80
159 179 88
161 181 95
153 173 84
161 182 92
161 182 88
161 182 57
155 175 67
158 179 62
156 176 44
155 176 36
153 174 25
154 175 25
152 174 44
149 171 25
150 171 36
154 174 44
155 176 36
153 175 36
158 179 36
146 168 25
161 182 36
156 178 25
151 173 25
163 187 0
163 186 0
161 183 0
154 176 0
165 188 0
154 178 0
151 173 0
152 175 0
151 173 0
139 162 0
154 177 0
146 169 0
151 174 0
142 164 0
144 165 0
141 162 0
147 169 0
143 165 0
133 154 0
146 168 0
146 167 0
142 163 0
141 163 0
125 147 0
139 160 0
132 153 0
142 163 0
145 166 0
134 155 0
137 158 0
135 156 0
144 165 0
137 158 0
150 171 0
143 163 0
134 155 0
136 156 0
134 155 0
128 148 0
143 163 0
127 149 0
138 159 0
134 154 0
137 158 0
130 150 0
150 170 0
134 156 0
141 161 0
144 166 0
142 162 0
143 164 0
143 164 0
135 155 0
137 158 0
142 162 0
135 156 0
135 155 0
146 166 0
137 159 0
149 170 0
140 161 0
137 158 0
142 162 0
137 159 0
143 165 0
138 159 0
137 158 0
137 157 0
136 158 0
146 167 0
139 160 0
133 154 0
146 168 0
137 159 0
141 162 0
147 168 0
146 167 0
136 158 0
135 155 0
138 160 0
137 159 0
148 169 0
144 165 0
147 168 0
146 167 0
144 165 0
139 161 0
149 170 0
140 161 0
144 165 0
147 168 0
141 161 0
139 161 0
142 163 0
145 167 0
138 159 0
142 162 0
142 164 0
143 164 0
141 162 0
151 172 0
143 163 0
137 159 0
147 168 0
149 170 0
148 170 0
151 173 0
154 176 0
152 174 0
142 162 0
145 166 0
148 169 0
138 160 0
148 169 0
148 171 0
152 173 0
146 167 0
148 172 0
160 183 0
149 170 0
145 165 0
149 171 0
155 177 0
151 173 0
150 172 0
150 173 0
146 168 0
146 168 0
147 168 0
153 175 0
154 175 0
154 176 0
154 175 0
157 179 0
152 174 0
151 173 0
155 175 0
156 177 0
155 178 0
155 176 0
150 172 0
153 175 0
144 166 0
148 171 0
157 179 0
159 181 0
154 175 0
158 180 0
156 178 0
145 165 0
152 176 0
161 182 0
154 176 0
155 177 0
159 182 0
149 170 0
156 178 0
154 175 0
154 175 0
151 172 0
154 176 0
156 177 0
158 179 0
154 175 0
159 181 0
157 179 0
161 182 0
155 177 0
158 181 0
160 182 0
161 183 0
158 180 0
158 181 0
160 183 0
153 175 0
158 179 0
159 183 0
161 182 0
155 176 0
161 183 0
160 183 0
154 176 0
157 179 0
162 185 0
160 181 0
161 183 0
157 179 0
162 185 0
158 179 0
159 180 0
158 179 0
162 185 0
157 180 0
164 185 0
160 182 0
160 183 0
161 183 0
164 186 0
163 186 0
161 183 0
159 181 0
163 185 0
162 185 0
163 185 0
159 182 0
159 182 0
165 187 0
165 187 0
158 180 0
166 187 0
156 176 0
160 182 0
166 189 0
163 186 0
166 188 0
161 183 0
160 182 0
164 186 0
168 189 0
161 182 0
164 185 0
165 187 0
168 190 0
165 188 0
165 188 0
163 185 0
163 186 0
161 183 0
164 187 0
168 191 0
169 192 0
169 191 0
168 190 0
161 182 0
166 188 0
162 183 0
168 189 0
163 185 0
163 185 0
167 189 0
163 185 0
166 188 0
164 187 0
165 187 0
164 186 0
165 187 0
163 185 0
167 190 0
166 188 0
160 182 0
164 185 0
167 189 0
165 188 0
166 189 0
166 188 0
167 190 0
166 189 0
165 187 0
169 192 0
163 184 0
162 183 0
169 191 0
165 186 0
168 191 0
166 189 0
164 186 0
169 190 0
168 191 0
162 184 0
168 191 0
171 193 102
173 196 95
172 195 95
176 199 92
174 197 84
176 198 84
173 197 80
169 192 84
171 193 102
171 196 95
174 197 114
172 195 95
171 194 80
169 192 92
173 196 92
174 197 105
176 198 102
170 192 102
172 195 111
175 198 111
172 195 99
171 194 99
172 195 92
169 192 99
168 191 92
170 193 95
169 192 102
165 188 102
171 193 108
167 190 88
167 190 92
167 190 105
171 194 111
172 194 114
170 194 99
168 191 88
167 190 84
170 193 108
169 191 105
169 191 95
165 187 80
165 187 88
162 186 99
174 196 92
164 187 80
168 191 102
167 190 102
162 184 92
166 188 102
163 185 76
166 187 111
164 187 84
162 184 95
169 191 88
163 185 95
164 185 95
169 192 120
168 191 88
166 188 99
163 185 88
160 183 92
165 188 99
162 184 95
162 184 88
160 182 99
165 187 102
161 184 80
167 189 80
169 190 95
167 189 99
156 178 80
159 181 80
157 179 88
157 179 88
167 188 92
174 194 102
162 183 88
164 185 108
164 186 95
167 188 108
155 176 92
158 179 80
163 184 105
164 185 108
157 178 76
168 189 114
167 188 102
165 186 99
155 176 99
158 179 114
162 183 95
167 187 102
155 175 76
165 185 108
159 180 84
162 183 111
162 183 95
154 174 57
153 174 92
151 171 80
157 178 80
157 179 84
159 180 80
156 176 76
160 181 80
163 183 105
154 174 76
158 179 92
160 179 99
158 178 95
160 180 67
154 175 51
158 180 57
153 175 57
157 179 57
159 180 57
151 172 44
139 160 0
144 166 0
146 167 0
159 180 0
151 174 44
144 164 25
147 169 36
150 172 36
152 174 0
152 173 25
157 179 0
153 174 36
156 178 25
154 177 0
158 181 0
160 182 0
163 186 0
156 180 0
153 174 0
162 185 0
155 176 0
155 177 0
153 176 0
157 179 0
150 172 0
153 174 0
147 168 0
149 170 0
139 161 0
137 160 0
145 167 0
142 163 0
149 170 0
144 165 0
146 167 0
137 157 0
146 166 0
141 162 0
141 161 0
145 166 0
133 154 0
136 157 0
130 151 0
142 163 0
135 155 0
146 167 0
144 165 0
143 163 0
140 160 0
122 143 0
137 159 0
140 161 0
137 158 0
132 153 0
127 148 0
128 149 0
135 155 0
135 156 0
133 154 0
136 157 0
139 161 0
135 156 0
138 159 0
142 163 0
135 156 0
124 145 0
139 160 0
133 154 0
136 157 0
135 154 0
141 163 0
131 151 0
136 156 0
137 158 0
137 159 0
134 156 0
133 154 0
143 164 0
145 167 0
138 160 0
135 157 0
139 160 0
141 163 0
141 161 0
141 163 0
130 151 0
140 162 0
142 162 0
143 164 0
144 165 0
132 153 0
138 158 0
154 177 0
136 157 0
140 161 0
139 160 0
137 160 0
144 165 0
140 161 0
147 168 0
140 161 0
146 167 0
141 162 0
144 164 0
140 162 0
148 169 0
142 163 0
139 161 0
145 167 0
146 168 0
151 172 0
134 156 0
149 171 0
143 165 0
147 169 0
144 166 0
144 166 0
150 172 0
151 173 0
146 168 0
148 169 0
147 169 0
152 173 0
152 174 0
150 172 0
151 174 0
146 166 0
148 170 0
147 169 0
150 171 0
142 163 0
154 175 0
154 175 0
145 166 0
147 168 0
152 173 0
156 178 0
150 172 0
148 171 0
153 175 0
152 175 0
148 167 0
146 168 0
150 171 0
151 173 0
151 172 0
149 170 0
157 178 0
159 181 0
149 171 0
152 174 0
146 168 0
152 175 0
155 176 0
154 175 0
158 180 0
152 175 0
154 176 0
158 179 0
156 178 0
155 177 0
152 172 0
160 181 0
154 177 0
156 178 0
160 182 0
154 176 0
159 181 0
158 180 0
156 178 0
151 172 0
157 179 0
157 178 0
154 178 0
158 180 0
153 174 0
158 181 0
159 182 0
158 180 0
157 180 0
158 182 0
151 172 0
157 180 0
157 178 0
154 176 0
152 173 0
153 174 0
159 180 0
161 183 0
157 179 0
156 179 0
159 181 0
158 181 0
165 187 0
162 182 0
160 183 0
156 178 0
162 183 0
158 180 0
162 183 0
157 179 0
164 187 0
155 177 0
163 185 0
160 181 0
165 187 0
160 181 0
159 181 0
156 179 0
159 180 0
156 177 0
159 181 0
163 184 0
166 189 0
157 179 0
161 183 0
167 188 0
160 184 0
160 182 0
163 183 0
163 186 0
161 183 0
166 188 0
165 187 0
162 185 0
167 189 0
161 183 0
162 184 0
161 182 0
165 186 0
159 179 0
164 187 0
162 184 0
163 184 0
163 185 0
168 189 0
165 188 0
164 186 0
165 187 0
161 182 0
163 186 0
165 188 0
162 184 0
167 191 0
164 186 0
168 190 0
169 191 0
163 187 0
167 190 0
163 185 0
169 191 0
171 193 0
164 186 0
169 191 0
166 188 0
170 193 0
169 192 0
167 189 0
163 184 0
168 189 0
169 192 0
163 184 0
165 188 0
165 185 0
170 193 0
164 187 0
170 192 0
171 193 0
168 191 0
165 188 0
166 187 0
170 192 0
162 185 0
164 185 0
166 189 0
167 190 0
168 189 0
170 192 0
169 191 0
165 188 0
167 188 0
166 189 0
165 187 0
173 195 95
173 196 105
169 193 99
170 193 80
169 191 95
173 196 120
171 194 72
174 196 108
175 198 111
172 195 88
174 197 76
174 196 99
176 198 99
175 199 117
171 194 88
176 199 95
170 193 102
169 191 95
172 195 108
173 196 108
170 192 102
169 193 122
168 191 84
173 196 99
166 188 88
166 189 80
168 191 92
167 191 95
169 191 88
170 193 88
172 195 111
167 190 80
167 190 105
169 192 108
167 189 92
172 195 111
162 184 99
171 194 105
172 195 114
173 196 105
168 190 99
161 183 88
170 192 99
160 184 99
169 192 102
166 189 99
165 188 80
166 189 92
163 185 102
167 190 80
165 188 95
165 188 105
170 193 92
162 184 99
167 190 92
168 192 102
163 186 114
162 184 80
171 194 95
162 185 95
162 183 92
169 191 92
166 188 108
165 187 99
160 183 108
155 176 102
171 192 102
160 183 120
164 186 88
161 182 95
164 186 102
159 181 84
161 182 102
164 186 105
163 184 95
165 187 95
165 186 88
163 185 102
159 180 88
165 186 117
164 185 88
160 180 105
165 186 111
163 184 92
164 185 105
168 189 105
154 175 95
162 183 92
165 186 84
156 176 80
157 179 80
162 183 99
166 187 105
160 181 99
157 178 84
158 178 88
166 187 111
155 176 62
170 190 95
159 179 92
157 177 80
162 182 76
156 176 84
164 184 92
162 183 95
159 180 88
159 180 76
160 181 95
151 172 76
151 171 72
151 172 80
152 173 25
149 171 51
149 171 25
151 172 62
144 166 25
151 173 57
149 171 0
148 170 25
150 172 36
158 179 44
144 165 36
155 176 25
156 178 25
158 180 36
152 174 36
151 173 25
150 172 0
155 177 44
154 176 25
163 185 25
160 183 0
160 182 0
153 175 0
159 181 0
158 180 0
151 174 0
156 178 0
152 174 0
149 172 0
151 174 0
139 160 0
152 174 0
143 164 0
150 173 0
143 165 0
143 165 0
144 167 0
139 161 0
144 166 0
139 161 0
142 163 0
142 164 0
131 151 0
144 165 0
146 166 0
147 167 0
140 161 0
126 145 0
146 168 0
136 156 0
137 158 0
132 153 0
143 163 0
147 168 0
139 160 0
136 158 0
142 163 0
142 163 0
140 162 0
130 150 0
144 165 0
131 152 0
131 153 0
142 163 0
141 161 0
127 150 0
130 151 0
141 162 0
138 159 0
139 161 0
136 157 0
144 165 0
137 159 0
140 161 0
138 159 0
143 164 0
129 150 0
133 154 0
142 164 0
139 160 0
146 168 0
132 154 0
133 155 0
150 170 0
138 158 0
131 152 0
133 155 0
134 156 0
145 166 0
136 158 0
147 168 0
143 165 0
143 164 0
149 171 0
142 164 0
134 157 0
133 154 0
147 169 0
145 166 0
143 165 0
140 160 0
150 172 0
133 154 0
152 174 0
140 160 0
140 161 0
149 170 0
145 167 0
151 171 0
148 169 0
144 166 0
146 167 0
148 169 0
152 173 0
147 169 0
154 174 0
147 168 0
152 174 0
146 167 0
138 158 0
145 166 0
147 168 0
147 168 0
139 161 0
148 170 0
150 172 0
141 162 0
147 169 0
151 173 0
151 173 0
151 171 0
142 163 0
150 171 0
154 175 0
146 168 0
145 168 0
147 169 0
151 173 0
151 174 0
146 168 0
154 175 0
156 178 0
139 161 0
154 176 0
157 178 0
146 166 0
142 164 0
155 176 0
160 182 0
155 178 0
155 176 0
149 171 0
155 177 0
157 179 0
148 169 0
160 182 0
155 177 0
153 176 0
157 180 0
153 175 0
142 165 0
151 172 0
152 174 0
156 178 0
148 170 0
153 176 0
160 182 0
159 180 0
152 174 0
153 175 0
157 180 0
158 180 0
152 172 0
154 176 0
167 189 0
161 183 0
167 189 0
152 173 0
153 175 0
154 175 0
158 180 0
160 182 0
150 170 0
159 180 0
153 176 0
159 180 0
162 184 0
159 181 0
156 179 0
157 179 0
161 182 0
148 170 0
160 182 0
159 181 0
161 184 0
164 187 0
160 182 0
161 183 0
162 184 0
160 182 0
158 181 0
158 180 0
156 178 0
162 184 0
159 181 0
161 183 0
161 183 0
163 185 0
159 180 0
159 181 0
162 184 0
160 182 0
165 187 0
160 181 0
163 186 0
162 184 0
164 186 0
162 185 0
161 183 0
160 182 0
160 181 0
161 183 0
165 187 0
162 184 0
159 181 0
167 189 0
164 186 0
167 189 0
158 181 0
160 182 0
162 184 0
162 184 0
164 187 0
165 187 0
167 189 0
161 182 0
162 184 0
160 182 0
162 184 0
164 186 0
167 190 0
165 187 0
161 183 0
165 186 0
167 189 0
165 187 0
165 188 0
161 182 0
156 178 0
167 190 0
166 188 0
167 189 0
169 192 0
168 191 0
165 186 0
165 187 0
164 187 0
165 187 0
164 185 0
162 185 0
171 193 0
162 184 0
166 188 0
166 189 0
162 185 0
168 190 0
166 189 0
167 189 0
167 190 0
166 188 0
165 187 0
167 189 0
164 187 0
162 184 0
166 188 0
168 189 0
166 188 0
170 193 0
165 188 0
168 190 0
166 188 0
167 189 0
168 190 0
166 189 0
165 188 0
169 191 0
169 191 0
168 191 0
165 188 0
176 199 99
176 200 95
173 196 105
174 196 114
173 195 88
175 197 84
166 188 80
175 198 99
173 195 88
173 196 88
176 199 102
172 195 105
171 194 102
169 191 80
168 190 80
176 200 95
172 194 95
172 195 95
171 194 105
171 193 99
175 197 114
172 195 102
171 194 105
174 197 95
168 191 76
170 193 88
169 191 80
163 185 88
173 195 95
171 194 122
166 189 105
170 192 92
166 189 92
171 193 99
164 187 80
170 192 99
164 187 84
168 192 95
169 191 95
164 187 99
170 192 92
171 194 99
160 183 99
167 190 102
167 191 105
171 194 105
169 192 105
168 190 84
168 190 99
168 191 117
164 187 105
170 192 72
174 197 114
164 187 105
166 187 92
170 191 95
164 186 67
167 189 111
161 184 108
170 192 102
164 187 84
158 181 88
159 181 80
163 184 76
160 182 102
157 179 88
153 176 84
165 187 105
152 174 102
149 171 67
167 188 92
163 186 105
165 187 102
163 183 102
165 186 105
165 187 92
158 180 92
164 184 92
159 181 117
167 189 102
163 183 114
159 180 84
164 185 76
163 184 105
167 187 108
161 182 92
157 178 102
161 182 92
161 183 99
164 185 111
165 186 84
167 188 117
164 184 111
169 191 99
161 181 92
161 181 88
158 180 72
146 166 76
154 175 88
161 181 95
162 183 84
161 182 76
156 177 105
153 174 62
166 186 102
160 181 76
158 177 102
161 182 99
160 181 76
162 183 76
156 177 72
153 174 76
154 175 57
149 169 44
159 180 36
154 176 57
157 179 25
151 173 25
154 177 25
157 179 25
145 166 36
149 170 36
154 176 44
154 175 36
158 181 0
154 176 0
156 178 0
147 169 0
145 166 0
150 172 0
159 183 0
161 183 0
161 184 0
156 179 0
159 181 0
156 179 0
155 177 0
164 185 0
155 177 0
152 174 0
151 172 0
152 174 0
144 166 0
151 173 0
145 167 0
155 177 0
138 159 0
146 168 0
142 165 0
151 172 0
132 153 0
148 168 0
141 162 0
138 160 0
145 165 0
135 156 0
139 160 0
145 166 0
145 166 0
148 168 0
134 155 0
142 163 0
138 159 0
141 162 0
134 156 0
147 168 0
140 161 0
141 161 0
135 155 0
149 172 0
131 151 0
135 157 0
141 162 0
132 153 0
139 161 0
142 163 0
128 147 0
131 153 0
142 163 0
135 156 0
143 164 0
123 143 0
150 172 0
136 156 0
144 166 0
136 159 0
141 162 0
145 167 0
143 165 0
138 159 0
140 162 0
128 148 0
137 159 0
150 171 0
138 161 0
142 163 0
142 163 0
147 169 0
135 156 0
145 166 0
135 156 0
152 173 0
145 167 0
138 159 0
141 163 0
145 166 0
149 172 0
138 159 0
142 163 0
149 170 0
143 163 0
152 172 0
146 167 0
143 163 0
145 166 0
147 169 0
145 166 0
142 163 0
139 160 0
140 161 0
151 173 0
142 164 0
144 165 0
150 171 0
139 161 0
142 163 0
141 162 0
148 169 0
139 161 0
140 160 0
139 161 0
154 176 0
139 161 0
148 169 0
154 176 0
151 172 0
152 174 0
148 169 0
152 173 0
149 170 0
158 180 0
145 168 0
141 163 0
143 164 0
143 164 0
149 169 0
159 181 0
151 173 0
146 167 0
152 173 0
146 167 0
155 178 0
150 171 0
154 175 0
154 176 0
149 171 0
155 177 0
150 173 0
162 184 0
147 169 0
153 173 0
158 179 0
152 175 0
152 173 0
154 176 0
156 179 0
152 174 0
155 177 0
150 172 0
153 173 0
155 177 0
150 172 0
153 175 0
151 174 0
153 174 0
156 179 0
163 186 0
159 181 0
147 169 0
148 169 0
156 178 0
160 182 0
158 179 0
158 179 0
153 174 0
158 181 0
158 179 0
156 179 0
163 185 0
155 177 0
152 175 0
151 174 0
158 180 0
161 184 0
159 181 0
161 183 0
153 176 0
162 185 0
159 182 0
162 185 0
162 183 0
165 186 0
163 184 0
161 182 0
146 167 0
152 173 0
159 182 0
158 180 0
159 182 0
156 176 0
158 181 0
162 184 0
158 179 0
163 186 0
159 183 0
164 186 0
162 183 0
166 188 0
162 185 0
165 187 0
164 186 0
164 186 0
152 175 0
161 183 0
159 181 0
162 184 0
166 187 0
161 184 0
163 186 0
165 185 0
163 185 0
163 186 0
162 183 0
162 184 0
159 182 0
163 184 0
164 186 0
161 182 0
160 182 0
161 182 0
165 187 0
162 184 0
162 185 0
162 184 0
160 180 0
157 177 0
162 184 0
162 182 0
164 187 0
155 178 0
161 182 0
155 177 0
167 190 0
161 183 0
166 187 0
165 188 0
166 188 0
168 191 0
166 189 0
165 187 0
164 187 0
164 186 0
165 187 0
166 188 0
164 186 0
161 184 0
169 191 0
168 190 0
166 187 0
164 188 0
168 189 0
159 181 0
166 187 0
164 187 0
165 187 0
171 193 0
167 189 0
168 191 0
166 189 0
165 188 0
160 181 0
164 187 0
165 186 0
165 187 0
169 191 0
164 186 0
167 189 0
168 191 0
169 191 0
168 191 0
167 189 0
164 187 0
165 188 0
168 189 0
168 190 0
168 190 0
168 190 0
170 193 0
167 189 0
165 186 0
175 197 122
175 198 88
169 191 80
176 199 95
168 191 76
176 198 105
172 194 102
175 198 105
176 199 122
167 190 80
172 195 84
174 196 99
179 202 111
175 197 102
170 193 99
178 200 102
166 188 72
169 191 88
171 195 102
175 198 92
171 193 80
171 194 99
175 197 120
166 190 88
169 191 84
170 193 111
170 193 102
173 196 108
170 193 99
163 186 84
169 192 92
165 188 99
170 193 114
170 193 99
168 191 108
166 189 92
166 188 111
168 191 80
167 190 92
159 182 67
170 193 108
160 182 84
169 192 111
171 193 102
168 191 102
165 187 105
163 186 92
170 193 114
165 187 80
168 190 95
162 184 95
163 185 102
165 187 84
158 179 67
171 193 95
165 188 108
167 189 84
166 188 88
166 188 102
163 185 88
162 184 88
162 184 95
170 192 95
166 187 102
161 182 95
167 189 102
160 182 72
166 187 95
163 185 95
160 182 80
164 187 102
162 183 84
164 185 114
156 178 84
166 187 92
160 181 88
162 183 102
160 181 102
167 188 92
159 181 92
167 188 122
161 183 102
165 186 108
161 183 84
168 189 99
161 181 102
164 186 114
164 186 105
168 188 105
156 178 95
161 182 111
164 185 102
162 182 105
166 186 105
165 186 111
163 184 88
164 185 84
155 177 84
158 178 92
159 179 76
162 183 114
154 175 57
159 180 67
158 179 84
162 183 76
166 186 92
155 175 51
152 174 62
162 183 57
156 176 84
159 180 67
152 174 36
156 178 25
153 174 44
152 174 44
151 172 51
152 173 36
152 174 0
151 173 36
141 162 0
161 183 0
149 172 36
152 174 36
150 171 25
148 171 36
154 176 36
151 173 36
153 175 36
154 176 36
156 178 0
165 189 0
158 181 0
158 179 0
162 184 0
161 183 0
154 176 0
161 183 0
146 169 0
151 173 0
148 170 0
147 168 0
145 168 0
151 173 0
138 160 0
149 170 0
148 169 0
143 165 0
141 164 0
148 169 0
143 165 0
146 166 0
155 177 0
144 165 0
148 168 0
143 164 0
145 166 0
148 168 0
139 160 0
135 157 0
147 169 0
140 161 0
140 162 0
144 165 0
138 160 0
141 162 0
145 167 0
143 163 0
142 162 0
125 145 0
131 152 0
139 160 0
144 166 0
144 165 0
139 160 0
134 155 0
147 169 0
146 168 0
135 155 0
141 161 0
141 162 0
145 168 0
142 162 0
138 159 0
137 159 0
135 157 0
140 161 0
133 154 0
134 155 0
145 166 0
139 160 0
136 157 0
153 174 0
146 167 0
138 159 0
143 165 0
137 157 0
142 163 0
142 164 0
144 164 0
149 171 0
142 163 0
137 159 0
140 162 0
148 170 0
126 147 0
145 167 0
143 163 0
135 157 0
133 154 0
146 168 0
143 166 0
147 167 0
146 168 0
137 159 0
158 180 0
138 160 0
143 164 0
142 164 0
142 163 0
141 162 0
152 174 0
145 166 0
148 169 0
145 167 0
142 162 0
150 170 0
139 160 0
147 170 0
142 164 0
154 175 0
146 168 0
150 171 0
142 165 0
150 173 0
146 166 0
150 172 0
149 171 0
144 165 0
147 168 0
148 169 0
143 164 0
150 172 0
153 175 0
144 166 0
147 168 0
151 172 0
157 178 0
151 173 0
146 167 0
152 174 0
151 174 0
145 167 0
155 177 0
156 178 0
138 160 0
147 169 0
152 173 0
158 180 0
155 177 0
154 176 0
156 178 0
154 175 0
144 166 0
155 178 0
157 180 0
150 171 0
150 173 0
150 171 0
148 169 0
158 180 0
152 173 0
151 173 0
157 179 0
147 168 0
156 178 0
152 174 0
161 184 0
151 172 0
152 174 0
155 176 0
153 174 0
157 178 0
153 175 0
157 180 0
158 180 0
158 180 0
151 172 0
157 180 0
163 186 0
163 186 0
151 174 0
150 172 0
160 182 0
158 179 0
164 185 0
163 186 0
159 183 0
159 180 0
156 177 0
161 183 0
157 179 0
161 181 0
155 176 0
158 180 0
152 174 0
157 179 0
162 184 0
163 186 0
159 182 0
161 183 0
162 184 0
164 185 0
161 183 0
164 186 0
155 179 0
162 185 0
161 184 0
160 182 0
156 179 0
159 181 0
152 174 0
166 187 0
155 177 0
164 185 0
160 183 0
160 182 0
163 185 0
160 183 0
160 183 0
159 181 0
163 186 0
164 187 0
166 188 0
164 185 0
164 187 0
163 185 0
159 181 0
162 184 0
162 183 0
164 186 0
158 179 0
163 185 0
161 183 0
158 179 0
165 186 0
163 185 0
163 184 0
164 186 0
169 192 0
159 180 0
162 184 0
168 190 0
166 188 0
159 181 0
167 189 0
165 188 0
167 190 0
164 185 0
159 181 0
171 193 0
163 185 0
165 187 0
167 189 0
166 187 0
166 188 0
161 182 0
167 190 0
164 185 0
165 187 0
168 190 0
165 187 0
167 189 0
166 189 0
169 190 0
164 186 0
162 184 0
164 186 0
169 193 0
161 182 0
166 189 0
168 189 0
166 188 0
166 189 0
158 179 0
167 188 0
169 192 0
168 191 0
168 191 0
167 190 0
165 187 0
166 189 0
167 189 0
168 188 0
165 188 0
171 193 0
171 195 0
170 192 0
167 188 0
170 193 0
167 189 0
