P3
400 225
255
204 226 255
204 226 255
204 226 255
204 226 255
204 226 255
204 226 255
204 226 255
204 226 255
204 226 255
204 226 255
204 226 255
204 226 255
204 226 255
204 226 255
204 226 255
203 226 255
203 226 255
203 226 255
203 226 255
203 226 255
203 226 255
203 226 255
203 226 255
203 225 255
203 225 255
203 225 255
203 225 255
203 225 255
203 225 255
203 225 255
203 225 255
203 225 255
202 225 255
202 225 255
202 225 255
202 225 255
202 225 255
202 225 255
202 225 255
202 225 255
202 225 255
202 225 255
202 225 255
202 225 255
202 225 255
202 225 255
202 225 255
202 225 255
201 225 255
201 225 255
201 225 255
201 225 255
201 224 255
201 224 255
201 224 255
201 224 255
201 224 255
201 224 255
201 224 255
201 224 255
201 224 255
201 224 255
201 224 255
200 224 255
200 224 255
200 224 255
200 224 255
200 224 255
200 224 255
200 224 255
200 224 255
200 224 255
200 224 255
200 224 255
200 224 255
200 224 255
200 224 255
199 224 255
199 224 255
199 224 255
199 223 255
199 223 255
199 223 255
199 223 255
199 223 255
199 223 255
199 223 255
199 223 255
199 223 255
199 223 255
199 223 255
199 223 255
198 223 255
198 223 255
198 223 255
198 223 255
198 223 255
198 223 255
198 223 255
198 223 255
198 223 255
198 223 255
198 223 255
198 223 255
198 223 255
198 223 255
197 222 255
197 222 255
197 222 255
197 222 255
197 222 255
197 222 255
197 222 255
197 222 255
197 222 255
197 222 255
197 222 255
197 222 255
197 222 255
197 222 255
197 222 255
196 222 255
196 222 255
196 222 255
196 222 255
196 222 255
196 222 255
196 222 255
196 222 255
196 222 255
196 222 255
196 222 255
196 222 255
196 222 255
196 222 255
196 221 255
196 221 255
195 221 255
195 221 255
195 221 255
195 221 255
195 221 255
195 221 255
195 221 255
195 221 255
195 221 255
195 221 255
195 221 255
195 221 255
195 221 255
195 221 255
195 221 255
195 221 255
195 221 255
195 221 255
194 221 255
194 221 255
194 221 255
194 221 255
194 221 255
194 221 255
194 221 255
194 221 255
194 221 255
194 221 255
194 221 255
194 221 255
194 221 255
194 221 255
194 221 255
194 221 255
194 221 255
194 221 255
194 221 255
194 221 255
194 221 255
194 221 255
194 220 255
194 220 255
194 220 255
194 220 255
194 220 255
194 220 255
194 220 255
194 220 255
194 220 255
193 220 255
193 220 255
193 220 255
193 220 255
193 220 255
193 220 255
193 220 255
193 220 255
193 220 255
193 220 255
193 220 255
193 220 255
193 220 255
193 220 255
193 220 255
193 220 255
193 220 255
193 220 255
193 220 255
193 220 255
193 220 255
193 220 255
193 220 255
193 220 255
193 220 255
193 220 255
193 220 255
193 220 255
194 220 255
194 220 255
194 220 255
194 220 255
194 220 255
194 220 255
194 220 255
194 220 255
194 220 255
194 221 255
194 221 255
194 221 255
194 221 255
194 221 255
194 221 255
194 221 255
194 221 255
194 221 255
194 221 255
194 221 255
194 221 255
194 221 255
194 221 255
194 221 255
194 221 255
194 221 255
194 221 255
194 221 255
194 221 255
194 221 255
194 221 255
195 221 255
195 221 255
195 221 255
195 221 255
195 221 255
195 221 255
195 221 255
195 221 255
195 221 255
195 221 255
195 221 255
195 221 255
195 221 255
195 221 255
195 221 255
195 221 255
195 221 255
195 221 255
196 221 255
196 221 255
196 222 255
196 222 255
196 222 255
196 222 255
196 222 255
196 222 255
196 222 255
196 222 255
196 222 255
196 222 255
196 222 255
196 222 255
196 222 255
196 222 255
197 222 255
197 222 255
197 222 255
197 222 255
197 222 255
197 222 255
197 222 255
197 222 255
197 222 255
197 222 255
197 222 255
197 222 255
197 222 255
197 222 255
197 223 255
198 223 255
198 223 255
198 223 255
198 223 255
198 223 255
198 223 255
198 223 255
198 223 255
198 223 255
198 223 255
198 223 255
198 223 255
198 223 255
198 223 255
199 223 255
199 223 255
199 223 255
199 223 255
199 223 255
199 223 255
199 223 255
199 223 255
199 223 255
199 223 255
199 223 255
199 223 255
199 224 255
199 224 255
200 224 255
200 224 255
200 224 255
200 224 255
200 224 255
200 224 255
200 224 255
200 224 255
200 224 255
200 224 255
200 224 255
200 224 255
200 224 255
200 224 255
200 224 255
201 224 255
201 224 255
201 224 255
201 224 255
201 224 255
201 224 255
201 224 255
201 224 255
201 224 255
201 224 255
201 225 255
201 225 255
201 225 255
201 225 255
201 225 255
202 225 255
202 225 255
202 225 255
202 225 255
202 225 255
202 225 255
202 225 255
202 225 255
202 225 255
202 225 255
202 225 255
202 225 255
202 225 255
202 225 255
202 225 255
202 225 255
203 225 255
203 225 255
203 225 255
203 225 255
203 225 255
203 225 255
203 225 255
203 225 255
203 225 255
203 226 255
203 226 255
203 226 255
203 226 255
203 226 255
203 226 255
203 226 255
203 226 255
204 226 255
204 226 255
204 226 255
204 226 255
204 226 255
204 226 255
204 226 255
204 226 255
204 226 255
204 226 255
204 226 255
204 226 255
204 226 255
204 226 255
204 226 255
204 226 255
204 226 255
204 226 255
204 226 255
204 226 255
204 226 255
204 226 255
204 226 255
204 226 255
204 226 255
204 226 255
204 226 255
204 226 255
204 226 255
204 226 255
204 226 255
204 226 255
204 226 255
203 226 255
203 226 255
203 226 255
203 226 255
203 226 255
203 226 255
203 226 255
203 225 255
203 225 255
203 225 255
203 225 255
203 225 255
203 225 255
203 225 255
203 225 255
203 225 255
202 225 255
202 225 255
202 225 255
202 225 255
202 225 255
202 225 255
202 225 255
202 225 255
202 225 255
202 225 255
202 225 255
202 225 255
202 225 255
202 225 255
202 225 255
202 225 255
201 225 255
201 225 255
201 225 255
201 225 255
201 225 255
201 224 255
201 224 255
201 224 255
201 224 255
201 224 255
201 224 255
201 224 255
201 224 255
201 224 255
201 224 255
200 224 255
200 224 255
200 224 255
200 224 255
200 224 255
200 224 255
200 224 255
200 224 255
200 224 255
200 224 255
200 224 255
200 224 255
200 224 255
200 224 255
199 224 255
199 224 255
199 224 255
199 223 255
199 223 255
199 223 255
199 223 255
199 223 255
199 223 255
199 223 255
199 223 255
199 223 255
199 223 255
199 223 255
199 223 255
198 223 255
198 223 255
198 223 255
198 223 255
198 223 255
198 223 255
198 223 255
198 223 255
198 223 255
198 223 255
198 223 255
198 223 255
198 223 255
198 223 255
197 223 255
197 222 255
197 222 255
197 222 255
197 222 255
197 222 255
197 222 255
197 222 255
197 222 255
197 222 255
197 222 255
197 222 255
197 222 255
197 222 255
197 222 255
196 222 255
196 222 255
196 222 255
196 222 255
196 222 255
196 222 255
196 222 255
196 222 255
196 222 255
196 222 255
196 222 255
196 222 255
196 222 255
196 222 255
196 221 255
196 221 255
195 221 255
195 221 255
195 221 255
195 221 255
195 221 255
195 221 255
195 221 255
195 221 255
195 221 255
195 221 255
195 221 255
195 221 255
195 221 255
195 221 255
195 221 255
195 221 255
195 221 255
195 221 255
195 221 255
194 221 255
194 221 255
194 221 255
194 221 255
194 221 255
194 221 255
194 221 255
194 221 255
194 221 255
194 221 255
194 221 255
194 221 255
194 221 255
194 221 255
194 221 255
194 221 255
194 221 255
194 221 255
194 221 255
194 221 255
194 221 255
194 221 255
194 221 255
194 221 255
194 221 255
194 220 255
194 220 255
194 220 255
194 220 255
194 220 255
194 220 255
194 220 255
194 220 255
194 220 255
194 220 255
194 220 255
194 220 255
194 220 255
194 220 255
194 220 255
194 220 255
194 220 255
194 220 255
194 220 255
194 220 255
194 220 255
194 220 255
194 220 255
194 220 255
194 220 255
194 220 255
194 220 255
194 220 255
194 220 255
194 220 255
194 220 255
194 220 255
194 220 255
194 220 255
194 220 255
194 221 255
194 221 255
194 221 255
194 221 255
194 221 255
194 221 255
194 221 255
194 221 255
194 221 255
194 221 255
194 221 255
194 221 255
194 221 255
194 221 255
194 221 255
194 221 255
194 221 255
194 221 255
194 221 255
194 221 255
194 221 255
194 221 255
194 221 255
194 221 255
195 221 255
195 221 255
195 221 255
195 221 255
195 221 255
195 221 255
195 221 255
195 221 255
195 221 255
195 221 255
195 221 255
195 221 255
195 221 255
195 221 255
195 221 255
195 221 255
195 221 255
195 221 255
195 221 255
196 221 255
196 221 255
196 222 255
196 222 255
196 222 255
196 222 255
196 222 255
196 222 255
196 222 255
196 222 255
196 222 255
196 222 255
196 222 255
196 222 255
196 222 255
196 222 255
197 222 255
197 222 255
197 222 255
197 222 255
197 222 255
197 222 255
197 222 255
197 222 255
197 222 255
197 222 255
197 222 255
197 222 255
197 222 255
197 222 255
197 222 255
198 223 255
198 223 255
198 223 255
198 223 255
198 223 255
198 223 255
198 223 255
198 223 255
198 223 255
198 223 255
198 223 255
198 223 255
198 223 255
198 223 255
199 223 255
199 223 255
199 223 255
199 223 255
199 223 255
199 223 255
199 223 255
199 223 255
199 223 255
199 223 255
199 223 255
199 223 255
199 224 255
199 224 255
200 224 255
200 224 255
200 224 255
200 224 255
200 224 255
200 224 255
200 224 255
200 224 255
200 224 255
200 224 255
200 224 255
200 224 255
200 224 255
200 224 255
200 224 255
201 224 255
201 224 255
201 224 255
201 224 255
201 224 255
201 224 255
201 224 255
201 224 255
201 224 255
201 224 255
201 225 255
201 225 255
201 225 255
201 225 255
201 225 255
202 225 255
202 225 255
202 225 255
202 225 255
202 225 255
202 225 255
202 225 255
202 225 255
202 225 255
202 225 255
202 225 255
202 225 255
202 225 255
202 225 255
202 225 255
202 225 255
203 225 255
203 225 255
203 225 255
203 225 255
203 225 255
203 225 255
203 225 255
203 225 255
203 225 255
203 226 255
203 226 255
203 226 255
203 226 255
203 226 255
203 226 255
203 226 255
204 226 255
204 226 255
204 226 255
204 226 255
204 226 255
204 226 255
204 226 255
204 226 255
204 226 255
204 226 255
204 226 255
204 226 255
204 226 255
204 226 255
204 226 255
204 226 255
204 226 255
204 226 255
205 226 255
205 226 255
204 226 255
204 226 255
204 226 255
204 226 255
204 226 255
204 226 255
204 226 255
204 226 255
204 226 255
204 226 255
204 226 255
204 226 255
204 226 255
204 226 255
204 226 255
204 226 255
204 226 255
204 226 255
203 226 255
203 226 255
203 226 255
203 226 255
203 226 255
203 226 255
203 226 255
203 225 255
203 225 255
203 225 255
203 225 255
203 225 255
203 225 255
203 225 255
203 225 255
203 225 255
202 225 255
202 225 255
202 225 255
202 225 255
202 225 255
202 225 255
202 225 255
202 225 255
202 225 255
202 225 255
202 225 255
202 225 255
202 225 255
202 225 255
202 225 255
202 225 255
201 225 255
201 225 255
201 225 255
201 225 255
201 225 255
201 224 255
201 224 255
201 224 255
201 224 255
201 224 255
201 224 255
201 224 255
201 224 255
201 224 255
201 224 255
200 224 255
200 224 255
200 224 255
200 224 255
200 224 255
200 224 255
200 224 255
200 224 255
200 224 255
200 224 255
200 224 255
200 224 255
200 224 255
200 224 255
200 224 255
199 224 255
199 224 255
199 223 255
199 223 255
199 223 255
199 223 255
199 223 255
199 223 255
199 223 255
199 223 255
199 223 255
199 223 255
199 223 255
199 223 255
198 223 255
198 223 255
198 223 255
198 223 255
198 223 255
198 223 255
198 223 255
198 223 255
198 223 255
198 223 255
198 223 255
198 223 255
198 223 255
198 223 255
197 223 255
197 222 255
197 222 255
197 222 255
197 222 255
197 222 255
197 222 255
197 222 255
197 222 255
197 222 255
197 222 255
197 222 255
197 222 255
197 222 255
197 222 255
196 222 255
196 222 255
196 222 255
196 222 255
196 222 255
196 222 255
196 222 255
196 222 255
196 222 255
196 222 255
196 222 255
196 222 255
196 222 255
196 222 255
196 222 255
196 221 255
196 221 255
195 221 255
195 221 255
195 221 255
195 221 255
195 221 255
195 221 255
195 221 255
195 221 255
195 221 255
195 221 255
195 221 255
195 221 255
195 221 255
195 221 255
195 221 255
195 221 255
195 221 255
195 221 255
195 221 255
195 221 255
194 221 255
194 221 255
194 221 255
194 221 255
194 221 255
194 221 255
194 221 255
194 221 255
194 221 255
194 221 255
194 221 255
194 221 255
194 221 255
194 221 255
194 221 255
194 221 255
194 221 255
194 221 255
194 221 255
194 221 255
194 221 255
194 221 255
194 221 255
194 221 255
194 221 255
194 221 255
194 221 255
194 221 255
194 221 255
194 221 255
194 221 255
194 220 255
194 220 255
194 220 255
194 220 255
194 220 255
194 220 255
194 220 255
194 220 255
194 220 255
194 220 255
194 220 255
194 220 255
194 220 255
194 220 255
194 220 255
194 220 255
194 221 255
194 221 255
194 221 255
194 221 255
194 221 255
194 221 255
194 221 255
194 221 255
194 221 255
194 221 255
194 221 255
194 221 255
194 221 255
194 221 255
194 221 255
194 221 255
194 221 255
194 221 255
194 221 255
194 221 255
194 221 255
194 221 255
194 221 255
194 221 255
194 221 255
194 221 255
194 221 255
194 221 255
194 221 255
194 221 255
195 221 255
195 221 255
195 221 255
195 221 255
195 221 255
195 221 255
195 221 255
195 221 255
195 221 255
195 221 255
195 221 255
195 221 255
195 221 255
195 221 255
195 221 255
195 221 255
195 221 255
195 221 255
195 221 255
196 221 255
196 221 255
196 222 255
196 222 255
196 222 255
196 222 255
196 222 255
196 222 255
196 222 255
196 222 255
196 222 255
196 222 255
196 222 255
196 222 255
196 222 255
196 222 255
196 222 255
197 222 255
197 222 255
197 222 255
197 222 255
197 222 255
197 222 255
197 222 255
197 222 255
197 222 255
197 222 255
197 222 255
197 222 255
197 222 255
197 222 255
197 223 255
198 223 255
198 223 255
198 223 255
198 223 255
198 223 255
198 223 255
198 223 255
198 223 255
198 223 255
198 223 255
198 223 255
198 223 255
198 223 255
198 223 255
199 223 255
199 223 255
199 223 255
199 223 255
199 223 255
199 223 255
199 223 255
199 223 255
199 223 255
199 223 255
199 223 255
199 223 255
199 224 255
199 224 255
199 224 255
200 224 255
200 224 255
200 224 255
200 224 255
200 224 255
200 224 255
200 224 255
200 224 255
200 224 255
200 224 255
200 224 255
200 224 255
200 224 255
200 224 255
201 224 255
201 224 255
201 224 255
201 224 255
201 224 255
201 224 255
201 224 255
201 224 255
201 224 255
201 224 255
201 225 255
201 225 255
201 225 255
201 225 255
201 225 255
202 225 255
202 225 255
202 225 255
202 225 255
202 225 255
202 225 255
202 225 255
202 225 255
202 225 255
202 225 255
202 225 255
202 225 255
202 225 255
202 225 255
202 225 255
202 225 255
203 225 255
203 225 255
203 225 255
203 225 255
203 225 255
203 225 255
203 225 255
203 225 255
203 225 255
203 226 255
203 226 255
203 226 255
203 226 255
203 226 255
203 226 255
203 226 255
204 226 255
204 226 255
204 226 255
204 226 255
204 226 255
204 226 255
204 226 255
204 226 255
204 226 255
204 226 255
204 226 255
204 226 255
204 226 255
204 226 255
204 226 255
204 226 255
204 226 255
204 226 255
205 226 255
205 226 255
205 226 255
205 226 255
205 226 255
205 226 255
204 226 255
204 226 255
204 226 255
204 226 255
204 226 255
204 226 255
204 226 255
204 226 255
204 226 255
204 226 255
204 226 255
204 226 255
204 226 255
204 226 255
204 226 255
204 226 255
204 226 255
204 226 255
203 226 255
203 226 255
203 226 255
203 226 255
203 226 255
203 226 255
203 226 255
203 226 255
203 225 255
203 225 255
203 225 255
203 225 255
203 225 255
203 225 255
203 225 255
203 225 255
203 225 255
202 225 255
202 225 255
202 225 255
202 225 255
202 225 255
202 225 255
202 225 255
202 225 255
202 225 255
202 225 255
202 225 255
202 225 255
202 225 255
202 225 255
202 225 255
201 225 255
201 225 255
201 225 255
201 225 255
201 225 255
201 224 255
201 224 255
201 224 255
201 224 255
201 224 255
201 224 255
201 224 255
201 224 255
201 224 255
201 224 255
200 224 255
200 224 255
200 224 255
200 224 255
200 224 255
200 224 255
200 224 255
200 224 255
200 224 255
200 224 255
200 224 255
200 224 255
200 224 255
200 224 255
200 224 255
199 224 255
199 224 255
199 223 255
199 223 255
199 223 255
199 223 255
199 223 255
199 223 255
199 223 255
199 223 255
199 223 255
199 223 255
199 223 255
199 223 255
198 223 255
198 223 255
198 223 255
198 223 255
198 223 255
198 223 255
198 223 255
198 223 255
198 223 255
198 223 255
198 223 255
198 223 255
198 223 255
198 223 255
197 223 255
197 222 255
197 222 255
197 222 255
197 222 255
197 222 255
197 222 255
197 222 255
197 222 255
197 222 255
197 222 255
197 222 255
197 222 255
197 222 255
197 222 255
196 222 255
196 222 255
196 222 255
196 222 255
196 222 255
196 222 255
196 222 255
196 222 255
196 222 255
196 222 255
196 222 255
196 222 255
196 222 255
196 222 255
196 222 255
196 221 255
196 221 255
195 221 255
195 221 255
195 221 255
195 221 255
195 221 255
195 221 255
195 221 255
195 221 255
195 221 255
195 221 255
195 221 255
195 221 255
195 221 255
195 221 255
195 221 255
195 221 255
195 221 255
195 221 255
195 221 255
195 221 255
195 221 255
194 221 255
194 221 255
194 221 255
194 221 255
194 221 255
194 221 255
194 221 255
194 221 255
194 221 255
194 221 255
194 221 255
194 221 255
194 221 255
194 221 255
194 221 255
194 221 255
194 221 255
194 221 255
194 221 255
194 221 255
194 221 255
194 221 255
194 221 255
194 221 255
194 221 255
194 221 255
194 221 255
194 221 255
194 221 255
194 221 255
194 221 255
194 221 255
194 221 255
194 221 255
194 221 255
194 221 255
194 221 255
194 221 255
194 221 255
194 221 255
194 221 255
194 221 255
194 221 255
194 221 255
194 221 255
194 221 255
194 221 255
194 221 255
194 221 255
194 221 255
194 221 255
194 221 255
194 221 255
194 221 255
194 221 255
194 221 255
194 221 255
194 221 255
194 221 255
194 221 255
194 221 255
194 221 255
194 221 255
194 221 255
194 221 255
194 221 255
194 221 255
194 221 255
194 221 255
194 221 255
195 221 255
195 221 255
195 221 255
195 221 255
195 221 255
195 221 255
195 221 255
195 221 255
195 221 255
195 221 255
195 221 255
195 221 255
195 221 255
195 221 255
195 221 255
195 221 255
195 221 255
195 221 255
195 221 255
195 221 255
195 221 255
196 221 255
196 221 255
196 222 255
196 222 255
196 222 255
196 222 255
196 222 255
196 222 255
196 222 255
196 222 255
196 222 255
196 222 255
196 222 255
196 222 255
196 222 255
196 222 255
196 222 255
197 222 255
197 222 255
197 222 255
197 222 255
197 222 255
197 222 255
197 222 255
197 222 255
197 222 255
197 222 255
197 222 255
197 222 255
197 222 255
197 222 255
197 223 255
198 223 255
198 223 255
198 223 255
198 223 255
198 223 255
198 223 255
198 223 255
198 223 255
198 223 255
198 223 255
198 223 255
198 223 255
198 223 255
198 223 255
199 223 255
199 223 255
199 223 255
199 223 255
199 223 255
199 223 255
199 223 255
199 223 255
199 223 255
199 223 255
199 223 255
199 223 255
199 224 255
199 224 255
200 224 255
200 224 255
200 224 255
200 224 255
200 224 255
200 224 255
200 224 255
200 224 255
200 224 255
200 224 255
200 224 255
200 224 255
200 224 255
200 224 255
200 224 255
201 224 255
201 224 255
201 224 255
201 224 255
201 224 255
201 224 255
201 224 255
201 224 255
201 224 255
201 224 255
201 225 255
201 225 255
201 225 255
201 225 255
201 225 255
202 225 255
202 225 255
202 225 255
202 225 255
202 225 255
202 225 255
202 225 255
202 225 255
202 225 255
202 225 255
202 225 255
202 225 255
202 225 255
202 225 255
202 225 255
203 225 255
203 225 255
203 225 255
203 225 255
203 225 255
203 225 255
203 225 255
203 225 255
203 225 255
203 226 255
203 226 255
203 226 255
203 226 255
203 226 255
203 226 255
203 226 255
203 226 255
204 226 255
204 226 255
204 226 255
204 226 255
204 226 255
204 226 255
204 226 255
204 226 255
204 226 255
204 226 255
204 226 255
204 226 255
204 226 255
204 226 255
204 226 255
204 226 255
204 226 255
205 226 255
205 226 255
205 226 255
205 226 255
205 226 255
205 226 255
205 226 255
205 226 255
205 226 255
205 226 255
205 226 255
205 226 255
204 226 255
204 226 255
204 226 255
204 226 255
204 226 255
204 226 255
204 226 255
204 226 255
204 226 255
204 226 255
204 226 255
204 226 255
204 226 255
204 226 255
204 226 255
204 226 255
204 226 255
204 226 255
203 226 255
203 226 255
203 226 255
203 226 255
203 226 255
203 226 255
203 226 255
203 225 255
203 225 255
203 225 255
203 225 255
203 225 255
203 225 255
203 225 255
203 225 255
203 225 255
202 225 255
202 225 255
202 225 255
202 225 255
202 225 255
202 225 255
202 225 255
202 225 255
202 225 255
202 225 255
202 225 255
202 225 255
202 225 255
202 225 255
202 225 255
201 225 255
201 225 255
201 225 255
201 225 255
201 225 255
201 224 255
201 224 255
201 224 255
201 224 255
201 224 255
201 224 255
201 224 255
201 224 255
201 224 255
201 224 255
200 224 255
200 224 255
200 224 255
200 224 255
200 224 255
200 224 255
200 224 255
200 224 255
200 224 255
200 224 255
200 224 255
200 224 255
200 224 255
200 224 255
200 224 255
199 224 255
199 224 255
199 223 255
199 223 255
199 223 255
199 223 255
199 223 255
199 223 255
199 223 255
199 223 255
199 223 255
199 223 255
199 223 255
199 223 255
198 223 255
198 223 255
198 223 255
198 223 255
198 223 255
198 223 255
198 223 255
198 223 255
198 223 255
198 223 255
198 223 255
198 223 255
198 223 255
198 223 255
197 223 255
197 222 255
197 222 255
197 222 255
197 222 255
197 222 255
197 222 255
197 222 255
197 222 255
197 222 255
197 222 255
197 222 255
197 222 255
197 222 255
197 222 255
197 222 255
196 222 255
196 222 255
196 222 255
196 222 255
196 222 255
196 222 255
196 222 255
196 222 255
196 222 255
196 222 255
196 222 255
196 222 255
196 222 255
196 222 255
196 222 255
196 221 255
196 221 255
195 221 255
195 221 255
195 221 255
195 221 255
195 221 255
195 221 255
195 221 255
195 221 255
195 221 255
195 221 255
195 221 255
195 221 255
195 221 255
195 221 255
195 221 255
195 221 255
195 221 255
195 221 255
195 221 255
195 221 255
195 221 255
195 221 255
194 221 255
194 221 255
194 221 255
194 221 255
194 221 255
194 221 255
194 221 255
194 221 255
194 221 255
194 221 255
194 221 255
194 221 255
194 221 255
194 221 255
194 221 255
194 221 255
194 221 255
194 221 255
194 221 255
194 221 255
194 221 255
194 221 255
194 221 255
194 221 255
194 221 255
194 221 255
194 221 255
194 221 255
194 221 255
194 221 255
194 221 255
194 221 255
194 221 255
194 221 255
194 221 255
194 221 255
194 221 255
194 221 255
194 221 255
194 221 255
194 221 255
194 221 255
194 221 255
194 221 255
194 221 255
194 221 255
194 221 255
194 221 255
194 221 255
194 221 255
194 221 255
194 221 255
194 221 255
194 221 255
194 221 255
194 221 255
194 221 255
194 221 255
194 221 255
194 221 255
194 221 255
194 221 255
195 221 255
195 221 255
195 221 255
195 221 255
195 221 255
195 221 255
195 221 255
195 221 255
195 221 255
195 221 255
195 221 255
195 221 255
195 221 255
195 221 255
195 221 255
195 221 255
195 221 255
195 221 255
195 221 255
195 221 255
195 221 255
195 221 255
196 221 255
196 221 255
196 222 255
196 222 255
196 222 255
196 222 255
196 222 255
196 222 255
196 222 255
196 222 255
196 222 255
196 222 255
196 222 255
196 222 255
196 222 255
196 222 255
196 222 255
197 222 255
197 222 255
197 222 255
197 222 255
197 222 255
197 222 255
197 222 255
197 222 255
197 222 255
197 222 255
197 222 255
197 222 255
197 222 255
197 222 255
197 222 255
197 223 255
198 223 255
198 223 255
198 223 255
198 223 255
198 223 255
198 223 255
198 223 255
198 223 255
198 223 255
198 223 255
198 223 255
198 223 255
198 223 255
198 223 255
199 223 255
199 223 255
199 223 255
199 223 255
199 223 255
199 223 255
199 223 255
199 223 255
199 223 255
199 223 255
199 223 255
199 223 255
199 224 255
199 224 255
200 224 255
200 224 255
200 224 255
200 224 255
200 224 255
200 224 255
200 224 255
200 224 255
200 224 255
200 224 255
200 224 255
200 224 255
200 224 255
200 224 255
200 224 255
201 224 255
201 224 255
201 224 255
201 224 255
201 224 255
201 224 255
201 224 255
201 224 255
201 224 255
201 224 255
201 225 255
201 225 255
201 225 255
201 225 255
201 225 255
202 225 255
202 225 255
202 225 255
202 225 255
202 225 255
202 225 255
202 225 255
202 225 255
202 225 255
202 225 255
202 225 255
202 225 255
202 225 255
202 225 255
202 225 255
203 225 255
203 225 255
203 225 255
203 225 255
203 225 255
203 225 255
203 225 255
203 225 255
203 225 255
203 226 255
203 226 255
203 226 255
203 226 255
203 226 255
203 226 255
203 226 255
204 226 255
204 226 255
204 226 255
204 226 255
204 226 255
204 226 255
204 226 255
204 226 255
204 226 255
204 226 255
204 226 255
204 226 255
204 226 255
204 226 255
204 226 255
204 226 255
204 226 255
204 226 255
205 226 255
205 226 255
205 226 255
205 226 255
205 226 255
205 226 255
205 226 255
205 227 255
205 227 255
205 226 255
205 226 255
205 226 255
205 226 255
205 226 255
205 226 255
205 226 255
204 226 255
204 226 255
204 226 255
204 226 255
204 226 255
204 226 255
204 226 255
204 226 255
204 226 255
204 226 255
204 226 255
204 226 255
204 226 255
204 226 255
204 226 255
204 226 255
204 226 255
204 226 255
203 226 255
203 226 255
203 226 255
203 226 255
203 226 255
203 226 255
203 226 255
203 225 255
203 225 255
203 225 255
203 225 255
203 225 255
203 225 255
203 225 255
203 225 255
203 225 255
202 225 255
202 225 255
202 225 255
202 225 255
202 225 255
202 225 255
202 225 255
202 225 255
202 225 255
202 225 255
202 225 255
202 225 255
202 225 255
202 225 255
202 225 255
202 225 255
201 225 255
201 225 255
201 225 255
201 225 255
201 224 255
201 224 255
201 224 255
201 224 255
201 224 255
201 224 255
201 224 255
201 224 255
201 224 255
201 224 255
200 224 255
200 224 255
200 224 255
200 224 255
200 224 255
200 224 255
200 224 255
200 224 255
200 224 255
200 224 255
200 224 255
200 224 255
200 224 255
200 224 255
200 224 255
199 224 255
199 224 255
199 223 255
199 223 255
199 223 255
199 223 255
199 223 255
199 223 255
199 223 255
199 223 255
199 223 255
199 223 255
199 223 255
199 223 255
198 223 255
198 223 255
198 223 255
198 223 255
198 223 255
198 223 255
198 223 255
198 223 255
198 223 255
198 223 255
198 223 255
198 223 255
198 223 255
198 223 255
198 223 255
197 222 255
197 222 255
197 222 255
197 222 255
197 222 255
197 222 255
197 222 255
197 222 255
197 222 255
197 222 255
197 222 255
197 222 255
197 222 255
197 222 255
197 222 255
196 222 255
196 222 255
196 222 255
196 222 255
196 222 255
196 222 255
196 222 255
196 222 255
196 222 255
196 222 255
196 222 255
196 222 255
196 222 255
196 222 255
196 222 255
196 222 255
196 221 255
196 221 255
195 221 255
195 221 255
195 221 255
195 221 255
195 221 255
195 221 255
195 221 255
195 221 255
195 221 255
195 221 255
195 221 255
195 221 255
195 221 255
195 221 255
195 221 255
195 221 255
195 221 255
195 221 255
195 221 255
195 221 255
195 221 255
195 221 255
195 221 255
194 221 255
194 221 255
194 221 255
194 221 255
194 221 255
194 221 255
194 221 255
194 221 255
194 221 255
194 221 255
194 221 255
194 221 255
194 221 255
194 221 255
194 221 255
194 221 255
194 221 255
194 221 255
194 221 255
194 221 255
194 221 255
194 221 255
194 221 255
194 221 255
194 221 255
194 221 255
194 221 255
194 221 255
194 221 255
194 221 255
194 221 255
194 221 255
194 221 255
194 221 255
194 221 255
194 221 255
194 221 255
194 221 255
194 221 255
194 221 255
194 221 255
194 221 255
194 221 255
194 221 255
194 221 255
194 221 255
194 221 255
194 221 255
194 221 255
194 221 255
194 221 255
194 221 255
194 221 255
194 221 255
195 221 255
195 221 255
195 221 255
195 221 255
195 221 255
195 221 255
195 221 255
195 221 255
195 221 255
195 221 255
195 221 255
195 221 255
195 221 255
195 221 255
195 221 255
195 221 255
195 221 255
195 221 255
195 221 255
195 221 255
195 221 255
195 221 255
195 221 255
195 221 255
196 221 255
196 222 255
196 222 255
196 222 255
196 222 255
196 222 255
196 222 255
196 222 255
196 222 255
196 222 255
196 222 255
196 222 255
196 222 255
196 222 255
196 222 255
196 222 255
196 222 255
197 222 255
197 222 255
197 222 255
197 222 255
197 222 255
197 222 255
197 222 255
197 222 255
197 222 255
197 222 255
197 222 255
197 222 255
197 222 255
197 222 255
197 222 255
198 223 255
198 223 255
198 223 255
198 223 255
198 223 255
198 223 255
198 223 255
198 223 255
198 223 255
198 223 255
198 223 255
198 223 255
198 223 255
198 223 255
198 223 255
199 223 255
199 223 255
199 223 255
199 223 255
199 223 255
199 223 255
199 223 255
199 223 255
199 223 255
199 223 255
199 223 255
199 223 255
199 224 255
199 224 255
200 224 255
200 224 255
200 224 255
200 224 255
200 224 255
200 224 255
200 224 255
200 224 255
200 224 255
200 224 255
200 224 255
200 224 255
200 224 255
200 224 255
200 224 255
201 224 255
201 224 255
201 224 255
201 224 255
201 224 255
201 224 255
201 224 255
201 224 255
201 224 255
201 224 255
201 225 255
201 225 255
201 225 255
201 225 255
202 225 255
202 225 255
202 225 255
202 225 255
202 225 255
202 225 255
202 225 255
202 225 255
202 225 255
202 225 255
202 225 255
202 225 255
202 225 255
202 225 255
202 225 255
202 225 255
203 225 255
203 225 255
203 225 255
203 225 255
203 225 255
203 225 255
203 225 255
203 225 255
203 225 255
203 226 255
203 226 255
203 226 255
203 226 255
203 226 255
203 226 255
203 226 255
204 226 255
204 226 255
204 226 255
204 226 255
204 226 255
204 226 255
204 226 255
204 226 255
204 226 255
204 226 255
204 226 255
204 226 255
204 226 255
204 226 255
204 226 255
204 226 255
204 226 255
204 226 255
205 226 255
205 226 255
205 226 255
205 226 255
205 226 255
205 226 255
205 226 255
205 227 255
205 227 255
205 227 255
205 227 255
205 227 255
205 227 255
205 226 255
205 226 255
205 226 255
205 226 255
205 226 255
205 226 255
205 226 255
205 226 255
204 226 255
204 226 255
204 226 255
204 226 255
204 226 255
204 226 255
204 226 255
204 226 255
204 226 255
204 226 255
204 226 255
204 226 255
204 226 255
204 226 255
204 226 255
204 226 255
204 226 255
203 226 255
203 226 255
203 226 255
203 226 255
203 226 255
203 226 255
203 226 255
203 225 255
203 225 255
203 225 255
203 225 255
203 225 255
203 225 255
203 225 255
203 225 255
203 225 255
202 225 255
202 225 255
202 225 255
202 225 255
202 225 255
202 225 255
202 225 255
202 225 255
202 225 255
202 225 255
202 225 255
202 225 255
202 225 255
202 225 255
202 225 255
202 225 255
201 225 255
201 225 255
201 225 255
201 225 255
201 224 255
201 224 255
201 224 255
201 224 255
201 224 255
201 224 255
201 224 255
201 224 255
201 224 255
201 224 255
201 224 255
200 224 255
200 224 255
200 224 255
200 224 255
200 224 255
200 224 255
200 224 255
200 224 255
200 224 255
200 224 255
200 224 255
200 224 255
200 224 255
200 224 255
199 224 255
199 224 255
199 223 255
199 223 255
199 223 255
199 223 255
199 223 255
199 223 255
199 223 255
199 223 255
199 223 255
199 223 255
199 223 255
199 223 255
198 223 255
198 223 255
198 223 255
198 223 255
198 223 255
198 223 255
198 223 255
198 223 255
198 223 255
198 223 255
198 223 255
198 223 255
198 223 255
198 223 255
198 223 255
197 222 255
197 222 255
197 222 255
197 222 255
197 222 255
197 222 255
197 222 255
197 222 255
197 222 255
197 222 255
197 222 255
197 222 255
197 222 255
197 222 255
197 222 255
196 222 255
196 222 255
196 222 255
196 222 255
196 222 255
196 222 255
196 222 255
196 222 255
196 222 255
196 222 255
196 222 255
196 222 255
196 222 255
196 222 255
196 222 255
196 222 255
196 222 255
196 221 255
195 221 255
195 221 255
195 221 255
195 221 255
195 221 255
195 221 255
195 221 255
195 221 255
195 221 255
195 221 255
195 221 255
195 221 255
195 221 255
195 221 255
195 221 255
195 221 255
195 221 255
195 221 255
195 221 255
195 221 255
195 221 255
195 221 255
195 221 255
195 221 255
195 221 255
195 221 255
194 221 255
194 221 255
194 221 255
194 221 255
194 221 255
194 221 255
194 221 255
194 221 255
194 221 255
194 221 255
194 221 255
194 221 255
194 221 255
194 221 255
194 221 255
194 221 255
194 221 255
194 221 255
194 221 255
194 221 255
194 221 255
194 221 255
194 221 255
194 221 255
194 221 255
194 221 255
194 221 255
194 221 255
194 221 255
194 221 255
194 221 255
194 221 255
194 221 255
194 221 255
194 221 255
194 221 255
194 221 255
194 221 255
194 221 255
194 221 255
194 221 255
194 221 255
194 221 255
194 221 255
195 221 255
195 221 255
195 221 255
195 221 255
195 221 255
195 221 255
195 221 255
195 221 255
195 221 255
195 221 255
195 221 255
195 221 255
195 221 255
195 221 255
195 221 255
195 221 255
195 221 255
195 221 255
195 221 255
195 221 255
195 221 255
195 221 255
195 221 255
195 221 255
195 221 255
195 221 255
196 221 255
196 222 255
196 222 255
196 222 255
196 222 255
196 222 255
196 222 255
196 222 255
196 222 255
196 222 255
196 222 255
196 222 255
196 222 255
196 222 255
196 222 255
196 222 255
196 222 255
196 222 255
197 222 255
197 222 255
197 222 255
197 222 255
197 222 255
197 222 255
197 222 255
197 222 255
197 222 255
197 222 255
197 222 255
197 222 255
197 222 255
197 222 255
197 222 255
198 223 255
198 223 255
198 223 255
198 223 255
198 223 255
198 223 255
198 223 255
198 223 255
198 223 255
198 223 255
198 223 255
198 223 255
198 223 255
198 223 255
198 223 255
199 223 255
199 223 255
199 223 255
199 223 255
199 223 255
199 223 255
199 223 255
199 223 255
199 223 255
199 223 255
199 223 255
199 223 255
199 224 255
199 224 255
200 224 255
200 224 255
200 224 255
200 224 255
200 224 255
200 224 255
200 224 255
200 224 255
200 224 255
200 224 255
200 224 255
200 224 255
200 224 255
200 224 255
200 224 255
201 224 255
201 224 255
201 224 255
201 224 255
201 224 255
201 224 255
201 224 255
201 224 255
201 224 255
201 224 255
201 225 255
201 225 255
201 225 255
201 225 255
202 225 255
202 225 255
202 225 255
202 225 255
202 225 255
202 225 255
202 225 255
202 225 255
202 225 255
202 225 255
202 225 255
202 225 255
202 225 255
202 225 255
202 225 255
202 225 255
203 225 255
203 225 255
203 225 255
203 225 255
203 225 255
203 225 255
203 225 255
203 225 255
203 225 255
203 226 255
203 226 255
203 226 255
203 226 255
203 226 255
203 226 255
203 226 255
204 226 255
204 226 255
204 226 255
204 226 255
204 226 255
204 226 255
204 226 255
204 226 255
204 226 255
204 226 255
204 226 255
204 226 255
204 226 255
204 226 255
204 226 255
204 226 255
204 226 255
205 226 255
205 226 255
205 226 255
205 226 255
205 226 255
205 226 255
205 226 255
205 226 255
205 227 255
205 227 255
205 227 255
205 227 255
205 227 255
205 227 255
205 227 255
205 227 255
205 227 255
205 227 255
205 227 255
205 226 255
205 226 255
205 226 255
205 226 255
205 226 255
205 226 255
205 226 255
204 226 255
204 226 255
204 226 255
204 226 255
204 226 255
204 226 255
204 226 255
204 226 255
204 226 255
204 226 255
204 226 255
204 226 255
204 226 255
204 226 255
204 226 255
204 226 255
204 226 255
203 226 255
203 226 255
203 226 255
203 226 255
203 226 255
203 226 255
203 226 255
203 226 255
203 225 255
203 225 255
203 225 255
203 225 255
203 225 255
203 225 255
203 225 255
203 225 255
203 225 255
202 225 255
202 225 255
202 225 255
202 225 255
202 225 255
202 225 255
202 225 255
202 225 255
202 225 255
202 225 255
202 225 255
202 225 255
202 225 255
202 225 255
202 225 255
201 225 255
201 225 255
201 225 255
201 225 255
201 224 255
201 224 255
201 224 255
201 224 255
201 224 255
201 224 255
201 224 255
201 224 255
201 224 255
201 224 255
201 224 255
200 224 255
200 224 255
200 224 255
200 224 255
200 224 255
200 224 255
200 224 255
200 224 255
200 224 255
200 224 255
200 224 255
200 224 255
200 224 255
200 224 255
199 224 255
199 224 255
199 223 255
199 223 255
199 223 255
199 223 255
199 223 255
199 223 255
199 223 255
199 223 255
199 223 255
199 223 255
199 223 255
199 223 255
198 223 255
198 223 255
198 223 255
198 223 255
198 223 255
198 223 255
198 223 255
198 223 255
198 223 255
198 223 255
198 223 255
198 223 255
198 223 255
198 223 255
198 223 255
197 223 255
197 222 255
197 222 255
197 222 255
197 222 255
197 222 255
197 222 255
197 222 255
197 222 255
197 222 255
197 222 255
197 222 255
197 222 255
197 222 255
197 222 255
197 222 255
196 222 255
196 222 255
196 222 255
196 222 255
196 222 255
196 222 255
196 222 255
196 222 255
196 222 255
196 222 255
196 222 255
196 222 255
196 222 255
196 222 255
196 222 255
196 222 255
196 221 255
196 221 255
195 221 255
195 221 255
195 221 255
195 221 255
195 221 255
195 221 255
195 221 255
195 221 255
195 221 255
195 221 255
195 221 255
195 221 255
195 221 255
195 221 255
195 221 255
195 221 255
195 221 255
195 221 255
195 221 255
195 221 255
195 221 255
195 221 255
195 221 255
195 221 255
195 221 255
195 221 255
195 221 255
195 221 255
195 221 255
195 221 255
194 221 255
194 221 255
194 221 255
194 221 255
194 221 255
194 221 255
194 221 255
194 221 255
194 221 255
194 221 255
194 221 255
194 221 255
194 221 255
194 221 255
194 221 255
194 221 255
194 221 255
194 221 255
194 221 255
194 221 255
194 221 255
194 221 255
194 221 255
194 221 255
194 221 255
194 221 255
194 221 255
194 221 255
194 221 255
194 221 255
195 221 255
195 221 255
195 221 255
195 221 255
195 221 255
195 221 255
195 221 255
195 221 255
195 221 255
195 221 255
195 221 255
195 221 255
195 221 255
195 221 255
195 221 255
195 221 255
195 221 255
195 221 255
195 221 255
195 221 255
195 221 255
195 221 255
195 221 255
195 221 255
195 221 255
195 221 255
195 221 255
195 221 255
195 221 255
195 221 255
196 221 255
196 222 255
196 222 255
196 222 255
196 222 255
196 222 255
196 222 255
196 222 255
196 222 255
196 222 255
196 222 255
196 222 255
196 222 255
196 222 255
196 222 255
196 222 255
196 222 255
196 222 255
197 222 255
197 222 255
197 222 255
197 222 255
197 222 255
197 222 255
197 222 255
197 222 255
197 222 255
197 222 255
197 222 255
197 222 255
197 222 255
197 222 255
197 222 255
197 223 255
198 223 255
198 223 255
198 223 255
198 223 255
198 223 255
198 223 255
198 223 255
198 223 255
198 223 255
198 223 255
198 223 255
198 223 255
198 223 255
198 223 255
199 223 255
199 223 255
199 223 255
199 223 255
199 223 255
199 223 255
199 223 255
199 223 255
199 223 255
199 223 255
199 223 255
199 223 255
199 223 255
199 224 255
199 224 255
200 224 255
200 224 255
200 224 255
200 224 255
200 224 255
200 224 255
200 224 255
200 224 255
200 224 255
200 224 255
200 224 255
200 224 255
200 224 255
200 224 255
201 224 255
201 224 255
201 224 255
201 224 255
201 224 255
201 224 255
201 224 255
201 224 255
201 224 255
201 224 255
201 224 255
201 225 255
201 225 255
201 225 255
201 225 255
202 225 255
202 225 255
202 225 255
202 225 255
202 225 255
202 225 255
202 225 255
202 225 255
202 225 255
202 225 255
202 225 255
202 225 255
202 225 255
202 225 255
202 225 255
203 225 255
203 225 255
203 225 255
203 225 255
203 225 255
203 225 255
203 225 255
203 225 255
203 225 255
203 226 255
203 226 255
203 226 255
203 226 255
203 226 255
203 226 255
203 226 255
203 226 255
204 226 255
204 226 255
204 226 255
204 226 255
204 226 255
204 226 255
204 226 255
204 226 255
204 226 255
204 226 255
204 226 255
204 226 255
204 226 255
204 226 255
204 226 255
204 226 255
204 226 255
205 226 255
205 226 255
205 226 255
205 226 255
205 226 255
205 226 255
205 226 255
205 227 255
205 227 255
205 227 255
205 227 255
205 227 255
205 227 255
205 227 255
205 227 255
205 227 255
205 227 255
205 227 255
205 227 255
205 227 255
205 227 255
205 227 255
205 227 255
205 226 255
205 226 255
205 226 255
205 226 255
205 226 255
205 226 255
205 226 255
204 226 255
204 226 255
204 226 255
204 226 255
204 226 255
204 226 255
204 226 255
204 226 255
204 226 255
204 226 255
204 226 255
204 226 255
204 226 255
204 226 255
204 226 255
204 226 255
204 226 255
204 226 255
203 226 255
203 226 255
203 226 255
203 226 255
203 226 255
203 226 255
203 226 255
203 225 255
203 225 255
203 225 255
203 225 255
203 225 255
203 225 255
203 225 255
203 225 255
203 225 255
202 225 255
202 225 255
202 225 255
202 225 255
202 225 255
202 225 255
202 225 255
202 225 255
202 225 255
202 225 255
202 225 255
202 225 255
202 225 255
202 225 255
202 225 255
201 225 255
201 225 255
201 225 255
201 225 255
201 225 255
201 224 255
201 224 255
201 224 255
201 224 255
201 224 255
201 224 255
201 224 255
201 224 255
201 224 255
201 224 255
200 224 255
200 224 255
200 224 255
200 224 255
200 224 255
200 224 255
200 224 255
200 224 255
200 224 255
200 224 255
200 224 255
200 224 255
200 224 255
200 224 255
199 224 255
199 224 255
199 223 255
199 223 255
199 223 255
199 223 255
199 223 255
199 223 255
199 223 255
199 223 255
199 223 255
199 223 255
199 223 255
199 223 255
199 223 255
198 223 255
198 223 255
198 223 255
198 223 255
198 223 255
198 223 255
198 223 255
198 223 255
198 223 255
198 223 255
198 223 255
198 223 255
198 223 255
198 223 255
197 223 255
197 222 255
197 222 255
197 222 255
197 222 255
197 222 255
197 222 255
197 222 255
197 222 255
197 222 255
197 222 255
197 222 255
197 222 255
197 222 255
197 222 255
197 222 255
196 222 255
196 222 255
196 222 255
196 222 255
196 222 255
196 222 255
196 222 255
196 222 255
196 222 255
196 222 255
196 222 255
196 222 255
196 222 255
196 222 255
196 222 255
196 222 255
196 222 255
196 222 255
196 221 255
196 221 255
195 221 255
195 221 255
195 221 255
195 221 255
195 221 255
195 221 255
195 221 255
195 221 255
195 221 255
195 221 255
195 221 255
195 221 255
195 221 255
195 221 255
195 221 255
195 221 255
195 221 255
195 221 255
195 221 255
195 221 255
195 221 255
195 221 255
195 221 255
195 221 255
195 221 255
195 221 255
195 221 255
195 221 255
195 221 255
195 221 255
195 221 255
195 221 255
195 221 255
195 221 255
195 221 255
195 221 255
195 221 255
195 221 255
195 221 255
195 221 255
195 221 255
195 221 255
195 221 255
195 221 255
195 221 255
195 221 255
195 221 255
195 221 255
195 221 255
195 221 255
195 221 255
195 221 255
195 221 255
195 221 255
195 221 255
195 221 255
195 221 255
195 221 255
195 221 255
195 221 255
195 221 255
195 221 255
195 221 255
195 221 255
195 221 255
195 221 255
195 221 255
195 221 255
195 221 255
195 221 255
195 221 255
195 221 255
195 221 255
195 221 255
195 221 255
195 221 255
195 221 255
195 221 255
195 221 255
195 221 255
195 221 255
195 221 255
196 221 255
196 221 255
196 222 255
196 222 255
196 222 255
196 222 255
196 222 255
196 222 255
196 222 255
196 222 255
196 222 255
196 222 255
196 222 255
196 222 255
196 222 255
196 222 255
196 222 255
196 222 255
196 222 255
197 222 255
197 222 255
197 222 255
197 222 255
197 222 255
197 222 255
197 222 255
197 222 255
197 222 255
197 222 255
197 222 255
197 222 255
197 222 255
197 222 255
197 222 255
197 222 255
197 223 255
198 223 255
198 223 255
198 223 255
198 223 255
198 223 255
198 223 255
198 223 255
198 223 255
198 223 255
198 223 255
198 223 255
198 223 255
198 223 255
198 223 255
199 223 255
199 223 255
199 223 255
199 223 255
199 223 255
199 223 255
199 223 255
199 223 255
199 223 255
199 223 255
199 223 255
199 223 255
199 224 255
199 224 255
199 224 255
200 224 255
200 224 255
200 224 255
200 224 255
200 224 255
200 224 255
200 224 255
200 224 255
200 224 255
200 224 255
200 224 255
200 224 255
200 224 255
200 224 255
201 224 255
201 224 255
201 224 255
201 224 255
201 224 255
201 224 255
201 224 255
201 224 255
201 224 255
201 224 255
201 225 255
201 225 255
201 225 255
201 225 255
201 225 255
202 225 255
202 225 255
202 225 255
202 225 255
202 225 255
202 225 255
202 225 255
202 225 255
202 225 255
202 225 255
202 225 255
202 225 255
202 225 255
202 225 255
202 225 255
203 225 255
203 225 255
203 225 255
203 225 255
203 225 255
203 225 255
203 225 255
203 225 255
203 225 255
203 226 255
203 226 255
203 226 255
203 226 255
203 226 255
203 226 255
203 226 255
204 226 255
204 226 255
204 226 255
204 226 255
204 226 255
204 226 255
204 226 255
204 226 255
204 226 255
204 226 255
204 226 255
204 226 255
204 226 255
204 226 255
204 226 255
204 226 255
204 226 255
205 226 255
205 226 255
205 226 255
205 226 255
205 226 255
205 226 255
205 226 255
205 226 255
205 227 255
205 227 255
205 227 255
205 227 255
205 227 255
205 227 255
205 227 255
205 227 255
205 227 255
205 227 255
205 227 255
205 227 255
205 227 255
205 227 255
205 227 255
205 227 255
205 227 255
205 227 255
205 227 255
205 227 255
205 227 255
205 226 255
205 226 255
205 226 255
205 226 255
205 226 255
205 226 255
205 226 255
204 226 255
204 226 255
204 226 255
204 226 255
204 226 255
204 226 255
204 226 255
204 226 255
204 226 255
204 226 255
204 226 255
204 226 255
204 226 255
204 226 255
204 226 255
204 226 255
204 226 255
203 226 255
203 226 255
203 226 255
203 226 255
203 226 255
203 226 255
203 226 255
203 225 255
203 225 255
203 225 255
203 225 255
203 225 255
203 225 255
203 225 255
203 225 255
203 225 255
202 225 255
202 225 255
202 225 255
202 225 255
202 225 255
202 225 255
202 225 255
202 225 255
202 225 255
202 225 255
202 225 255
202 225 255
202 225 255
202 225 255
202 225 255
201 225 255
201 225 255
201 225 255
201 225 255
201 225 255
201 224 255
201 224 255
201 224 255
201 224 255
201 224 255
201 224 255
201 224 255
201 224 255
201 224 255
201 224 255
200 224 255
200 224 255
200 224 255
200 224 255
200 224 255
200 224 255
200 224 255
200 224 255
200 224 255
200 224 255
200 224 255
200 224 255
200 224 255
200 224 255
200 224 255
199 224 255
199 224 255
199 223 255
199 223 255
199 223 255
199 223 255
199 223 255
199 223 255
199 223 255
199 223 255
199 223 255
199 223 255
199 223 255
199 223 255
198 223 255
198 223 255
198 223 255
198 223 255
198 223 255
198 223 255
198 223 255
198 223 255
198 223 255
198 223 255
198 223 255
198 223 255
198 223 255
198 223 255
198 223 255
197 222 255
197 222 255
197 222 255
197 222 255
197 222 255
197 222 255
197 222 255
197 222 255
197 222 255
197 222 255
197 222 255
197 222 255
197 222 255
197 222 255
197 222 255
197 222 255
196 222 255
196 222 255
196 222 255
196 222 255
196 222 255
196 222 255
196 222 255
196 222 255
196 222 255
196 222 255
196 222 255
196 222 255
196 222 255
196 222 255
196 222 255
196 222 255
196 222 255
196 222 255
196 221 255
196 221 255
195 221 255
195 221 255
195 221 255
195 221 255
195 221 255
195 221 255
195 221 255
195 221 255
195 221 255
195 221 255
195 221 255
195 221 255
195 221 255
195 221 255
195 221 255
195 221 255
195 221 255
195 221 255
195 221 255
195 221 255
195 221 255
195 221 255
195 221 255
195 221 255
195 221 255
195 221 255
195 221 255
195 221 255
195 221 255
195 221 255
195 221 255
195 221 255
195 221 255
195 221 255
195 221 255
195 221 255
195 221 255
195 221 255
195 221 255
195 221 255
195 221 255
195 221 255
195 221 255
195 221 255
195 221 255
195 221 255
195 221 255
195 221 255
195 221 255
195 221 255
195 221 255
195 221 255
195 221 255
195 221 255
195 221 255
195 221 255
195 221 255
195 221 255
195 221 255
195 221 255
195 221 255
195 221 255
195 221 255
195 221 255
195 221 255
195 221 255
195 221 255
195 221 255
195 221 255
195 221 255
195 221 255
195 221 255
195 221 255
195 221 255
195 221 255
195 221 255
196 221 255
196 221 255
196 222 255
196 222 255
196 222 255
196 222 255
196 222 255
196 222 255
196 222 255
196 222 255
196 222 255
196 222 255
196 222 255
196 222 255
196 222 255
196 222 255
196 222 255
196 222 255
196 222 255
196 222 255
197 222 255
197 222 255
197 222 255
197 222 255
197 222 255
197 222 255
197 222 255
197 222 255
197 222 255
197 222 255
197 222 255
197 222 255
197 222 255
197 222 255
197 222 255
197 222 255
198 223 255
198 223 255
198 223 255
198 223 255
198 223 255
198 223 255
198 223 255
198 223 255
198 223 255
198 223 255
198 223 255
198 223 255
198 223 255
198 223 255
198 223 255
199 223 255
199 223 255
199 223 255
199 223 255
199 223 255
199 223 255
199 223 255
199 223 255
199 223 255
199 223 255
199 223 255
199 223 255
199 224 255
199 224 255
199 224 255
200 224 255
200 224 255
200 224 255
200 224 255
200 224 255
200 224 255
200 224 255
200 224 255
200 224 255
200 224 255
200 224 255
200 224 255
200 224 255
200 224 255
201 224 255
201 224 255
201 224 255
201 224 255
201 224 255
201 224 255
201 224 255
201 224 255
201 224 255
201 224 255
201 225 255
201 225 255
201 225 255
201 225 255
201 225 255
202 225 255
202 225 255
202 225 255
202 225 255
202 225 255
202 225 255
202 225 255
202 225 255
202 225 255
202 225 255
202 225 255
202 225 255
202 225 255
202 225 255
202 225 255
203 225 255
203 225 255
203 225 255
203 225 255
203 225 255
203 225 255
203 225 255
203 225 255
203 225 255
203 226 255
203 226 255
203 226 255
203 226 255
203 226 255
203 226 255
203 226 255
204 226 255
204 226 255
204 226 255
204 226 255
204 226 255
204 226 255
204 226 255
204 226 255
204 226 255
204 226 255
204 226 255
204 226 255
204 226 255
204 226 255
204 226 255
204 226 255
204 226 255
205 226 255
205 226 255
205 226 255
205 226 255
205 226 255
205 226 255
205 226 255
205 227 255
205 227 255
205 227 255
205 227 255
205 227 255
205 227 255
205 227 255
205 227 255
205 227 255
205 227 255
205 227 255
205 227 255
206 227 255
206 227 255
206 227 255
205 227 255
205 227 255
205 227 255
205 227 255
205 227 255
205 227 255
205 227 255
205 227 255
205 227 255
205 227 255
205 227 255
205 226 255
205 226 255
205 226 255
205 226 255
205 226 255
205 226 255
205 226 255
204 226 255
204 226 255
204 226 255
204 226 255
204 226 255
204 226 255
204 226 255
204 226 255
204 226 255
204 226 255
204 226 255
204 226 255
204 226 255
204 226 255
204 226 255
204 226 255
204 226 255
203 226 255
203 226 255
203 226 255
203 226 255
203 226 255
203 226 255
203 226 255
203 226 255
203 225 255
203 225 255
203 225 255
203 225 255
203 225 255
203 225 255
203 225 255
203 225 255
202 225 255
202 225 255
202 225 255
202 225 255
202 225 255
202 225 255
202 225 255
202 225 255
202 225 255
202 225 255
202 225 255
202 225 255
202 225 255
202 225 255
202 225 255
202 225 255
201 225 255
201 225 255
201 225 255
201 225 255
201 224 255
201 224 255
201 224 255
201 224 255
201 224 255
201 224 255
201 224 255
201 224 255
201 224 255
201 224 255
200 224 255
200 224 255
200 224 255
200 224 255
200 224 255
200 224 255
200 224 255
200 224 255
200 224 255
200 224 255
200 224 255
200 224 255
200 224 255
200 224 255
200 224 255
199 224 255
199 224 255
199 223 255
199 223 255
199 223 255
199 223 255
199 223 255
199 223 255
199 223 255
199 223 255
199 223 255
199 223 255
199 223 255
199 223 255
198 223 255
198 223 255
198 223 255
198 223 255
198 223 255
198 223 255
198 223 255
198 223 255
198 223 255
198 223 255
198 223 255
198 223 255
198 223 255
198 223 255
198 223 255
197 223 255
197 222 255
197 222 255
197 222 255
197 222 255
197 222 255
197 222 255
197 222 255
197 222 255
197 222 255
197 222 255
197 222 255
197 222 255
197 222 255
197 222 255
197 222 255
197 222 255
196 222 255
196 222 255
196 222 255
196 222 255
196 222 255
196 222 255
196 222 255
196 222 255
196 222 255
196 222 255
196 222 255
196 222 255
196 222 255
196 222 255
196 222 255
196 222 255
196 222 255
196 222 255
196 222 255
196 221 255
196 221 255
195 221 255
195 221 255
195 221 255
195 221 255
195 221 255
195 221 255
195 221 255
195 221 255
195 221 255
195 221 255
195 221 255
195 221 255
195 221 255
195 221 255
195 221 255
195 221 255
195 221 255
195 221 255
195 221 255
195 221 255
195 221 255
195 221 255
195 221 255
195 221 255
195 221 255
195 221 255
195 221 255
195 221 255
195 221 255
195 221 255
195 221 255
195 221 255
195 221 255
195 221 255
195 221 255
195 221 255
195 221 255
195 221 255
195 221 255
195 221 255
195 221 255
195 221 255
195 221 255
195 221 255
195 221 255
195 221 255
195 221 255
195 221 255
195 221 255
195 221 255
195 221 255
195 221 255
195 221 255
195 221 255
195 221 255
195 221 255
195 221 255
195 221 255
195 221 255
195 221 255
195 221 255
195 221 255
195 221 255
195 221 255
195 221 255
195 221 255
195 221 255
195 221 255
196 221 255
196 221 255
196 221 255
196 222 255
196 222 255
196 222 255
196 222 255
196 222 255
196 222 255
196 222 255
196 222 255
196 222 255
196 222 255
196 222 255
196 222 255
196 222 255
196 222 255
196 222 255
196 222 255
196 222 255
196 222 255
197 222 255
197 222 255
197 222 255
197 222 255
197 222 255
197 222 255
197 222 255
197 222 255
197 222 255
197 222 255
197 222 255
197 222 255
197 222 255
197 222 255
197 222 255
197 222 255
197 223 255
198 223 255
198 223 255
198 223 255
198 223 255
198 223 255
198 223 255
198 223 255
198 223 255
198 223 255
198 223 255
198 223 255
198 223 255
198 223 255
198 223 255
198 223 255
199 223 255
199 223 255
199 223 255
199 223 255
199 223 255
199 223 255
199 223 255
199 223 255
199 223 255
199 223 255
199 223 255
199 223 255
199 224 255
199 224 255
200 224 255
200 224 255
200 224 255
200 224 255
200 224 255
200 224 255
200 224 255
200 224 255
200 224 255
200 224 255
200 224 255
200 224 255
200 224 255
200 224 255
200 224 255
201 224 255
201 224 255
201 224 255
201 224 255
201 224 255
201 224 255
201 224 255
201 224 255
201 224 255
201 224 255
201 225 255
201 225 255
201 225 255
201 225 255
202 225 255
202 225 255
202 225 255
202 225 255
202 225 255
202 225 255
202 225 255
202 225 255
202 225 255
202 225 255
202 225 255
202 225 255
202 225 255
202 225 255
202 225 255
202 225 255
203 225 255
203 225 255
203 225 255
203 225 255
203 225 255
203 225 255
203 225 255
203 225 255
203 225 255
203 226 255
203 226 255
203 226 255
203 226 255
203 226 255
203 226 255
203 226 255
204 226 255
204 226 255
204 226 255
204 226 255
204 226 255
204 226 255
204 226 255
204 226 255
204 226 255
204 226 255
204 226 255
204 226 255
204 226 255
204 226 255
204 226 255
204 226 255
204 226 255
205 226 255
205 226 255
205 226 255
205 226 255
205 226 255
205 226 255
205 226 255
205 227 255
205 227 255
205 227 255
205 227 255
205 227 255
205 227 255
205 227 255
205 227 255
205 227 255
205 227 255
205 227 255
206 227 255
206 227 255
206 227 255
206 227 255
206 227 255
206 227 255
206 227 255
206 227 255
206 227 255
205 227 255
205 227 255
205 227 255
205 227 255
205 227 255
205 227 255
205 227 255
205 227 255
205 227 255
205 227 255
205 227 255
205 226 255
205 226 255
205 226 255
205 226 255
205 226 255
205 226 255
205 226 255
204 226 255
204 226 255
204 226 255
204 226 255
204 226 255
204 226 255
204 226 255
204 226 255
204 226 255
204 226 255
204 226 255
204 226 255
204 226 255
204 226 255
204 226 255
204 226 255
204 226 255
203 226 255
203 226 255
203 226 255
203 226 255
203 226 255
203 226 255
203 226 255
203 225 255
203 225 255
203 225 255
203 225 255
203 225 255
203 225 255
203 225 255
203 225 255
203 225 255
202 225 255
202 225 255
202 225 255
202 225 255
202 225 255
202 225 255
202 225 255
202 225 255
202 225 255
202 225 255
202 225 255
202 225 255
202 225 255
202 225 255
202 225 255
201 225 255
201 225 255
201 225 255
201 225 255
201 224 255
201 224 255
201 224 255
201 224 255
201 224 255
201 224 255
201 224 255
201 224 255
201 224 255
201 224 255
200 224 255
200 224 255
200 224 255
200 224 255
200 224 255
200 224 255
200 224 255
200 224 255
200 224 255
200 224 255
200 224 255
200 224 255
200 224 255
200 224 255
200 224 255
199 224 255
199 224 255
199 223 255
199 223 255
199 223 255
199 223 255
199 223 255
199 223 255
199 223 255
199 223 255
199 223 255
199 223 255
199 223 255
199 223 255
198 223 255
198 223 255
198 223 255
198 223 255
198 223 255
198 223 255
198 223 255
198 223 255
198 223 255
198 223 255
198 223 255
198 223 255
198 223 255
198 223 255
198 223 255
198 223 255
197 222 255
197 222 255
197 222 255
197 222 255
197 222 255
197 222 255
197 222 255
197 222 255
197 222 255
197 222 255
197 222 255
197 222 255
197 222 255
197 222 255
197 222 255
197 222 255
197 222 255
196 222 255
196 222 255
196 222 255
196 222 255
196 222 255
196 222 255
196 222 255
196 222 255
196 222 255
196 222 255
196 222 255
196 222 255
196 222 255
196 222 255
196 222 255
196 222 255
196 222 255
196 222 255
196 222 255
196 221 255
196 221 255
196 221 255
195 221 255
195 221 255
195 221 255
195 221 255
195 221 255
195 221 255
195 221 255
195 221 255
195 221 255
195 221 255
195 221 255
195 221 255
195 221 255
195 221 255
195 221 255
195 221 255
195 221 255
195 221 255
195 221 255
195 221 255
195 221 255
195 221 255
195 221 255
195 221 255
195 221 255
195 221 255
195 221 255
195 221 255
195 221 255
195 221 255
195 221 255
195 221 255
195 221 255
195 221 255
195 221 255
195 221 255
195 221 255
195 221 255
195 221 255
195 221 255
195 221 255
195 221 255
195 221 255
195 221 255
195 221 255
195 221 255
195 221 255
195 221 255
195 221 255
195 221 255
195 221 255
195 221 255
195 221 255
195 221 255
195 221 255
195 221 255
195 221 255
195 221 255
195 221 255
195 221 255
196 221 255
196 221 255
196 222 255
196 222 255
196 222 255
196 222 255
196 222 255
196 222 255
196 222 255
196 222 255
196 222 255
196 222 255
196 222 255
196 222 255
196 222 255
196 222 255
196 222 255
196 222 255
196 222 255
196 222 255
196 222 255
196 222 255
197 222 255
197 222 255
197 222 255
197 222 255
197 222 255
197 222 255
197 222 255
197 222 255
197 222 255
197 222 255
197 222 255
197 222 255
197 222 255
197 222 255
197 222 255
197 222 255
197 222 255
198 223 255
198 223 255
198 223 255
198 223 255
198 223 255
198 223 255
198 223 255
198 223 255
198 223 255
198 223 255
198 223 255
198 223 255
198 223 255
198 223 255
198 223 255
198 223 255
199 223 255
199 223 255
199 223 255
199 223 255
199 223 255
199 223 255
199 223 255
199 223 255
199 223 255
199 223 255
199 223 255
199 223 255
199 224 255
199 224 255
200 224 255
200 224 255
200 224 255
200 224 255
200 224 255
200 224 255
200 224 255
200 224 255
200 224 255
200 224 255
200 224 255
200 224 255
200 224 255
200 224 255
200 224 255
201 224 255
201 224 255
201 224 255
201 224 255
201 224 255
201 224 255
201 224 255
201 224 255
201 224 255
201 224 255
201 225 255
201 225 255
201 225 255
201 225 255
202 225 255
202 225 255
202 225 255
202 225 255
202 225 255
202 225 255
202 225 255
202 225 255
202 225 255
202 225 255
202 225 255
202 225 255
202 225 255
202 225 255
202 225 255
203 225 255
203 225 255
203 225 255
203 225 255
203 225 255
203 225 255
203 225 255
203 225 255
203 225 255
203 226 255
203 226 255
203 226 255
203 226 255
203 226 255
203 226 255
203 226 255
204 226 255
204 226 255
204 226 255
204 226 255
204 226 255
204 226 255
204 226 255
204 226 255
204 226 255
204 226 255
204 226 255
204 226 255
204 226 255
204 226 255
204 226 255
204 226 255
204 226 255
205 226 255
205 226 255
205 226 255
205 226 255
205 226 255
205 226 255
205 226 255
205 227 255
205 227 255
205 227 255
205 227 255
205 227 255
205 227 255
205 227 255
205 227 255
205 227 255
205 227 255
205 227 255
205 227 255
206 227 255
206 227 255
206 227 255
206 227 255
206 227 255
206 227 255
206 227 255
206 227 255
206 227 255
206 227 255
206 227 255
206 227 255
206 227 255
205 227 255
205 227 255
205 227 255
205 227 255
205 227 255
205 227 255
205 227 255
205 227 255
205 227 255
205 227 255
205 227 255
205 226 255
205 226 255
205 226 255
205 226 255
205 226 255
205 226 255
205 226 255
204 226 255
204 226 255
204 226 255
204 226 255
204 226 255
204 226 255
204 226 255
204 226 255
204 226 255
204 226 255
204 226 255
204 226 255
204 226 255
204 226 255
204 226 255
204 226 255
204 226 255
203 226 255
203 226 255
203 226 255
203 226 255
203 226 255
203 226 255
203 226 255
203 225 255
203 225 255
203 225 255
203 225 255
203 225 255
203 225 255
203 225 255
203 225 255
203 225 255
202 225 255
202 225 255
202 225 255
202 225 255
202 225 255
202 225 255
202 225 255
202 225 255
202 225 255
202 225 255
202 225 255
202 225 255
202 225 255
202 225 255
202 225 255
201 225 255
201 225 255
201 225 255
201 225 255
201 224 255
201 224 255
201 224 255
201 224 255
201 224 255
201 224 255
201 224 255
201 224 255
201 224 255
201 224 255
201 224 255
200 224 255
200 224 255
200 224 255
200 224 255
200 224 255
200 224 255
200 224 255
200 224 255
200 224 255
200 224 255
200 224 255
200 224 255
200 224 255
200 224 255
199 224 255
199 224 255
199 223 255
199 223 255
199 223 255
199 223 255
199 223 255
199 223 255
199 223 255
199 223 255
199 223 255
199 223 255
199 223 255
199 223 255
199 223 255
198 223 255
198 223 255
198 223 255
198 223 255
198 223 255
198 223 255
198 223 255
198 223 255
198 223 255
198 223 255
198 223 255
198 223 255
198 223 255
198 223 255
198 223 255
197 223 255
197 222 255
197 222 255
197 222 255
197 222 255
197 222 255
197 222 255
197 222 255
197 222 255
197 222 255
197 222 255
197 222 255
197 222 255
197 222 255
197 222 255
197 222 255
197 222 255
196 222 255
196 222 255
196 222 255
196 222 255
196 222 255
196 222 255
196 222 255
196 222 255
196 222 255
196 222 255
196 222 255
196 222 255
196 222 255
196 222 255
196 222 255
196 222 255
196 222 255
196 222 255
196 222 255
196 222 255
196 222 255
196 222 255
196 221 255
196 221 255
196 221 255
195 221 255
195 221 255
195 221 255
195 221 255
195 221 255
195 221 255
195 221 255
195 221 255
195 221 255
195 221 255
195 221 255
195 221 255
195 221 255
195 221 255
195 221 255
195 221 255
195 221 255
195 221 255
195 221 255
195 221 255
195 221 255
195 221 255
195 221 255
195 221 255
195 221 255
195 221 255
195 221 255
195 221 255
195 221 255
195 221 255
195 221 255
195 221 255
195 221 255
195 221 255
195 221 255
195 221 255
195 221 255
195 221 255
195 221 255
195 221 255
195 221 255
195 221 255
195 221 255
195 221 255
195 221 255
195 221 255
195 221 255
195 221 255
195 221 255
195 221 255
196 221 255
196 221 255
196 221 255
196 222 255
196 222 255
196 222 255
196 222 255
196 222 255
196 222 255
196 222 255
196 222 255
196 222 255
196 222 255
196 222 255
196 222 255
196 222 255
196 222 255
196 222 255
196 222 255
196 222 255
196 222 255
196 222 255
196 222 255
196 222 255
197 222 255
197 222 255
197 222 255
197 222 255
197 222 255
197 222 255
197 222 255
197 222 255
197 222 255
197 222 255
197 222 255
197 222 255
197 222 255
197 222 255
197 222 255
197 222 255
197 222 255
197 223 255
198 223 255
198 223 255
198 223 255
198 223 255
198 223 255
198 223 255
198 223 255
198 223 255
198 223 255
198 223 255
198 223 255
198 223 255
198 223 255
198 223 255
198 223 255
199 223 255
199 223 255
199 223 255
199 223 255
199 223 255
199 223 255
199 223 255
199 223 255
199 223 255
199 223 255
199 223 255
199 223 255
199 223 255
199 224 255
199 224 255
200 224 255
200 224 255
200 224 255
200 224 255
200 224 255
200 224 255
200 224 255
200 224 255
200 224 255
200 224 255
200 224 255
200 224 255
200 224 255
200 224 255
201 224 255
201 224 255
201 224 255
201 224 255
201 224 255
201 224 255
201 224 255
201 224 255
201 224 255
201 224 255
201 224 255
201 225 255
201 225 255
201 225 255
201 225 255
202 225 255
202 225 255
202 225 255
202 225 255
202 225 255
202 225 255
202 225 255
202 225 255
202 225 255
202 225 255
202 225 255
202 225 255
202 225 255
202 225 255
202 225 255
203 225 255
203 225 255
203 225 255
203 225 255
203 225 255
203 225 255
203 225 255
203 225 255
203 225 255
203 226 255
203 226 255
203 226 255
203 226 255
203 226 255
203 226 255
203 226 255
204 226 255
204 226 255
204 226 255
204 226 255
204 226 255
204 226 255
204 226 255
204 226 255
204 226 255
204 226 255
204 226 255
204 226 255
204 226 255
204 226 255
204 226 255
204 226 255
204 226 255
205 226 255
205 226 255
205 226 255
205 226 255
205 226 255
205 226 255
205 226 255
205 227 255
205 227 255
205 227 255
205 227 255
205 227 255
205 227 255
205 227 255
205 227 255
205 227 255
205 227 255
205 227 255
206 227 255
206 227 255
206 227 255
206 227 255
206 227 255
206 227 255
206 227 255
206 227 255
206 227 255
206 227 255
206 227 255
206 227 255
206 227 255
206 227 255
206 227 255
206 227 255
206 227 255
206 227 255
206 227 255
205 227 255
205 227 255
205 227 255
205 227 255
205 227 255
205 227 255
205 227 255
205 227 255
205 227 255
205 227 255
205 227 255
205 226 255
205 226 255
205 226 255
205 226 255
205 226 255
205 226 255
205 226 255
204 226 255
204 226 255
204 226 255
204 226 255
204 226 255
204 226 255
204 226 255
204 226 255
204 226 255
204 226 255
204 226 255
204 226 255
204 226 255
204 226 255
204 226 255
204 226 255
204 226 255
203 226 255
203 226 255
203 226 255
203 226 255
203 226 255
203 226 255
203 226 255
203 225 255
203 225 255
203 225 255
203 225 255
203 225 255
203 225 255
203 225 255
203 225 255
202 225 255
202 225 255
202 225 255
202 225 255
202 225 255
202 225 255
202 225 255
202 225 255
202 225 255
202 225 255
202 225 255
202 225 255
202 225 255
202 225 255
202 225 255
201 225 255
201 225 255
201 225 255
201 225 255
201 225 255
201 224 255
201 224 255
201 224 255
201 224 255
201 224 255
201 224 255
201 224 255
201 224 255
201 224 255
201 224 255
200 224 255
200 224 255
200 224 255
200 224 255
200 224 255
200 224 255
200 224 255
200 224 255
200 224 255
200 224 255
200 224 255
200 224 255
200 224 255
200 224 255
199 224 255
199 224 255
199 224 255
199 223 255
199 223 255
199 223 255
199 223 255
199 223 255
199 223 255
199 223 255
199 223 255
199 223 255
199 223 255
199 223 255
199 223 255
198 223 255
198 223 255
198 223 255
198 223 255
198 223 255
198 223 255
198 223 255
198 223 255
198 223 255
198 223 255
198 223 255
198 223 255
198 223 255
198 223 255
198 223 255
198 223 255
197 222 255
197 222 255
197 222 255
197 222 255
197 222 255
197 222 255
197 222 255
197 222 255
197 222 255
197 222 255
197 222 255
197 222 255
197 222 255
197 222 255
197 222 255
197 222 255
197 222 255
197 222 255
196 222 255
196 222 255
196 222 255
196 222 255
196 222 255
196 222 255
196 222 255
196 222 255
196 222 255
196 222 255
196 222 255
196 222 255
196 222 255
196 222 255
196 222 255
196 222 255
196 222 255
196 222 255
196 222 255
196 222 255
196 222 255
196 222 255
196 222 255
196 221 255
196 221 255
196 221 255
196 221 255
195 221 255
195 221 255
195 221 255
195 221 255
195 221 255
195 221 255
195 221 255
195 221 255
195 221 255
195 221 255
195 221 255
195 221 255
195 221 255
195 221 255
195 221 255
195 221 255
195 221 255
195 221 255
195 221 255
195 221 255
195 221 255
195 221 255
195 221 255
195 221 255
195 221 255
195 221 255
195 221 255
195 221 255
195 221 255
195 221 255
195 221 255
195 221 255
195 221 255
195 221 255
195 221 255
195 221 255
195 221 255
195 221 255
196 221 255
196 221 255
196 221 255
196 221 255
196 222 255
196 222 255
196 222 255
196 222 255
196 222 255
196 222 255
196 222 255
196 222 255
196 222 255
196 222 255
196 222 255
196 222 255
196 222 255
196 222 255
196 222 255
196 222 255
196 222 255
196 222 255
196 222 255
196 222 255
196 222 255
196 222 255
196 222 255
197 222 255
197 222 255
197 222 255
197 222 255
197 222 255
197 222 255
197 222 255
197 222 255
197 222 255
197 222 255
197 222 255
197 222 255
197 222 255
197 222 255
197 222 255
197 222 255
197 222 255
197 222 255
198 223 255
198 223 255
198 223 255
198 223 255
198 223 255
198 223 255
198 223 255
198 223 255
198 223 255
198 223 255
198 223 255
198 223 255
198 223 255
198 223 255
198 223 255
198 223 255
199 223 255
199 223 255
199 223 255
199 223 255
199 223 255
199 223 255
199 223 255
199 223 255
199 223 255
199 223 255
199 223 255
199 223 255
199 224 255
199 224 255
199 224 255
200 224 255
200 224 255
200 224 255
200 224 255
200 224 255
200 224 255
200 224 255
200 224 255
200 224 255
200 224 255
200 224 255
200 224 255
200 224 255
200 224 255
201 224 255
201 224 255
201 224 255
201 224 255
201 224 255
201 224 255
201 224 255
201 224 255
201 224 255
201 224 255
201 225 255
201 225 255
201 225 255
201 225 255
201 225 255
202 225 255
202 225 255
202 225 255
202 225 255
202 225 255
202 225 255
202 225 255
202 225 255
202 225 255
202 225 255
202 225 255
202 225 255
202 225 255
202 225 255
202 225 255
203 225 255
203 225 255
203 225 255
203 225 255
203 225 255
203 225 255
203 225 255
203 225 255
203 226 255
203 226 255
203 226 255
203 226 255
203 226 255
203 226 255
203 226 255
203 226 255
204 226 255
204 226 255
204 226 255
204 226 255
204 226 255
204 226 255
204 226 255
204 226 255
204 226 255
204 226 255
204 226 255
204 226 255
204 226 255
204 226 255
204 226 255
204 226 255
205 226 255
205 226 255
205 226 255
205 226 255
205 226 255
205 226 255
205 226 255
205 226 255
205 227 255
205 227 255
205 227 255
205 227 255
205 227 255
205 227 255
205 227 255
205 227 255
205 227 255
205 227 255
206 227 255
206 227 255
206 227 255
206 227 255
206 227 255
206 227 255
206 227 255
206 227 255
206 227 255
206 227 255
206 227 255
206 227 255
206 227 255
206 227 255
206 227 255
206 227 255
206 227 255
206 227 255
206 227 255
206 227 255
206 227 255
206 227 255
206 227 255
206 227 255
205 227 255
205 227 255
205 227 255
205 227 255
205 227 255
205 227 255
205 227 255
205 227 255
205 227 255
205 227 255
205 227 255
205 226 255
205 226 255
205 226 255
205 226 255
205 226 255
205 226 255
205 226 255
204 226 255
204 226 255
204 226 255
204 226 255
204 226 255
204 226 255
204 226 255
204 226 255
204 226 255
204 226 255
204 226 255
204 226 255
204 226 255
204 226 255
204 226 255
204 226 255
204 226 255
203 226 255
203 226 255
203 226 255
203 226 255
203 226 255
203 226 255
203 226 255
203 225 255
203 225 255
203 225 255
203 225 255
203 225 255
203 225 255
203 225 255
203 225 255
203 225 255
202 225 255
202 225 255
202 225 255
202 225 255
202 225 255
202 225 255
202 225 255
202 225 255
202 225 255
202 225 255
202 225 255
202 225 255
202 225 255
202 225 255
202 225 255
201 225 255
201 225 255
201 225 255
201 225 255
201 224 255
201 224 255
201 224 255
201 224 255
201 224 255
201 224 255
201 224 255
201 224 255
201 224 255
201 224 255
200 224 255
200 224 255
200 224 255
200 224 255
200 224 255
200 224 255
200 224 255
200 224 255
200 224 255
200 224 255
200 224 255
200 224 255
200 224 255
200 224 255
200 224 255
199 224 255
199 224 255
199 223 255
199 223 255
199 223 255
199 223 255
199 223 255
199 223 255
199 223 255
199 223 255
199 223 255
199 223 255
199 223 255
199 223 255
199 223 255
198 223 255
198 223 255
198 223 255
198 223 255
198 223 255
198 223 255
198 223 255
198 223 255
198 223 255
198 223 255
198 223 255
198 223 255
198 223 255
198 223 255
198 223 255
198 223 255
197 222 255
197 222 255
197 222 255
197 222 255
197 222 255
197 222 255
197 222 255
197 222 255
197 222 255
197 222 255
197 222 255
197 222 255
197 222 255
197 222 255
197 222 255
197 222 255
197 222 255
197 222 255
196 222 255
196 222 255
196 222 255
196 222 255
196 222 255
196 222 255
196 222 255
196 222 255
196 222 255
196 222 255
196 222 255
196 222 255
196 222 255
196 222 255
196 222 255
196 222 255
196 222 255
196 222 255
196 222 255
196 222 255
196 222 255
196 222 255
196 222 255
196 222 255
196 222 255
196 222 255
196 222 255
196 221 255
196 221 255
196 221 255
196 221 255
196 221 255
196 221 255
195 221 255
195 221 255
195 221 255
195 221 255
195 221 255
195 221 255
195 221 255
195 221 255
195 221 255
195 221 255
195 221 255
195 221 255
195 221 255
195 221 255
195 221 255
195 221 255
195 221 255
195 221 255
195 221 255
195 221 255
196 221 255
196 221 255
196 221 255
196 221 255
196 221 255
196 221 255
196 222 255
196 222 255
196 222 255
196 222 255
196 222 255
196 222 255
196 222 255
196 222 255
196 222 255
196 222 255
196 222 255
196 222 255
196 222 255
196 222 255
196 222 255
196 222 255
196 222 255
196 222 255
196 222 255
196 222 255
196 222 255
196 222 255
196 222 255
196 222 255
196 222 255
196 222 255
196 222 255
197 222 255
197 222 255
197 222 255
197 222 255
197 222 255
197 222 255
197 222 255
197 222 255
197 222 255
197 222 255
197 222 255
197 222 255
197 222 255
197 222 255
197 222 255
197 222 255
197 222 255
197 222 255
197 223 255
198 223 255
198 223 255
198 223 255
198 223 255
198 223 255
198 223 255
198 223 255
198 223 255
198 223 255
198 223 255
198 223 255
198 223 255
198 223 255
198 223 255
198 223 255
199 223 255
199 223 255
199 223 255
199 223 255
199 223 255
199 223 255
199 223 255
199 223 255
199 223 255
199 223 255
199 223 255
199 223 255
199 223 255
199 224 255
199 224 255
200 224 255
200 224 255
200 224 255
200 224 255
200 224 255
200 224 255
200 224 255
200 224 255
200 224 255
200 224 255
200 224 255
200 224 255
200 224 255
200 224 255
200 224 255
201 224 255
201 224 255
201 224 255
201 224 255
201 224 255
201 224 255
201 224 255
201 224 255
201 224 255
201 224 255
201 225 255
201 225 255
201 225 255
201 225 255
202 225 255
202 225 255
202 225 255
202 225 255
202 225 255
202 225 255
202 225 255
202 225 255
202 225 255
202 225 255
202 225 255
202 225 255
202 225 255
202 225 255
202 225 255
203 225 255
203 225 255
203 225 255
203 225 255
203 225 255
203 225 255
203 225 255
203 225 255
203 225 255
203 226 255
203 226 255
203 226 255
203 226 255
203 226 255
203 226 255
203 226 255
204 226 255
204 226 255
204 226 255
204 226 255
204 226 255
204 226 255
204 226 255
204 226 255
204 226 255
204 226 255
204 226 255
204 226 255
204 226 255
204 226 255
204 226 255
204 226 255
204 226 255
205 226 255
205 226 255
205 226 255
205 226 255
205 226 255
205 226 255
205 226 255
205 227 255
205 227 255
205 227 255
205 227 255
205 227 255
205 227 255
205 227 255
205 227 255
205 227 255
205 227 255
205 227 255
206 227 255
206 227 255
206 227 255
206 227 255
206 227 255
206 227 255
206 227 255
206 227 255
206 227 255
206 227 255
206 227 255
206 227 255
206 227 255
206 227 255
206 227 255
206 227 255
206 227 255
206 227 255
206 227 255
206 227 255
206 227 255
206 227 255
206 227 255
206 227 255
206 227 255
206 227 255
206 227 255
206 227 255
206 227 255
205 227 255
205 227 255
205 227 255
205 227 255
205 227 255
205 227 255
205 227 255
205 227 255
205 227 255
205 227 255
205 227 255
205 226 255
205 226 255
205 226 255
205 226 255
205 226 255
205 226 255
205 226 255
204 226 255
204 226 255
204 226 255
204 226 255
204 226 255
204 226 255
204 226 255
204 226 255
204 226 255
204 226 255
204 226 255
204 226 255
204 226 255
204 226 255
204 226 255
204 226 255
203 226 255
203 226 255
203 226 255
203 226 255
203 226 255
203 226 255
203 226 255
203 225 255
203 225 255
203 225 255
203 225 255
203 225 255
203 225 255
203 225 255
203 225 255
203 225 255
202 225 255
202 225 255
202 225 255
202 225 255
202 225 255
202 225 255
202 225 255
202 225 255
202 225 255
202 225 255
202 225 255
202 225 255
202 225 255
202 225 255
202 225 255
201 225 255
201 225 255
201 225 255
201 225 255
201 224 255
201 224 255
201 224 255
201 224 255
201 224 255
201 224 255
201 224 255
201 224 255
201 224 255
201 224 255
200 224 255
200 224 255
200 224 255
200 224 255
200 224 255
200 224 255
200 224 255
200 224 255
200 224 255
200 224 255
200 224 255
200 224 255
200 224 255
200 224 255
200 224 255
199 224 255
199 224 255
199 223 255
199 223 255
199 223 255
199 223 255
199 223 255
199 223 255
199 223 255
199 223 255
199 223 255
199 223 255
199 223 255
199 223 255
199 223 255
198 223 255
198 223 255
198 223 255
198 223 255
198 223 255
198 223 255
198 223 255
198 223 255
198 223 255
198 223 255
198 223 255
198 223 255
198 223 255
198 223 255
198 223 255
198 223 255
197 223 255
197 222 255
197 222 255
197 222 255
197 222 255
197 222 255
197 222 255
197 222 255
197 222 255
197 222 255
197 222 255
197 222 255
197 222 255
197 222 255
197 222 255
197 222 255
197 222 255
197 222 255
197 222 255
197 222 255
196 222 255
196 222 255
196 222 255
196 222 255
196 222 255
196 222 255
196 222 255
196 222 255
196 222 255
196 222 255
196 222 255
196 222 255
196 222 255
196 222 255
196 222 255
196 222 255
196 222 255
196 222 255
196 222 255
196 222 255
196 222 255
196 222 255
196 222 255
196 222 255
196 222 255
196 222 255
196 222 255
196 222 255
196 222 255
196 222 255
196 222 255
196 222 255
196 222 255
196 222 255
196 222 255
196 222 255
196 222 255
196 222 255
196 222 255
196 222 255
196 222 255
196 222 255
196 222 255
196 222 255
196 222 255
196 222 255
196 222 255
196 222 255
196 222 255
196 222 255
196 222 255
196 222 255
196 222 255
196 222 255
196 222 255
196 222 255
196 222 255
196 222 255
196 222 255
196 222 255
196 222 255
196 222 255
196 222 255
196 222 255
196 222 255
196 222 255
196 222 255
196 222 255
196 222 255
196 222 255
196 222 255
196 222 255
196 222 255
196 222 255
196 222 255
196 222 255
196 222 255
196 222 255
197 222 255
197 222 255
197 222 255
197 222 255
197 222 255
197 222 255
197 222 255
197 222 255
197 222 255
197 222 255
197 222 255
197 222 255
197 222 255
197 222 255
197 222 255
197 222 255
197 222 255
197 222 255
197 222 255
197 223 255
198 223 255
198 223 255
198 223 255
198 223 255
198 223 255
198 223 255
198 223 255
198 223 255
198 223 255
198 223 255
198 223 255
198 223 255
198 223 255
198 223 255
198 223 255
198 223 255
199 223 255
199 223 255
199 223 255
199 223 255
199 223 255
199 223 255
199 223 255
199 223 255
199 223 255
199 223 255
199 223 255
199 223 255
199 223 255
199 224 255
199 224 255
200 224 255
200 224 255
200 224 255
200 224 255
200 224 255
200 224 255
200 224 255
200 224 255
200 224 255
200 224 255
200 224 255
200 224 255
200 224 255
200 224 255
201 224 255
201 224 255
201 224 255
201 224 255
201 224 255
201 224 255
201 224 255
201 224 255
201 224 255
201 224 255
201 224 255
201 225 255
201 225 255
201 225 255
201 225 255
202 225 255
202 225 255
202 225 255
202 225 255
202 225 255
202 225 255
202 225 255
202 225 255
202 225 255
202 225 255
202 225 255
202 225 255
202 225 255
202 225 255
202 225 255
203 225 255
203 225 255
203 225 255
203 225 255
203 225 255
203 225 255
203 225 255
203 225 255
203 225 255
203 226 255
203 226 255
203 226 255
203 226 255
203 226 255
203 226 255
203 226 255
204 226 255
204 226 255
204 226 255
204 226 255
204 226 255
204 226 255
204 226 255
204 226 255
204 226 255
204 226 255
204 226 255
204 226 255
204 226 255
204 226 255
204 226 255
204 226 255
205 226 255
205 226 255
205 226 255
205 226 255
205 226 255
205 226 255
205 226 255
205 226 255
205 227 255
205 227 255
205 227 255
205 227 255
205 227 255
205 227 255
205 227 255
205 227 255
205 227 255
205 227 255
206 227 255
206 227 255
206 227 255
206 227 255
206 227 255
206 227 255
206 227 255
206 227 255
206 227 255
206 227 255
206 227 255
206 227 255
206 227 255
206 227 255
206 227 255
206 227 255
206 227 255
206 227 255
206 227 255
206 227 255
206 227 255
206 227 255
206 227 255
206 227 255
206 227 255
206 227 255
206 227 255
206 227 255
206 227 255
206 227 255
206 227 255
206 227 255
206 227 255
206 227 255
205 227 255
205 227 255
205 227 255
205 227 255
205 227 255
205 227 255
205 227 255
205 227 255
205 227 255
205 227 255
205 227 255
205 226 255
205 226 255
205 226 255
205 226 255
205 226 255
205 226 255
205 226 255
204 226 255
204 226 255
204 226 255
204 226 255
204 226 255
204 226 255
204 226 255
204 226 255
204 226 255
204 226 255
204 226 255
204 226 255
204 226 255
204 226 255
204 226 255
204 226 255
204 226 255
203 226 255
203 226 255
203 226 255
203 226 255
203 226 255
203 226 255
203 226 255
203 225 255
203 225 255
203 225 255
203 225 255
203 225 255
203 225 255
203 225 255
203 225 255
202 225 255
202 225 255
202 225 255
202 225 255
202 225 255
202 225 255
202 225 255
202 225 255
202 225 255
202 225 255
202 225 255
202 225 255
202 225 255
202 225 255
202 225 255
201 225 255
201 225 255
201 225 255
201 225 255
201 225 255
201 224 255
201 224 255
201 224 255
201 224 255
201 224 255
201 224 255
201 224 255
201 224 255
201 224 255
201 224 255
200 224 255
200 224 255
200 224 255
200 224 255
200 224 255
200 224 255
200 224 255
200 224 255
200 224 255
200 224 255
200 224 255
200 224 255
200 224 255
200 224 255
199 224 255
199 224 255
199 224 255
199 223 255
199 223 255
199 223 255
199 223 255
199 223 255
199 223 255
199 223 255
199 223 255
199 223 255
199 223 255
199 223 255
199 223 255
199 223 255
198 223 255
198 223 255
198 223 255
198 223 255
198 223 255
198 223 255
198 223 255
198 223 255
198 223 255
198 223 255
198 223 255
198 223 255
198 223 255
198 223 255
198 223 255
198 223 255
197 223 255
197 222 255
197 222 255
197 222 255
197 222 255
197 222 255
197 222 255
197 222 255
197 222 255
197 222 255
197 222 255
197 222 255
197 222 255
197 222 255
197 222 255
197 222 255
197 222 255
197 222 255
197 222 255
197 222 255
196 222 255
196 222 255
196 222 255
196 222 255
196 222 255
196 222 255
196 222 255
196 222 255
196 222 255
196 222 255
196 222 255
196 222 255
196 222 255
196 222 255
196 222 255
196 222 255
196 222 255
196 222 255
196 222 255
196 222 255
196 222 255
196 222 255
196 222 255
196 222 255
196 222 255
196 222 255
196 222 255
196 222 255
196 222 255
196 222 255
196 222 255
196 222 255
196 222 255
196 222 255
196 222 255
196 222 255
196 222 255
196 222 255
196 222 255
196 222 255
196 222 255
196 222 255
196 222 255
196 222 255
196 222 255
196 222 255
196 222 255
196 222 255
196 222 255
196 222 255
196 222 255
196 222 255
196 222 255
196 222 255
196 222 255
196 222 255
196 222 255
196 222 255
196 222 255
196 222 255
196 222 255
196 222 255
196 222 255
196 222 255
196 222 255
196 222 255
196 222 255
196 222 255
196 222 255
196 222 255
196 222 255
197 222 255
197 222 255
197 222 255
197 222 255
197 222 255
197 222 255
197 222 255
197 222 255
197 222 255
197 222 255
197 222 255
197 222 255
197 222 255
197 222 255
197 222 255
197 222 255
197 222 255
197 222 255
197 222 255
197 222 255
197 223 255
198 223 255
198 223 255
198 223 255
198 223 255
198 223 255
198 223 255
198 223 255
198 223 255
198 223 255
198 223 255
198 223 255
198 223 255
198 223 255
198 223 255
198 223 255
198 223 255
199 223 255
199 223 255
199 223 255
199 223 255
199 223 255
199 223 255
199 223 255
199 223 255
199 223 255
199 223 255
199 223 255
199 223 255
199 223 255
199 224 255
199 224 255
199 224 255
200 224 255
200 224 255
200 224 255
200 224 255
200 224 255
200 224 255
200 224 255
200 224 255
200 224 255
200 224 255
200 224 255
200 224 255
200 224 255
200 224 255
201 224 255
201 224 255
201 224 255
201 224 255
201 224 255
201 224 255
201 224 255
201 224 255
201 224 255
201 224 255
201 225 255
201 225 255
201 225 255
201 225 255
201 225 255
202 225 255
202 225 255
202 225 255
202 225 255
202 225 255
202 225 255
202 225 255
202 225 255
202 225 255
202 225 255
202 225 255
202 225 255
202 225 255
202 225 255
202 225 255
203 225 255
203 225 255
203 225 255
203 225 255
203 225 255
203 225 255
203 225 255
203 225 255
203 226 255
203 226 255
203 226 255
203 226 255
203 226 255
203 226 255
203 226 255
204 226 255
204 226 255
204 226 255
204 226 255
204 226 255
204 226 255
204 226 255
204 226 255
204 226 255
204 226 255
204 226 255
204 226 255
204 226 255
204 226 255
204 226 255
204 226 255
204 226 255
205 226 255
205 226 255
205 226 255
205 226 255
205 226 255
205 226 255
205 226 255
205 227 255
205 227 255
205 227 255
205 227 255
205 227 255
205 227 255
205 227 255
205 227 255
205 227 255
205 227 255
205 227 255
206 227 255
206 227 255
206 227 255
206 227 255
206 227 255
206 227 255
206 227 255
206 227 255
206 227 255
206 227 255
206 227 255
206 227 255
206 227 255
206 227 255
206 227 255
206 227 255
206 227 255
206 227 255
207 227 255
207 227 255
206 227 255
206 227 255
206 227 255
206 227 255
206 227 255
206 227 255
206 227 255
206 227 255
206 227 255
206 227 255
206 227 255
206 227 255
206 227 255
206 227 255
206 227 255
206 227 255
206 227 255
206 227 255
206 227 255
205 227 255
205 227 255
205 227 255
205 227 255
205 227 255
205 227 255
205 227 255
205 227 255
205 227 255
205 227 255
205 227 255
205 226 255
205 226 255
205 226 255
205 226 255
205 226 255
205 226 255
205 226 255
204 226 255
204 226 255
204 226 255
204 226 255
204 226 255
204 226 255
204 226 255
204 226 255
204 226 255
204 226 255
204 226 255
204 226 255
204 226 255
204 226 255
204 226 255
204 226 255
203 226 255
203 226 255
203 226 255
203 226 255
203 226 255
203 226 255
203 226 255
203 225 255
203 225 255
203 225 255
203 225 255
203 225 255
203 225 255
203 225 255
203 225 255
203 225 255
202 225 255
202 225 255
202 225 255
202 225 255
202 225 255
202 225 255
202 225 255
202 225 255
202 225 255
202 225 255
202 225 255
202 225 255
202 225 255
202 225 255
202 225 255
201 225 255
201 225 255
201 225 255
201 225 255
201 224 255
201 224 255
201 224 255
201 224 255
201 224 255
201 224 255
201 224 255
201 224 255
201 224 255
201 224 255
200 224 255
200 224 255
200 224 255
200 224 255
200 224 255
200 224 255
200 224 255
200 224 255
200 224 255
200 224 255
200 224 255
200 224 255
200 224 255
200 224 255
200 224 255
199 224 255
199 224 255
199 223 255
199 223 255
199 223 255
199 223 255
199 223 255
199 223 255
199 223 255
199 223 255
199 223 255
199 223 255
199 223 255
199 223 255
199 223 255
198 223 255
198 223 255
198 223 255
198 223 255
198 223 255
198 223 255
198 223 255
198 223 255
198 223 255
198 223 255
198 223 255
198 223 255
198 223 255
198 223 255
198 223 255
198 223 255
198 223 255
197 223 255
197 222 255
197 222 255
197 222 255
197 222 255
197 222 255
197 222 255
197 222 255
197 222 255
197 222 255
197 222 255
197 222 255
197 222 255
197 222 255
197 222 255
197 222 255
197 222 255
197 222 255
197 222 255
197 222 255
197 222 255
197 222 255
196 222 255
196 222 255
196 222 255
196 222 255
196 222 255
196 222 255
196 222 255
196 222 255
196 222 255
196 222 255
196 222 255
196 222 255
196 222 255
196 222 255
196 222 255
196 222 255
196 222 255
196 222 255
196 222 255
196 222 255
196 222 255
196 222 255
196 222 255
196 222 255
196 222 255
196 222 255
196 222 255
196 222 255
196 222 255
196 222 255
196 222 255
196 222 255
196 222 255
196 222 255
196 222 255
196 222 255
196 222 255
196 222 255
196 222 255
196 222 255
196 222 255
196 222 255
196 222 255
196 222 255
196 222 255
196 222 255
196 222 255
196 222 255
196 222 255
196 222 255
196 222 255
196 222 255
196 222 255
196 222 255
196 222 255
196 222 255
196 222 255
196 222 255
196 222 255
196 222 255
196 222 255
196 222 255
197 222 255
197 222 255
197 222 255
197 222 255
197 222 255
197 222 255
197 222 255
197 222 255
197 222 255
197 222 255
197 222 255
197 222 255
197 222 255
197 222 255
197 222 255
197 222 255
197 222 255
197 222 255
197 222 255
197 222 255
197 222 255
197 223 255
198 223 255
198 223 255
198 223 255
198 223 255
198 223 255
198 223 255
198 223 255
198 223 255
198 223 255
198 223 255
198 223 255
198 223 255
198 223 255
198 223 255
198 223 255
198 223 255
198 223 255
199 223 255
199 223 255
199 223 255
199 223 255
199 223 255
199 223 255
199 223 255
199 223 255
199 223 255
199 223 255
199 223 255
199 223 255
199 223 255
199 224 255
199 224 255
200 224 255
200 224 255
200 224 255
200 224 255
200 224 255
200 224 255
200 224 255
200 224 255
200 224 255
200 224 255
200 224 255
200 224 255
200 224 255
200 224 255
200 224 255
201 224 255
201 224 255
201 224 255
201 224 255
201 224 255
201 224 255
201 224 255
201 224 255
201 224 255
201 224 255
201 225 255
201 225 255
201 225 255
201 225 255
202 225 255
202 225 255
202 225 255
202 225 255
202 225 255
202 225 255
202 225 255
202 225 255
202 225 255
202 225 255
202 225 255
202 225 255
202 225 255
202 225 255
202 225 255
203 225 255
203 225 255
203 225 255
203 225 255
203 225 255
203 225 255
203 225 255
203 225 255
203 225 255
203 226 255
203 226 255
203 226 255
203 226 255
203 226 255
203 226 255
203 226 255
204 226 255
204 226 255
204 226 255
204 226 255
204 226 255
204 226 255
204 226 255
204 226 255
204 226 255
204 226 255
204 226 255
204 226 255
204 226 255
204 226 255
204 226 255
204 226 255
205 226 255
205 226 255
205 226 255
205 226 255
205 226 255
205 226 255
205 226 255
205 227 255
205 227 255
205 227 255
205 227 255
205 227 255
205 227 255
205 227 255
205 227 255
205 227 255
205 227 255
205 227 255
206 227 255
206 227 255
206 227 255
206 227 255
206 227 255
206 227 255
206 227 255
206 227 255
206 227 255
206 227 255
206 227 255
206 227 255
206 227 255
206 227 255
206 227 255
206 227 255
206 227 255
206 227 255
206 227 255
207 227 255
207 227 255
207 227 255
207 227 255
207 227 255
207 227 255
207 227 255
206 227 255
206 227 255
206 227 255
206 227 255
206 227 255
206 227 255
206 227 255
206 227 255
206 227 255
206 227 255
206 227 255
206 227 255
206 227 255
206 227 255
206 227 255
206 227 255
206 227 255
206 227 255
206 227 255
205 227 255
205 227 255
205 227 255
205 227 255
205 227 255
205 227 255
205 227 255
205 227 255
205 227 255
205 227 255
205 226 255
205 226 255
205 226 255
205 226 255
205 226 255
205 226 255
205 226 255
204 226 255
204 226 255
204 226 255
204 226 255
204 226 255
204 226 255
204 226 255
204 226 255
204 226 255
204 226 255
204 226 255
204 226 255
204 226 255
204 226 255
204 226 255
204 226 255
204 226 255
203 226 255
203 226 255
203 226 255
203 226 255
203 226 255
203 226 255
203 225 255
203 225 255
203 225 255
203 225 255
203 225 255
203 225 255
203 225 255
203 225 255
203 225 255
202 225 255
202 225 255
202 225 255
202 225 255
202 225 255
202 225 255
202 225 255
202 225 255
202 225 255
202 225 255
202 225 255
202 225 255
202 225 255
202 225 255
202 225 255
201 225 255
201 225 255
201 225 255
201 225 255
201 224 255
201 224 255
201 224 255
201 224 255
201 224 255
201 224 255
201 224 255
201 224 255
201 224 255
201 224 255
201 224 255
200 224 255
200 224 255
200 224 255
200 224 255
200 224 255
200 224 255
200 224 255
200 224 255
200 224 255
200 224 255
200 224 255
200 224 255
200 224 255
200 224 255
199 224 255
199 224 255
199 224 255
199 223 255
199 223 255
199 223 255
199 223 255
199 223 255
199 223 255
199 223 255
199 223 255
199 223 255
199 223 255
199 223 255
199 223 255
199 223 255
198 223 255
198 223 255
198 223 255
198 223 255
198 223 255
198 223 255
198 223 255
198 223 255
198 223 255
198 223 255
198 223 255
198 223 255
198 223 255
198 223 255
198 223 255
198 223 255
198 223 255
197 223 255
197 222 255
197 222 255
197 222 255
197 222 255
197 222 255
197 222 255
197 222 255
197 222 255
197 222 255
197 222 255
197 222 255
197 222 255
197 222 255
197 222 255
197 222 255
197 222 255
197 222 255
197 222 255
197 222 255
197 222 255
197 222 255
197 222 255
197 222 255
196 222 255
196 222 255
196 222 255
196 222 255
196 222 255
196 222 255
196 222 255
196 222 255
196 222 255
196 222 255
196 222 255
196 222 255
196 222 255
196 222 255
196 222 255
196 222 255
196 222 255
196 222 255
196 222 255
196 222 255
196 222 255
196 222 255
196 222 255
196 222 255
196 222 255
196 222 255
196 222 255
196 222 255
196 222 255
196 222 255
196 222 255
196 222 255
196 222 255
196 222 255
196 222 255
196 222 255
196 222 255
196 222 255
196 222 255
196 222 255
196 222 255
196 222 255
196 222 255
196 222 255
196 222 255
196 222 255
196 222 255
196 222 255
196 222 255
196 222 255
196 222 255
196 222 255
197 222 255
197 222 255
197 222 255
197 222 255
197 222 255
197 222 255
197 222 255
197 222 255
197 222 255
197 222 255
197 222 255
197 222 255
197 222 255
197 222 255
197 222 255
197 222 255
197 222 255
197 222 255
197 222 255
197 222 255
197 222 255
197 222 255
197 222 255
197 223 255
198 223 255
198 223 255
198 223 255
198 223 255
198 223 255
198 223 255
198 223 255
198 223 255
198 223 255
198 223 255
198 223 255
198 223 255
198 223 255
198 223 255
198 223 255
198 223 255
198 223 255
199 223 255
199 223 255
199 223 255
199 223 255
199 223 255
199 223 255
199 223 255
199 223 255
199 223 255
199 223 255
199 223 255
199 223 255
199 223 255
199 224 255
199 224 255
199 224 255
200 224 255
200 224 255
200 224 255
200 224 255
200 224 255
200 224 255
200 224 255
200 224 255
200 224 255
200 224 255
200 224 255
200 224 255
200 224 255
200 224 255
201 224 255
201 224 255
201 224 255
201 224 255
201 224 255
201 224 255
201 224 255
201 224 255
201 224 255
201 224 255
201 224 255
201 225 255
201 225 255
201 225 255
201 225 255
202 225 255
202 225 255
202 225 255
202 225 255
202 225 255
202 225 255
202 225 255
202 225 255
202 225 255
202 225 255
202 225 255
202 225 255
202 225 255
202 225 255
202 225 255
203 225 255
203 225 255
203 225 255
203 225 255
203 225 255
203 225 255
203 225 255
203 225 255
203 226 255
203 226 255
203 226 255
203 226 255
203 226 255
203 226 255
203 226 255
204 226 255
204 226 255
204 226 255
204 226 255
204 226 255
204 226 255
204 226 255
204 226 255
204 226 255
204 226 255
204 226 255
204 226 255
204 226 255
204 226 255
204 226 255
204 226 255
204 226 255
205 226 255
205 226 255
205 226 255
205 226 255
205 226 255
205 226 255
205 226 255
205 227 255
205 227 255
205 227 255
205 227 255
205 227 255
205 227 255
205 227 255
205 227 255
205 227 255
205 227 255
206 227 255
206 227 255
206 227 255
206 227 255
206 227 255
206 227 255
206 227 255
206 227 255
206 227 255
206 227 255
206 227 255
206 227 255
206 227 255
206 227 255
206 227 255
206 227 255
206 227 255
206 227 255
206 227 255
206 227 255
207 227 255
207 227 255
207 227 255
207 227 255
207 228 255
207 228 255
207 227 255
207 227 255
207 227 255
207 227 255
207 227 255
206 227 255
206 227 255
206 227 255
206 227 255
206 227 255
206 227 255
206 227 255
206 227 255
206 227 255
206 227 255
206 227 255
206 227 255
206 227 255
206 227 255
206 227 255
206 227 255
206 227 255
206 227 255
206 227 255
205 227 255
205 227 255
205 227 255
205 227 255
205 227 255
205 227 255
205 227 255
205 227 255
205 227 255
205 227 255
205 227 255
205 226 255
205 226 255
205 226 255
205 226 255
205 226 255
205 226 255
205 226 255
204 226 255
204 226 255
204 226 255
204 226 255
204 226 255
204 226 255
204 226 255
204 226 255
204 226 255
204 226 255
204 226 255
204 226 255
204 226 255
204 226 255
204 226 255
204 226 255
203 226 255
203 226 255
203 226 255
203 226 255
203 226 255
203 226 255
203 226 255
203 225 255
203 225 255
203 225 255
203 225 255
203 225 255
203 225 255
203 225 255
203 225 255
203 225 255
202 225 255
202 225 255
202 225 255
202 225 255
202 225 255
202 225 255
202 225 255
202 225 255
202 225 255
202 225 255
202 225 255
202 225 255
202 225 255
202 225 255
201 225 255
201 225 255
201 225 255
201 225 255
201 225 255
201 224 255
201 224 255
201 224 255
201 224 255
201 224 255
201 224 255
201 224 255
201 224 255
201 224 255
201 224 255
200 224 255
200 224 255
200 224 255
200 224 255
200 224 255
200 224 255
200 224 255
200 224 255
200 224 255
200 224 255
200 224 255
200 224 255
200 224 255
200 224 255
200 224 255
199 224 255
199 224 255
199 223 255
199 223 255
199 223 255
199 223 255
199 223 255
199 223 255
199 223 255
199 223 255
199 223 255
199 223 255
199 223 255
199 223 255
199 223 255
199 223 255
198 223 255
198 223 255
198 223 255
198 223 255
198 223 255
198 223 255
198 223 255
198 223 255
198 223 255
198 223 255
198 223 255
198 223 255
198 223 255
198 223 255
198 223 255
198 223 255
198 223 255
198 223 255
197 222 255
197 222 255
197 222 255
197 222 255
197 222 255
197 222 255
197 222 255
197 222 255
197 222 255
197 222 255
197 222 255
197 222 255
197 222 255
197 222 255
197 222 255
197 222 255
197 222 255
197 222 255
197 222 255
197 222 255
197 222 255
197 222 255
197 222 255
197 222 255
197 222 255
197 222 255
196 222 255
196 222 255
196 222 255
196 222 255
196 222 255
196 222 255
196 222 255
196 222 255
196 222 255
196 222 255
196 222 255
196 222 255
196 222 255
196 222 255
196 222 255
196 222 255
196 222 255
196 222 255
196 222 255
196 222 255
196 222 255
196 222 255
196 222 255
196 222 255
196 222 255
196 222 255
196 222 255
196 222 255
196 222 255
196 222 255
196 222 255
196 222 255
196 222 255
196 222 255
196 222 255
196 222 255
196 222 255
196 222 255
196 222 255
196 222 255
197 222 255
197 222 255
197 222 255
197 222 255
197 222 255
197 222 255
197 222 255
197 222 255
197 222 255
197 222 255
197 222 255
197 222 255
197 222 255
197 222 255
197 222 255
197 222 255
197 222 255
197 222 255
197 222 255
197 222 255
197 222 255
197 222 255
197 222 255
197 222 255
197 222 255
197 222 255
198 223 255
198 223 255
198 223 255
198 223 255
198 223 255
198 223 255
198 223 255
198 223 255
198 223 255
198 223 255
198 223 255
198 223 255
198 223 255
198 223 255
198 223 255
198 223 255
198 223 255
198 223 255
199 223 255
199 223 255
199 223 255
199 223 255
199 223 255
199 223 255
199 223 255
199 223 255
199 223 255
199 223 255
199 223 255
199 223 255
199 223 255
199 223 255
199 224 255
199 224 255
200 224 255
200 224 255
200 224 255
200 224 255
200 224 255
200 224 255
200 224 255
200 224 255
200 224 255
200 224 255
200 224 255
200 224 255
200 224 255
200 224 255
200 224 255
201 224 255
201 224 255
201 224 255
201 224 255
201 224 255
201 224 255
201 224 255
201 224 255
201 224 255
201 224 255
201 225 255
201 225 255
201 225 255
201 225 255
201 225 255
202 225 255
202 225 255
202 225 255
202 225 255
202 225 255
202 225 255
202 225 255
202 225 255
202 225 255
202 225 255
202 225 255
202 225 255
202 225 255
202 225 255
202 225 255
203 225 255
203 225 255
203 225 255
203 225 255
203 225 255
203 225 255
203 225 255
203 225 255
203 226 255
203 226 255
203 226 255
203 226 255
203 226 255
203 226 255
203 226 255
204 226 255
204 226 255
204 226 255
204 226 255
204 226 255
204 226 255
204 226 255
204 226 255
204 226 255
204 226 255
204 226 255
204 226 255
204 226 255
204 226 255
204 226 255
204 226 255
205 226 255
205 226 255
205 226 255
205 226 255
205 226 255
205 226 255
205 226 255
205 227 255
205 227 255
205 227 255
205 227 255
205 227 255
205 227 255
205 227 255
205 227 255
205 227 255
205 227 255
205 227 255
206 227 255
206 227 255
206 227 255
206 227 255
206 227 255
206 227 255
206 227 255
206 227 255
206 227 255
206 227 255
206 227 255
206 227 255
206 227 255
206 227 255
206 227 255
206 227 255
206 227 255
206 227 255
206 227 255
207 227 255
207 227 255
207 227 255
207 227 255
207 227 255
207 228 255
207 228 255
207 228 255
207 228 255
207 228 255
207 228 255
207 228 255
207 227 255
207 227 255
207 227 255
207 227 255
207 227 255
206 227 255
206 227 255
206 227 255
206 227 255
206 227 255
206 227 255
206 227 255
206 227 255
206 227 255
206 227 255
206 227 255
206 227 255
206 227 255
206 227 255
206 227 255
206 227 255
206 227 255
206 227 255
206 227 255
205 227 255
205 227 255
205 227 255
205 227 255
205 227 255
205 227 255
205 227 255
205 227 255
205 227 255
205 227 255
205 226 255
205 226 255
205 226 255
205 226 255
205 226 255
205 226 255
205 226 255
204 226 255
204 226 255
204 226 255
204 226 255
204 226 255
204 226 255
204 226 255
204 226 255
204 226 255
204 226 255
204 226 255
204 226 255
204 226 255
204 226 255
204 226 255
204 226 255
203 226 255
203 226 255
203 226 255
203 226 255
203 226 255
203 226 255
203 226 255
203 225 255
203 225 255
203 225 255
203 225 255
203 225 255
203 225 255
203 225 255
203 225 255
203 225 255
202 225 255
202 225 255
202 225 255
202 225 255
202 225 255
202 225 255
202 225 255
202 225 255
202 225 255
202 225 255
202 225 255
202 225 255
202 225 255
202 225 255
202 225 255
201 225 255
201 225 255
201 225 255
201 225 255
201 224 255
201 224 255
201 224 255
201 224 255
201 224 255
201 224 255
201 224 255
201 224 255
201 224 255
201 224 255
201 224 255
200 224 255
200 224 255
200 224 255
200 224 255
200 224 255
200 224 255
200 224 255
200 224 255
200 224 255
200 224 255
200 224 255
200 224 255
200 224 255
200 224 255
199 224 255
199 224 255
199 224 255
199 223 255
199 223 255
199 223 255
199 223 255
199 223 255
199 223 255
199 223 255
199 223 255
199 223 255
199 223 255
199 223 255
199 223 255
199 223 255
198 223 255
198 223 255
198 223 255
198 223 255
198 223 255
198 223 255
198 223 255
198 223 255
198 223 255
198 223 255
198 223 255
198 223 255
198 223 255
198 223 255
198 223 255
198 223 255
198 223 255
198 223 255
198 223 255
197 223 255
197 222 255
197 222 255
197 222 255
197 222 255
197 222 255
197 222 255
197 222 255
197 222 255
197 222 255
197 222 255
197 222 255
197 222 255
197 222 255
197 222 255
197 222 255
197 222 255
197 222 255
197 222 255
197 222 255
197 222 255
197 222 255
197 222 255
197 222 255
197 222 255
197 222 255
197 222 255
197 222 255
197 222 255
197 222 255
197 222 255
197 222 255
196 222 255
196 222 255
196 222 255
196 222 255
196 222 255
196 222 255
196 222 255
196 222 255
196 222 255
196 222 255
196 222 255
196 222 255
196 222 255
196 222 255
196 222 255
196 222 255
196 222 255
196 222 255
196 222 255
196 222 255
196 222 255
196 222 255
197 222 255
197 222 255
197 222 255
197 222 255
197 222 255
197 222 255
197 222 255
197 222 255
197 222 255
197 222 255
197 222 255
197 222 255
197 222 255
197 222 255
197 222 255
197 222 255
197 222 255
197 222 255
197 222 255
197 222 255
197 222 255
197 222 255
197 222 255
197 222 255
197 222 255
197 222 255
197 222 255
197 222 255
197 222 255
197 222 255
197 222 255
197 223 255
198 223 255
198 223 255
198 223 255
198 223 255
198 223 255
198 223 255
198 223 255
198 223 255
198 223 255
198 223 255
198 223 255
198 223 255
198 223 255
198 223 255
198 223 255
198 223 255
198 223 255
198 223 255
199 223 255
199 223 255
199 223 255
199 223 255
199 223 255
199 223 255
199 223 255
199 223 255
199 223 255
199 223 255
199 223 255
199 223 255
199 223 255
199 223 255
199 224 255
199 224 255
199 224 255
200 224 255
200 224 255
200 224 255
200 224 255
200 224 255
200 224 255
200 224 255
200 224 255
200 224 255
200 224 255
200 224 255
200 224 255
200 224 255
200 224 255
200 224 255
201 224 255
201 224 255
201 224 255
201 224 255
201 224 255
201 224 255
201 224 255
201 224 255
201 224 255
201 224 255
201 225 255
201 225 255
201 225 255
201 225 255
202 225 255
202 225 255
202 225 255
202 225 255
202 225 255
202 225 255
202 225 255
202 225 255
202 225 255
202 225 255
202 225 255
202 225 255
202 225 255
202 225 255
202 225 255
203 225 255
203 225 255
203 225 255
203 225 255
203 225 255
203 225 255
203 225 255
203 225 255
203 225 255
203 226 255
203 226 255
203 226 255
203 226 255
203 226 255
203 226 255
204 226 255
204 226 255
204 226 255
204 226 255
204 226 255
204 226 255
204 226 255
204 226 255
204 226 255
204 226 255
204 226 255
204 226 255
204 226 255
204 226 255
204 226 255
204 226 255
204 226 255
205 226 255
205 226 255
205 226 255
205 226 255
205 226 255
205 226 255
205 226 255
205 227 255
205 227 255
205 227 255
205 227 255
205 227 255
205 227 255
205 227 255
205 227 255
205 227 255
205 227 255
206 227 255
206 227 255
206 227 255
206 227 255
206 227 255
206 227 255
206 227 255
206 227 255
206 227 255
206 227 255
206 227 255
206 227 255
206 227 255
206 227 255
206 227 255
206 227 255
206 227 255
206 227 255
206 227 255
207 227 255
207 227 255
207 227 255
207 227 255
207 227 255
207 228 255
207 228 255
207 228 255
207 228 255
207 228 255
207 228 255
207 228 255
207 228 255
207 228 255
207 228 255
207 228 255
207 228 255
207 228 255
207 227 255
207 227 255
207 227 255
207 227 255
207 227 255
206 227 255
206 227 255
206 227 255
206 227 255
206 227 255
206 227 255
206 227 255
206 227 255
206 227 255
206 227 255
206 227 255
206 227 255
206 227 255
206 227 255
206 227 255
206 227 255
206 227 255
206 227 255
206 227 255
205 227 255
205 227 255
205 227 255
205 227 255
205 227 255
205 227 255
205 227 255
205 227 255
205 227 255
205 227 255
205 226 255
205 226 255
205 226 255
205 226 255
205 226 255
205 226 255
205 226 255
204 226 255
204 226 255
204 226 255
204 226 255
204 226 255
204 226 255
204 226 255
204 226 255
204 226 255
204 226 255
204 226 255
204 226 255
204 226 255
204 226 255
204 226 255
204 226 255
203 226 255
203 226 255
203 226 255
203 226 255
203 226 255
203 226 255
203 226 255
203 225 255
203 225 255
203 225 255
203 225 255
203 225 255
203 225 255
203 225 255
203 225 255
202 225 255
202 225 255
202 225 255
202 225 255
202 225 255
202 225 255
202 225 255
202 225 255
202 225 255
202 225 255
202 225 255
202 225 255
202 225 255
202 225 255
202 225 255
201 225 255
201 225 255
201 225 255
201 225 255
201 225 255
201 224 255
201 224 255
201 224 255
201 224 255
201 224 255
201 224 255
201 224 255
201 224 255
201 224 255
201 224 255
200 224 255
200 224 255
200 224 255
200 224 255
200 224 255
200 224 255
200 224 255
200 224 255
200 224 255
200 224 255
200 224 255
200 224 255
200 224 255
200 224 255
200 224 255
199 224 255
199 224 255
199 224 255
199 223 255
199 223 255
199 223 255
199 223 255
199 223 255
199 223 255
199 223 255
199 223 255
199 223 255
199 223 255
199 223 255
199 223 255
199 223 255
198 223 255
198 223 255
198 223 255
198 223 255
198 223 255
198 223 255
198 223 255
198 223 255
198 223 255
198 223 255
198 223 255
198 223 255
198 223 255
198 223 255
198 223 255
198 223 255
198 223 255
198 223 255
198 223 255
198 223 255
197 223 255
197 222 255
197 222 255
197 222 255
197 222 255
197 222 255
197 222 255
197 222 255
197 222 255
197 222 255
197 222 255
197 222 255
197 222 255
197 222 255
197 222 255
197 222 255
197 222 255
197 222 255
197 222 255
197 222 255
197 222 255
197 222 255
197 222 255
197 222 255
197 222 255
197 222 255
197 222 255
197 222 255
197 222 255
197 222 255
197 222 255
197 222 255
197 222 255
197 222 255
197 222 255
197 222 255
197 222 255
197 222 255
197 222 255
197 222 255
197 222 255
197 222 255
197 222 255
197 222 255
197 222 255
197 222 255
197 222 255
197 222 255
197 222 255
197 222 255
197 222 255
197 222 255
197 222 255
197 222 255
197 222 255
197 222 255
197 222 255
197 222 255
197 222 255
197 222 255
197 222 255
197 222 255
197 222 255
197 222 255
197 222 255
197 222 255
197 222 255
197 222 255
197 222 255
197 222 255
197 222 255
197 222 255
197 222 255
197 222 255
197 222 255
197 222 255
197 222 255
197 223 255
198 223 255
198 223 255
198 223 255
198 223 255
198 223 255
198 223 255
198 223 255
198 223 255
198 223 255
198 223 255
198 223 255
198 223 255
198 223 255
198 223 255
198 223 255
198 223 255
198 223 255
198 223 255
198 223 255
199 223 255
199 223 255
199 223 255
199 223 255
199 223 255
199 223 255
199 223 255
199 223 255
199 223 255
199 223 255
199 223 255
199 223 255
199 223 255
199 223 255
199 224 255
199 224 255
199 224 255
200 224 255
200 224 255
200 224 255
200 224 255
200 224 255
200 224 255
200 224 255
200 224 255
200 224 255
200 224 255
200 224 255
200 224 255
200 224 255
200 224 255
200 224 255
201 224 255
201 224 255
201 224 255
201 224 255
201 224 255
201 224 255
201 224 255
201 224 255
201 224 255
201 224 255
201 225 255
201 225 255
201 225 255
201 225 255
201 225 255
202 225 255
202 225 255
202 225 255
202 225 255
202 225 255
202 225 255
202 225 255
202 225 255
202 225 255
202 225 255
202 225 255
202 225 255
202 225 255
202 225 255
202 225 255
203 225 255
203 225 255
203 225 255
203 225 255
203 225 255
203 225 255
203 225 255
203 225 255
203 226 255
203 226 255
203 226 255
203 226 255
203 226 255
203 226 255
203 226 255
204 226 255
204 226 255
204 226 255
204 226 255
204 226 255
204 226 255
204 226 255
204 226 255
204 226 255
204 226 255
204 226 255
204 226 255
204 226 255
204 226 255
204 226 255
204 226 255
205 226 255
205 226 255
205 226 255
205 226 255
205 226 255
205 226 255
205 226 255
205 227 255
205 227 255
205 227 255
205 227 255
205 227 255
205 227 255
205 227 255
205 227 255
205 227 255
205 227 255
206 227 255
206 227 255
206 227 255
206 227 255
206 227 255
206 227 255
206 227 255
206 227 255
206 227 255
206 227 255
206 227 255
206 227 255
206 227 255
206 227 255
206 227 255
206 227 255
206 227 255
206 227 255
206 227 255
207 227 255
207 227 255
207 227 255
207 227 255
207 227 255
207 228 255
207 228 255
207 228 255
207 228 255
207 228 255
207 228 255
207 228 255
207 228 255
207 228 255
207 228 255
207 228 255
207 228 255
207 228 255
207 228 255
207 228 255
207 228 255
207 228 255
207 228 255
207 228 255
207 227 255
207 227 255
207 227 255
207 227 255
206 227 255
206 227 255
206 227 255
206 227 255
206 227 255
206 227 255
206 227 255
206 227 255
206 227 255
206 227 255
206 227 255
206 227 255
206 227 255
206 227 255
206 227 255
206 227 255
206 227 255
206 227 255
206 227 255
205 227 255
205 227 255
205 227 255
205 227 255
205 227 255
205 227 255
205 227 255
205 227 255
205 227 255
205 227 255
205 227 255
205 226 255
205 226 255
205 226 255
205 226 255
205 226 255
205 226 255
204 226 255
204 226 255
204 226 255
204 226 255
204 226 255
204 226 255
204 226 255
204 226 255
204 226 255
204 226 255
204 226 255
204 226 255
204 226 255
204 226 255
204 226 255
204 226 255
204 226 255
203 226 255
203 226 255
203 226 255
203 226 255
203 226 255
203 226 255
203 225 255
203 225 255
203 225 255
203 225 255
203 225 255
203 225 255
203 225 255
203 225 255
203 225 255
202 225 255
202 225 255
202 225 255
202 225 255
202 225 255
202 225 255
202 225 255
202 225 255
202 225 255
202 225 255
202 225 255
202 225 255
202 225 255
202 225 255
202 225 255
201 225 255
201 225 255
201 225 255
201 225 255
201 224 255
201 224 255
201 224 255
201 224 255
201 224 255
201 224 255
201 224 255
201 224 255
201 224 255
201 224 255
201 224 255
200 224 255
200 224 255
200 224 255
200 224 255
200 224 255
200 224 255
200 224 255
200 224 255
200 224 255
200 224 255
200 224 255
200 224 255
200 224 255
200 224 255
200 224 255
199 224 255
199 224 255
199 223 255
199 223 255
199 223 255
199 223 255
199 223 255
199 223 255
199 223 255
199 223 255
199 223 255
199 223 255
199 223 255
199 223 255
199 223 255
199 223 255
199 223 255
198 223 255
198 223 255
198 223 255
198 223 255
198 223 255
198 223 255
198 223 255
198 223 255
198 223 255
198 223 255
198 223 255
198 223 255
198 223 255
198 223 255
198 223 255
198 223 255
198 223 255
198 223 255
198 223 255
198 223 255
197 223 255
197 222 255
197 222 255
197 222 255
197 222 255
197 222 255
197 222 255
197 222 255
197 222 255
197 222 255
197 222 255
197 222 255
197 222 255
197 222 255
197 222 255
197 222 255
197 222 255
197 222 255
197 222 255
197 222 255
197 222 255
197 222 255
197 222 255
197 222 255
197 222 255
197 222 255
197 222 255
197 222 255
197 222 255
197 222 255
197 222 255
197 222 255
197 222 255
197 222 255
197 222 255
197 222 255
197 222 255
197 222 255
197 222 255
197 222 255
197 222 255
197 222 255
197 222 255
197 222 255
197 222 255
197 222 255
197 222 255
197 222 255
197 222 255
197 222 255
197 222 255
197 222 255
197 222 255
197 222 255
197 222 255
197 222 255
197 222 255
197 222 255
197 222 255
197 222 255
197 222 255
197 222 255
197 222 255
197 222 255
197 222 255
197 222 255
197 222 255
197 222 255
197 222 255
197 223 255
198 223 255
198 223 255
198 223 255
198 223 255
198 223 255
198 223 255
198 223 255
198 223 255
198 223 255
198 223 255
198 223 255
198 223 255
198 223 255
198 223 255
198 223 255
198 223 255
198 223 255
198 223 255
198 223 255
198 223 255
198 223 255
199 223 255
199 223 255
199 223 255
199 223 255
199 223 255
199 223 255
199 223 255
199 223 255
199 223 255
199 223 255
199 223 255
199 223 255
199 223 255
199 223 255
199 224 255
199 224 255
200 224 255
200 224 255
200 224 255
200 224 255
200 224 255
200 224 255
200 224 255
200 224 255
200 224 255
200 224 255
200 224 255
200 224 255
200 224 255
200 224 255
200 224 255
201 224 255
201 224 255
201 224 255
201 224 255
201 224 255
201 224 255
201 224 255
201 224 255
201 224 255
201 224 255
201 224 255
201 225 255
201 225 255
201 225 255
201 225 255
202 225 255
202 225 255
202 225 255
202 225 255
202 225 255
202 225 255
202 225 255
202 225 255
202 225 255
202 225 255
202 225 255
202 225 255
202 225 255
202 225 255
202 225 255
203 225 255
203 225 255
203 225 255
203 225 255
203 225 255
203 225 255
203 225 255
203 225 255
203 225 255
203 226 255
203 226 255
203 226 255
203 226 255
203 226 255
203 226 255
204 226 255
204 226 255
204 226 255
204 226 255
204 226 255
204 226 255
204 226 255
204 226 255
204 226 255
204 226 255
204 226 255
204 226 255
204 226 255
204 226 255
204 226 255
204 226 255
204 226 255
205 226 255
205 226 255
205 226 255
205 226 255
205 226 255
205 226 255
205 227 255
205 227 255
205 227 255
205 227 255
205 227 255
205 227 255
205 227 255
205 227 255
205 227 255
205 227 255
205 227 255
206 227 255
206 227 255
206 227 255
206 227 255
206 227 255
206 227 255
206 227 255
206 227 255
206 227 255
206 227 255
206 227 255
206 227 255
206 227 255
206 227 255
206 227 255
206 227 255
206 227 255
206 227 255
207 227 255
207 227 255
207 227 255
207 227 255
207 227 255
207 228 255
207 228 255
207 228 255
207 228 255
207 228 255
207 228 255
207 228 255
207 228 255
207 228 255
207 228 255
207 228 255
207 228 255
207 228 255
207 228 255
207 228 255
207 228 255
207 228 255
207 228 255
207 228 255
207 228 255
207 228 255
207 228 255
207 228 255
207 228 255
207 228 255
207 227 255
207 227 255
207 227 255
207 227 255
207 227 255
206 227 255
206 227 255
206 227 255
206 227 255
206 227 255
206 227 255
206 227 255
206 227 255
206 227 255
206 227 255
206 227 255
206 227 255
206 227 255
206 227 255
206 227 255
206 227 255
206 227 255
206 227 255
205 227 255
205 227 255
205 227 255
205 227 255
205 227 255
205 227 255
205 227 255
205 227 255
205 227 255
205 227 255
205 226 255
205 226 255
205 226 255
205 226 255
205 226 255
205 226 255
205 226 255
204 226 255
204 226 255
204 226 255
204 226 255
204 226 255
204 226 255
204 226 255
204 226 255
204 226 255
204 226 255
204 226 255
204 226 255
204 226 255
204 226 255
204 226 255
204 226 255
203 226 255
203 226 255
203 226 255
203 226 255
203 226 255
203 226 255
203 226 255
203 225 255
203 225 255
203 225 255
203 225 255
203 225 255
203 225 255
203 225 255
203 225 255
202 225 255
202 225 255
202 225 255
202 225 255
202 225 255
202 225 255
202 225 255
202 225 255
202 225 255
202 225 255
202 225 255
202 225 255
202 225 255
202 225 255
202 225 255
201 225 255
201 225 255
201 225 255
201 225 255
201 225 255
201 224 255
201 224 255
201 224 255
201 224 255
201 224 255
201 224 255
201 224 255
201 224 255
201 224 255
201 224 255
200 224 255
200 224 255
200 224 255
200 224 255
200 224 255
200 224 255
200 224 255
200 224 255
200 224 255
200 224 255
200 224 255
200 224 255
200 224 255
200 224 255
200 224 255
200 224 255
199 224 255
199 224 255
199 223 255
199 223 255
199 223 255
199 223 255
199 223 255
199 223 255
199 223 255
199 223 255
199 223 255
199 223 255
199 223 255
199 223 255
199 223 255
199 223 255
199 223 255
198 223 255
198 223 255
198 223 255
198 223 255
198 223 255
198 223 255
198 223 255
198 223 255
198 223 255
198 223 255
198 223 255
198 223 255
198 223 255
198 223 255
198 223 255
198 223 255
198 223 255
198 223 255
198 223 255
198 223 255
198 223 255
198 223 255
197 223 255
197 222 255
197 222 255
197 222 255
197 222 255
197 222 255
197 222 255
197 222 255
197 222 255
197 222 255
197 222 255
197 222 255
197 222 255
197 222 255
197 222 255
197 222 255
197 222 255
197 222 255
197 222 255
197 222 255
197 222 255
197 222 255
197 222 255
197 222 255
197 222 255
197 222 255
197 222 255
197 222 255
197 222 255
197 222 255
197 222 255
197 222 255
197 222 255
197 222 255
197 222 255
197 222 255
197 222 255
197 222 255
197 222 255
197 222 255
197 222 255
197 222 255
197 222 255
197 222 255
197 222 255
197 222 255
197 222 255
197 222 255
197 222 255
197 222 255
197 222 255
197 222 255
197 222 255
197 222 255
197 222 255
197 222 255
197 222 255
197 222 255
197 222 255
197 223 255
198 223 255
198 223 255
198 223 255
198 223 255
198 223 255
198 223 255
198 223 255
198 223 255
198 223 255
198 223 255
198 223 255
198 223 255
198 223 255
198 223 255
198 223 255
198 223 255
198 223 255
198 223 255
198 223 255
198 223 255
198 223 255
198 223 255
199 223 255
199 223 255
199 223 255
199 223 255
199 223 255
199 223 255
199 223 255
199 223 255
199 223 255
199 223 255
199 223 255
199 223 255
199 223 255
199 223 255
199 223 255
199 224 255
199 224 255
200 224 255
200 224 255
200 224 255
200 224 255
200 224 255
200 224 255
200 224 255
200 224 255
200 224 255
200 224 255
200 224 255
200 224 255
200 224 255
200 224 255
200 224 255
200 224 255
201 224 255
201 224 255
201 224 255
201 224 255
201 224 255
201 224 255
201 224 255
201 224 255
201 224 255
201 224 255
201 225 255
201 225 255
201 225 255
201 225 255
201 225 255
202 225 255
202 225 255
202 225 255
202 225 255
202 225 255
202 225 255
202 225 255
202 225 255
202 225 255
202 225 255
202 225 255
202 225 255
202 225 255
202 225 255
203 225 255
203 225 255
203 225 255
203 225 255
203 225 255
203 225 255
203 225 255
203 225 255
203 225 255
203 226 255
203 226 255
203 226 255
203 226 255
203 226 255
203 226 255
203 226 255
204 226 255
204 226 255
204 226 255
204 226 255
204 226 255
204 226 255
204 226 255
204 226 255
204 226 255
204 226 255
204 226 255
204 226 255
204 226 255
204 226 255
204 226 255
204 226 255
205 226 255
205 226 255
205 226 255
205 226 255
205 226 255
205 226 255
205 226 255
205 227 255
205 227 255
205 227 255
205 227 255
205 227 255
205 227 255
205 227 255
205 227 255
205 227 255
205 227 255
206 227 255
206 227 255
206 227 255
206 227 255
206 227 255
206 227 255
206 227 255
206 227 255
206 227 255
206 227 255
206 227 255
206 227 255
206 227 255
206 227 255
206 227 255
206 227 255
206 227 255
206 227 255
207 227 255
207 227 255
207 227 255
207 227 255
207 227 255
207 228 255
207 228 255
207 228 255
207 228 255
207 228 255
207 228 255
207 228 255
207 228 255
207 228 255
207 228 255
207 228 255
207 228 255
207 228 255
207 228 255
208 228 255
207 228 255
207 228 255
207 228 255
207 228 255
207 228 255
207 228 255
207 228 255
207 228 255
207 228 255
207 228 255
207 228 255
207 228 255
207 228 255
207 228 255
207 228 255
207 228 255
207 227 255
207 227 255
207 227 255
207 227 255
206 227 255
206 227 255
206 227 255
206 227 255
206 227 255
206 227 255
206 227 255
206 227 255
206 227 255
206 227 255
206 227 255
206 227 255
206 227 255
206 227 255
206 227 255
206 227 255
206 227 255
206 227 255
206 227 255
205 227 255
205 227 255
205 227 255
205 227 255
205 227 255
205 227 255
205 227 255
205 227 255
205 227 255
205 227 255
205 226 255
205 226 255
205 226 255
205 226 255
205 226 255
205 226 255
205 226 255
204 226 255
204 226 255
204 226 255
204 226 255
204 226 255
204 226 255
204 226 255
204 226 255
204 226 255
204 226 255
204 226 255
204 226 255
204 226 255
204 226 255
204 226 255
204 226 255
203 226 255
203 226 255
203 226 255
203 226 255
203 226 255
203 226 255
203 225 255
203 225 255
203 225 255
203 225 255
203 225 255
203 225 255
203 225 255
203 225 255
203 225 255
202 225 255
202 225 255
202 225 255
202 225 255
202 225 255
202 225 255
202 225 255
202 225 255
202 225 255
202 225 255
202 225 255
202 225 255
202 225 255
202 225 255
202 225 255
201 225 255
201 225 255
201 225 255
201 225 255
201 224 255
201 224 255
201 224 255
201 224 255
201 224 255
201 224 255
201 224 255
201 224 255
201 224 255
201 224 255
201 224 255
200 224 255
200 224 255
200 224 255
200 224 255
200 224 255
200 224 255
200 224 255
200 224 255
200 224 255
200 224 255
200 224 255
200 224 255
200 224 255
200 224 255
200 224 255
199 224 255
199 224 255
199 224 255
199 223 255
199 223 255
199 223 255
199 223 255
199 223 255
199 223 255
199 223 255
199 223 255
199 223 255
199 223 255
199 223 255
199 223 255
199 223 255
199 223 255
199 223 255
198 223 255
198 223 255
198 223 255
198 223 255
198 223 255
198 223 255
198 223 255
198 223 255
198 223 255
198 223 255
198 223 255
198 223 255
198 223 255
198 223 255
198 223 255
198 223 255
198 223 255
198 223 255
198 223 255
198 223 255
198 223 255
198 223 255
198 223 255
198 223 255
197 223 255
197 223 255
197 222 255
197 222 255
197 222 255
197 222 255
197 222 255
197 222 255
197 222 255
197 222 255
197 222 255
197 222 255
197 222 255
197 222 255
197 222 255
197 222 255
197 222 255
197 222 255
197 222 255
197 222 255
197 222 255
197 222 255
197 222 255
197 222 255
197 222 255
197 222 255
197 222 255
197 222 255
197 222 255
197 222 255
197 222 255
197 222 255
197 222 255
197 222 255
197 222 255
197 222 255
197 222 255
197 222 255
197 222 255
197 222 255
197 222 255
197 222 255
197 222 255
197 222 255
197 222 255
197 222 255
197 222 255
197 222 255
197 222 255
198 223 255
198 223 255
198 223 255
198 223 255
198 223 255
198 223 255
198 223 255
198 223 255
198 223 255
198 223 255
198 223 255
198 223 255
198 223 255
198 223 255
198 223 255
198 223 255
198 223 255
198 223 255
198 223 255
198 223 255
198 223 255
198 223 255
198 223 255
198 223 255
198 223 255
199 223 255
199 223 255
199 223 255
199 223 255
199 223 255
199 223 255
199 223 255
199 223 255
199 223 255
199 223 255
199 223 255
199 223 255
199 223 255
199 223 255
199 223 255
199 224 255
199 224 255
200 224 255
200 224 255
200 224 255
200 224 255
200 224 255
200 224 255
200 224 255
200 224 255
200 224 255
200 224 255
200 224 255
200 224 255
200 224 255
200 224 255
200 224 255
200 224 255
201 224 255
201 224 255
201 224 255
201 224 255
201 224 255
201 224 255
201 224 255
201 224 255
201 224 255
201 224 255
201 224 255
201 225 255
201 225 255
201 225 255
201 225 255
202 225 255
202 225 255
202 225 255
202 225 255
202 225 255
202 225 255
202 225 255
202 225 255
202 225 255
202 225 255
202 225 255
202 225 255
202 225 255
202 225 255
202 225 255
203 225 255
203 225 255
203 225 255
203 225 255
203 225 255
203 225 255
203 225 255
203 225 255
203 225 255
203 226 255
203 226 255
203 226 255
203 226 255
203 226 255
203 226 255
204 226 255
204 226 255
204 226 255
204 226 255
204 226 255
204 226 255
204 226 255
204 226 255
204 226 255
204 226 255
204 226 255
204 226 255
204 226 255
204 226 255
204 226 255
204 226 255
205 226 255
205 226 255
205 226 255
205 226 255
205 226 255
205 226 255
205 226 255
205 227 255
205 227 255
205 227 255
205 227 255
205 227 255
205 227 255
205 227 255
205 227 255
205 227 255
205 227 255
206 227 255
206 227 255
206 227 255
206 227 255
206 227 255
206 227 255
206 227 255
206 227 255
206 227 255
206 227 255
206 227 255
206 227 255
206 227 255
206 227 255
206 227 255
206 227 255
206 227 255
206 227 255
206 227 255
207 227 255
207 227 255
207 227 255
207 227 255
207 228 255
207 228 255
207 228 255
207 228 255
207 228 255
207 228 255
207 228 255
207 228 255
207 228 255
207 228 255
207 228 255
207 228 255
207 228 255
207 228 255
207 228 255
207 228 255
208 228 255
208 228 255
208 228 255
208 228 255
208 228 255
207 228 255
207 228 255
207 228 255
207 228 255
207 228 255
207 228 255
207 228 255
207 228 255
207 228 255
207 228 255
207 228 255
207 228 255
207 228 255
207 228 255
207 228 255
207 227 255
207 227 255
207 227 255
207 227 255
207 227 255
206 227 255
206 227 255
206 227 255
206 227 255
206 227 255
206 227 255
206 227 255
206 227 255
206 227 255
206 227 255
206 227 255
206 227 255
206 227 255
206 227 255
206 227 255
206 227 255
206 227 255
206 227 255
205 227 255
205 227 255
205 227 255
205 227 255
205 227 255
205 227 255
205 227 255
205 227 255
205 227 255
205 227 255
205 227 255
205 226 255
205 226 255
205 226 255
205 226 255
205 226 255
205 226 255
204 226 255
204 226 255
204 226 255
204 226 255
204 226 255
204 226 255
204 226 255
204 226 255
204 226 255
204 226 255
204 226 255
204 226 255
204 226 255
204 226 255
204 226 255
204 226 255
203 226 255
203 226 255
203 226 255
203 226 255
203 226 255
203 226 255
203 226 255
203 225 255
203 225 255
203 225 255
203 225 255
203 225 255
203 225 255
203 225 255
203 225 255
203 225 255
202 225 255
202 225 255
202 225 255
202 225 255
202 225 255
202 225 255
202 225 255
202 225 255
202 225 255
202 225 255
202 225 255
202 225 255
202 225 255
202 225 255
202 225 255
201 225 255
201 225 255
201 225 255
201 225 255
201 224 255
201 224 255
201 224 255
201 224 255
201 224 255
201 224 255
201 224 255
201 224 255
201 224 255
201 224 255
201 224 255
200 224 255
200 224 255
200 224 255
200 224 255
200 224 255
200 224 255
200 224 255
200 224 255
200 224 255
200 224 255
200 224 255
200 224 255
200 224 255
200 224 255
200 224 255
200 224 255
199 224 255
199 224 255
199 223 255
199 223 255
199 223 255
199 223 255
199 223 255
199 223 255
199 223 255
199 223 255
199 223 255
199 223 255
199 223 255
199 223 255
199 223 255
199 223 255
199 223 255
199 223 255
198 223 255
198 223 255
198 223 255
198 223 255
198 223 255
198 223 255
198 223 255
198 223 255
198 223 255
198 223 255
198 223 255
198 223 255
198 223 255
198 223 255
198 223 255
198 223 255
198 223 255
198 223 255
198 223 255
198 223 255
198 223 255
198 223 255
198 223 255
198 223 255
198 223 255
198 223 255
198 223 255
197 223 255
197 223 255
197 222 255
197 222 255
197 222 255
197 222 255
197 222 255
197 222 255
197 222 255
197 222 255
197 222 255
197 222 255
197 222 255
197 222 255
197 222 255
197 222 255
197 222 255
197 222 255
197 222 255
197 222 255
197 222 255
197 222 255
197 222 255
197 222 255
197 222 255
197 222 255
197 222 255
197 222 255
197 222 255
197 222 255
197 222 255
197 222 255
197 222 255
197 222 255
197 223 255
197 223 255
198 223 255
198 223 255
198 223 255
198 223 255
198 223 255
198 223 255
198 223 255
198 223 255
198 223 255
198 223 255
198 223 255
198 223 255
198 223 255
198 223 255
198 223 255
198 223 255
198 223 255
198 223 255
198 223 255
198 223 255
198 223 255
198 223 255
198 223 255
198 223 255
198 223 255
198 223 255
198 223 255
199 223 255
199 223 255
199 223 255
199 223 255
199 223 255
199 223 255
199 223 255
199 223 255
199 223 255
199 223 255
199 223 255
199 223 255
199 223 255
199 223 255
199 223 255
199 223 255
199 224 255
199 224 255
199 224 255
200 224 255
200 224 255
200 224 255
200 224 255
200 224 255
200 224 255
200 224 255
200 224 255
200 224 255
200 224 255
200 224 255
200 224 255
200 224 255
200 224 255
200 224 255
201 224 255
201 224 255
201 224 255
201 224 255
201 224 255
201 224 255
201 224 255
201 224 255
201 224 255
201 224 255
201 224 255
201 225 255
201 225 255
201 225 255
201 225 255
201 225 255
202 225 255
202 225 255
202 225 255
202 225 255
202 225 255
202 225 255
202 225 255
202 225 255
202 225 255
202 225 255
202 225 255
202 225 255
202 225 255
202 225 255
203 225 255
203 225 255
203 225 255
203 225 255
203 225 255
203 225 255
203 225 255
203 225 255
203 225 255
203 226 255
203 226 255
203 226 255
203 226 255
203 226 255
203 226 255
203 226 255
204 226 255
204 226 255
204 226 255
204 226 255
204 226 255
204 226 255
204 226 255
204 226 255
204 226 255
204 226 255
204 226 255
204 226 255
204 226 255
204 226 255
204 226 255
204 226 255
205 226 255
205 226 255
205 226 255
205 226 255
205 226 255
205 226 255
205 227 255
205 227 255
205 227 255
205 227 255
205 227 255
205 227 255
205 227 255
205 227 255
205 227 255
205 227 255
205 227 255
206 227 255
206 227 255
206 227 255
206 227 255
206 227 255
206 227 255
206 227 255
206 227 255
206 227 255
206 227 255
206 227 255
206 227 255
206 227 255
206 227 255
206 227 255
206 227 255
206 227 255
206 227 255
207 227 255
207 227 255
207 227 255
207 227 255
207 227 255
207 228 255
207 228 255
207 228 255
207 228 255
207 228 255
207 228 255
207 228 255
207 228 255
207 228 255
207 228 255
207 228 255
207 228 255
207 228 255
207 228 255
207 228 255
208 228 255
208 228 255
208 228 255
208 228 255
208 228 255
208 228 255
208 228 255
208 228 255
208 228 255
208 228 255
208 228 255
207 228 255
207 228 255
207 228 255
207 228 255
207 228 255
207 228 255
207 228 255
207 228 255
207 228 255
207 228 255
207 228 255
207 228 255
207 228 255
207 228 255
207 228 255
207 227 255
207 227 255
207 227 255
207 227 255
207 227 255
206 227 255
206 227 255
206 227 255
206 227 255
206 227 255
206 227 255
206 227 255
206 227 255
206 227 255
206 227 255
206 227 255
206 227 255
206 227 255
206 227 255
206 227 255
206 227 255
206 227 255
206 227 255
205 227 255
205 227 255
205 227 255
205 227 255
205 227 255
205 227 255
205 227 255
205 227 255
205 227 255
205 227 255
205 226 255
205 226 255
205 226 255
205 226 255
205 226 255
205 226 255
205 226 255
204 226 255
204 226 255
204 226 255
204 226 255
204 226 255
204 226 255
204 226 255
204 226 255
204 226 255
204 226 255
204 226 255
204 226 255
204 226 255
204 226 255
204 226 255
204 226 255
203 226 255
203 226 255
203 226 255
203 226 255
203 226 255
203 226 255
203 226 255
203 225 255
203 225 255
203 225 255
203 225 255
203 225 255
203 225 255
203 225 255
203 225 255
202 225 255
202 225 255
202 225 255
202 225 255
202 225 255
202 225 255
202 225 255
202 225 255
202 225 255
202 225 255
202 225 255
202 225 255
202 225 255
202 225 255
202 225 255
201 225 255
201 225 255
201 225 255
201 225 255
201 225 255
201 224 255
201 224 255
201 224 255
201 224 255
201 224 255
201 224 255
201 224 255
201 224 255
201 224 255
201 224 255
200 224 255
200 224 255
200 224 255
200 224 255
200 224 255
200 224 255
200 224 255
200 224 255
200 224 255
200 224 255
200 224 255
200 224 255
200 224 255
200 224 255
200 224 255
200 224 255
199 224 255
199 224 255
199 224 255
199 223 255
199 223 255
199 223 255
199 223 255
199 223 255
199 223 255
199 223 255
199 223 255
199 223 255
199 223 255
199 223 255
199 223 255
199 223 255
199 223 255
199 223 255
199 223 255
199 223 255
198 223 255
198 223 255
198 223 255
198 223 255
198 223 255
198 223 255
198 223 255
198 223 255
198 223 255
198 223 255
198 223 255
198 223 255
198 223 255
198 223 255
198 223 255
198 223 255
198 223 255
198 223 255
198 223 255
198 223 255
198 223 255
198 223 255
198 223 255
198 223 255
198 223 255
198 223 255
198 223 255
198 223 255
198 223 255
198 223 255
198 223 255
198 223 255
198 223 255
198 223 255
198 223 255
198 223 255
198 223 255
198 223 255
197 223 255
197 223 255
197 223 255
197 223 255
197 223 255
198 223 255
198 223 255
198 223 255
198 223 255
198 223 255
198 223 255
198 223 255
198 223 255
198 223 255
198 223 255
198 223 255
198 223 255
198 223 255
198 223 255
198 223 255
198 223 255
198 223 255
198 223 255
198 223 255
198 223 255
198 223 255
198 223 255
198 223 255
198 223 255
198 223 255
198 223 255
198 223 255
198 223 255
198 223 255
198 223 255
198 223 255
198 223 255
198 223 255
198 223 255
198 223 255
198 223 255
198 223 255
198 223 255
198 223 255
199 223 255
199 223 255
199 223 255
199 223 255
199 223 255
199 223 255
199 223 255
199 223 255
199 223 255
199 223 255
199 223 255
199 223 255
199 223 255
199 223 255
199 223 255
199 223 255
199 223 255
199 224 255
199 224 255
200 224 255
200 224 255
200 224 255
200 224 255
200 224 255
200 224 255
200 224 255
200 224 255
200 224 255
200 224 255
200 224 255
200 224 255
200 224 255
200 224 255
200 224 255
200 224 255
200 224 255
201 224 255
201 224 255
201 224 255
201 224 255
201 224 255
201 224 255
201 224 255
201 224 255
201 224 255
201 224 255
201 225 255
201 225 255
201 225 255
201 225 255
201 225 255
202 225 255
202 225 255
202 225 255
202 225 255
202 225 255
202 225 255
202 225 255
202 225 255
202 225 255
202 225 255
202 225 255
202 225 255
202 225 255
202 225 255
202 225 255
203 225 255
203 225 255
203 225 255
203 225 255
203 225 255
203 225 255
203 225 255
203 225 255
203 226 255
203 226 255
203 226 255
203 226 255
203 226 255
203 226 255
203 226 255
204 226 255
204 226 255
204 226 255
204 226 255
204 226 255
204 226 255
204 226 255
204 226 255
204 226 255
204 226 255
204 226 255
204 226 255
204 226 255
204 226 255
204 226 255
204 226 255
205 226 255
205 226 255
205 226 255
205 226 255
205 226 255
205 226 255
205 226 255
205 227 255
205 227 255
205 227 255
205 227 255
205 227 255
205 227 255
205 227 255
205 227 255
205 227 255
205 227 255
206 227 255
206 227 255
206 227 255
206 227 255
206 227 255
206 227 255
206 227 255
206 227 255
206 227 255
206 227 255
206 227 255
206 227 255
206 227 255
206 227 255
206 227 255
206 227 255
206 227 255
206 227 255
207 227 255
207 227 255
207 227 255
207 227 255
207 227 255
207 228 255
207 228 255
207 228 255
207 228 255
207 228 255
207 228 255
207 228 255
207 228 255
207 228 255
207 228 255
207 228 255
207 228 255
207 228 255
207 228 255
207 228 255
208 228 255
208 228 255
208 228 255
208 228 255
208 228 255
208 228 255
208 228 255
208 228 255
208 228 255
208 228 255
208 228 255
208 228 255
208 228 255
208 228 255
208 228 255
208 228 255
208 228 255
207 228 255
207 228 255
207 228 255
207 228 255
207 228 255
207 228 255
207 228 255
207 228 255
207 228 255
207 228 255
207 228 255
207 228 255
207 228 255
207 228 255
207 228 255
207 227 255
207 227 255
207 227 255
207 227 255
207 227 255
206 227 255
206 227 255
206 227 255
206 227 255
206 227 255
206 227 255
206 227 255
206 227 255
206 227 255
206 227 255
206 227 255
206 227 255
206 227 255
206 227 255
206 227 255
206 227 255
206 227 255
206 227 255
205 227 255
205 227 255
205 227 255
205 227 255
205 227 255
205 227 255
205 227 255
205 227 255
205 227 255
205 227 255
205 226 255
205 226 255
205 226 255
205 226 255
205 226 255
205 226 255
205 226 255
204 226 255
204 226 255
204 226 255
204 226 255
204 226 255
204 226 255
204 226 255
204 226 255
204 226 255
204 226 255
204 226 255
204 226 255
204 226 255
204 226 255
204 226 255
203 226 255
203 226 255
203 226 255
203 226 255
203 226 255
203 226 255
203 226 255
203 225 255
203 225 255
203 225 255
203 225 255
203 225 255
203 225 255
203 225 255
203 225 255
203 225 255
202 225 255
202 225 255
202 225 255
202 225 255
202 225 255
202 225 255
202 225 255
202 225 255
202 225 255
202 225 255
202 225 255
202 225 255
202 225 255
202 225 255
202 225 255
201 225 255
201 225 255
201 225 255
201 225 255
201 224 255
201 224 255
201 224 255
201 224 255
201 224 255
201 224 255
201 224 255
201 224 255
201 224 255
201 224 255
201 224 255
200 224 255
200 224 255
200 224 255
200 224 255
200 224 255
200 224 255
200 224 255
200 224 255
200 224 255
200 224 255
200 224 255
200 224 255
200 224 255
200 224 255
200 224 255
200 224 255
200 224 255
199 224 255
199 224 255
199 224 255
199 223 255
199 223 255
199 223 255
199 223 255
199 223 255
199 223 255
199 223 255
199 223 255
199 223 255
199 223 255
199 223 255
199 223 255
199 223 255
199 223 255
199 223 255
199 223 255
199 223 255
198 223 255
198 223 255
198 223 255
198 223 255
198 223 255
198 223 255
198 223 255
198 223 255
198 223 255
198 223 255
198 223 255
198 223 255
198 223 255
198 223 255
198 223 255
198 223 255
198 223 255
198 223 255
198 223 255
198 223 255
198 223 255
198 223 255
198 223 255
198 223 255
198 223 255
198 223 255
198 223 255
198 223 255
198 223 255
198 223 255
198 223 255
198 223 255
198 223 255
198 223 255
198 223 255
198 223 255
198 223 255
198 223 255
198 223 255
198 223 255
198 223 255
198 223 255
198 223 255
198 223 255
198 223 255
198 223 255
198 223 255
198 223 255
198 223 255
198 223 255
198 223 255
198 223 255
198 223 255
198 223 255
198 223 255
198 223 255
198 223 255
198 223 255
198 223 255
198 223 255
198 223 255
198 223 255
198 223 255
198 223 255
198 223 255
198 223 255
198 223 255
198 223 255
198 223 255
198 223 255
198 223 255
198 223 255
198 223 255
198 223 255
199 223 255
199 223 255
199 223 255
199 223 255
199 223 255
199 223 255
199 223 255
199 223 255
199 223 255
199 223 255
199 223 255
199 223 255
199 223 255
199 223 255
199 223 255
199 223 255
199 223 255
199 223 255
199 224 255
199 224 255
200 224 255
200 224 255
200 224 255
200 224 255
200 224 255
200 224 255
200 224 255
200 224 255
200 224 255
200 224 255
200 224 255
200 224 255
200 224 255
200 224 255
200 224 255
200 224 255
200 224 255
201 224 255
201 224 255
201 224 255
201 224 255
201 224 255
201 224 255
201 224 255
201 224 255
201 224 255
201 224 255
201 224 255
201 225 255
201 225 255
201 225 255
201 225 255
202 225 255
202 225 255
202 225 255
202 225 255
202 225 255
202 225 255
202 225 255
202 225 255
202 225 255
202 225 255
202 225 255
202 225 255
202 225 255
202 225 255
202 225 255
203 225 255
203 225 255
203 225 255
203 225 255
203 225 255
203 225 255
203 225 255
203 225 255
203 225 255
203 226 255
203 226 255
203 226 255
203 226 255
203 226 255
203 226 255
204 226 255
204 226 255
204 226 255
204 226 255
204 226 255
204 226 255
204 226 255
204 226 255
204 226 255
204 226 255
204 226 255
204 226 255
204 226 255
204 226 255
204 226 255
204 226 255
205 226 255
205 226 255
205 226 255
205 226 255
205 226 255
205 226 255
205 226 255
205 227 255
205 227 255
205 227 255
205 227 255
205 227 255
205 227 255
205 227 255
205 227 255
205 227 255
205 227 255
206 227 255
206 227 255
206 227 255
206 227 255
206 227 255
206 227 255
206 227 255
206 227 255
206 227 255
206 227 255
206 227 255
206 227 255
206 227 255
206 227 255
206 227 255
206 227 255
206 227 255
206 227 255
207 227 255
207 227 255
207 227 255
207 227 255
207 227 255
207 228 255
207 228 255
207 228 255
207 228 255
207 228 255
207 228 255
207 228 255
207 228 255
207 228 255
207 228 255
207 228 255
207 228 255
207 228 255
207 228 255
207 228 255
208 228 255
208 228 255
208 228 255
208 228 255
208 228 255
208 228 255
208 228 255
208 228 255
208 228 255
208 228 255
208 228 255
208 228 255
208 228 255
208 228 255
208 228 255
208 228 255
208 228 255
208 228 255
208 228 255
208 228 255
208 228 255
208 228 255
208 228 255
207 228 255
207 228 255
207 228 255
207 228 255
207 228 255
207 228 255
207 228 255
207 228 255
207 228 255
207 228 255
207 228 255
207 228 255
207 228 255
207 228 255
207 228 255
207 227 255
207 227 255
207 227 255
207 227 255
207 227 255
206 227 255
206 227 255
206 227 255
206 227 255
206 227 255
206 227 255
206 227 255
206 227 255
206 227 255
206 227 255
206 227 255
206 227 255
206 227 255
206 227 255
206 227 255
206 227 255
206 227 255
206 227 255
205 227 255
205 227 255
205 227 255
205 227 255
205 227 255
205 227 255
205 227 255
205 227 255
205 227 255
205 227 255
205 226 255
205 226 255
205 226 255
205 226 255
205 226 255
205 226 255
204 226 255
204 226 255
204 226 255
204 226 255
204 226 255
204 226 255
204 226 255
204 226 255
204 226 255
204 226 255
204 226 255
204 226 255
204 226 255
204 226 255
204 226 255
204 226 255
203 226 255
203 226 255
203 226 255
203 226 255
203 226 255
203 226 255
203 226 255
203 225 255
203 225 255
203 225 255
203 225 255
203 225 255
203 225 255
203 225 255
203 225 255
203 225 255
202 225 255
202 225 255
202 225 255
202 225 255
202 225 255
202 225 255
202 225 255
202 225 255
202 225 255
202 225 255
202 225 255
202 225 255
202 225 255
202 225 255
202 225 255
201 225 255
201 225 255
201 225 255
201 225 255
201 224 255
201 224 255
201 224 255
201 224 255
201 224 255
201 224 255
201 224 255
201 224 255
201 224 255
201 224 255
201 224 255
200 224 255
200 224 255
200 224 255
200 224 255
200 224 255
200 224 255
200 224 255
200 224 255
200 224 255
200 224 255
200 224 255
200 224 255
200 224 255
200 224 255
200 224 255
200 224 255
200 224 255
199 224 255
199 224 255
199 224 255
199 223 255
199 223 255
199 223 255
199 223 255
199 223 255
199 223 255
199 223 255
199 223 255
199 223 255
199 223 255
199 223 255
199 223 255
199 223 255
199 223 255
199 223 255
199 223 255
199 223 255
199 223 255
199 223 255
198 223 255
198 223 255
198 223 255
198 223 255
198 223 255
198 223 255
198 223 255
198 223 255
198 223 255
198 223 255
198 223 255
198 223 255
198 223 255
198 223 255
198 223 255
198 223 255
198 223 255
198 223 255
198 223 255
198 223 255
198 223 255
198 223 255
198 223 255
198 223 255
198 223 255
198 223 255
198 223 255
198 223 255
198 223 255
198 223 255
198 223 255
198 223 255
198 223 255
198 223 255
198 223 255
198 223 255
198 223 255
198 223 255
198 223 255
198 223 255
198 223 255
198 223 255
198 223 255
198 223 255
198 223 255
198 223 255
198 223 255
198 223 255
198 223 255
198 223 255
198 223 255
198 223 255
198 223 255
198 223 255
198 223 255
198 223 255
198 223 255
198 223 255
198 223 255
198 223 255
198 223 255
198 223 255
198 223 255
198 223 255
199 223 255
199 223 255
199 223 255
199 223 255
199 223 255
199 223 255
199 223 255
199 223 255
199 223 255
199 223 255
199 223 255
199 223 255
199 223 255
199 223 255
199 223 255
199 223 255
199 223 255
199 223 255
199 223 255
199 224 255
199 224 255
199 224 255
200 224 255
200 224 255
200 224 255
200 224 255
200 224 255
200 224 255
200 224 255
200 224 255
200 224 255
200 224 255
200 224 255
200 224 255
200 224 255
200 224 255
200 224 255
200 224 255
200 224 255
201 224 255
201 224 255
201 224 255
201 224 255
201 224 255
201 224 255
201 224 255
201 224 255
201 224 255
201 224 255
201 224 255
201 225 255
201 225 255
201 225 255
201 225 255
202 225 255
202 225 255
202 225 255
202 225 255
202 225 255
202 225 255
202 225 255
202 225 255
202 225 255
202 225 255
202 225 255
202 225 255
202 225 255
202 225 255
202 225 255
202 225 255
203 225 255
203 225 255
203 225 255
203 225 255
203 225 255
203 225 255
203 225 255
203 225 255
203 226 255
203 226 255
203 226 255
203 226 255
203 226 255
203 226 255
203 226 255
204 226 255
204 226 255
204 226 255
204 226 255
204 226 255
204 226 255
204 226 255
204 226 255
204 226 255
204 226 255
204 226 255
204 226 255
204 226 255
204 226 255
204 226 255
204 226 255
205 226 255
205 226 255
205 226 255
205 226 255
205 226 255
205 226 255
205 227 255
205 227 255
205 227 255
205 227 255
205 227 255
205 227 255
205 227 255
205 227 255
205 227 255
205 227 255
206 227 255
206 227 255
206 227 255
206 227 255
206 227 255
206 227 255
206 227 255
206 227 255
206 227 255
206 227 255
206 227 255
206 227 255
206 227 255
206 227 255
206 227 255
206 227 255
206 227 255
206 227 255
207 227 255
207 227 255
207 227 255
207 227 255
207 227 255
207 228 255
207 228 255
207 228 255
207 228 255
207 228 255
207 228 255
207 228 255
207 228 255
207 228 255
207 228 255
207 228 255
207 228 255
207 228 255
207 228 255
207 228 255
208 228 255
208 228 255
208 228 255
208 228 255
208 228 255
208 228 255
208 228 255
208 228 255
208 228 255
208 228 255
208 228 255
208 228 255
208 228 255
208 228 255
208 228 255
208 228 255
208 228 255
208 228 255
208 228 255
208 228 255
208 228 255
208 228 255
208 228 255
208 228 255
208 228 255
208 228 255
208 228 255
208 228 255
208 228 255
207 228 255
207 228 255
207 228 255
207 228 255
207 228 255
207 228 255
207 228 255
207 228 255
207 228 255
207 228 255
207 228 255
207 228 255
207 228 255
207 228 255
207 228 255
207 227 255
207 227 255
207 227 255
207 227 255
207 227 255
206 227 255
206 227 255
206 227 255
206 227 255
206 227 255
206 227 255
206 227 255
206 227 255
206 227 255
206 227 255
206 227 255
206 227 255
206 227 255
206 227 255
206 227 255
206 227 255
206 227 255
205 227 255
205 227 255
205 227 255
205 227 255
205 227 255
205 227 255
205 227 255
205 227 255
205 227 255
205 227 255
205 227 255
205 226 255
205 226 255
205 226 255
205 226 255
205 226 255
205 226 255
204 226 255
204 226 255
204 226 255
204 226 255
204 226 255
204 226 255
204 226 255
204 226 255
204 226 255
204 226 255
204 226 255
204 226 255
204 226 255
204 226 255
204 226 255
204 226 255
203 226 255
203 226 255
203 226 255
203 226 255
203 226 255
203 226 255
203 226 255
203 225 255
203 225 255
203 225 255
203 225 255
203 225 255
203 225 255
203 225 255
203 225 255
202 225 255
202 225 255
202 225 255
202 225 255
202 225 255
202 225 255
202 225 255
202 225 255
202 225 255
202 225 255
202 225 255
202 225 255
202 225 255
202 225 255
202 225 255
201 225 255
201 225 255
201 225 255
201 225 255
201 225 255
201 224 255
201 224 255
201 224 255
201 224 255
201 224 255
201 224 255
201 224 255
201 224 255
201 224 255
201 224 255
201 224 255
200 224 255
200 224 255
200 224 255
200 224 255
200 224 255
200 224 255
200 224 255
200 224 255
200 224 255
200 224 255
200 224 255
200 224 255
200 224 255
200 224 255
200 224 255
200 224 255
200 224 255
200 224 255
199 224 255
199 224 255
199 224 255
199 223 255
199 223 255
199 223 255
199 223 255
199 223 255
199 223 255
199 223 255
199 223 255
199 223 255
199 223 255
199 223 255
199 223 255
199 223 255
199 223 255
199 223 255
199 223 255
199 223 255
199 223 255
199 223 255
199 223 255
198 223 255
198 223 255
198 223 255
198 223 255
198 223 255
198 223 255
198 223 255
198 223 255
198 223 255
198 223 255
198 223 255
198 223 255
198 223 255
198 223 255
198 223 255
198 223 255
198 223 255
198 223 255
198 223 255
198 223 255
198 223 255
198 223 255
198 223 255
198 223 255
198 223 255
198 223 255
198 223 255
198 223 255
198 223 255
198 223 255
198 223 255
198 223 255
198 223 255
198 223 255
198 223 255
198 223 255
198 223 255
198 223 255
198 223 255
198 223 255
198 223 255
198 223 255
198 223 255
198 223 255
198 223 255
198 223 255
198 223 255
198 223 255
198 223 255
198 223 255
198 223 255
198 223 255
198 223 255
198 223 255
199 223 255
199 223 255
199 223 255
199 223 255
199 223 255
199 223 255
199 223 255
199 223 255
199 223 255
199 223 255
199 223 255
199 223 255
199 223 255
199 223 255
199 223 255
199 223 255
199 223 255
199 223 255
199 223 255
199 223 255
199 224 255
199 224 255
199 224 255
200 224 255
200 224 255
200 224 255
200 224 255
200 224 255
200 224 255
200 224 255
200 224 255
200 224 255
200 224 255
200 224 255
200 224 255
200 224 255
200 224 255
200 224 255
200 224 255
200 224 255
200 224 255
201 224 255
201 224 255
201 224 255
201 224 255
201 224 255
201 224 255
201 224 255
201 224 255
201 224 255
201 224 255
201 224 255
201 225 255
201 225 255
201 225 255
201 225 255
201 225 255
202 225 255
202 225 255
202 225 255
202 225 255
202 225 255
202 225 255
202 225 255
202 225 255
202 225 255
202 225 255
202 225 255
202 225 255
202 225 255
202 225 255
202 225 255
203 225 255
203 225 255
203 225 255
203 225 255
203 225 255
203 225 255
203 225 255
203 225 255
203 226 255
203 226 255
203 226 255
203 226 255
203 226 255
203 226 255
203 226 255
204 226 255
204 226 255
204 226 255
204 226 255
204 226 255
204 226 255
204 226 255
204 226 255
204 226 255
204 226 255
204 226 255
204 226 255
204 226 255
204 226 255
204 226 255
204 226 255
205 226 255
205 226 255
205 226 255
205 226 255
205 226 255
205 226 255
205 226 255
205 227 255
205 227 255
205 227 255
205 227 255
205 227 255
205 227 255
205 227 255
205 227 255
205 227 255
205 227 255
206 227 255
206 227 255
206 227 255
206 227 255
206 227 255
206 227 255
206 227 255
206 227 255
206 227 255
206 227 255
206 227 255
206 227 255
206 227 255
206 227 255
206 227 255
206 227 255
206 227 255
207 227 255
207 227 255
207 227 255
207 227 255
207 227 255
207 228 255
207 228 255
207 228 255
207 228 255
207 228 255
207 228 255
207 228 255
207 228 255
207 228 255
207 228 255
207 228 255
207 228 255
207 228 255
207 228 255
207 228 255
208 228 255
208 228 255
208 228 255
208 228 255
208 228 255
208 228 255
208 228 255
208 228 255
208 228 255
208 228 255
208 228 255
208 228 255
208 228 255
208 228 255
208 228 255
208 228 255
208 228 255
208 228 255
208 228 255
208 228 255
208 228 255
208 228 255
208 228 255
208 228 255
208 228 255
208 228 255
208 228 255
208 228 255
208 228 255
208 228 255
208 228 255
208 228 255
208 228 255
208 228 255
208 228 255
207 228 255
207 228 255
207 228 255
207 228 255
207 228 255
207 228 255
207 228 255
207 228 255
207 228 255
207 228 255
207 228 255
207 228 255
207 228 255
207 228 255
207 228 255
207 227 255
207 227 255
207 227 255
207 227 255
207 227 255
206 227 255
206 227 255
206 227 255
206 227 255
206 227 255
206 227 255
206 227 255
206 227 255
206 227 255
206 227 255
206 227 255
206 227 255
206 227 255
206 227 255
206 227 255
206 227 255
206 227 255
205 227 255
205 227 255
205 227 255
205 227 255
205 227 255
205 227 255
205 227 255
205 227 255
205 227 255
205 227 255
205 226 255
205 226 255
205 226 255
205 226 255
205 226 255
205 226 255
205 226 255
204 226 255
204 226 255
204 226 255
204 226 255
204 226 255
204 226 255
204 226 255
204 226 255
204 226 255
204 226 255
204 226 255
204 226 255
204 226 255
204 226 255
204 226 255
204 226 255
203 226 255
203 226 255
203 226 255
203 226 255
203 226 255
203 226 255
203 225 255
203 225 255
203 225 255
203 225 255
203 225 255
203 225 255
203 225 255
203 225 255
203 225 255
202 225 255
202 225 255
202 225 255
202 225 255
202 225 255
202 225 255
202 225 255
202 225 255
202 225 255
202 225 255
202 225 255
202 225 255
202 225 255
202 225 255
202 225 255
201 225 255
201 225 255
201 225 255
201 225 255
201 225 255
201 224 255
201 224 255
201 224 255
201 224 255
201 224 255
201 224 255
201 224 255
201 224 255
201 224 255
201 224 255
201 224 255
200 224 255
200 224 255
200 224 255
200 224 255
200 224 255
200 224 255
200 224 255
200 224 255
200 224 255
200 224 255
200 224 255
200 224 255
200 224 255
200 224 255
200 224 255
200 224 255
200 224 255
200 224 255
199 224 255
199 224 255
199 224 255
199 224 255
199 223 255
199 223 255
199 223 255
199 223 255
199 223 255
199 223 255
199 223 255
199 223 255
199 223 255
199 223 255
199 223 255
199 223 255
199 223 255
199 223 255
199 223 255
199 223 255
199 223 255
199 223 255
199 223 255
199 223 255
199 223 255
199 223 255
199 223 255
198 223 255
198 223 255
198 223 255
198 223 255
198 223 255
198 223 255
198 223 255
198 223 255
198 223 255
198 223 255
198 223 255
198 223 255
198 223 255
198 223 255
198 223 255
198 223 255
198 223 255
198 223 255
198 223 255
198 223 255
198 223 255
198 223 255
198 223 255
198 223 255
198 223 255
198 223 255
198 223 255
198 223 255
198 223 255
198 223 255
198 223 255
198 223 255
198 223 255
198 223 255
198 223 255
198 223 255
198 223 255
198 223 255
198 223 255
198 223 255
199 223 255
199 223 255
199 223 255
199 223 255
199 223 255
199 223 255
199 223 255
199 223 255
199 223 255
199 223 255
199 223 255
199 223 255
199 223 255
199 223 255
199 223 255
199 223 255
199 223 255
199 223 255
199 223 255
199 223 255
199 223 255
199 223 255
199 223 255
199 224 255
199 224 255
199 224 255
199 224 255
200 224 255
200 224 255
200 224 255
200 224 255
200 224 255
200 224 255
200 224 255
200 224 255
200 224 255
200 224 255
200 224 255
200 224 255
200 224 255
200 224 255
200 224 255
200 224 255
200 224 255
200 224 255
201 224 255
201 224 255
201 224 255
201 224 255
201 224 255
201 224 255
201 224 255
201 224 255
201 224 255
201 224 255
201 224 255
201 225 255
201 225 255
201 225 255
201 225 255
201 225 255
202 225 255
202 225 255
202 225 255
202 225 255
202 225 255
202 225 255
202 225 255
202 225 255
202 225 255
202 225 255
202 225 255
202 225 255
202 225 255
202 225 255
202 225 255
203 225 255
203 225 255
203 225 255
203 225 255
203 225 255
203 225 255
203 225 255
203 225 255
203 225 255
203 226 255
203 226 255
203 226 255
203 226 255
203 226 255
203 226 255
204 226 255
204 226 255
204 226 255
204 226 255
204 226 255
204 226 255
204 226 255
204 226 255
204 226 255
204 226 255
204 226 255
204 226 255
204 226 255
204 226 255
204 226 255
204 226 255
205 226 255
205 226 255
205 226 255
205 226 255
205 226 255
205 226 255
205 226 255
205 227 255
205 227 255
205 227 255
205 227 255
205 227 255
205 227 255
205 227 255
205 227 255
205 227 255
205 227 255
206 227 255
206 227 255
206 227 255
206 227 255
206 227 255
206 227 255
206 227 255
206 227 255
206 227 255
206 227 255
206 227 255
206 227 255
206 227 255
206 227 255
206 227 255
206 227 255
206 227 255
207 227 255
207 227 255
207 227 255
207 227 255
207 227 255
207 228 255
207 228 255
207 228 255
207 228 255
207 228 255
207 228 255
207 228 255
207 228 255
207 228 255
207 228 255
207 228 255
207 228 255
207 228 255
207 228 255
207 228 255
208 228 255
208 228 255
208 228 255
208 228 255
208 228 255
208 228 255
208 228 255
208 228 255
208 228 255
208 228 255
208 228 255
208 228 255
208 228 255
208 228 255
208 228 255
208 228 255
208 228 255
208 228 255
208 228 255
209 228 255
208 228 255
208 228 255
208 228 255
208 228 255
208 228 255
208 228 255
208 228 255
208 228 255
208 228 255
208 228 255
208 228 255
208 228 255
208 228 255
208 228 255
208 228 255
208 228 255
208 228 255
208 228 255
208 228 255
208 228 255
208 228 255
207 228 255
207 228 255
207 228 255
207 228 255
207 228 255
207 228 255
207 228 255
207 228 255
207 228 255
207 228 255
207 228 255
207 228 255
207 228 255
207 228 255
207 228 255
207 227 255
207 227 255
207 227 255
207 227 255
206 227 255
206 227 255
206 227 255
206 227 255
206 227 255
206 227 255
206 227 255
206 227 255
206 227 255
206 227 255
206 227 255
206 227 255
206 227 255
206 227 255
206 227 255
206 227 255
206 227 255
206 227 255
205 227 255
205 227 255
205 227 255
205 227 255
205 227 255
205 227 255
205 227 255
205 227 255
205 227 255
205 227 255
205 226 255
205 226 255
205 226 255
205 226 255
205 226 255
205 226 255
205 226 255
204 226 255
204 226 255
204 226 255
204 226 255
204 226 255
204 226 255
204 226 255
204 226 255
204 226 255
204 226 255
204 226 255
204 226 255
204 226 255
204 226 255
204 226 255
203 226 255
203 226 255
203 226 255
203 226 255
203 226 255
203 226 255
203 226 255
203 225 255
203 225 255
203 225 255
203 225 255
203 225 255
203 225 255
203 225 255
203 225 255
203 225 255
202 225 255
202 225 255
202 225 255
202 225 255
202 225 255
202 225 255
202 225 255
202 225 255
202 225 255
202 225 255
202 225 255
202 225 255
202 225 255
202 225 255
202 225 255
201 225 255
201 225 255
201 225 255
201 225 255
201 225 255
201 224 255
201 224 255
201 224 255
201 224 255
201 224 255
201 224 255
201 224 255
201 224 255
201 224 255
201 224 255
201 224 255
201 224 255
200 224 255
200 224 255
200 224 255
200 224 255
200 224 255
200 224 255
200 224 255
200 224 255
200 224 255
200 224 255
200 224 255
200 224 255
200 224 255
200 224 255
200 224 255
200 224 255
200 224 255
200 224 255
199 224 255
199 224 255
199 224 255
199 224 255
199 223 255
199 223 255
199 223 255
199 223 255
199 223 255
199 223 255
199 223 255
199 223 255
199 223 255
199 223 255
199 223 255
199 223 255
199 223 255
199 223 255
199 223 255
199 223 255
199 223 255
199 223 255
199 223 255
199 223 255
199 223 255
199 223 255
199 223 255
199 223 255
199 223 255
199 223 255
199 223 255
199 223 255
199 223 255
199 223 255
198 223 255
198 223 255
198 223 255
198 223 255
198 223 255
198 223 255
198 223 255
198 223 255
198 223 255
198 223 255
198 223 255
198 223 255
198 223 255
198 223 255
198 223 255
198 223 255
198 223 255
198 223 255
199 223 255
199 223 255
199 223 255
199 223 255
199 223 255
199 223 255
199 223 255
199 223 255
199 223 255
199 223 255
199 223 255
199 223 255
199 223 255
199 223 255
199 223 255
199 223 255
199 223 255
199 223 255
199 223 255
199 223 255
199 223 255
199 223 255
199 223 255
199 223 255
199 223 255
199 223 255
199 223 255
199 223 255
199 223 255
199 223 255
199 224 255
199 224 255
199 224 255
199 224 255
200 224 255
200 224 255
200 224 255
200 224 255
200 224 255
200 224 255
200 224 255
200 224 255
200 224 255
200 224 255
200 224 255
200 224 255
200 224 255
200 224 255
200 224 255
200 224 255
200 224 255
200 224 255
200 224 255
201 224 255
201 224 255
201 224 255
201 224 255
201 224 255
201 224 255
201 224 255
201 224 255
201 224 255
201 224 255
201 224 255
201 225 255
201 225 255
201 225 255
201 225 255
201 225 255
202 225 255
202 225 255
202 225 255
202 225 255
202 225 255
202 225 255
202 225 255
202 225 255
202 225 255
202 225 255
202 225 255
202 225 255
202 225 255
202 225 255
202 225 255
203 225 255
203 225 255
203 225 255
203 225 255
203 225 255
203 225 255
203 225 255
203 225 255
203 225 255
203 226 255
203 226 255
203 226 255
203 226 255
203 226 255
203 226 255
203 226 255
204 226 255
204 226 255
204 226 255
204 226 255
204 226 255
204 226 255
204 226 255
204 226 255
204 226 255
204 226 255
204 226 255
204 226 255
204 226 255
204 226 255
204 226 255
205 226 255
205 226 255
205 226 255
205 226 255
205 226 255
205 226 255
205 226 255
205 227 255
205 227 255
205 227 255
205 227 255
205 227 255
205 227 255
205 227 255
205 227 255
205 227 255
205 227 255
206 227 255
206 227 255
206 227 255
206 227 255
206 227 255
206 227 255
206 227 255
206 227 255
206 227 255
206 227 255
206 227 255
206 227 255
206 227 255
206 227 255
206 227 255
206 227 255
206 227 255
207 227 255
207 227 255
207 227 255
207 227 255
207 227 255
207 228 255
207 228 255
207 228 255
207 228 255
207 228 255
207 228 255
207 228 255
207 228 255
207 228 255
207 228 255
207 228 255
207 228 255
207 228 255
207 228 255
207 228 255
208 228 255
208 228 255
208 228 255
208 228 255
208 228 255
208 228 255
208 228 255
208 228 255
208 228 255
208 228 255
208 228 255
208 228 255
208 228 255
208 228 255
208 228 255
208 228 255
208 228 255
208 228 255
208 228 255
208 228 255
208 228 255
209 228 255
209 229 255
209 229 255
209 229 255
209 228 255
208 228 255
208 228 255
208 228 255
208 228 255
208 228 255
208 228 255
208 228 255
208 228 255
208 228 255
208 228 255
208 228 255
208 228 255
208 228 255
208 228 255
208 228 255
208 228 255
208 228 255
208 228 255
208 228 255
208 228 255
208 228 255
207 228 255
207 228 255
207 228 255
207 228 255
207 228 255
207 228 255
207 228 255
207 228 255
207 228 255
207 228 255
207 228 255
207 228 255
207 228 255
207 228 255
207 228 255
207 227 255
207 227 255
207 227 255
207 227 255
206 227 255
206 227 255
206 227 255
206 227 255
206 227 255
206 227 255
206 227 255
206 227 255
206 227 255
206 227 255
206 227 255
206 227 255
206 227 255
206 227 255
206 227 255
206 227 255
206 227 255
206 227 255
205 227 255
205 227 255
205 227 255
205 227 255
205 227 255
205 227 255
205 227 255
205 227 255
205 227 255
205 227 255
205 226 255
205 226 255
205 226 255
205 226 255
205 226 255
205 226 255
205 226 255
204 226 255
204 226 255
204 226 255
204 226 255
204 226 255
204 226 255
204 226 255
204 226 255
204 226 255
204 226 255
204 226 255
204 226 255
204 226 255
204 226 255
204 226 255
203 226 255
203 226 255
203 226 255
203 226 255
203 226 255
203 226 255
203 226 255
203 225 255
203 225 255
203 225 255
203 225 255
203 225 255
203 225 255
203 225 255
203 225 255
203 225 255
202 225 255
202 225 255
202 225 255
202 225 255
202 225 255
202 225 255
202 225 255
202 225 255
202 225 255
202 225 255
202 225 255
202 225 255
202 225 255
202 225 255
202 225 255
201 225 255
201 225 255
201 225 255
201 225 255
201 225 255
201 224 255
201 224 255
201 224 255
201 224 255
201 224 255
201 224 255
201 224 255
201 224 255
201 224 255
201 224 255
201 224 255
201 224 255
200 224 255
200 224 255
200 224 255
200 224 255
200 224 255
200 224 255
200 224 255
200 224 255
200 224 255
200 224 255
200 224 255
200 224 255
200 224 255
200 224 255
200 224 255
200 224 255
200 224 255
200 224 255
200 224 255
200 224 255
199 224 255
199 224 255
199 224 255
199 224 255
199 223 255
199 223 255
199 223 255
199 223 255
199 223 255
199 223 255
199 223 255
199 223 255
199 223 255
199 223 255
199 223 255
199 223 255
199 223 255
199 223 255
199 223 255
199 223 255
199 223 255
199 223 255
199 223 255
199 223 255
199 223 255
199 223 255
199 223 255
199 223 255
199 223 255
199 223 255
199 223 255
199 223 255
199 223 255
199 223 255
199 223 255
199 223 255
199 223 255
199 223 255
199 223 255
199 223 255
199 223 255
199 223 255
199 223 255
199 223 255
199 223 255
199 223 255
199 223 255
199 223 255
199 223 255
199 223 255
199 223 255
199 223 255
199 223 255
199 223 255
199 223 255
199 223 255
199 223 255
199 223 255
199 223 255
199 223 255
199 223 255
199 223 255
199 223 255
199 223 255
199 223 255
199 223 255
199 223 255
199 223 255
199 223 255
199 223 255
199 223 255
199 223 255
199 224 255
199 224 255
199 224 255
199 224 255
200 224 255
200 224 255
200 224 255
200 224 255
200 224 255
200 224 255
200 224 255
200 224 255
200 224 255
200 224 255
200 224 255
200 224 255
200 224 255
200 224 255
200 224 255
200 224 255
200 224 255
200 224 255
200 224 255
200 224 255
201 224 255
201 224 255
201 224 255
201 224 255
201 224 255
201 224 255
201 224 255
201 224 255
201 224 255
201 224 255
201 224 255
201 224 255
201 225 255
201 225 255
201 225 255
201 225 255
201 225 255
202 225 255
202 225 255
202 225 255
202 225 255
202 225 255
202 225 255
202 225 255
202 225 255
202 225 255
202 225 255
202 225 255
202 225 255
202 225 255
202 225 255
202 225 255
203 225 255
203 225 255
203 225 255
203 225 255
203 225 255
203 225 255
203 225 255
203 225 255
203 225 255
203 226 255
203 226 255
203 226 255
203 226 255
203 226 255
203 226 255
203 226 255
204 226 255
204 226 255
204 226 255
204 226 255
204 226 255
204 226 255
204 226 255
204 226 255
204 226 255
204 226 255
204 226 255
204 226 255
204 226 255
204 226 255
204 226 255
205 226 255
205 226 255
205 226 255
205 226 255
205 226 255
205 226 255
205 226 255
205 227 255
205 227 255
205 227 255
205 227 255
205 227 255
205 227 255
205 227 255
205 227 255
205 227 255
205 227 255
206 227 255
206 227 255
206 227 255
206 227 255
206 227 255
206 227 255
206 227 255
206 227 255
206 227 255
206 227 255
206 227 255
206 227 255
206 227 255
206 227 255
206 227 255
206 227 255
206 227 255
206 227 255
207 227 255
207 227 255
207 227 255
207 227 255
207 228 255
207 228 255
207 228 255
207 228 255
207 228 255
207 228 255
207 228 255
207 228 255
207 228 255
207 228 255
207 228 255
207 228 255
207 228 255
207 228 255
207 228 255
208 228 255
208 228 255
208 228 255
208 228 255
208 228 255
208 228 255
208 228 255
208 228 255
208 228 255
208 228 255
208 228 255
208 228 255
208 228 255
208 228 255
208 228 255
208 228 255
208 228 255
208 228 255
208 228 255
208 228 255
208 228 255
209 228 255
209 228 255
209 229 255
209 229 255
209 229 255
209 229 255
209 229 255
209 229 255
209 229 255
209 229 255
209 228 255
209 228 255
208 228 255
208 228 255
208 228 255
208 228 255
208 228 255
208 228 255
208 228 255
208 228 255
208 228 255
208 228 255
208 228 255
208 228 255
208 228 255
208 228 255
208 228 255
208 228 255
208 228 255
208 228 255
208 228 255
208 228 255
207 228 255
207 228 255
207 228 255
207 228 255
207 228 255
207 228 255
207 228 255
207 228 255
207 228 255
207 228 255
207 228 255
207 228 255
207 228 255
207 228 255
207 228 255
207 227 255
207 227 255
207 227 255
207 227 255
206 227 255
206 227 255
206 227 255
206 227 255
206 227 255
206 227 255
206 227 255
206 227 255
206 227 255
206 227 255
206 227 255
206 227 255
206 227 255
206 227 255
206 227 255
206 227 255
206 227 255
206 227 255
205 227 255
205 227 255
205 227 255
205 227 255
205 227 255
205 227 255
205 227 255
205 227 255
205 227 255
205 227 255
205 226 255
205 226 255
205 226 255
205 226 255
205 226 255
205 226 255
204 226 255
204 226 255
204 226 255
204 226 255
204 226 255
204 226 255
204 226 255
204 226 255
204 226 255
204 226 255
204 226 255
204 226 255
204 226 255
204 226 255
204 226 255
204 226 255
203 226 255
203 226 255
203 226 255
203 226 255
203 226 255
203 226 255
203 226 255
203 225 255
203 225 255
203 225 255
203 225 255
203 225 255
203 225 255
203 225 255
203 225 255
202 225 255
202 225 255
202 225 255
202 225 255
202 225 255
202 225 255
202 225 255
202 225 255
202 225 255
202 225 255
202 225 255
202 225 255
202 225 255
202 225 255
202 225 255
202 225 255
201 225 255
201 225 255
201 225 255
201 225 255
201 225 255
201 224 255
201 224 255
201 224 255
201 224 255
201 224 255
201 224 255
201 224 255
201 224 255
201 224 255
201 224 255
201 224 255
201 224 255
200 224 255
200 224 255
200 224 255
200 224 255
200 224 255
200 224 255
200 224 255
200 224 255
200 224 255
200 224 255
200 224 255
200 224 255
200 224 255
200 224 255
200 224 255
200 224 255
200 224 255
200 224 255
200 224 255
200 224 255
200 224 255
200 224 255
199 224 255
199 224 255
199 224 255
199 224 255
199 223 255
199 223 255
199 223 255
199 223 255
199 223 255
199 223 255
199 223 255
199 223 255
199 223 255
199 223 255
199 223 255
199 223 255
199 223 255
199 223 255
199 223 255
199 223 255
199 223 255
199 223 255
199 223 255
199 223 255
199 223 255
199 223 255
199 223 255
199 223 255
199 223 255
199 223 255
199 223 255
199 223 255
199 223 255
199 223 255
199 223 255
199 223 255
199 223 255
199 223 255
199 223 255
199 223 255
199 223 255
199 223 255
199 223 255
199 223 255
199 223 255
199 223 255
199 223 255
199 223 255
199 223 255
199 223 255
199 223 255
199 223 255
199 223 255
199 223 255
199 223 255
199 223 255
199 223 255
199 223 255
199 223 255
199 223 255
199 223 255
199 223 255
199 224 255
199 224 255
199 224 255
199 224 255
200 224 255
200 224 255
200 224 255
200 224 255
200 224 255
200 224 255
200 224 255
200 224 255
200 224 255
200 224 255
200 224 255
200 224 255
200 224 255
200 224 255
200 224 255
200 224 255
200 224 255
200 224 255
200 224 255
200 224 255
200 224 255
200 224 255
201 224 255
201 224 255
201 224 255
201 224 255
201 224 255
201 224 255
201 224 255
201 224 255
201 224 255
201 224 255
201 224 255
201 224 255
201 225 255
201 225 255
201 225 255
201 225 255
201 225 255
202 225 255
202 225 255
202 225 255
202 225 255
202 225 255
202 225 255
202 225 255
202 225 255
202 225 255
202 225 255
202 225 255
202 225 255
202 225 255
202 225 255
202 225 255
203 225 255
203 225 255
203 225 255
203 225 255
203 225 255
203 225 255
203 225 255
203 225 255
203 225 255
203 226 255
203 226 255
203 226 255
203 226 255
203 226 255
203 226 255
203 226 255
204 226 255
204 226 255
204 226 255
204 226 255
204 226 255
204 226 255
204 226 255
204 226 255
204 226 255
204 226 255
204 226 255
204 226 255
204 226 255
204 226 255
204 226 255
204 226 255
205 226 255
205 226 255
205 226 255
205 226 255
205 226 255
205 226 255
205 227 255
205 227 255
205 227 255
205 227 255
205 227 255
205 227 255
205 227 255
205 227 255
205 227 255
205 227 255
206 227 255
206 227 255
206 227 255
206 227 255
206 227 255
206 227 255
206 227 255
206 227 255
206 227 255
206 227 255
206 227 255
206 227 255
206 227 255
206 227 255
206 227 255
206 227 255
206 227 255
207 227 255
207 227 255
207 227 255
207 227 255
207 227 255
207 228 255
207 228 255
207 228 255
207 228 255
207 228 255
207 228 255
207 228 255
207 228 255
207 228 255
207 228 255
207 228 255
207 228 255
207 228 255
207 228 255
207 228 255
208 228 255
208 228 255
208 228 255
208 228 255
208 228 255
208 228 255
208 228 255
208 228 255
208 228 255
208 228 255
208 228 255
208 228 255
208 228 255
208 228 255
208 228 255
208 228 255
208 228 255
208 228 255
208 228 255
208 228 255
208 228 255
209 228 255
209 229 255
209 229 255
209 229 255
209 229 255
209 229 255
209 229 255
209 229 255
209 229 255
209 229 255
209 229 255
209 229 255
209 229 255
209 229 255
209 229 255
209 229 255
209 228 255
209 228 255
208 228 255
208 228 255
208 228 255
208 228 255
208 228 255
208 228 255
208 228 255
208 228 255
208 228 255
208 228 255
208 228 255
208 228 255
208 228 255
208 228 255
208 228 255
208 228 255
208 228 255
208 228 255
208 228 255
208 228 255
208 228 255
207 228 255
207 228 255
207 228 255
207 228 255
207 228 255
207 228 255
207 228 255
207 228 255
207 228 255
207 228 255
207 228 255
207 228 255
207 228 255
207 228 255
207 227 255
207 227 255
207 227 255
207 227 255
207 227 255
206 227 255
206 227 255
206 227 255
206 227 255
206 227 255
206 227 255
206 227 255
206 227 255
206 227 255
206 227 255
206 227 255
206 227 255
206 227 255
206 227 255
206 227 255
206 227 255
206 227 255
205 227 255
205 227 255
205 227 255
205 227 255
205 227 255
205 227 255
205 227 255
205 227 255
205 227 255
205 227 255
205 226 255
205 226 255
205 226 255
205 226 255
205 226 255
205 226 255
204 226 255
204 226 255
204 226 255
204 226 255
204 226 255
204 226 255
204 226 255
204 226 255
204 226 255
204 226 255
204 226 255
204 226 255
204 226 255
204 226 255
204 226 255
204 226 255
203 226 255
203 226 255
203 226 255
203 226 255
203 226 255
203 226 255
203 226 255
203 225 255
203 225 255
203 225 255
203 225 255
203 225 255
203 225 255
203 225 255
203 225 255
202 225 255
202 225 255
202 225 255
202 225 255
202 225 255
202 225 255
202 225 255
202 225 255
202 225 255
202 225 255
202 225 255
202 225 255
202 225 255
202 225 255
202 225 255
202 225 255
201 225 255
201 225 255
201 225 255
201 225 255
201 225 255
201 225 255
201 224 255
201 224 255
201 224 255
201 224 255
201 224 255
201 224 255
201 224 255
201 224 255
201 224 255
201 224 255
201 224 255
201 224 255
200 224 255
200 224 255
200 224 255
200 224 255
200 224 255
200 224 255
200 224 255
200 224 255
200 224 255
200 224 255
200 224 255
200 224 255
200 224 255
200 224 255
200 224 255
200 224 255
200 224 255
200 224 255
200 224 255
200 224 255
200 224 255
200 224 255
200 224 255
200 224 255
199 224 255
199 224 255
199 224 255
199 224 255
199 224 255
199 223 255
199 223 255
199 223 255
199 223 255
199 223 255
199 223 255
199 223 255
199 223 255
199 223 255
199 223 255
199 223 255
199 223 255
199 223 255
199 223 255
199 223 255
199 223 255
199 223 255
199 223 255
199 223 255
199 223 255
199 223 255
199 223 255
199 223 255
199 223 255
199 223 255
199 223 255
199 223 255
199 223 255
199 223 255
199 223 255
199 223 255
199 223 255
199 223 255
199 223 255
199 223 255
199 223 255
199 223 255
199 223 255
199 223 255
199 223 255
199 223 255
199 223 255
199 223 255
199 223 255
199 224 255
199 224 255
199 224 255
199 224 255
199 224 255
199 224 255
200 224 255
200 224 255
200 224 255
200 224 255
200 224 255
200 224 255
200 224 255
200 224 255
200 224 255
200 224 255
200 224 255
200 224 255
200 224 255
200 224 255
200 224 255
200 224 255
200 224 255
200 224 255
200 224 255
200 224 255
200 224 255
200 224 255
200 224 255
201 224 255
201 224 255
201 224 255
201 224 255
201 224 255
201 224 255
201 224 255
201 224 255
201 224 255
201 224 255
201 224 255
201 224 255
201 225 255
201 225 255
201 225 255
201 225 255
201 225 255
201 225 255
202 225 255
202 225 255
202 225 255
202 225 255
202 225 255
202 225 255
202 225 255
202 225 255
202 225 255
202 225 255
202 225 255
202 225 255
202 225 255
202 225 255
202 225 255
203 225 255
203 225 255
203 225 255
203 225 255
203 225 255
203 225 255
203 225 255
203 225 255
203 225 255
203 226 255
203 226 255
203 226 255
203 226 255
203 226 255
203 226 255
203 226 255
204 226 255
204 226 255
204 226 255
204 226 255
204 226 255
204 226 255
204 226 255
204 226 255
204 226 255
204 226 255
204 226 255
204 226 255
204 226 255
204 226 255
204 226 255
204 226 255
205 226 255
205 226 255
205 226 255
205 226 255
205 226 255
205 226 255
205 227 255
205 227 255
205 227 255
205 227 255
205 227 255
205 227 255
205 227 255
205 227 255
205 227 255
205 227 255
206 227 255
206 227 255
206 227 255
206 227 255
206 227 255
206 227 255
206 227 255
206 227 255
206 227 255
206 227 255
206 227 255
206 227 255
206 227 255
206 227 255
206 227 255
206 227 255
206 227 255
206 227 255
207 227 255
207 227 255
207 227 255
207 227 255
207 228 255
207 228 255
207 228 255
207 228 255
207 228 255
207 228 255
207 228 255
207 228 255
207 228 255
207 228 255
207 228 255
207 228 255
207 228 255
207 228 255
208 228 255
208 228 255
208 228 255
208 228 255
208 228 255
208 228 255
208 228 255
208 228 255
208 228 255
208 228 255
208 228 255
208 228 255
208 228 255
208 228 255
208 228 255
208 228 255
208 228 255
208 228 255
208 228 255
208 228 255
208 228 255
209 228 255
209 228 255
209 229 255
209 229 255
209 229 255
209 229 255
209 229 255
209 229 255
209 229 255
209 229 255
209 229 255
209 229 255
209 229 255
209 229 255
209 229 255
209 229 255
209 229 255
209 229 255
209 229 255
209 229 255
209 229 255
209 229 255
209 229 255
209 228 255
209 228 255
208 228 255
208 228 255
208 228 255
208 228 255
208 228 255
208 228 255
208 228 255
208 228 255
208 228 255
208 228 255
208 228 255
208 228 255
208 228 255
208 228 255
208 228 255
208 228 255
208 228 255
208 228 255
208 228 255
208 228 255
208 228 255
207 228 255
207 228 255
207 228 255
207 228 255
207 228 255
207 228 255
207 228 255
207 228 255
207 228 255
207 228 255
207 228 255
207 228 255
207 228 255
207 228 255
207 227 255
207 227 255
207 227 255
207 227 255
207 227 255
206 227 255
206 227 255
206 227 255
206 227 255
206 227 255
206 227 255
206 227 255
206 227 255
206 227 255
206 227 255
206 227 255
206 227 255
206 227 255
206 227 255
206 227 255
206 227 255
206 227 255
205 227 255
205 227 255
205 227 255
205 227 255
205 227 255
205 227 255
205 227 255
205 227 255
205 227 255
205 227 255
205 226 255
205 226 255
205 226 255
205 226 255
205 226 255
205 226 255
204 226 255
204 226 255
204 226 255
204 226 255
204 226 255
204 226 255
204 226 255
204 226 255
204 226 255
204 226 255
204 226 255
204 226 255
204 226 255
204 226 255
204 226 255
204 226 255
203 226 255
203 226 255
203 226 255
203 226 255
203 226 255
203 226 255
203 226 255
203 225 255
203 225 255
203 225 255
203 225 255
203 225 255
203 225 255
203 225 255
203 225 255
203 225 255
202 225 255
202 225 255
202 225 255
202 225 255
202 225 255
202 225 255
202 225 255
202 225 255
202 225 255
202 225 255
202 225 255
202 225 255
202 225 255
202 225 255
202 225 255
202 225 255
201 225 255
201 225 255
201 225 255
201 225 255
201 225 255
201 224 255
201 224 255
201 224 255
201 224 255
201 224 255
201 224 255
201 224 255
201 224 255
201 224 255
201 224 255
201 224 255
201 224 255
201 224 255
200 224 255
200 224 255
200 224 255
200 224 255
200 224 255
200 224 255
200 224 255
200 224 255
200 224 255
200 224 255
200 224 255
200 224 255
200 224 255
200 224 255
200 224 255
200 224 255
200 224 255
200 224 255
200 224 255
200 224 255
200 224 255
200 224 255
200 224 255
200 224 255
200 224 255
200 224 255
200 224 255
199 224 255
199 224 255
199 224 255
199 224 255
199 224 255
199 224 255
199 224 255
199 224 255
199 223 255
199 223 255
199 223 255
199 223 255
199 223 255
199 223 255
199 223 255
199 223 255
199 223 255
199 223 255
199 223 255
199 223 255
199 223 255
199 223 255
199 223 255
199 223 255
199 223 255
199 223 255
199 223 255
199 223 255
199 223 255
199 223 255
199 223 255
199 223 255
199 224 255
199 224 255
199 224 255
199 224 255
199 224 255
199 224 255
199 224 255
199 224 255
200 224 255
200 224 255
200 224 255
200 224 255
200 224 255
200 224 255
200 224 255
200 224 255
200 224 255
200 224 255
200 224 255
200 224 255
200 224 255
200 224 255
200 224 255
200 224 255
200 224 255
200 224 255
200 224 255
200 224 255
200 224 255
200 224 255
200 224 255
200 224 255
200 224 255
200 224 255
200 224 255
201 224 255
201 224 255
201 224 255
201 224 255
201 224 255
201 224 255
201 224 255
201 224 255
201 224 255
201 224 255
201 224 255
201 224 255
201 224 255
201 225 255
201 225 255
201 225 255
201 225 255
201 225 255
202 225 255
202 225 255
202 225 255
202 225 255
202 225 255
202 225 255
202 225 255
202 225 255
202 225 255
202 225 255
202 225 255
202 225 255
202 225 255
202 225 255
202 225 255
202 225 255
203 225 255
203 225 255
203 225 255
203 225 255
203 225 255
203 225 255
203 225 255
203 225 255
203 225 255
203 226 255
203 226 255
203 226 255
203 226 255
203 226 255
203 226 255
203 226 255
204 226 255
204 226 255
204 226 255
204 226 255
204 226 255
204 226 255
204 226 255
204 226 255
204 226 255
204 226 255
204 226 255
204 226 255
204 226 255
204 226 255
204 226 255
204 226 255
205 226 255
205 226 255
205 226 255
205 226 255
205 226 255
205 226 255
205 227 255
205 227 255
205 227 255
205 227 255
205 227 255
205 227 255
205 227 255
205 227 255
205 227 255
205 227 255
206 227 255
206 227 255
206 227 255
206 227 255
206 227 255
206 227 255
206 227 255
206 227 255
206 227 255
206 227 255
206 227 255
206 227 255
206 227 255
206 227 255
206 227 255
206 227 255
206 227 255
206 227 255
207 227 255
207 227 255
207 227 255
207 227 255
207 228 255
207 228 255
207 228 255
207 228 255
207 228 255
207 228 255
207 228 255
207 228 255
207 228 255
207 228 255
207 228 255
207 228 255
207 228 255
207 228 255
208 228 255
208 228 255
208 228 255
208 228 255
208 228 255
208 228 255
208 228 255
208 228 255
208 228 255
208 228 255
208 228 255
208 228 255
208 228 255
208 228 255
208 228 255
208 228 255
208 228 255
208 228 255
208 228 255
208 228 255
208 228 255
209 228 255
209 228 255
209 229 255
209 229 255
209 229 255
209 229 255
209 229 255
209 229 255
209 229 255
209 229 255
209 229 255
209 229 255
209 229 255
209 229 255
209 229 255
209 229 255
209 229 255
209 229 255
209 229 255
209 229 255
209 229 255
209 229 255
209 229 255
209 229 255
209 229 255
209 229 255
209 229 255
209 229 255
209 229 255
209 229 255
209 228 255
208 228 255
208 228 255
208 228 255
208 228 255
208 228 255
208 228 255
208 228 255
208 228 255
208 228 255
208 228 255
208 228 255
208 228 255
208 228 255
208 228 255
208 228 255
208 228 255
208 228 255
208 228 255
208 228 255
208 228 255
208 228 255
207 228 255
207 228 255
207 228 255
207 228 255
207 228 255
207 228 255
207 228 255
207 228 255
207 228 255
207 228 255
207 228 255
207 228 255
207 228 255
207 228 255
207 227 255
207 227 255
207 227 255
207 227 255
206 227 255
206 227 255
206 227 255
206 227 255
206 227 255
206 227 255
206 227 255
206 227 255
206 227 255
206 227 255
206 227 255
206 227 255
206 227 255
206 227 255
206 227 255
206 227 255
206 227 255
205 227 255
205 227 255
205 227 255
205 227 255
205 227 255
205 227 255
205 227 255
205 227 255
205 227 255
205 227 255
205 227 255
205 226 255
205 226 255
205 226 255
205 226 255
205 226 255
205 226 255
204 226 255
204 226 255
204 226 255
204 226 255
204 226 255
204 226 255
204 226 255
204 226 255
204 226 255
204 226 255
204 226 255
204 226 255
204 226 255
204 226 255
204 226 255
204 226 255
203 226 255
203 226 255
203 226 255
203 226 255
203 226 255
203 226 255
203 226 255
203 225 255
203 225 255
203 225 255
203 225 255
203 225 255
203 225 255
203 225 255
203 225 255
203 225 255
202 225 255
202 225 255
202 225 255
202 225 255
202 225 255
202 225 255
202 225 255
202 225 255
202 225 255
202 225 255
202 225 255
202 225 255
202 225 255
202 225 255
202 225 255
202 225 255
201 225 255
201 225 255
201 225 255
201 225 255
201 225 255
201 224 255
201 224 255
201 224 255
201 224 255
201 224 255
201 224 255
201 224 255
201 224 255
201 224 255
201 224 255
201 224 255
201 224 255
201 224 255
201 224 255
200 224 255
200 224 255
200 224 255
200 224 255
200 224 255
200 224 255
200 224 255
200 224 255
200 224 255
200 224 255
200 224 255
200 224 255
200 224 255
200 224 255
200 224 255
200 224 255
200 224 255
200 224 255
200 224 255
200 224 255
200 224 255
200 224 255
200 224 255
200 224 255
200 224 255
200 224 255
200 224 255
200 224 255
200 224 255
200 224 255
200 224 255
200 224 255
200 224 255
200 224 255
199 224 255
199 224 255
199 224 255
199 224 255
199 224 255
199 224 255
199 224 255
199 224 255
199 224 255
199 224 255
199 224 255
199 224 255
199 224 255
199 224 255
199 224 255
199 224 255
199 224 255
199 224 255
200 224 255
200 224 255
200 224 255
200 224 255
200 224 255
200 224 255
200 224 255
200 224 255
200 224 255
200 224 255
200 224 255
200 224 255
200 224 255
200 224 255
200 224 255
200 224 255
200 224 255
200 224 255
200 224 255
200 224 255
200 224 255
200 224 255
200 224 255
200 224 255
200 224 255
200 224 255
200 224 255
200 224 255
200 224 255
200 224 255
200 224 255
200 224 255
200 224 255
200 224 255
201 224 255
201 224 255
201 224 255
201 224 255
201 224 255
201 224 255
201 224 255
201 224 255
201 224 255
201 224 255
201 224 255
201 224 255
201 224 255
201 224 255
201 225 255
201 225 255
201 225 255
201 225 255
201 225 255
202 225 255
202 225 255
202 225 255
202 225 255
202 225 255
202 225 255
202 225 255
202 225 255
202 225 255
202 225 255
202 225 255
202 225 255
202 225 255
202 225 255
202 225 255
202 225 255
203 225 255
203 225 255
203 225 255
203 225 255
203 225 255
203 225 255
203 225 255
203 225 255
203 225 255
203 226 255
203 226 255
203 226 255
203 226 255
203 226 255
203 226 255
203 226 255
204 226 255
204 226 255
204 226 255
204 226 255
204 226 255
204 226 255
204 226 255
204 226 255
204 226 255
204 226 255
204 226 255
204 226 255
204 226 255
204 226 255
204 226 255
204 226 255
205 226 255
205 226 255
205 226 255
205 226 255
205 226 255
205 226 255
205 226 255
205 227 255
205 227 255
205 227 255
205 227 255
205 227 255
205 227 255
205 227 255
205 227 255
205 227 255
206 227 255
206 227 255
206 227 255
206 227 255
206 227 255
206 227 255
206 227 255
206 227 255
206 227 255
206 227 255
206 227 255
206 227 255
206 227 255
206 227 255
206 227 255
206 227 255
206 227 255
207 227 255
207 227 255
207 227 255
207 227 255
207 227 255
207 228 255
207 228 255
207 228 255
207 228 255
207 228 255
207 228 255
207 228 255
207 228 255
207 228 255
207 228 255
207 228 255
207 228 255
207 228 255
207 228 255
208 228 255
208 228 255
208 228 255
208 228 255
208 228 255
208 228 255
208 228 255
208 228 255
208 228 255
208 228 255
208 228 255
208 228 255
208 228 255
208 228 255
208 228 255
208 228 255
208 228 255
208 228 255
208 228 255
208 228 255
208 228 255
209 228 255
209 229 255
209 229 255
209 229 255
209 229 255
209 229 255
209 229 255
209 229 255
209 229 255
209 229 255
209 229 255
209 229 255
209 229 255
209 229 255
209 229 255
209 229 255
209 229 255
209 229 255
209 229 255
209 229 255
209 229 255
209 229 255
209 229 255
209 229 255
209 229 255
209 229 255
209 229 255
209 229 255
209 229 255
209 229 255
209 229 255
209 229 255
209 229 255
209 229 255
209 229 255
209 229 255
209 228 255
208 228 255
208 228 255
208 228 255
208 228 255
208 228 255
208 228 255
208 228 255
208 228 255
208 228 255
208 228 255
208 228 255
208 228 255
208 228 255
208 228 255
208 228 255
208 228 255
208 228 255
208 228 255
208 228 255
208 228 255
208 228 255
207 228 255
207 228 255
207 228 255
207 228 255
207 228 255
207 228 255
207 228 255
207 228 255
207 228 255
207 228 255
207 228 255
207 228 255
207 228 255
207 228 255
207 227 255
207 227 255
207 227 255
207 227 255
207 227 255
206 227 255
206 227 255
206 227 255
206 227 255
206 227 255
206 227 255
206 227 255
206 227 255
206 227 255
206 227 255
206 227 255
206 227 255
206 227 255
206 227 255
206 227 255
206 227 255
206 227 255
205 227 255
205 227 255
205 227 255
205 227 255
205 227 255
205 227 255
205 227 255
205 227 255
205 227 255
205 227 255
205 226 255
205 226 255
205 226 255
205 226 255
205 226 255
205 226 255
204 226 255
204 226 255
204 226 255
204 226 255
204 226 255
204 226 255
204 226 255
204 226 255
204 226 255
204 226 255
204 226 255
204 226 255
204 226 255
204 226 255
204 226 255
204 226 255
203 226 255
203 226 255
203 226 255
203 226 255
203 226 255
203 226 255
203 226 255
203 225 255
203 225 255
203 225 255
203 225 255
203 225 255
203 225 255
203 225 255
203 225 255
203 225 255
202 225 255
202 225 255
202 225 255
202 225 255
202 225 255
202 225 255
202 225 255
202 225 255
202 225 255
202 225 255
202 225 255
202 225 255
202 225 255
202 225 255
202 225 255
202 225 255
202 225 255
201 225 255
201 225 255
201 225 255
201 225 255
201 225 255
201 224 255
201 224 255
201 224 255
201 224 255
201 224 255
201 224 255
201 224 255
201 224 255
201 224 255
201 224 255
201 224 255
201 224 255
201 224 255
201 224 255
201 224 255
200 224 255
200 224 255
200 224 255
200 224 255
200 224 255
200 224 255
200 224 255
200 224 255
200 224 255
200 224 255
200 224 255
200 224 255
200 224 255
200 224 255
200 224 255
200 224 255
200 224 255
200 224 255
200 224 255
200 224 255
200 224 255
200 224 255
200 224 255
200 224 255
200 224 255
200 224 255
200 224 255
200 224 255
200 224 255
200 224 255
200 224 255
200 224 255
200 224 255
200 224 255
200 224 255
200 224 255
200 224 255
200 224 255
200 224 255
200 224 255
200 224 255
200 224 255
200 224 255
200 224 255
200 224 255
200 224 255
200 224 255
200 224 255
200 224 255
200 224 255
200 224 255
200 224 255
200 224 255
200 224 255
200 224 255
200 224 255
200 224 255
200 224 255
200 224 255
200 224 255
200 224 255
200 224 255
200 224 255
200 224 255
200 224 255
200 224 255
200 224 255
200 224 255
200 224 255
200 224 255
200 224 255
200 224 255
200 224 255
200 224 255
200 224 255
200 224 255
201 224 255
201 224 255
201 224 255
201 224 255
201 224 255
201 224 255
201 224 255
201 224 255
201 224 255
201 224 255
201 224 255
201 224 255
201 224 255
201 224 255
201 224 255
201 225 255
201 225 255
201 225 255
201 225 255
201 225 255
202 225 255
202 225 255
202 225 255
202 225 255
202 225 255
202 225 255
202 225 255
202 225 255
202 225 255
202 225 255
202 225 255
202 225 255
202 225 255
202 225 255
202 225 255
202 225 255
202 225 255
203 225 255
203 225 255
203 225 255
203 225 255
203 225 255
203 225 255
203 225 255
203 225 255
203 225 255
203 226 255
203 226 255
203 226 255
203 226 255
203 226 255
203 226 255
203 226 255
204 226 255
204 226 255
204 226 255
204 226 255
204 226 255
204 226 255
204 226 255
204 226 255
204 226 255
204 226 255
204 226 255
204 226 255
204 226 255
204 226 255
204 226 255
204 226 255
205 226 255
205 226 255
205 226 255
205 226 255
205 226 255
205 226 255
205 226 255
205 227 255
205 227 255
205 227 255
205 227 255
205 227 255
205 227 255
205 227 255
205 227 255
205 227 255
206 227 255
206 227 255
206 227 255
206 227 255
206 227 255
206 227 255
206 227 255
206 227 255
206 227 255
206 227 255
206 227 255
206 227 255
206 227 255
206 227 255
206 227 255
206 227 255
206 227 255
207 227 255
207 227 255
207 227 255
207 227 255
207 227 255
207 228 255
207 228 255
207 228 255
207 228 255
207 228 255
207 228 255
207 228 255
207 228 255
207 228 255
207 228 255
207 228 255
207 228 255
207 228 255
207 228 255
208 228 255
208 228 255
208 228 255
208 228 255
208 228 255
208 228 255
208 228 255
208 228 255
208 228 255
208 228 255
208 228 255
208 228 255
208 228 255
208 228 255
208 228 255
208 228 255
208 228 255
208 228 255
208 228 255
208 228 255
209 228 255
209 228 255
209 229 255
209 229 255
209 229 255
209 229 255
209 229 255
209 229 255
209 229 255
209 229 255
209 229 255
209 229 255
209 229 255
209 229 255
209 229 255
209 229 255
209 229 255
209 229 255
209 229 255
209 229 255
209 229 255
210 229 255
209 229 255
209 229 255
209 229 255
209 229 255
209 229 255
209 229 255
209 229 255
209 229 255
209 229 255
209 229 255
209 229 255
209 229 255
209 229 255
209 229 255
209 229 255
209 229 255
209 229 255
209 229 255
209 229 255
209 229 255
209 229 255
209 228 255
209 228 255
208 228 255
208 228 255
208 228 255
208 228 255
208 228 255
208 228 255
208 228 255
208 228 255
208 228 255
208 228 255
208 228 255
208 228 255
208 228 255
208 228 255
208 228 255
208 228 255
208 228 255
208 228 255
208 228 255
208 228 255
207 228 255
207 228 255
207 228 255
207 228 255
207 228 255
207 228 255
207 228 255
207 228 255
207 228 255
207 228 255
207 228 255
207 228 255
207 228 255
207 228 255
207 227 255
207 227 255
207 227 255
207 227 255
207 227 255
206 227 255
206 227 255
206 227 255
206 227 255
206 227 255
206 227 255
206 227 255
206 227 255
206 227 255
206 227 255
206 227 255
206 227 255
206 227 255
206 227 255
206 227 255
206 227 255
206 227 255
205 227 255
205 227 255
205 227 255
205 227 255
205 227 255
205 227 255
205 227 255
205 227 255
205 227 255
205 227 255
205 226 255
205 226 255
205 226 255
205 226 255
205 226 255
205 226 255
204 226 255
204 226 255
204 226 255
204 226 255
204 226 255
204 226 255
204 226 255
204 226 255
204 226 255
204 226 255
204 226 255
204 226 255
204 226 255
204 226 255
204 226 255
204 226 255
203 226 255
203 226 255
203 226 255
203 226 255
203 226 255
203 226 255
203 226 255
203 225 255
203 225 255
203 225 255
203 225 255
203 225 255
203 225 255
203 225 255
203 225 255
203 225 255
202 225 255
202 225 255
202 225 255
202 225 255
202 225 255
202 225 255
202 225 255
202 225 255
202 225 255
202 225 255
202 225 255
202 225 255
202 225 255
202 225 255
202 225 255
202 225 255
202 225 255
202 225 255
201 225 255
201 225 255
201 225 255
201 225 255
201 225 255
201 224 255
201 224 255
201 224 255
201 224 255
201 224 255
201 224 255
201 224 255
201 224 255
201 224 255
201 224 255
201 224 255
201 224 255
201 224 255
201 224 255
201 224 255
201 224 255
200 224 255
200 224 255
200 224 255
200 224 255
200 224 255
200 224 255
200 224 255
200 224 255
200 224 255
200 224 255
200 224 255
200 224 255
200 224 255
200 224 255
200 224 255
200 224 255
200 224 255
200 224 255
200 224 255
200 224 255
200 224 255
200 224 255
200 224 255
200 224 255
200 224 255
200 224 255
200 224 255
200 224 255
200 224 255
200 224 255
200 224 255
200 224 255
200 224 255
200 224 255
200 224 255
200 224 255
200 224 255
200 224 255
200 224 255
200 224 255
200 224 255
200 224 255
200 224 255
200 224 255
200 224 255
200 224 255
200 224 255
200 224 255
200 224 255
200 224 255
200 224 255
200 224 255
200 224 255
200 224 255
200 224 255
200 224 255
200 224 255
200 224 255
200 224 255
200 224 255
200 224 255
200 224 255
200 224 255
200 224 255
200 224 255
201 224 255
201 224 255
201 224 255
201 224 255
201 224 255
201 224 255
201 224 255
201 224 255
201 224 255
201 224 255
201 224 255
201 224 255
201 224 255
201 224 255
201 224 255
201 224 255
201 224 255
201 225 255
201 225 255
201 225 255
201 225 255
201 225 255
202 225 255
202 225 255
202 225 255
202 225 255
202 225 255
202 225 255
202 225 255
202 225 255
202 225 255
202 225 255
202 225 255
202 225 255
202 225 255
202 225 255
202 225 255
202 225 255
202 225 255
202 225 255
203 225 255
203 225 255
203 225 255
203 225 255
203 225 255
203 225 255
203 225 255
203 225 255
203 225 255
203 226 255
203 226 255
203 226 255
203 226 255
203 226 255
203 226 255
203 226 255
204 226 255
204 226 255
204 226 255
204 226 255
204 226 255
204 226 255
204 226 255
204 226 255
204 226 255
204 226 255
204 226 255
204 226 255
204 226 255
204 226 255
204 226 255
204 226 255
205 226 255
205 226 255
205 226 255
205 226 255
205 226 255
205 226 255
205 226 255
205 227 255
205 227 255
205 227 255
205 227 255
205 227 255
205 227 255
205 227 255
205 227 255
205 227 255
206 227 255
206 227 255
206 227 255
206 227 255
206 227 255
206 227 255
206 227 255
206 227 255
206 227 255
206 227 255
206 227 255
206 227 255
206 227 255
206 227 255
206 227 255
206 227 255
206 227 255
207 227 255
207 227 255
207 227 255
207 227 255
207 227 255
207 228 255
207 228 255
207 228 255
207 228 255
207 228 255
207 228 255
207 228 255
207 228 255
207 228 255
207 228 255
207 228 255
207 228 255
207 228 255
207 228 255
208 228 255
208 228 255
208 228 255
208 228 255
208 228 255
208 228 255
208 228 255
208 228 255
208 228 255
208 228 255
208 228 255
208 228 255
208 228 255
208 228 255
208 228 255
208 228 255
208 228 255
208 228 255
208 228 255
208 228 255
209 228 255
209 228 255
209 229 255
209 229 255
209 229 255
209 229 255
209 229 255
209 229 255
209 229 255
209 229 255
209 229 255
209 229 255
209 229 255
209 229 255
209 229 255
209 229 255
209 229 255
209 229 255
209 229 255
209 229 255
209 229 255
209 229 255
209 229 255
210 229 255
210 229 255
210 229 255
210 229 255
210 229 255
210 229 255
209 229 255
209 229 255
209 229 255
209 229 255
209 229 255
209 229 255
209 229 255
209 229 255
209 229 255
209 229 255
209 229 255
209 229 255
209 229 255
209 229 255
209 229 255
209 229 255
209 229 255
209 229 255
209 229 255
209 229 255
209 229 255
209 228 255
208 228 255
208 228 255
208 228 255
208 228 255
208 228 255
208 228 255
208 228 255
208 228 255
208 228 255
208 228 255
208 228 255
208 228 255
208 228 255
208 228 255
208 228 255
208 228 255
208 228 255
208 228 255
208 228 255
208 228 255
207 228 255
207 228 255
207 228 255
207 228 255
207 228 255
207 228 255
207 228 255
207 228 255
207 228 255
207 228 255
207 228 255
207 228 255
207 228 255
207 228 255
207 227 255
207 227 255
207 227 255
207 227 255
207 227 255
206 227 255
206 227 255
206 227 255
206 227 255
206 227 255
206 227 255
206 227 255
206 227 255
206 227 255
206 227 255
206 227 255
206 227 255
206 227 255
206 227 255
206 227 255
206 227 255
206 227 255
205 227 255
205 227 255
205 227 255
205 227 255
205 227 255
205 227 255
205 227 255
205 227 255
205 227 255
205 227 255
205 226 255
205 226 255
205 226 255
205 226 255
205 226 255
205 226 255
204 226 255
204 226 255
204 226 255
204 226 255
204 226 255
204 226 255
204 226 255
204 226 255
204 226 255
204 226 255
204 226 255
204 226 255
204 226 255
204 226 255
204 226 255
204 226 255
203 226 255
203 226 255
203 226 255
203 226 255
203 226 255
203 226 255
203 226 255
203 225 255
203 225 255
203 225 255
203 225 255
203 225 255
203 225 255
203 225 255
203 225 255
203 225 255
203 225 255
202 225 255
202 225 255
202 225 255
202 225 255
202 225 255
202 225 255
202 225 255
202 225 255
202 225 255
202 225 255
202 225 255
202 225 255
202 225 255
202 225 255
202 225 255
202 225 255
202 225 255
202 225 255
201 225 255
201 225 255
201 225 255
201 225 255
201 225 255
201 225 255
201 224 255
201 224 255
201 224 255
201 224 255
201 224 255
201 224 255
201 224 255
201 224 255
201 224 255
201 224 255
201 224 255
201 224 255
201 224 255
201 224 255
201 224 255
201 224 255
201 224 255
201 224 255
200 224 255
200 224 255
200 224 255
200 224 255
200 224 255
200 224 255
200 224 255
200 224 255
200 224 255
200 224 255
200 224 255
200 224 255
200 224 255
200 224 255
200 224 255
200 224 255
200 224 255
200 224 255
200 224 255
200 224 255
200 224 255
200 224 255
200 224 255
200 224 255
200 224 255
200 224 255
200 224 255
200 224 255
200 224 255
200 224 255
200 224 255
200 224 255
200 224 255
200 224 255
200 224 255
200 224 255
200 224 255
200 224 255
200 224 255
200 224 255
200 224 255
200 224 255
200 224 255
200 224 255
200 224 255
200 224 255
200 224 255
200 224 255
200 224 255
200 224 255
200 224 255
200 224 255
201 224 255
201 224 255
201 224 255
201 224 255
201 224 255
201 224 255
201 224 255
201 224 255
201 224 255
201 224 255
201 224 255
201 224 255
201 224 255
201 224 255
201 224 255
201 224 255
201 224 255
201 224 255
201 225 255
201 225 255
201 225 255
201 225 255
201 225 255
201 225 255
201 225 255
202 225 255
202 225 255
202 225 255
202 225 255
202 225 255
202 225 255
202 225 255
202 225 255
202 225 255
202 225 255
202 225 255
202 225 255
202 225 255
202 225 255
202 225 255
202 225 255
202 225 255
203 225 255
203 225 255
203 225 255
203 225 255
203 225 255
203 225 255
203 225 255
203 225 255
203 225 255
203 225 255
203 226 255
203 226 255
203 226 255
203 226 255
203 226 255
203 226 255
203 226 255
204 226 255
204 226 255
204 226 255
204 226 255
204 226 255
204 226 255
204 226 255
204 226 255
204 226 255
204 226 255
204 226 255
204 226 255
204 226 255
204 226 255
204 226 255
204 226 255
205 226 255
205 226 255
205 226 255
205 226 255
205 226 255
205 226 255
205 226 255
205 227 255
205 227 255
205 227 255
205 227 255
205 227 255
205 227 255
205 227 255
205 227 255
205 227 255
206 227 255
206 227 255
206 227 255
206 227 255
206 227 255
206 227 255
206 227 255
206 227 255
206 227 255
206 227 255
206 227 255
206 227 255
206 227 255
206 227 255
206 227 255
206 227 255
206 227 255
207 227 255
207 227 255
207 227 255
207 227 255
207 227 255
207 228 255
207 228 255
207 228 255
207 228 255
207 228 255
207 228 255
207 228 255
207 228 255
207 228 255
207 228 255
207 228 255
207 228 255
207 228 255
208 228 255
208 228 255
208 228 255
208 228 255
208 228 255
208 228 255
208 228 255
208 228 255
208 228 255
208 228 255
208 228 255
208 228 255
208 228 255
208 228 255
208 228 255
208 228 255
208 228 255
208 228 255
208 228 255
208 228 255
208 228 255
209 228 255
209 229 255
209 229 255
209 229 255
209 229 255
209 229 255
209 229 255
209 229 255
209 229 255
209 229 255
209 229 255
209 229 255
209 229 255
209 229 255
209 229 255
209 229 255
209 229 255
209 229 255
209 229 255
209 229 255
209 229 255
209 229 255
210 229 255
210 229 255
210 229 255
210 229 255
210 229 255
210 229 255
210 229 255
210 229 255
210 229 255
210 229 255
210 229 255
210 229 255
210 229 255
209 229 255
209 229 255
209 229 255
209 229 255
209 229 255
209 229 255
209 229 255
209 229 255
209 229 255
209 229 255
209 229 255
209 229 255
209 229 255
209 229 255
209 229 255
209 229 255
209 229 255
209 229 255
209 229 255
209 229 255
209 229 255
209 228 255
209 228 255
208 228 255
208 228 255
208 228 255
208 228 255
208 228 255
208 228 255
208 228 255
208 228 255
208 228 255
208 228 255
208 228 255
208 228 255
208 228 255
208 228 255
208 228 255
208 228 255
208 228 255
208 228 255
208 228 255
208 228 255
207 228 255
207 228 255
207 228 255
207 228 255
207 228 255
207 228 255
207 228 255
207 228 255
207 228 255
207 228 255
207 228 255
207 228 255
207 228 255
207 228 255
207 227 255
207 227 255
207 227 255
207 227 255
206 227 255
206 227 255
206 227 255
206 227 255
206 227 255
206 227 255
206 227 255
206 227 255
206 227 255
206 227 255
206 227 255
206 227 255
206 227 255
206 227 255
206 227 255
206 227 255
206 227 255
205 227 255
205 227 255
205 227 255
205 227 255
205 227 255
205 227 255
205 227 255
205 227 255
205 227 255
205 227 255
205 226 255
205 226 255
205 226 255
205 226 255
205 226 255
205 226 255
204 226 255
204 226 255
204 226 255
204 226 255
204 226 255
204 226 255
204 226 255
204 226 255
204 226 255
204 226 255
204 226 255
204 226 255
204 226 255
204 226 255
204 226 255
204 226 255
203 226 255
203 226 255
203 226 255
203 226 255
203 226 255
203 226 255
203 226 255
203 226 255
203 225 255
203 225 255
203 225 255
203 225 255
203 225 255
203 225 255
203 225 255
203 225 255
203 225 255
202 225 255
202 225 255
202 225 255
202 225 255
202 225 255
202 225 255
202 225 255
202 225 255
202 225 255
202 225 255
202 225 255
202 225 255
202 225 255
202 225 255
202 225 255
202 225 255
202 225 255
202 225 255
202 225 255
201 225 255
201 225 255
201 225 255
201 225 255
201 225 255
201 225 255
201 224 255
201 224 255
201 224 255
201 224 255
201 224 255
201 224 255
201 224 255
201 224 255
201 224 255
201 224 255
201 224 255
201 224 255
201 224 255
201 224 255
201 224 255
201 224 255
201 224 255
201 224 255
201 224 255
201 224 255
201 224 255
200 224 255
200 224 255
200 224 255
200 224 255
200 224 255
200 224 255
200 224 255
200 224 255
200 224 255
200 224 255
200 224 255
200 224 255
200 224 255
200 224 255
200 224 255
200 224 255
200 224 255
200 224 255
200 224 255
200 224 255
200 224 255
200 224 255
200 224 255
200 224 255
200 224 255
200 224 255
200 224 255
200 224 255
200 224 255
200 224 255
200 224 255
200 224 255
200 224 255
200 224 255
200 224 255
200 224 255
200 224 255
201 224 255
201 224 255
201 224 255
201 224 255
201 224 255
201 224 255
201 224 255
201 224 255
201 224 255
201 224 255
201 224 255
201 224 255
201 224 255
201 224 255
201 224 255
201 224 255
201 224 255
201 224 255
201 224 255
201 224 255
201 224 255
201 224 255
201 225 255
201 225 255
201 225 255
201 225 255
201 225 255
201 225 255
202 225 255
202 225 255
202 225 255
202 225 255
202 225 255
202 225 255
202 225 255
202 225 255
202 225 255
202 225 255
202 225 255
202 225 255
202 225 255
202 225 255
202 225 255
202 225 255
202 225 255
202 225 255
202 225 255
203 225 255
203 225 255
203 225 255
203 225 255
203 225 255
203 225 255
203 225 255
203 225 255
203 225 255
203 226 255
203 226 255
203 226 255
203 226 255
203 226 255
203 226 255
203 226 255
203 226 255
204 226 255
204 226 255
204 226 255
204 226 255
204 226 255
204 226 255
204 226 255
204 226 255
204 226 255
204 226 255
204 226 255
204 226 255
204 226 255
204 226 255
204 226 255
204 226 255
205 226 255
205 226 255
205 226 255
205 226 255
205 226 255
205 226 255
205 227 255
205 227 255
205 227 255
205 227 255
205 227 255
205 227 255
205 227 255
205 227 255
205 227 255
205 227 255
206 227 255
206 227 255
206 227 255
206 227 255
206 227 255
206 227 255
206 227 255
206 227 255
206 227 255
206 227 255
206 227 255
206 227 255
206 227 255
206 227 255
206 227 255
206 227 255
206 227 255
207 227 255
207 227 255
207 227 255
207 227 255
207 228 255
207 228 255
207 228 255
207 228 255
207 228 255
207 228 255
207 228 255
207 228 255
207 228 255
207 228 255
207 228 255
207 228 255
207 228 255
207 228 255
208 228 255
208 228 255
208 228 255
208 228 255
208 228 255
208 228 255
208 228 255
208 228 255
208 228 255
208 228 255
208 228 255
208 228 255
208 228 255
208 228 255
208 228 255
208 228 255
208 228 255
208 228 255
208 228 255
208 228 255
209 228 255
209 228 255
209 229 255
209 229 255
209 229 255
209 229 255
209 229 255
209 229 255
209 229 255
209 229 255
209 229 255
209 229 255
209 229 255
209 229 255
209 229 255
209 229 255
209 229 255
209 229 255
209 229 255
209 229 255
209 229 255
209 229 255
209 229 255
210 229 255
210 229 255
210 229 255
210 229 255
210 229 255
210 229 255
210 229 255
210 229 255
210 229 255
210 229 255
210 229 255
210 229 255
210 229 255
210 229 255
210 229 255
210 229 255
210 229 255
210 229 255
210 229 255
210 229 255
209 229 255
209 229 255
209 229 255
209 229 255
209 229 255
209 229 255
209 229 255
209 229 255
209 229 255
209 229 255
209 229 255
209 229 255
209 229 255
209 229 255
209 229 255
209 229 255
209 229 255
209 229 255
209 229 255
209 229 255
209 229 255
209 228 255
208 228 255
208 228 255
208 228 255
208 228 255
208 228 255
208 228 255
208 228 255
208 228 255
208 228 255
208 228 255
208 228 255
208 228 255
208 228 255
208 228 255
208 228 255
208 228 255
208 228 255
208 228 255
208 228 255
208 228 255
207 228 255
207 228 255
207 228 255
207 228 255
207 228 255
207 228 255
207 228 255
207 228 255
207 228 255
207 228 255
207 228 255
207 228 255
207 228 255
207 228 255
207 227 255
207 227 255
207 227 255
207 227 255
206 227 255
206 227 255
206 227 255
206 227 255
206 227 255
206 227 255
206 227 255
206 227 255
206 227 255
206 227 255
206 227 255
206 227 255
206 227 255
206 227 255
206 227 255
206 227 255
206 227 255
205 227 255
205 227 255
205 227 255
205 227 255
205 227 255
205 227 255
205 227 255
205 227 255
205 227 255
205 227 255
205 226 255
205 226 255
205 226 255
205 226 255
205 226 255
205 226 255
204 226 255
204 226 255
204 226 255
204 226 255
204 226 255
204 226 255
204 226 255
204 226 255
204 226 255
204 226 255
204 226 255
204 226 255
204 226 255
204 226 255
204 226 255
204 226 255
204 226 255
203 226 255
203 226 255
203 226 255
203 226 255
203 226 255
203 226 255
203 226 255
203 225 255
203 225 255
203 225 255
203 225 255
203 225 255
203 225 255
203 225 255
203 225 255
203 225 255
203 225 255
202 225 255
202 225 255
202 225 255
202 225 255
202 225 255
202 225 255
202 225 255
202 225 255
202 225 255
202 225 255
202 225 255
202 225 255
202 225 255
202 225 255
202 225 255
202 225 255
202 225 255
202 225 255
202 225 255
201 225 255
201 225 255
201 225 255
201 225 255
201 225 255
201 225 255
201 225 255
201 225 255
201 224 255
201 224 255
201 224 255
201 224 255
201 224 255
201 224 255
201 224 255
201 224 255
201 224 255
201 224 255
201 224 255
201 224 255
201 224 255
201 224 255
201 224 255
201 224 255
201 224 255
201 224 255
201 224 255
201 224 255
201 224 255
201 224 255
201 224 255
201 224 255
201 224 255
201 224 255
201 224 255
201 224 255
201 224 255
201 224 255
201 224 255
201 224 255
201 224 255
201 224 255
201 224 255
201 224 255
201 224 255
201 224 255
201 224 255
201 224 255
201 224 255
201 224 255
201 224 255
201 224 255
201 224 255
201 224 255
201 224 255
201 224 255
201 224 255
201 224 255
201 224 255
201 224 255
201 224 255
201 224 255
201 224 255
201 224 255
201 224 255
201 224 255
201 224 255
201 224 255
201 224 255
201 224 255
201 224 255
201 224 255
201 224 255
201 224 255
201 224 255
201 224 255
201 225 255
201 225 255
201 225 255
201 225 255
201 225 255
201 225 255
201 225 255
202 225 255
202 225 255
202 225 255
202 225 255
202 225 255
202 225 255
202 225 255
202 225 255
202 225 255
202 225 255
202 225 255
202 225 255
202 225 255
202 225 255
202 225 255
202 225 255
202 225 255
202 225 255
202 225 255
202 225 255
203 225 255
203 225 255
203 225 255
203 225 255
203 225 255
203 225 255
203 225 255
203 225 255
203 225 255
203 225 255
203 226 255
203 226 255
203 226 255
203 226 255
203 226 255
203 226 255
203 226 255
204 226 255
204 226 255
204 226 255
204 226 255
204 226 255
204 226 255
204 226 255
204 226 255
204 226 255
204 226 255
204 226 255
204 226 255
204 226 255
204 226 255
204 226 255
204 226 255
204 226 255
205 226 255
205 226 255
205 226 255
205 226 255
205 226 255
205 226 255
205 227 255
205 227 255
205 227 255
205 227 255
205 227 255
205 227 255
205 227 255
205 227 255
205 227 255
205 227 255
206 227 255
206 227 255
206 227 255
206 227 255
206 227 255
206 227 255
206 227 255
206 227 255
206 227 255
206 227 255
206 227 255
206 227 255
206 227 255
206 227 255
206 227 255
206 227 255
206 227 255
207 227 255
207 227 255
207 227 255
207 227 255
207 228 255
207 228 255
207 228 255
207 228 255
207 228 255
207 228 255
207 228 255
207 228 255
207 228 255
207 228 255
207 228 255
207 228 255
207 228 255
207 228 255
208 228 255
208 228 255
208 228 255
208 228 255
208 228 255
208 228 255
208 228 255
208 228 255
208 228 255
208 228 255
208 228 255
208 228 255
208 228 255
208 228 255
208 228 255
208 228 255
208 228 255
208 228 255
208 228 255
208 228 255
209 228 255
209 229 255
209 229 255
209 229 255
209 229 255
209 229 255
209 229 255
209 229 255
209 229 255
209 229 255
209 229 255
209 229 255
209 229 255
209 229 255
209 229 255
209 229 255
209 229 255
209 229 255
209 229 255
209 229 255
209 229 255
209 229 255
210 229 255
210 229 255
210 229 255
210 229 255
210 229 255
210 229 255
210 229 255
210 229 255
210 229 255
210 229 255
210 229 255
210 229 255
210 229 255
210 229 255
210 229 255
210 229 255
210 229 255
210 229 255
210 229 255
210 229 255
210 229 255
210 229 255
210 229 255
210 229 255
210 229 255
210 229 255
210 229 255
210 229 255
209 229 255
209 229 255
209 229 255
209 229 255
209 229 255
209 229 255
209 229 255
209 229 255
209 229 255
209 229 255
209 229 255
209 229 255
209 229 255
209 229 255
209 229 255
209 229 255
209 229 255
209 229 255
209 229 255
209 229 255
209 228 255
209 228 255
208 228 255
208 228 255
208 228 255
208 228 255
208 228 255
208 228 255
208 228 255
208 228 255
208 228 255
208 228 255
208 228 255
208 228 255
208 228 255
208 228 255
208 228 255
208 228 255
208 228 255
208 228 255
208 228 255
207 228 255
207 228 255
207 228 255
207 228 255
207 228 255
207 228 255
207 228 255
207 228 255
207 228 255
207 228 255
207 228 255
207 228 255
207 228 255
207 228 255
207 227 255
207 227 255
207 227 255
207 227 255
206 227 255
206 227 255
206 227 255
206 227 255
206 227 255
206 227 255
206 227 255
206 227 255
206 227 255
206 227 255
206 227 255
206 227 255
206 227 255
206 227 255
206 227 255
206 227 255
206 227 255
205 227 255
205 227 255
205 227 255
205 227 255
205 227 255
205 227 255
205 227 255
205 227 255
205 227 255
205 227 255
205 226 255
205 226 255
205 226 255
205 226 255
205 226 255
205 226 255
205 226 255
204 226 255
204 226 255
204 226 255
204 226 255
204 226 255
204 226 255
204 226 255
204 226 255
204 226 255
204 226 255
204 226 255
204 226 255
204 226 255
204 226 255
204 226 255
204 226 255
203 226 255
203 226 255
203 226 255
203 226 255
203 226 255
203 226 255
203 226 255
203 226 255
203 225 255
203 225 255
203 225 255
203 225 255
203 225 255
203 225 255
203 225 255
203 225 255
203 225 255
203 225 255
202 225 255
202 225 255
202 225 255
202 225 255
202 225 255
202 225 255
202 225 255
202 225 255
202 225 255
202 225 255
202 225 255
202 225 255
202 225 255
202 225 255
202 225 255
202 225 255
202 225 255
202 225 255
202 225 255
202 225 255
202 225 255
201 225 255
201 225 255
201 225 255
201 225 255
201 225 255
201 225 255
201 225 255
201 225 255
201 224 255
201 224 255
201 224 255
201 224 255
201 224 255
201 224 255
201 224 255
201 224 255
201 224 255
201 224 255
201 224 255
201 224 255
201 224 255
201 224 255
201 224 255
201 224 255
201 224 255
201 224 255
201 224 255
201 224 255
201 224 255
201 224 255
201 224 255
201 224 255
201 224 255
201 224 255
201 224 255
201 224 255
201 224 255
201 224 255
201 224 255
201 224 255
201 224 255
201 224 255
201 224 255
201 224 255
201 224 255
201 224 255
201 224 255
201 224 255
201 224 255
201 224 255
201 224 255
201 224 255
201 224 255
201 224 255
201 224 255
201 224 255
201 224 255
201 224 255
201 224 255
201 224 255
201 224 255
201 224 255
201 224 255
201 224 255
201 225 255
201 225 255
201 225 255
201 225 255
201 225 255
201 225 255
201 225 255
201 225 255
202 225 255
202 225 255
202 225 255
202 225 255
202 225 255
202 225 255
202 225 255
202 225 255
202 225 255
202 225 255
202 225 255
202 225 255
202 225 255
202 225 255
202 225 255
202 225 255
202 225 255
202 225 255
202 225 255
202 225 255
202 225 255
203 225 255
203 225 255
203 225 255
203 225 255
203 225 255
203 225 255
203 225 255
203 225 255
203 225 255
203 225 255
203 225 255
203 226 255
203 226 255
203 226 255
203 226 255
203 226 255
203 226 255
203 226 255
204 226 255
204 226 255
204 226 255
204 226 255
204 226 255
204 226 255
204 226 255
204 226 255
204 226 255
204 226 255
204 226 255
204 226 255
204 226 255
204 226 255
204 226 255
204 226 255
205 226 255
205 226 255
205 226 255
205 226 255
205 226 255
205 226 255
205 226 255
205 227 255
205 227 255
205 227 255
205 227 255
205 227 255
205 227 255
205 227 255
205 227 255
205 227 255
205 227 255
206 227 255
206 227 255
206 227 255
206 227 255
206 227 255
206 227 255
206 227 255
206 227 255
206 227 255
206 227 255
206 227 255
206 227 255
206 227 255
206 227 255
206 227 255
206 227 255
206 227 255
207 227 255
207 227 255
207 227 255
207 227 255
207 228 255
207 228 255
207 228 255
207 228 255
207 228 255
207 228 255
207 228 255
207 228 255
207 228 255
207 228 255
207 228 255
207 228 255
207 228 255
207 228 255
208 228 255
208 228 255
208 228 255
208 228 255
208 228 255
208 228 255
208 228 255
208 228 255
208 228 255
208 228 255
208 228 255
208 228 255
208 228 255
208 228 255
208 228 255
208 228 255
208 228 255
208 228 255
208 228 255
209 228 255
209 228 255
209 229 255
209 229 255
209 229 255
209 229 255
209 229 255
209 229 255
209 229 255
209 229 255
209 229 255
209 229 255
209 229 255
209 229 255
209 229 255
209 229 255
209 229 255
209 229 255
209 229 255
209 229 255
209 229 255
209 229 255
210 229 255
210 229 255
210 229 255
210 229 255
210 229 255
210 229 255
210 229 255
210 229 255
210 229 255
210 229 255
210 229 255
210 229 255
210 229 255
210 229 255
210 229 255
210 229 255
210 229 255
210 229 255
210 229 255
210 229 255
210 229 255
210 229 255
210 229 255
210 229 255
210 229 255
210 229 255
210 229 255
210 229 255
210 229 255
210 229 255
210 229 255
210 229 255
210 229 255
210 229 255
210 229 255
209 229 255
209 229 255
209 229 255
209 229 255
209 229 255
209 229 255
209 229 255
209 229 255
209 229 255
209 229 255
209 229 255
209 229 255
209 229 255
209 229 255
209 229 255
209 229 255
209 229 255
209 229 255
209 229 255
209 229 255
209 229 255
209 228 255
208 228 255
208 228 255
208 228 255
208 228 255
208 228 255
208 228 255
208 228 255
208 228 255
208 228 255
208 228 255
208 228 255
208 228 255
208 228 255
208 228 255
208 228 255
208 228 255
208 228 255
208 228 255
208 228 255
208 228 255
207 228 255
207 228 255
207 228 255
207 228 255
207 228 255
207 228 255
207 228 255
207 228 255
207 228 255
207 228 255
207 228 255
207 228 255
207 228 255
207 227 255
207 227 255
207 227 255
207 227 255
206 227 255
206 227 255
206 227 255
206 227 255
206 227 255
206 227 255
206 227 255
206 227 255
206 227 255
206 227 255
206 227 255
206 227 255
206 227 255
206 227 255
206 227 255
206 227 255
206 227 255
206 227 255
205 227 255
205 227 255
205 227 255
205 227 255
205 227 255
205 227 255
205 227 255
205 227 255
205 227 255
205 226 255
205 226 255
205 226 255
205 226 255
205 226 255
205 226 255
205 226 255
204 226 255
204 226 255
204 226 255
204 226 255
204 226 255
204 226 255
204 226 255
204 226 255
204 226 255
204 226 255
204 226 255
204 226 255
204 226 255
204 226 255
204 226 255
204 226 255
204 226 255
203 226 255
203 226 255
203 226 255
203 226 255
203 226 255
203 226 255
203 226 255
203 225 255
203 225 255
203 225 255
203 225 255
203 225 255
203 225 255
203 225 255
203 225 255
203 225 255
203 225 255
203 225 255
202 225 255
202 225 255
202 225 255
202 225 255
202 225 255
202 225 255
202 225 255
202 225 255
202 225 255
202 225 255
202 225 255
202 225 255
202 225 255
202 225 255
202 225 255
202 225 255
202 225 255
202 225 255
202 225 255
202 225 255
202 225 255
202 225 255
202 225 255
201 225 255
201 225 255
201 225 255
201 225 255
201 225 255
201 225 255
201 225 255
201 225 255
201 225 255
201 225 255
201 224 255
201 224 255
201 224 255
201 224 255
201 224 255
201 224 255
201 224 255
201 224 255
201 224 255
201 224 255
201 224 255
201 224 255
201 224 255
201 224 255
201 224 255
201 224 255
201 224 255
201 224 255
201 224 255
201 224 255
201 224 255
201 224 255
201 224 255
201 224 255
201 224 255
201 224 255
201 224 255
201 224 255
201 224 255
201 224 255
201 224 255
201 224 255
201 224 255
201 224 255
201 224 255
201 224 255
201 224 255
201 224 255
201 224 255
201 224 255
201 225 255
201 225 255
201 225 255
201 225 255
201 225 255
201 225 255
201 225 255
201 225 255
201 225 255
201 225 255
202 225 255
202 225 255
202 225 255
202 225 255
202 225 255
202 225 255
202 225 255
202 225 255
202 225 255
202 225 255
202 225 255
202 225 255
202 225 255
202 225 255
202 225 255
202 225 255
202 225 255
202 225 255
202 225 255
202 225 255
202 225 255
202 225 255
202 225 255
203 225 255
203 225 255
203 225 255
203 225 255
203 225 255
203 225 255
203 225 255
203 225 255
203 225 255
203 225 255
203 225 255
203 226 255
203 226 255
203 226 255
203 226 255
203 226 255
203 226 255
203 226 255
204 226 255
204 226 255
204 226 255
204 226 255
204 226 255
204 226 255
204 226 255
204 226 255
204 226 255
204 226 255
204 226 255
204 226 255
204 226 255
204 226 255
204 226 255
204 226 255
204 226 255
205 226 255
205 226 255
205 226 255
205 226 255
205 226 255
205 226 255
205 226 255
205 227 255
205 227 255
205 227 255
205 227 255
205 227 255
205 227 255
205 227 255
205 227 255
205 227 255
206 227 255
206 227 255
206 227 255
206 227 255
206 227 255
206 227 255
206 227 255
206 227 255
206 227 255
206 227 255
206 227 255
206 227 255
206 227 255
206 227 255
206 227 255
206 227 255
206 227 255
207 227 255
207 227 255
207 227 255
207 227 255
207 227 255
207 228 255
207 228 255
207 228 255
207 228 255
207 228 255
207 228 255
207 228 255
207 228 255
207 228 255
207 228 255
207 228 255
207 228 255
207 228 255
208 228 255
208 228 255
208 228 255
208 228 255
208 228 255
208 228 255
208 228 255
208 228 255
208 228 255
208 228 255
208 228 255
208 228 255
208 228 255
208 228 255
208 228 255
208 228 255
208 228 255
208 228 255
208 228 255
208 228 255
209 228 255
209 228 255
209 229 255
209 229 255
209 229 255
209 229 255
209 229 255
209 229 255
209 229 255
209 229 255
209 229 255
209 229 255
209 229 255
209 229 255
209 229 255
209 229 255
209 229 255
209 229 255
209 229 255
209 229 255
209 229 255
209 229 255
210 229 255
210 229 255
210 229 255
210 229 255
210 229 255
210 229 255
210 229 255
210 229 255
210 229 255
210 229 255
210 229 255
210 229 255
210 229 255
210 229 255
210 229 255
210 229 255
210 229 255
210 229 255
210 229 255
210 230 255
210 229 255
210 229 255
210 229 255
210 229 255
210 229 255
210 229 255
210 229 255
210 229 255
210 229 255
210 229 255
210 229 255
210 229 255
210 229 255
210 229 255
210 229 255
210 229 255
210 229 255
210 229 255
210 229 255
210 229 255
210 229 255
210 229 255
209 229 255
209 229 255
209 229 255
209 229 255
209 229 255
209 229 255
209 229 255
209 229 255
209 229 255
209 229 255
209 229 255
209 229 255
209 229 255
209 229 255
209 229 255
209 229 255
209 229 255
209 229 255
209 229 255
209 229 255
209 228 255
208 228 255
208 228 255
208 228 255
208 228 255
208 228 255
208 228 255
208 228 255
208 228 255
208 228 255
208 228 255
208 228 255
208 228 255
208 228 255
208 228 255
208 228 255
208 228 255
208 228 255
208 228 255
208 228 255
208 228 255
207 228 255
207 228 255
207 228 255
207 228 255
207 228 255
207 228 255
207 228 255
207 228 255
207 228 255
207 228 255
207 228 255
207 228 255
207 228 255
207 228 255
207 227 255
207 227 255
207 227 255
207 227 255
206 227 255
206 227 255
206 227 255
206 227 255
206 227 255
206 227 255
206 227 255
206 227 255
206 227 255
206 227 255
206 227 255
206 227 255
206 227 255
206 227 255
206 227 255
206 227 255
206 227 255
205 227 255
205 227 255
205 227 255
205 227 255
205 227 255
205 227 255
205 227 255
205 227 255
205 227 255
205 227 255
205 226 255
205 226 255
205 226 255
205 226 255
205 226 255
205 226 255
205 226 255
204 226 255
204 226 255
204 226 255
204 226 255
204 226 255
204 226 255
204 226 255
204 226 255
204 226 255
204 226 255
204 226 255
204 226 255
204 226 255
204 226 255
204 226 255
204 226 255
203 226 255
203 226 255
203 226 255
203 226 255
203 226 255
203 226 255
203 226 255
203 226 255
203 225 255
203 225 255
203 225 255
203 225 255
203 225 255
203 225 255
203 225 255
203 225 255
203 225 255
203 225 255
203 225 255
202 225 255
202 225 255
202 225 255
202 225 255
202 225 255
202 225 255
202 225 255
202 225 255
202 225 255
202 225 255
202 225 255
202 225 255
202 225 255
202 225 255
202 225 255
202 225 255
202 225 255
202 225 255
202 225 255
202 225 255
202 225 255
202 225 255
202 225 255
202 225 255
202 225 255
201 225 255
201 225 255
201 225 255
201 225 255
201 225 255
201 225 255
201 225 255
201 225 255
201 225 255
201 225 255
201 225 255
201 225 255
201 225 255
201 225 255
201 225 255
201 225 255
201 225 255
201 225 255
201 224 255
201 224 255
201 224 255
201 224 255
201 224 255
201 224 255
201 224 255
201 224 255
201 224 255
201 224 255
201 224 255
201 224 255
201 225 255
201 225 255
201 225 255
201 225 255
201 225 255
201 225 255
201 225 255
201 225 255
201 225 255
201 225 255
201 225 255
201 225 255
201 225 255
201 225 255
201 225 255
201 225 255
201 225 255
202 225 255
202 225 255
202 225 255
202 225 255
202 225 255
202 225 255
202 225 255
202 225 255
202 225 255
202 225 255
202 225 255
202 225 255
202 225 255
202 225 255
202 225 255
202 225 255
202 225 255
202 225 255
202 225 255
202 225 255
202 225 255
202 225 255
202 225 255
202 225 255
202 225 255
202 225 255
203 225 255
203 225 255
203 225 255
203 225 255
203 225 255
203 225 255
203 225 255
203 225 255
203 225 255
203 225 255
203 225 255
203 226 255
203 226 255
203 226 255
203 226 255
203 226 255
203 226 255
203 226 255
203 226 255
204 226 255
204 226 255
204 226 255
204 226 255
204 226 255
204 226 255
204 226 255
204 226 255
204 226 255
204 226 255
204 226 255
204 226 255
204 226 255
204 226 255
204 226 255
204 226 255
204 226 255
205 226 255
205 226 255
205 226 255
205 226 255
205 226 255
205 226 255
205 227 255
205 227 255
205 227 255
205 227 255
205 227 255
205 227 255
205 227 255
205 227 255
205 227 255
205 227 255
206 227 255
206 227 255
206 227 255
206 227 255
206 227 255
206 227 255
206 227 255
206 227 255
206 227 255
206 227 255
206 227 255
206 227 255
206 227 255
206 227 255
206 227 255
206 227 255
206 227 255
207 227 255
207 227 255
207 227 255
207 227 255
207 228 255
207 228 255
207 228 255
207 228 255
207 228 255
207 228 255
207 228 255
207 228 255
207 228 255
207 228 255
207 228 255
207 228 255
207 228 255
207 228 255
208 228 255
208 228 255
208 228 255
208 228 255
208 228 255
208 228 255
208 228 255
208 228 255
208 228 255
208 228 255
208 228 255
208 228 255
208 228 255
208 228 255
208 228 255
208 228 255
208 228 255
208 228 255
208 228 255
208 228 255
209 228 255
209 229 255
209 229 255
209 229 255
209 229 255
209 229 255
209 229 255
209 229 255
209 229 255
209 229 255
209 229 255
209 229 255
209 229 255
209 229 255
209 229 255
209 229 255
209 229 255
209 229 255
209 229 255
209 229 255
209 229 255
210 229 255
210 229 255
210 229 255
210 229 255
210 229 255
210 229 255
210 229 255
210 229 255
210 229 255
210 229 255
210 229 255
210 229 255
210 229 255
210 229 255
210 229 255
210 229 255
210 229 255
210 229 255
210 229 255
210 229 255
210 229 255
210 229 255
210 230 255
211 230 255
211 230 255
210 230 255
210 230 255
210 230 255
210 229 255
210 229 255
210 229 255
210 229 255
210 229 255
210 229 255
210 229 255
210 229 255
210 229 255
210 229 255
210 229 255
210 229 255
210 229 255
210 229 255
210 229 255
210 229 255
210 229 255
210 229 255
210 229 255
210 229 255
210 229 255
210 229 255
209 229 255
209 229 255
209 229 255
209 229 255
209 229 255
209 229 255
209 229 255
209 229 255
209 229 255
209 229 255
209 229 255
209 229 255
209 229 255
209 229 255
209 229 255
209 229 255
209 229 255
209 229 255
209 229 255
209 229 255
209 228 255
208 228 255
208 228 255
208 228 255
208 228 255
208 228 255
208 228 255
208 228 255
208 228 255
208 228 255
208 228 255
208 228 255
208 228 255
208 228 255
208 228 255
208 228 255
208 228 255
208 228 255
208 228 255
208 228 255
207 228 255
207 228 255
207 228 255
207 228 255
207 228 255
207 228 255
207 228 255
207 228 255
207 228 255
207 228 255
207 228 255
207 228 255
207 228 255
207 228 255
207 227 255
207 227 255
207 227 255
207 227 255
206 227 255
206 227 255
206 227 255
206 227 255
206 227 255
206 227 255
206 227 255
206 227 255
206 227 255
206 227 255
206 227 255
206 227 255
206 227 255
206 227 255
206 227 255
206 227 255
206 227 255
205 227 255
205 227 255
205 227 255
205 227 255
205 227 255
205 227 255
205 227 255
205 227 255
205 227 255
205 227 255
205 226 255
205 226 255
205 226 255
205 226 255
205 226 255
205 226 255
205 226 255
204 226 255
204 226 255
204 226 255
204 226 255
204 226 255
204 226 255
204 226 255
204 226 255
204 226 255
204 226 255
204 226 255
204 226 255
204 226 255
204 226 255
204 226 255
204 226 255
204 226 255
203 226 255
203 226 255
203 226 255
203 226 255
203 226 255
203 226 255
203 226 255
203 226 255
203 225 255
203 225 255
203 225 255
203 225 255
203 225 255
203 225 255
203 225 255
203 225 255
203 225 255
203 225 255
203 225 255
203 225 255
202 225 255
202 225 255
202 225 255
202 225 255
202 225 255
202 225 255
202 225 255
202 225 255
202 225 255
202 225 255
202 225 255
202 225 255
202 225 255
202 225 255
202 225 255
202 225 255
202 225 255
202 225 255
202 225 255
202 225 255
202 225 255
202 225 255
202 225 255
202 225 255
202 225 255
202 225 255
202 225 255
202 225 255
202 225 255
202 225 255
202 225 255
202 225 255
201 225 255
201 225 255
201 225 255
201 225 255
201 225 255
201 225 255
201 225 255
201 225 255
201 225 255
201 225 255
201 225 255
201 225 255
201 225 255
201 225 255
201 225 255
201 225 255
201 225 255
201 225 255
201 225 255
201 225 255
201 225 255
201 225 255
201 225 255
201 225 255
201 225 255
202 225 255
202 225 255
202 225 255
202 225 255
202 225 255
202 225 255
202 225 255
202 225 255
202 225 255
202 225 255
202 225 255
202 225 255
202 225 255
202 225 255
202 225 255
202 225 255
202 225 255
202 225 255
202 225 255
202 225 255
202 225 255
202 225 255
202 225 255
202 225 255
202 225 255
202 225 255
202 225 255
202 225 255
202 225 255
202 225 255
202 225 255
203 225 255
203 225 255
203 225 255
203 225 255
203 225 255
203 225 255
203 225 255
203 225 255
203 225 255
203 225 255
203 225 255
203 225 255
203 226 255
203 226 255
203 226 255
203 226 255
203 226 255
203 226 255
203 226 255
203 226 255
204 226 255
204 226 255
204 226 255
204 226 255
204 226 255
204 226 255
204 226 255
204 226 255
204 226 255
204 226 255
204 226 255
204 226 255
204 226 255
204 226 255
204 226 255
204 226 255
204 226 255
205 226 255
205 226 255
205 226 255
205 226 255
205 226 255
205 226 255
205 226 255
205 227 255
205 227 255
205 227 255
205 227 255
205 227 255
205 227 255
205 227 255
205 227 255
205 227 255
205 227 255
206 227 255
206 227 255
206 227 255
206 227 255
206 227 255
206 227 255
206 227 255
206 227 255
206 227 255
206 227 255
206 227 255
206 227 255
206 227 255
206 227 255
206 227 255
206 227 255
206 227 255
207 227 255
207 227 255
207 227 255
207 227 255
207 228 255
207 228 255
207 228 255
207 228 255
207 228 255
207 228 255
207 228 255
207 228 255
207 228 255
207 228 255
207 228 255
207 228 255
207 228 255
207 228 255
208 228 255
208 228 255
208 228 255
208 228 255
208 228 255
208 228 255
208 228 255
208 228 255
208 228 255
208 228 255
208 228 255
208 228 255
208 228 255
208 228 255
208 228 255
208 228 255
208 228 255
208 228 255
208 228 255
209 228 255
209 228 255
209 229 255
209 229 255
209 229 255
209 229 255
209 229 255
209 229 255
209 229 255
209 229 255
209 229 255
209 229 255
209 229 255
209 229 255
209 229 255
209 229 255
209 229 255
209 229 255
209 229 255
209 229 255
209 229 255
210 229 255
210 229 255
210 229 255
210 229 255
210 229 255
210 229 255
210 229 255
210 229 255
210 229 255
210 229 255
210 229 255
210 229 255
210 229 255
210 229 255
210 229 255
210 229 255
210 229 255
210 229 255
210 229 255
210 229 255
210 229 255
210 229 255
210 230 255
210 230 255
210 230 255
211 230 255
211 230 255
211 230 255
211 230 255
211 230 255
211 230 255
211 230 255
211 230 255
210 230 255
210 230 255
210 230 255
210 229 255
210 229 255
210 229 255
210 229 255
210 229 255
210 229 255
210 229 255
210 229 255
210 229 255
210 229 255
210 229 255
210 229 255
210 229 255
210 229 255
210 229 255
210 229 255
210 229 255
210 229 255
210 229 255
210 229 255
210 229 255
209 229 255
209 229 255
209 229 255
209 229 255
209 229 255
209 229 255
209 229 255
209 229 255
209 229 255
209 229 255
209 229 255
209 229 255
209 229 255
209 229 255
209 229 255
209 229 255
209 229 255
209 229 255
209 229 255
209 229 255
209 228 255
208 228 255
208 228 255
208 228 255
208 228 255
208 228 255
208 228 255
208 228 255
208 228 255
208 228 255
208 228 255
208 228 255
208 228 255
208 228 255
208 228 255
208 228 255
208 228 255
208 228 255
208 228 255
208 228 255
208 228 255
207 228 255
207 228 255
207 228 255
207 228 255
207 228 255
207 228 255
207 228 255
207 228 255
207 228 255
207 228 255
207 228 255
207 228 255
207 228 255
207 227 255
207 227 255
207 227 255
207 227 255
207 227 255
206 227 255
206 227 255
206 227 255
206 227 255
206 227 255
206 227 255
206 227 255
206 227 255
206 227 255
206 227 255
206 227 255
206 227 255
206 227 255
206 227 255
206 227 255
206 227 255
205 227 255
205 227 255
205 227 255
205 227 255
205 227 255
205 227 255
205 227 255
205 227 255
205 227 255
205 227 255
205 227 255
205 226 255
205 226 255
205 226 255
205 226 255
205 226 255
205 226 255
204 226 255
204 226 255
204 226 255
204 226 255
204 226 255
204 226 255
204 226 255
204 226 255
204 226 255
204 226 255
204 226 255
204 226 255
204 226 255
204 226 255
204 226 255
204 226 255
204 226 255
204 226 255
203 226 255
203 226 255
203 226 255
203 226 255
203 226 255
203 226 255
203 226 255
203 226 255
203 226 255
203 225 255
203 225 255
203 225 255
203 225 255
203 225 255
203 225 255
203 225 255
203 225 255
203 225 255
203 225 255
203 225 255
203 225 255
202 225 255
202 225 255
202 225 255
202 225 255
202 225 255
202 225 255
202 225 255
202 225 255
202 225 255
202 225 255
202 225 255
202 225 255
202 225 255
202 225 255
202 225 255
202 225 255
202 225 255
202 225 255
202 225 255
202 225 255
202 225 255
202 225 255
202 225 255
202 225 255
202 225 255
202 225 255
202 225 255
202 225 255
202 225 255
202 225 255
202 225 255
202 225 255
202 225 255
202 225 255
202 225 255
202 225 255
202 225 255
202 225 255
202 225 255
202 225 255
202 225 255
202 225 255
202 225 255
202 225 255
202 225 255
202 225 255
202 225 255
202 225 255
202 225 255
202 225 255
202 225 255
202 225 255
202 225 255
202 225 255
202 225 255
202 225 255
202 225 255
202 225 255
202 225 255
202 225 255
202 225 255
202 225 255
202 225 255
202 225 255
202 225 255
202 225 255
202 225 255
202 225 255
202 225 255
202 225 255
202 225 255
202 225 255
202 225 255
202 225 255
202 225 255
202 225 255
202 225 255
202 225 255
203 225 255
203 225 255
203 225 255
203 225 255
203 225 255
203 225 255
203 225 255
203 225 255
203 225 255
203 225 255
203 225 255
203 225 255
203 226 255
203 226 255
203 226 255
203 226 255
203 226 255
203 226 255
203 226 255
203 226 255
203 226 255
204 226 255
204 226 255
204 226 255
204 226 255
204 226 255
204 226 255
204 226 255
204 226 255
204 226 255
204 226 255
204 226 255
204 226 255
204 226 255
204 226 255
204 226 255
204 226 255
204 226 255
204 226 255
205 226 255
205 226 255
205 226 255
205 226 255
205 226 255
205 226 255
205 227 255
205 227 255
205 227 255
205 227 255
205 227 255
205 227 255
205 227 255
205 227 255
205 227 255
205 227 255
206 227 255
206 227 255
206 227 255
206 227 255
206 227 255
206 227 255
206 227 255
206 227 255
206 227 255
206 227 255
206 227 255
206 227 255
206 227 255
206 227 255
206 227 255
206 227 255
206 227 255
206 227 255
207 227 255
207 227 255
207 227 255
207 227 255
207 228 255
207 228 255
207 228 255
207 228 255
207 228 255
207 228 255
207 228 255
207 228 255
207 228 255
207 228 255
207 228 255
207 228 255
207 228 255
208 228 255
208 228 255
208 228 255
208 228 255
208 228 255
208 228 255
208 228 255
208 228 255
208 228 255
208 228 255
208 228 255
208 228 255
208 228 255
208 228 255
208 228 255
208 228 255
208 228 255
208 228 255
208 228 255
209 228 255
209 228 255
209 229 255
209 229 255
209 229 255
209 229 255
209 229 255
209 229 255
209 229 255
209 229 255
209 229 255
209 229 255
209 229 255
209 229 255
209 229 255
209 229 255
209 229 255
209 229 255
209 229 255
209 229 255
209 229 255
209 229 255
210 229 255
210 229 255
210 229 255
210 229 255
210 229 255
210 229 255
210 229 255
210 229 255
210 229 255
210 229 255
210 229 255
210 229 255
210 229 255
210 229 255
210 229 255
210 229 255
210 229 255
210 229 255
210 229 255
210 229 255
210 229 255
210 230 255
210 230 255
210 230 255
211 230 255
211 230 255
211 230 255
211 230 255
211 230 255
211 230 255
211 230 255
211 230 255
211 230 255
211 230 255
211 230 255
211 230 255
211 230 255
211 230 255
211 230 255
211 230 255
210 230 255
210 230 255
210 230 255
210 229 255
210 229 255
210 229 255
210 229 255
210 229 255
210 229 255
210 229 255
210 229 255
210 229 255
210 229 255
210 229 255
210 229 255
210 229 255
210 229 255
210 229 255
210 229 255
210 229 255
210 229 255
210 229 255
210 229 255
210 229 255
209 229 255
209 229 255
209 229 255
209 229 255
208 228 250
204 224 238
204 224 240
203 223 233
200 220 217
201 221 220
199 220 214
195 216 203
199 219 206
193 214 191
195 216 191
195 216 194
195 216 194
194 215 189
196 217 201
194 215 193
194 215 196
199 220 212
201 221 221
200 221 220
204 224 234
203 223 237
205 225 244
207 227 250
208 228 255
208 228 255
208 228 255
208 228 255
208 228 255
208 228 255
208 228 255
208 228 255
208 228 255
208 228 255
208 228 255
208 228 255
207 228 255
207 228 255
207 228 255
207 228 255
207 228 255
207 228 255
207 228 255
207 228 255
207 228 255
207 228 255
207 228 255
207 228 255
207 228 255
207 228 255
207 227 255
207 227 255
207 227 255
207 227 255
206 227 255
206 227 255
206 227 255
206 227 255
206 227 255
206 227 255
206 227 255
206 227 255
206 227 255
206 227 255
206 227 255
206 227 255
206 227 255
206 227 255
206 227 255
206 227 255
206 227 255
205 227 255
205 227 255
205 227 255
205 227 255
205 227 255
205 227 255
205 227 255
205 227 255
205 227 255
205 227 255
205 226 255
205 226 255
205 226 255
205 226 255
205 226 255
205 226 255
205 226 255
204 226 255
204 226 255
204 226 255
204 226 255
204 226 255
204 226 255
204 226 255
204 226 255
204 226 255
204 226 255
204 226 255
204 226 255
204 226 255
204 226 255
204 226 255
204 226 255
204 226 255
204 226 255
203 226 255
203 226 255
203 226 255
203 226 255
203 226 255
203 226 255
203 226 255
203 226 255
203 226 255
203 226 255
203 225 255
203 225 255
203 225 255
203 225 255
203 225 255
203 225 255
203 225 255
203 225 255
203 225 255
203 225 255
203 225 255
203 225 255
203 225 255
202 225 255
202 225 255
202 225 255
202 225 255
202 225 255
202 225 255
202 225 255
202 225 255
202 225 255
202 225 255
202 225 255
202 225 255
202 225 255
202 225 255
202 225 255
202 225 255
202 225 255
202 225 255
202 225 255
202 225 255
202 225 255
202 225 255
202 225 255
202 225 255
202 225 255
202 225 255
202 225 255
202 225 255
202 225 255
202 225 255
202 225 255
202 225 255
202 225 255
202 225 255
202 225 255
202 225 255
202 225 255
202 225 255
202 225 255
202 225 255
202 225 255
202 225 255
202 225 255
202 225 255
202 225 255
202 225 255
202 225 255
202 225 255
202 225 255
202 225 255
202 225 255
202 225 255
202 225 255
202 225 255
202 225 255
202 225 255
202 225 255
202 225 255
202 225 255
202 225 255
202 225 255
202 225 255
202 225 255
202 225 255
202 225 255
202 225 255
203 225 255
203 225 255
203 225 255
203 225 255
203 225 255
203 225 255
203 225 255
203 225 255
203 225 255
203 225 255
203 225 255
203 225 255
203 225 255
203 226 255
203 226 255
203 226 255
203 226 255
203 226 255
203 226 255
203 226 255
203 226 255
203 226 255
203 226 255
204 226 255
204 226 255
204 226 255
204 226 255
204 226 255
204 226 255
204 226 255
204 226 255
204 226 255
204 226 255
204 226 255
204 226 255
204 226 255
204 226 255
204 226 255
204 226 255
204 226 255
204 226 255
205 226 255
205 226 255
205 226 255
205 226 255
205 226 255
205 226 255
205 226 255
205 227 255
205 227 255
205 227 255
205 227 255
205 227 255
205 227 255
205 227 255
205 227 255
205 227 255
205 227 255
206 227 255
206 227 255
206 227 255
206 227 255
206 227 255
206 227 255
206 227 255
206 227 255
206 227 255
206 227 255
206 227 255
206 227 255
206 227 255
206 227 255
206 227 255
206 227 255
206 227 255
207 227 255
207 227 255
207 227 255
207 227 255
207 228 255
207 228 255
207 228 255
207 228 255
207 228 255
207 228 255
207 228 255
207 228 255
207 228 255
207 228 255
207 228 255
207 228 255
207 228 255
207 228 255
208 228 255
208 228 255
208 228 255
208 228 255
208 228 255
208 228 255
208 228 255
208 228 255
208 228 255
208 228 255
208 228 255
208 228 255
207 227 252
203 222 246
200 218 242
197 213 232
192 207 221
189 204 219
184 199 213
176 190 204
175 187 195
168 179 187
179 189 190
178 189 193
169 181 188
176 188 195
177 188 195
167 178 186
184 198 210
181 194 205
185 199 214
185 199 214
195 211 230
201 219 242
205 223 246
208 227 253
209 229 255
209 229 255
209 229 255
209 229 255
210 229 255
210 229 255
210 229 255
210 229 255
210 229 255
210 229 255
210 229 255
210 229 255
210 229 255
210 229 255
210 229 255
210 229 255
210 229 255
210 229 255
210 229 255
210 229 255
210 229 255
210 229 255
210 229 255
210 229 255
210 229 255
210 230 255
210 230 255
210 230 255
211 230 255
211 230 255
211 230 255
211 230 255
211 230 255
211 230 255
211 230 255
211 230 255
211 230 255
211 230 255
211 230 255
211 230 255
211 230 255
211 230 255
211 230 255
211 230 255
211 230 255
211 230 255
211 230 255
211 230 255
211 230 255
211 230 255
211 230 255
211 230 255
210 230 255
210 230 255
210 230 255
210 229 255
210 229 255
210 229 255
210 229 255
210 229 255
210 229 255
210 229 255
210 229 255
210 229 255
210 229 255
210 229 255
210 229 255
208 227 249
206 226 241
201 221 218
192 213 182
192 213 177
187 208 151
182 204 133
180 202 92
176 199 67
173 196 25
174 197 0
175 197 0
172 194 0
174 197 0
172 195 0
172 196 0
174 196 0
174 197 0
172 196 0
173 197 0
175 198 0
171 196 0
171 194 0
173 196 0
172 196 0
171 195 0
173 196 0
175 197 0
170 194 0
174 197 0
169 193 0
172 196 0
172 195 0
175 198 67
181 203 117
181 203 122
185 206 142
190 212 173
194 215 189
197 218 206
205 225 240
207 228 253
208 228 255
208 228 255
208 228 255
208 228 255
208 228 255
208 228 255
208 228 255
207 228 255
207 228 255
207 228 255
207 228 255
207 228 255
207 228 255
207 228 255
207 228 255
207 228 255
207 228 255
207 228 255
207 228 255
207 228 255
207 227 255
207 227 255
207 227 255
207 227 255
206 227 255
206 227 255
206 227 255
206 227 255
206 227 255
206 227 255
206 227 255
206 227 255
206 227 255
206 227 255
206 227 255
206 227 255
206 227 255
206 227 255
206 227 255
206 227 255
206 227 255
206 227 255
205 227 255
205 227 255
205 227 255
205 227 255
205 227 255
205 227 255
205 227 255
205 227 255
205 227 255
205 227 255
205 226 255
205 226 255
205 226 255
205 226 255
205 226 255
205 226 255
205 226 255
204 226 255
204 226 255
204 226 255
204 226 255
204 226 255
204 226 255
204 226 255
204 226 255
204 226 255
204 226 255
204 226 255
204 226 255
204 226 255
204 226 255
204 226 255
204 226 255
204 226 255
204 226 255
204 226 255
203 226 255
203 226 255
203 226 255
203 226 255
203 226 255
203 226 255
203 226 255
203 226 255
203 226 255
203 225 255
203 225 255
203 225 255
203 225 255
203 225 255
203 225 255
203 225 255
203 225 255
203 225 255
203 225 255
203 225 255
203 225 255
203 225 255
203 225 255
203 225 255
203 225 255
202 225 255
202 225 255
202 225 255
202 225 255
202 225 255
202 225 255
202 225 255
202 225 255
202 225 255
202 225 255
202 225 255
202 225 255
202 225 255
202 225 255
202 225 255
202 225 255
202 225 255
202 225 255
202 225 255
202 225 255
202 225 255
202 225 255
202 225 255
202 225 255
202 225 255
202 225 255
202 225 255
202 225 255
202 225 255
202 225 255
202 225 255
202 225 255
202 225 255
202 225 255
202 225 255
202 225 255
202 225 255
202 225 255
202 225 255
202 225 255
202 225 255
202 225 255
202 225 255
202 225 255
202 225 255
202 225 255
202 225 255
202 225 255
202 225 255
202 225 255
202 225 255
202 225 255
203 225 255
203 225 255
203 225 255
203 225 255
203 225 255
203 225 255
203 225 255
203 225 255
203 225 255
203 225 255
203 225 255
203 225 255
203 225 255
203 225 255
203 225 255
203 225 255
203 226 255
203 226 255
203 226 255
203 226 255
203 226 255
203 226 255
203 226 255
203 226 255
203 226 255
204 226 255
204 226 255
204 226 255
204 226 255
204 226 255
204 226 255
204 226 255
204 226 255
204 226 255
204 226 255
204 226 255
204 226 255
204 226 255
204 226 255
204 226 255
204 226 255
204 226 255
204 226 255
204 226 255
205 226 255
205 226 255
205 226 255
205 226 255
205 226 255
205 226 255
205 226 255
205 227 255
205 227 255
205 227 255
205 227 255
205 227 255
205 227 255
205 227 255
205 227 255
205 227 255
205 227 255
206 227 255
206 227 255
206 227 255
206 227 255
206 227 255
206 227 255
206 227 255
206 227 255
206 227 255
206 227 255
206 227 255
206 227 255
206 227 255
206 227 255
206 227 255
206 227 255
206 227 255
207 227 255
207 227 255
207 227 255
207 227 255
207 227 255
207 228 255
207 228 255
207 228 255
207 228 255
207 228 255
207 228 255
207 228 255
207 228 255
207 228 255
207 228 255
207 228 255
207 228 255
207 228 255
208 228 255
208 228 255
208 228 255
208 228 255
208 228 255
208 228 255
208 228 255
199 218 244
197 215 236
182 197 212
180 191 197
163 172 171
151 157 147
148 152 137
145 150 135
140 140 106
127 125 84
130 128 85
119 117 78
133 130 86
128 126 83
135 134 90
132 130 87
128 126 83
133 131 87
131 129 86
127 124 82
140 137 90
145 143 95
122 120 80
129 125 82
135 132 86
125 123 81
134 131 86
132 130 86
135 132 87
138 135 88
125 122 81
122 119 79
133 131 89
129 127 90
138 139 113
148 153 144
162 167 152
172 182 183
173 184 189
192 206 220
196 212 230
206 224 247
210 229 255
210 229 255
210 229 255
210 229 255
210 229 255
210 229 255
210 229 255
210 229 255
210 229 255
210 229 255
210 229 255
210 229 255
210 230 255
210 230 255
210 230 255
211 230 255
211 230 255
211 230 255
211 230 255
211 230 255
211 230 255
211 230 255
211 230 255
211 230 255
211 230 255
211 230 255
211 230 255
211 230 255
211 230 255
211 230 255
211 230 255
211 230 255
211 230 255
211 230 255
211 230 255
211 230 255
211 230 255
211 230 255
211 230 255
211 230 255
211 230 255
211 230 255
211 230 255
211 230 255
211 230 255
211 230 255
211 230 255
210 230 255
210 230 255
210 230 255
210 229 255
210 229 255
206 225 238
203 223 226
196 217 198
190 211 161
181 204 133
178 200 76
173 197 0
172 195 0
175 198 0
174 197 0
172 195 0
174 197 0
172 196 0
174 197 0
176 199 0
171 195 0
174 197 0
178 199 0
174 197 0
174 197 0
174 196 0
173 196 0
173 197 0
174 197 0
172 196 0
171 195 0
172 196 0
172 195 0
172 196 0
174 197 0
171 195 0
174 197 0
174 197 0
171 195 0
174 197 0
174 197 0
173 196 0
173 196 0
173 197 0
173 196 0
174 197 0
173 196 0
174 197 0
173 196 0
174 197 0
175 198 0
174 197 0
175 198 0
176 199 51
184 206 122
187 209 157
194 216 196
199 220 221
202 223 236
208 228 255
208 228 255
208 228 255
208 228 255
207 228 255
207 228 255
207 228 255
207 228 255
207 228 255
207 228 255
207 228 255
207 228 255
207 228 255
207 228 255
207 228 255
207 228 255
207 228 255
207 228 255
207 227 255
207 227 255
207 227 255
207 227 255
206 227 255
206 227 255
206 227 255
206 227 255
206 227 255
206 227 255
206 227 255
206 227 255
206 227 255
206 227 255
206 227 255
206 227 255
206 227 255
206 227 255
206 227 255
206 227 255
206 227 255
205 227 255
205 227 255
205 227 255
205 227 255
205 227 255
205 227 255
205 227 255
205 227 255
205 227 255
205 227 255
205 227 255
205 226 255
205 226 255
205 226 255
205 226 255
205 226 255
205 226 255
205 226 255
204 226 255
204 226 255
204 226 255
204 226 255
204 226 255
204 226 255
204 226 255
204 226 255
204 226 255
204 226 255
204 226 255
204 226 255
204 226 255
204 226 255
204 226 255
204 226 255
204 226 255
204 226 255
204 226 255
204 226 255
203 226 255
203 226 255
203 226 255
203 226 255
203 226 255
203 226 255
203 226 255
203 226 255
203 226 255
203 226 255
203 225 255
203 225 255
203 225 255
203 225 255
203 225 255
203 225 255
203 225 255
203 225 255
203 225 255
203 225 255
203 225 255
203 225 255
203 225 255
203 225 255
203 225 255
203 225 255
203 225 255
203 225 255
203 225 255
203 225 255
202 225 255
202 225 255
202 225 255
202 225 255
202 225 255
202 225 255
202 225 255
202 225 255
202 225 255
202 225 255
202 225 255
202 225 255
202 225 255
202 225 255
202 225 255
202 225 255
202 225 255
202 225 255
202 225 255
202 225 255
202 225 255
202 225 255
202 225 255
202 225 255
202 225 255
202 225 255
202 225 255
202 225 255
202 225 255
202 225 255
202 225 255
202 225 255
203 225 255
203 225 255
203 225 255
203 225 255
203 225 255
203 225 255
203 225 255
203 225 255
203 225 255
203 225 255
203 225 255
203 225 255
203 225 255
203 225 255
203 225 255
203 225 255
203 225 255
203 225 255
203 225 255
203 225 255
203 226 255
203 226 255
203 226 255
203 226 255
203 226 255
203 226 255
203 226 255
203 226 255
203 226 255
203 226 255
204 226 255
204 226 255
204 226 255
204 226 255
204 226 255
204 226 255
204 226 255
204 226 255
204 226 255
204 226 255
204 226 255
204 226 255
204 226 255
204 226 255
204 226 255
204 226 255
204 226 255
204 226 255
204 226 255
204 226 255
205 226 255
205 226 255
205 226 255
205 226 255
205 226 255
205 226 255
205 226 255
205 227 255
205 227 255
205 227 255
205 227 255
205 227 255
205 227 255
205 227 255
205 227 255
205 227 255
205 227 255
205 227 255
206 227 255
206 227 255
206 227 255
206 227 255
206 227 255
206 227 255
206 227 255
206 227 255
206 227 255
206 227 255
206 227 255
206 227 255
206 227 255
206 227 255
206 227 255
206 227 255
206 227 255
207 227 255
207 227 255
207 227 255
207 227 255
207 228 255
207 228 255
207 228 255
207 228 255
207 228 255
207 228 255
207 228 255
207 228 255
207 228 255
207 228 255
207 228 255
207 228 255
207 228 255
207 228 255
208 228 255
208 228 255
208 228 255
208 228 255
206 225 251
193 210 230
173 187 199
171 182 187
162 168 156
135 136 106
130 129 86
125 125 84
132 130 87
143 140 93
138 137 92
136 133 89
132 130 87
133 130 87
133 131 87
132 131 87
140 137 91
137 135 90
129 127 84
144 141 94
127 126 84
140 137 91
134 132 87
131 129 86
142 140 93
141 139 93
143 140 93
131 128 84
143 140 93
138 136 90
133 131 86
139 137 90
140 137 90
131 129 86
132 130 85
131 128 84
138 135 89
128 126 84
140 138 91
138 135 89
140 137 90
136 132 87
130 127 84
129 127 83
139 136 90
135 132 87
131 128 84
125 121 78
141 143 120
146 149 129
158 165 160
181 192 196
190 204 217
203 220 242
210 229 255
210 229 255
210 230 255
210 230 255
210 230 255
211 230 255
211 230 255
211 230 255
211 230 255
211 230 255
211 230 255
211 230 255
211 230 255
211 230 255
211 230 255
211 230 255
211 230 255
211 230 255
211 230 255
211 230 255
211 230 255
211 230 255
211 230 255
211 230 255
211 230 255
211 230 255
211 230 255
211 230 255
211 230 255
211 230 255
211 230 255
211 230 255
211 230 255
211 230 255
211 230 255
211 230 255
211 230 255
211 230 255
211 230 255
211 230 255
211 230 255
207 227 244
198 218 211
196 216 194
185 208 140
174 198 62
171 195 0
172 195 0
173 196 0
172 196 0
175 198 0
172 195 0
173 196 0
172 195 0
174 197 0
174 197 0
174 197 0
175 198 0
171 195 0
176 198 0
174 197 0
173 197 0
172 196 0
173 197 0
175 198 0
176 198 0
173 196 0
171 195 0
173 196 0
174 197 0
172 197 0
171 195 0
174 197 0
171 194 0
173 196 0
175 198 0
174 197 0
174 198 0
173 196 0
172 196 0
172 197 0
171 195 0
172 195 0
172 195 0
172 196 0
174 197 0
173 197 0
174 197 0
172 197 0
174 198 0
174 197 0
174 197 0
173 197 0
174 197 0
176 198 0
174 197 0
173 196 0
174 197 0
173 197 0
172 195 0
177 200 67
186 207 137
191 213 181
198 219 214
204 225 241
208 228 255
208 228 255
208 228 255
207 228 255
207 228 255
207 228 255
207 228 255
207 228 255
207 228 255
207 228 255
207 228 255
207 228 255
207 228 255
207 228 255
207 228 255
207 228 255
207 227 255
207 227 255
207 227 255
207 227 255
207 227 255
206 227 255
206 227 255
206 227 255
206 227 255
206 227 255
206 227 255
206 227 255
206 227 255
206 227 255
206 227 255
206 227 255
206 227 255
206 227 255
206 227 255
206 227 255
206 227 255
206 227 255
205 227 255
205 227 255
205 227 255
205 227 255
205 227 255
205 227 255
205 227 255
205 227 255
205 227 255
205 227 255
205 227 255
205 226 255
205 226 255
205 226 255
205 226 255
205 226 255
205 226 255
205 226 255
204 226 255
204 226 255
204 226 255
204 226 255
204 226 255
204 226 255
204 226 255
204 226 255
204 226 255
204 226 255
204 226 255
204 226 255
204 226 255
204 226 255
204 226 255
204 226 255
204 226 255
204 226 255
204 226 255
204 226 255
204 226 255
203 226 255
203 226 255
203 226 255
203 226 255
203 226 255
203 226 255
203 226 255
203 226 255
203 226 255
203 226 255
203 226 255
203 226 255
203 225 255
203 225 255
203 225 255
203 225 255
203 225 255
203 225 255
203 225 255
203 225 255
203 225 255
203 225 255
203 225 255
203 225 255
203 225 255
203 225 255
203 225 255
203 225 255
203 225 255
203 225 255
203 225 255
203 225 255
203 225 255
203 225 255
203 225 255
203 225 255
203 225 255
203 225 255
203 225 255
203 225 255
203 225 255
203 225 255
203 225 255
203 225 255
203 225 255
203 225 255
203 225 255
203 225 255
203 225 255
203 225 255
203 225 255
203 225 255
203 225 255
203 225 255
203 225 255
203 225 255
203 225 255
203 225 255
203 225 255
203 225 255
203 225 255
203 225 255
203 225 255
203 225 255
203 225 255
203 225 255
203 225 255
203 225 255
203 225 255
203 225 255
203 226 255
203 226 255
203 226 255
203 226 255
203 226 255
203 226 255
203 226 255
203 226 255
203 226 255
203 226 255
203 226 255
203 226 255
204 226 255
204 226 255
204 226 255
204 226 255
204 226 255
204 226 255
204 226 255
204 226 255
204 226 255
204 226 255
204 226 255
204 226 255
204 226 255
204 226 255
204 226 255
204 226 255
204 226 255
204 226 255
204 226 255
204 226 255
204 226 255
205 226 255
205 226 255
205 226 255
205 226 255
205 226 255
205 226 255
205 226 255
205 227 255
205 227 255
205 227 255
205 227 255
205 227 255
205 227 255
205 227 255
205 227 255
205 227 255
205 227 255
205 227 255
206 227 255
206 227 255
206 227 255
206 227 255
206 227 255
206 227 255
206 227 255
206 227 255
206 227 255
206 227 255
206 227 255
206 227 255
206 227 255
206 227 255
206 227 255
206 227 255
206 227 255
207 227 255
207 227 255
207 227 255
207 227 255
207 228 255
207 228 255
207 228 255
207 228 255
207 228 255
207 228 255
207 228 255
207 228 255
207 228 255
207 228 255
207 228 255
207 228 255
207 228 255
207 228 255
208 228 255
208 228 255
208 228 255
202 221 245
187 203 219
180 192 199
154 162 154
135 137 112
140 137 91
135 133 89
132 130 87
138 136 90
129 127 85
135 132 88
136 134 90
127 126 84
124 123 83
131 130 87
143 141 94
137 135 90
133 132 88
129 127 84
129 127 85
130 129 87
143 141 94
131 129 86
138 136 90
150 147 97
138 136 90
135 134 89
137 135 90
133 132 88
146 144 97
139 137 91
142 140 93
138 135 90
134 132 88
140 138 92
139 136 90
137 134 89
134 131 87
146 144 97
138 137 92
139 137 90
149 145 95
139 136 90
132 130 86
138 135 90
136 134 88
137 134 87
132 130 85
133 130 84
126 123 80
138 135 87
130 127 82
139 135 87
128 126 84
130 126 81
136 133 88
135 133 87
119 117 76
141 137 89
138 137 106
161 167 161
176 187 191
178 190 200
201 218 239
211 230 255
211 230 255
211 230 255
211 230 255
211 230 255
211 230 255
211 230 255
211 230 255
211 230 255
211 230 255
211 230 255
211 230 255
211 230 255
211 230 255
211 230 255
211 230 255
211 230 255
211 230 255
211 230 255
211 230 255
211 230 255
211 230 255
211 230 255
211 230 255
211 230 255
211 230 255
211 230 255
211 230 255
211 230 255
211 230 255
211 230 255
211 230 255
205 224 234
192 213 182
186 208 151
175 198 80
173 197 0
172 196 0
169 193 0
173 196 0
172 196 0
173 197 0
172 196 0
173 196 0
171 195 0
173 196 0
171 195 0
173 197 0
174 198 0
172 196 0
175 198 0
173 197 0
172 195 0
171 195 0
173 196 0
173 197 0
172 195 0
171 195 0
174 197 0
174 197 0
174 197 0
172 196 0
175 198 0
173 197 0
172 195 0
174 197 0
174 197 0
175 198 0
172 196 0
172 196 0
172 196 0
174 198 0
173 196 0
173 197 0
174 197 0
176 198 0
175 198 0
175 198 0
174 197 0
174 197 0
171 194 0
174 197 0
175 198 0
174 197 0
172 196 0
172 194 0
175 198 0
174 196 0
173 197 0
176 199 0
173 196 0
174 197 0
174 196 0
171 195 0
174 197 0
174 197 0
174 198 0
174 197 0
174 197 0
174 197 0
181 203 105
188 210 163
196 218 204
205 225 242
208 228 255
208 228 255
208 228 255
207 228 255
207 228 255
207 228 255
207 228 255
207 228 255
207 228 255
207 228 255
207 228 255
207 228 255
207 228 255
207 228 255
207 228 255
207 228 255
207 227 255
207 227 255
207 227 255
207 227 255
206 227 255
206 227 255
206 227 255
206 227 255
206 227 255
206 227 255
206 227 255
206 227 255
206 227 255
206 227 255
206 227 255
206 227 255
206 227 255
206 227 255
206 227 255
206 227 255
206 227 255
206 227 255
205 227 255
205 227 255
205 227 255
205 227 255
205 227 255
205 227 255
205 227 255
205 227 255
205 227 255
205 227 255
205 227 255
205 226 255
205 226 255
205 226 255
205 226 255
205 226 255
205 226 255
205 226 255
205 226 255
204 226 255
204 226 255
204 226 255
204 226 255
204 226 255
204 226 255
204 226 255
204 226 255
204 226 255
204 226 255
204 226 255
204 226 255
204 226 255
204 226 255
204 226 255
204 226 255
204 226 255
204 226 255
204 226 255
204 226 255
204 226 255
204 226 255
203 226 255
203 226 255
203 226 255
203 226 255
203 226 255
203 226 255
203 226 255
203 226 255
203 226 255
203 226 255
203 226 255
203 226 255
203 226 255
203 226 255
203 226 255
203 225 255
203 225 255
203 225 255
203 225 255
203 225 255
203 225 255
203 225 255
203 225 255
203 225 255
203 225 255
203 225 255
203 225 255
203 225 255
203 225 255
203 225 255
203 225 255
203 225 255
203 225 255
203 225 255
203 225 255
203 225 255
203 225 255
203 225 255
203 225 255
203 225 255
203 225 255
203 225 255
203 225 255
203 225 255
203 225 255
203 225 255
203 225 255
203 225 255
203 225 255
203 225 255
203 225 255
203 225 255
203 225 255
203 225 255
203 225 255
203 226 255
203 226 255
203 226 255
203 226 255
203 226 255
203 226 255
203 226 255
203 226 255
203 226 255
203 226 255
203 226 255
203 226 255
203 226 255
203 226 255
203 226 255
204 226 255
204 226 255
204 226 255
204 226 255
204 226 255
204 226 255
204 226 255
204 226 255
204 226 255
204 226 255
204 226 255
204 226 255
204 226 255
204 226 255
204 226 255
204 226 255
204 226 255
204 226 255
204 226 255
204 226 255
204 226 255
204 226 255
204 226 255
205 226 255
205 226 255
205 226 255
205 226 255
205 226 255
205 226 255
205 226 255
205 227 255
205 227 255
205 227 255
205 227 255
205 227 255
205 227 255
205 227 255
205 227 255
205 227 255
205 227 255
205 227 255
206 227 255
206 227 255
206 227 255
206 227 255
206 227 255
206 227 255
206 227 255
206 227 255
206 227 255
206 227 255
206 227 255
206 227 255
206 227 255
206 227 255
206 227 255
206 227 255
206 227 255
206 227 255
207 227 255
207 227 255
207 227 255
207 227 255
207 228 255
207 228 255
207 228 255
207 228 255
207 228 255
207 228 255
207 228 255
207 228 255
207 228 255
207 228 255
207 228 255
207 228 255
207 228 255
207 228 255
208 228 255
207 227 254
198 215 235
181 194 206
169 180 182
136 141 125
140 138 93
132 131 87
123 122 81
128 128 86
138 137 92
137 136 91
137 135 90
123 122 82
139 137 92
135 134 90
134 133 90
129 128 86
127 126 85
141 139 93
139 137 92
131 131 88
141 140 94
139 138 93
140 138 92
138 136 90
133 132 89
141 139 93
132 131 87
133 132 88
136 133 89
140 138 93
141 139 93
142 140 93
138 137 92
140 138 92
141 139 92
143 141 94
137 135 90
144 141 93
143 141 93
148 145 97
140 138 93
132 129 86
146 143 95
140 137 90
149 146 97
138 135 90
137 135 90
140 137 90
135 131 85
137 134 88
142 139 93
134 132 89
132 129 84
130 127 82
140 138 92
129 126 81
134 130 86
134 132 87
138 135 89
128 126 81
138 134 87
135 132 87
133 131 84
136 133 86
134 130 85
124 121 79
140 136 87
127 122 77
146 147 125
151 157 151
180 192 202
198 215 234
211 230 255
211 230 255
211 230 255
211 230 255
211 230 255
211 230 255
211 230 255
211 230 255
211 230 255
211 230 255
211 230 255
211 230 255
211 230 255
211 230 255
212 230 255
212 230 255
212 230 255
212 230 255
211 230 255
211 230 255
211 230 255
211 230 255
211 230 255
211 230 255
209 228 246
197 217 193
190 211 169
178 201 76
172 195 0
173 197 0
173 197 0
171 194 0
171 194 0
171 194 0
172 194 0
172 196 0
173 196 0
172 196 0
174 197 0
172 196 0
170 195 0
173 195 0
173 196 0
172 196 0
174 197 0
172 196 0
174 197 0
173 197 0
173 196 0
172 196 0
173 196 0
174 197 0
174 197 0
175 198 0
173 196 0
174 198 0
174 197 0
175 198 0
172 196 0
173 197 0
173 197 0
173 196 0
172 196 0
173 196 0
173 196 0
174 197 0
173 196 0
174 197 0
172 195 0
175 198 0
173 196 0
172 196 0
172 194 0
172 196 0
172 196 0
173 197 0
173 196 0
175 198 0
173 196 0
175 198 0
173 197 0
174 197 0
172 196 0
172 196 0
173 196 0
176 198 0
175 198 0
174 197 0
174 196 0
175 198 0
174 197 0
174 198 0
175 198 0
175 198 0
176 198 0
176 199 0
175 198 0
170 194 0
176 198 0
172 196 0
179 201 76
187 208 142
195 216 201
205 225 242
208 228 255
208 228 255
207 228 255
207 228 255
207 228 255
207 228 255
207 228 255
207 228 255
207 228 255
207 228 255
207 228 255
207 228 255
207 228 255
207 228 255
207 228 255
207 228 255
207 227 255
207 227 255
207 227 255
207 227 255
206 227 255
206 227 255
206 227 255
206 227 255
206 227 255
206 227 255
206 227 255
206 227 255
206 227 255
206 227 255
206 227 255
206 227 255
206 227 255
206 227 255
206 227 255
206 227 255
206 227 255
206 227 255
205 227 255
205 227 255
205 227 255
205 227 255
205 227 255
205 227 255
205 227 255
205 227 255
205 227 255
205 227 255
205 227 255
205 226 255
205 226 255
205 226 255
205 226 255
205 226 255
205 226 255
205 226 255
205 226 255
204 226 255
204 226 255
204 226 255
204 226 255
204 226 255
204 226 255
204 226 255
204 226 255
204 226 255
204 226 255
204 226 255
204 226 255
204 226 255
204 226 255
204 226 255
204 226 255
204 226 255
204 226 255
204 226 255
204 226 255
204 226 255
204 226 255
204 226 255
204 226 255
204 226 255
204 226 255
203 226 255
203 226 255
203 226 255
203 226 255
203 226 255
203 226 255
203 226 255
203 226 255
203 226 255
203 226 255
203 226 255
203 226 255
203 226 255
203 226 255
203 226 255
203 226 255
203 226 255
203 226 255
203 226 255
203 226 255
203 226 255
203 226 255
203 226 255
203 226 255
203 226 255
203 226 255
203 226 255
203 226 255
203 226 255
203 226 255
203 226 255
203 226 255
203 226 255
203 226 255
203 226 255
203 226 255
203 226 255
203 226 255
203 226 255
203 226 255
203 226 255
203 226 255
203 226 255
203 226 255
203 226 255
203 226 255
203 226 255
203 226 255
203 226 255
203 226 255
203 226 255
203 226 255
203 226 255
203 226 255
203 226 255
204 226 255
204 226 255
204 226 255
204 226 255
204 226 255
204 226 255
204 226 255
204 226 255
204 226 255
204 226 255
204 226 255
204 226 255
204 226 255
204 226 255
204 226 255
204 226 255
204 226 255
204 226 255
204 226 255
204 226 255
204 226 255
204 226 255
204 226 255
204 226 255
204 226 255
205 226 255
205 226 255
205 226 255
205 226 255
205 226 255
205 226 255
205 226 255
205 226 255
205 227 255
205 227 255
205 227 255
205 227 255
205 227 255
205 227 255
205 227 255
205 227 255
205 227 255
205 227 255
205 227 255
206 227 255
206 227 255
206 227 255
206 227 255
206 227 255
206 227 255
206 227 255
206 227 255
206 227 255
206 227 255
206 227 255
206 227 255
206 227 255
206 227 255
206 227 255
206 227 255
206 227 255
206 227 255
207 227 255
207 227 255
207 227 255
207 227 255
207 228 255
207 228 255
207 228 255
207 228 255
207 228 255
207 228 255
207 228 255
207 228 255
207 228 255
207 228 255
207 228 255
207 228 255
207 228 255
207 228 255
208 228 255
208 228 255
204 223 250
184 198 207
163 171 167
147 148 118
135 133 89
119 118 79
135 133 89
137 136 91
129 127 85
131 129 87
136 136 91
134 132 88
137 136 92
136 134 90
134 133 89
126 125 84
125 125 84
139 137 92
142 140 94
141 140 94
147 146 98
138 137 92
140 138 93
142 140 94
133 132 88
139 138 93
143 142 95
140 138 93
141 139 93
139 138 92
136 134 90
141 139 93
146 144 97
142 141 95
143 142 95
138 136 91
137 136 91
144 142 95
147 145 97
136 132 87
148 146 97
141 139 93
136 134 90
140 137 91
138 136 91
146 143 95
144 141 94
143 141 93
144 141 93
140 136 89
135 133 87
139 136 89
148 144 94
140 137 90
139 137 90
140 138 92
137 134 88
140 139 91
135 132 87
136 133 86
134 132 87
144 140 92
143 140 93
129 127 84
140 137 90
140 137 91
136 132 85
124 122 80
136 132 86
135 131 84
135 132 84
143 139 88
136 132 85
134 131 84
130 127 81
131 127 84
142 142 112
165 173 168
183 197 210
201 218 241
211 230 255
211 230 255
211 230 255
211 230 255
211 230 255
211 230 255
212 230 255
212 230 255
212 230 255
212 230 255
212 230 255
212 230 255
212 230 255
212 230 255
212 230 255
212 230 255
212 230 255
205 225 234
192 213 184
182 205 114
173 195 0
174 197 0
173 196 0
171 194 0
171 194 0
171 194 0
171 195 0
174 197 0
171 195 0
173 196 0
173 196 0
172 196 0
173 195 0
172 196 0
172 196 0
170 194 0
171 195 0
174 198 0
172 196 0
171 194 0
171 195 0
175 198 0
173 197 0
173 196 0
175 198 0
172 196 0
171 196 0
175 197 0
173 197 0
174 197 0
172 196 0
176 199 0
173 197 0
174 198 0
174 197 0
176 198 0
170 194 0
175 198 0
173 197 0
171 194 0
173 196 0
171 195 0
174 197 0
172 196 0
174 197 0
174 196 0
173 197 0
172 196 0
176 198 0
174 197 0
174 197 0
173 197 0
175 198 0
174 197 0
174 197 0
175 198 0
172 196 0
174 197 0
173 197 0
172 196 0
175 198 0
173 197 0
173 197 0
172 197 0
175 198 0
174 197 0
174 197 0
174 197 0
172 196 0
173 196 0
172 197 0
173 196 0
173 197 0
173 197 0
173 197 0
173 197 0
176 199 0
175 198 0
172 196 0
172 196 0
185 207 137
193 214 182
202 222 230
207 228 254
208 228 255
208 228 255
207 228 255
207 228 255
207 228 255
207 228 255
207 228 255
207 228 255
207 228 255
207 228 255
207 228 255
207 228 255
207 228 255
207 228 255
207 228 255
207 228 255
207 227 255
207 227 255
207 227 255
207 227 255
206 227 255
206 227 255
206 227 255
206 227 255
206 227 255
206 227 255
206 227 255
206 227 255
206 227 255
206 227 255
206 227 255
206 227 255
206 227 255
206 227 255
206 227 255
206 227 255
206 227 255
206 227 255
205 227 255
205 227 255
205 227 255
205 227 255
205 227 255
205 227 255
205 227 255
205 227 255
205 227 255
205 227 255
205 227 255
205 227 255
205 226 255
205 226 255
205 226 255
205 226 255
205 226 255
205 226 255
205 226 255
205 226 255
205 226 255
204 226 255
204 226 255
204 226 255
204 226 255
204 226 255
204 226 255
204 226 255
204 226 255
204 226 255
204 226 255
204 226 255
204 226 255
204 226 255
204 226 255
204 226 255
204 226 255
204 226 255
204 226 255
204 226 255
204 226 255
204 226 255
204 226 255
204 226 255
204 226 255
204 226 255
204 226 255
204 226 255
204 226 255
204 226 255
203 226 255
203 226 255
203 226 255
203 226 255
203 226 255
203 226 255
203 226 255
203 226 255
203 226 255
203 226 255
203 226 255
203 226 255
203 226 255
203 226 255
203 226 255
203 226 255
203 226 255
203 226 255
203 226 255
203 226 255
203 226 255
203 226 255
203 226 255
203 226 255
203 226 255
203 226 255
203 226 255
203 226 255
203 226 255
203 226 255
203 226 255
203 226 255
203 226 255
203 226 255
203 226 255
204 226 255
204 226 255
204 226 255
204 226 255
204 226 255
204 226 255
204 226 255
204 226 255
204 226 255
204 226 255
204 226 255
204 226 255
204 226 255
204 226 255
204 226 255
204 226 255
204 226 255
204 226 255
204 226 255
204 226 255
204 226 255
204 226 255
204 226 255
204 226 255
204 226 255
204 226 255
204 226 255
204 226 255
204 226 255
204 226 255
205 226 255
205 226 255
205 226 255
205 226 255
205 226 255
205 226 255
205 226 255
205 226 255
205 226 255
205 227 255
205 227 255
205 227 255
205 227 255
205 227 255
205 227 255
205 227 255
205 227 255
205 227 255
205 227 255
205 227 255
205 227 255
206 227 255
206 227 255
206 227 255
206 227 255
206 227 255
206 227 255
206 227 255
206 227 255
206 227 255
206 227 255
206 227 255
206 227 255
206 227 255
206 227 255
206 227 255
206 227 255
206 227 255
206 227 255
207 227 255
207 227 255
207 227 255
207 227 255
207 228 255
207 228 255
207 228 255
207 228 255
207 228 255
207 228 255
207 228 255
207 228 255
207 228 255
207 228 255
207 228 255
207 228 255
207 228 255
207 228 255
208 228 255
208 228 255
208 228 255
198 216 237
173 184 186
146 151 138
136 134 92
130 128 85
129 128 85
128 126 84
135 134 90
139 138 93
134 133 89
130 129 86
141 139 93
138 137 92
146 145 97
136 135 90
143 141 95
144 142 95
138 136 91
140 139 93
147 146 98
138 137 92
140 139 94
139 137 92
144 142 95
148 146 98
151 149 99
136 135 91
148 146 98
141 140 94
134 133 89
149 147 98
134 133 89
139 137 91
143 142 95
143 140 93
138 136 90
146 144 96
146 144 97
147 145 97
142 140 94
143 140 93
136 134 90
138 137 92
148 145 97
134 133 89
139 138 93
133 131 87
138 136 90
136 134 89
142 139 91
143 140 93
143 140 93
147 144 95
144 142 95
142 140 93
141 139 91
132 129 85
146 144 94
143 141 93
140 136 89
139 137 89
144 141 90
142 139 90
144 140 91
141 137 87
140 137 90
135 131 85
139 137 89
139 135 89
138 136 88
135 132 86
149 144 93
130 126 83
148 144 93
142 139 92
145 141 93
135 132 86
129 126 81
140 135 85
137 132 84
130 126 82
133 130 85
130 126 81
152 154 135
173 182 183
200 217 236
212 230 255
212 230 255
212 230 255
212 230 255
212 230 255
212 230 255
212 230 255
212 230 255
212 230 255
212 230 255
212 230 254
202 222 218
189 210 165
179 202 105
171 195 0
171 194 0
176 199 0
173 196 0
173 196 0
173 195 0
173 197 0
173 197 0
173 197 0
171 195 0
173 197 0
175 197 0
171 195 0
174 197 0
175 197 0
174 197 0
175 198 0
175 198 0
173 196 0
174 197 0
174 197 0
174 197 0
175 198 0
172 196 0
175 197 0
170 195 0
174 197 0
174 197 0
173 197 0
174 198 0
174 196 0
174 197 0
175 198 0
174 197 0
174 198 0
172 196 0
173 196 0
174 197 0
173 197 0
173 196 0
172 196 0
173 197 0
174 196 0
175 198 0
174 197 0
174 198 0
173 196 0
173 196 0
174 198 0
172 196 0
174 197 0
172 196 0
173 197 0
173 197 0
174 197 0
175 197 0
173 197 0
172 196 0
175 198 0
174 197 0
172 196 0
173 197 0
174 196 0
175 198 0
174 198 0
172 196 0
170 194 0
173 197 0
174 198 0
171 194 0
174 197 0
172 196 0
174 197 0
176 198 0
171 195 0
174 198 0
172 195 0
173 196 0
173 197 0
172 195 0
173 197 0
174 197 0
172 196 0
172 196 0
174 196 0
173 197 0
181 203 102
190 212 163
204 225 238
208 228 255
208 228 255
208 228 255
208 228 255
207 228 255
207 228 255
207 228 255
207 228 255
207 228 255
207 228 255
207 228 255
207 228 255
207 228 255
207 228 255
207 228 255
207 228 255
207 228 255
207 228 255
207 227 255
207 227 255
207 227 255
207 227 255
206 227 255
206 227 255
206 227 255
206 227 255
206 227 255
206 227 255
206 227 255
206 227 255
206 227 255
206 227 255
206 227 255
206 227 255
206 227 255
206 227 255
206 227 255
206 227 255
206 227 255
206 227 255
206 227 255
205 227 255
205 227 255
205 227 255
205 227 255
205 227 255
205 227 255
205 227 255
205 227 255
205 227 255
205 227 255
205 227 255
205 227 255
205 226 255
205 226 255
205 226 255
205 226 255
205 226 255
205 226 255
205 226 255
205 226 255
205 226 255
204 226 255
204 226 255
204 226 255
204 226 255
204 226 255
204 226 255
204 226 255
204 226 255
204 226 255
204 226 255
204 226 255
204 226 255
204 226 255
204 226 255
204 226 255
204 226 255
204 226 255
204 226 255
204 226 255
204 226 255
204 226 255
204 226 255
204 226 255
204 226 255
204 226 255
204 226 255
204 226 255
204 226 255
204 226 255
204 226 255
204 226 255
204 226 255
204 226 255
204 226 255
204 226 255
204 226 255
204 226 255
204 226 255
204 226 255
204 226 255
204 226 255
204 226 255
204 226 255
204 226 255
204 226 255
204 226 255
204 226 255
204 226 255
204 226 255
204 226 255
204 226 255
204 226 255
204 226 255
204 226 255
204 226 255
204 226 255
204 226 255
204 226 255
204 226 255
204 226 255
204 226 255
204 226 255
204 226 255
204 226 255
204 226 255
204 226 255
204 226 255
204 226 255
204 226 255
204 226 255
204 226 255
204 226 255
204 226 255
204 226 255
204 226 255
204 226 255
204 226 255
204 226 255
204 226 255
204 226 255
204 226 255
204 226 255
204 226 255
204 226 255
205 226 255
205 226 255
205 226 255
205 226 255
205 226 255
205 226 255
205 226 255
205 226 255
205 226 255
205 227 255
205 227 255
205 227 255
205 227 255
205 227 255
205 227 255
205 227 255
205 227 255
205 227 255
205 227 255
205 227 255
205 227 255
206 227 255
206 227 255
206 227 255
206 227 255
206 227 255
206 227 255
206 227 255
206 227 255
206 227 255
206 227 255
206 227 255
206 227 255
206 227 255
206 227 255
206 227 255
206 227 255
206 227 255
206 227 255
206 227 255
207 227 255
207 227 255
207 227 255
207 227 255
207 228 255
207 228 255
207 228 255
207 228 255
207 228 255
207 228 255
207 228 255
207 228 255
207 228 255
207 228 255
207 228 255
207 228 255
207 228 255
207 228 255
208 228 255
208 228 255
208 228 255
208 228 254
194 212 232
158 168 169
129 130 104
131 129 86
130 127 84
125 123 82
138 137 92
129 128 86
133 132 88
130 129 87
142 141 95
136 135 90
134 133 90
137 135 90
144 142 95
139 137 92
135 134 90
149 147 99
146 145 97
144 142 95
133 132 89
145 143 96
133 132 88
140 138 93
151 149 99
144 142 95
140 139 93
138 136 91
145 143 96
143 142 95
146 144 97
137 136 91
144 142 95
145 143 96
142 141 95
134 132 88
148 146 98
142 140 93
147 145 96
143 141 94
146 144 97
153 151 101
147 144 96
148 146 97
151 149 99
145 143 95
133 131 87
140 138 93
149 146 97
142 140 93
142 139 90
147 144 95
146 144 95
143 141 93
144 141 92
145 143 94
143 140 93
141 138 89
147 145 96
147 145 97
136 133 88
139 137 91
143 140 91
145 140 91
141 138 90
136 134 90
145 142 94
132 129 84
135 132 85
142 139 93
140 138 90
137 134 87
139 135 88
140 137 87
137 132 85
145 141 92
140 136 90
136 133 87
134 130 84
130 127 84
131 128 82
131 127 84
126 124 80
130 127 84
144 141 90
148 144 93
138 134 86
138 134 86
128 124 75
141 141 113
171 179 177
192 207 225
212 230 255
212 230 255
212 230 255
212 230 255
212 230 255
206 225 230
190 210 167
179 202 88
170 194 0
173 195 0
173 196 0
172 196 0
172 196 0
172 195 0
173 197 0
172 195 0
171 194 0
173 197 0
172 196 0
172 195 0
174 197 0
174 197 0
173 196 0
172 196 0
173 196 0
173 195 0
175 198 0
174 197 0
175 198 0
175 198 0
173 196 0
173 197 0
173 196 0
173 196 0
174 197 0
173 197 0
174 198 0
175 198 0
175 198 0
174 197 0
171 195 0
172 196 0
173 197 0
174 197 0
175 198 0
173 197 0
175 198 0
175 198 0
174 197 0
174 198 0
175 198 0
174 197 0
174 197 0
172 195 0
176 198 0
174 197 0
173 197 0
175 198 0
176 199 0
175 198 0
174 197 0
174 197 0
174 197 0
174 197 0
174 197 0
174 198 0
174 198 0
174 197 0
173 197 0
172 196 0
173 197 0
172 195 0
175 198 0
174 198 0
174 197 0
173 196 0
171 195 0
173 197 0
174 198 0
172 196 0
174 198 0
173 197 0
173 197 0
173 196 0
174 196 0
173 197 0
175 198 0
171 195 0
174 197 0
174 197 0
172 196 0
172 195 0
174 198 0
175 198 0
173 197 0
175 198 0
173 197 0
173 197 0
175 198 0
172 195 0
180 202 95
191 212 177
203 224 234
208 228 255
208 228 255
208 228 255
208 228 255
208 228 255
207 228 255
207 228 255
207 228 255
207 228 255
207 228 255
207 228 255
207 228 255
207 228 255
207 228 255
207 228 255
207 228 255
207 228 255
207 228 255
207 228 255
207 227 255
207 227 255
207 227 255
207 227 255
206 227 255
206 227 255
206 227 255
206 227 255
206 227 255
206 227 255
206 227 255
206 227 255
206 227 255
206 227 255
206 227 255
206 227 255
206 227 255
206 227 255
206 227 255
206 227 255
206 227 255
206 227 255
206 227 255
205 227 255
205 227 255
205 227 255
205 227 255
205 227 255
205 227 255
205 227 255
205 227 255
205 227 255
205 227 255
205 227 255
205 227 255
205 227 255
205 226 255
205 226 255
205 226 255
205 226 255
205 226 255
205 226 255
205 226 255
205 226 255
205 226 255
205 226 255
204 226 255
204 226 255
204 226 255
204 226 255
204 226 255
204 226 255
204 226 255
204 226 255
204 226 255
204 226 255
204 226 255
204 226 255
204 226 255
204 226 255
204 226 255
204 226 255
204 226 255
204 226 255
204 226 255
204 226 255
204 226 255
204 226 255
204 226 255
204 226 255
204 226 255
204 226 255
204 226 255
204 226 255
204 226 255
204 226 255
204 226 255
204 226 255
204 226 255
204 226 255
204 226 255
204 226 255
204 226 255
204 226 255
204 226 255
204 226 255
204 226 255
204 226 255
204 226 255
204 226 255
204 226 255
204 226 255
204 226 255
204 226 255
204 226 255
204 226 255
204 226 255
204 226 255
204 226 255
204 226 255
204 226 255
204 226 255
204 226 255
204 226 255
204 226 255
204 226 255
204 226 255
204 226 255
204 226 255
204 226 255
204 226 255
204 226 255
204 226 255
204 226 255
204 226 255
204 226 255
204 226 255
204 226 255
205 226 255
205 226 255
205 226 255
205 226 255
205 226 255
205 226 255
205 226 255
205 226 255
205 226 255
205 226 255
205 227 255
205 227 255
205 227 255
205 227 255
205 227 255
205 227 255
205 227 255
205 227 255
205 227 255
205 227 255
205 227 255
205 227 255
205 227 255
206 227 255
206 227 255
206 227 255
206 227 255
206 227 255
206 227 255
206 227 255
206 227 255
206 227 255
206 227 255
206 227 255
206 227 255
206 227 255
206 227 255
206 227 255
206 227 255
206 227 255
206 227 255
206 227 255
207 227 255
207 227 255
207 227 255
207 227 255
207 228 255
207 228 255
207 228 255
207 228 255
207 228 255
207 228 255
207 228 255
207 228 255
207 228 255
207 228 255
207 228 255
207 228 255
207 228 255
207 228 255
208 228 255
208 228 255
208 228 255
208 228 255
208 228 255
195 212 232
166 177 181
132 133 110
128 126 84
124 123 82
136 136 91
129 127 85
144 142 95
133 131 88
138 137 92
136 136 91
145 143 95
137 136 91
142 141 95
135 134 90
140 140 94
145 144 97
144 142 95
141 140 94
133 132 89
141 140 94
143 142 95
146 145 97
145 144 96
146 145 97
145 143 96
142 140 94
145 143 95
144 143 97
147 146 98
142 141 95
152 151 102
147 145 97
154 152 101
140 138 93
141 141 95
144 142 95
150 148 99
142 140 94
147 145 97
138 136 91
154 151 101
144 142 95
144 142 95
138 136 91
144 142 95
145 143 96
147 146 97
141 138 92
151 149 99
145 142 94
153 150 100
153 151 100
151 148 98
149 146 97
147 144 96
144 142 95
150 147 97
146 144 96
145 141 93
155 151 99
149 146 97
144 141 93
137 136 90
134 131 86
142 140 93
146 142 93
148 145 95
140 137 90
137 134 89
145 142 93
145 142 93
142 139 90
146 143 94
142 139 90
143 140 93
148 144 94
139 136 89
143 139 90
131 128 82
141 137 90
137 134 87
139 136 90
139 136 88
151 146 93
137 134 86
134 130 83
132 128 84
133 130 81
131 128 82
137 133 85
128 125 80
134 131 85
143 139 90
137 133 85
131 131 103
179 191 197
199 215 236
212 230 255
176 198 102
169 192 0
172 195 0
172 195 0
173 196 0
171 195 0
173 196 0
171 194 0
173 196 0
174 197 0
173 197 0
174 196 0
172 196 0
172 196 0
173 196 0
174 197 0
171 195 0
173 196 0
172 196 0
174 197 0
175 198 0
176 199 0
175 198 0
173 196 0
173 196 0
175 198 0
174 198 0
174 197 0
173 197 0
174 197 0
173 197 0
175 198 0
171 195 0
174 198 0
172 196 0
176 198 0
174 198 0
173 197 0
173 197 0
172 196 0
173 196 0
173 196 0
175 198 0
174 198 0
174 198 0
175 198 0
172 196 0
174 198 0
173 196 0
172 196 0
172 195 0
175 198 0
173 196 0
173 197 0
175 198 0
173 196 0
174 197 0
173 196 0
174 197 0
173 197 0
174 197 0
174 197 0
174 198 0
176 199 0
173 197 0
176 198 0
173 197 0
176 198 0
173 196 0
172 196 0
175 198 0
173 197 0
174 197 0
173 197 0
172 196 0
174 197 0
174 197 0
174 197 0
169 194 0
174 197 0
173 196 0
173 197 0
174 197 0
173 197 0
172 196 0
174 198 0
173 196 0
174 198 0
174 198 0
175 198 0
173 196 0
175 198 0
174 197 0
173 196 0
176 198 0
175 197 0
174 198 0
175 198 0
174 197 0
183 205 122
192 214 184
206 227 249
208 228 255
208 228 255
208 228 255
208 228 255
208 228 255
208 228 255
207 228 255
207 228 255
207 228 255
207 228 255
207 228 255
207 228 255
207 228 255
207 228 255
207 228 255
207 228 255
207 228 255
207 228 255
207 228 255
207 228 255
207 227 255
207 227 255
207 227 255
207 227 255
206 227 255
206 227 255
206 227 255
206 227 255
206 227 255
206 227 255
206 227 255
206 227 255
206 227 255
206 227 255
206 227 255
206 227 255
206 227 255
206 227 255
206 227 255
206 227 255
206 227 255
206 227 255
206 227 255
206 227 255
205 227 255
205 227 255
205 227 255
205 227 255
205 227 255
205 227 255
205 227 255
205 227 255
205 227 255
205 227 255
205 227 255
205 227 255
205 227 255
205 227 255
205 226 255
205 226 255
205 226 255
205 226 255
205 226 255
205 226 255
205 226 255
205 226 255
205 226 255
205 226 255
205 226 255
205 226 255
204 226 255
204 226 255
204 226 255
204 226 255
204 226 255
204 226 255
204 226 255
204 226 255
204 226 255
204 226 255
204 226 255
204 226 255
204 226 255
204 226 255
204 226 255
204 226 255
204 226 255
204 226 255
204 226 255
204 226 255
204 226 255
204 226 255
204 226 255
204 226 255
204 226 255
204 226 255
204 226 255
204 226 255
204 226 255
204 226 255
204 226 255
204 226 255
204 226 255
204 226 255
204 226 255
204 226 255
204 226 255
204 226 255
204 226 255
204 226 255
204 226 255
204 226 255
204 226 255
204 226 255
204 226 255
204 226 255
204 226 255
204 226 255
204 226 255
204 226 255
204 226 255
204 226 255
204 226 255
204 226 255
204 226 255
204 226 255
205 226 255
205 226 255
205 226 255
205 226 255
205 226 255
205 226 255
205 226 255
205 226 255
205 226 255
205 226 255
205 226 255
205 226 255
205 227 255
205 227 255
205 227 255
205 227 255
205 227 255
205 227 255
205 227 255
205 227 255
205 227 255
205 227 255
205 227 255
205 227 255
205 227 255
205 227 255
206 227 255
206 227 255
206 227 255
206 227 255
206 227 255
206 227 255
206 227 255
206 227 255
206 227 255
206 227 255
206 227 255
206 227 255
206 227 255
206 227 255
206 227 255
206 227 255
206 227 255
206 227 255
206 227 255
206 227 255
207 227 255
207 227 255
207 227 255
207 227 255
207 228 255
207 228 255
207 228 255
207 228 255
207 228 255
207 228 255
207 228 255
207 228 255
207 228 255
207 228 255
207 228 255
207 228 255
207 228 255
207 228 255
208 228 255
208 228 255
208 228 255
208 228 255
208 228 255
208 228 255
203 222 247
174 187 195
150 156 145
123 122 81
135 133 89
136 135 90
138 137 92
131 129 86
142 140 94
133 132 88
135 134 90
138 138 93
142 141 95
149 148 99
145 144 97
127 127 85
145 144 97
149 147 99
143 142 95
150 148 99
147 146 98
132 131 88
139 138 93
146 145 97
142 141 95
136 135 90
141 139 93
150 148 99
146 146 98
142 141 95
145 143 96
145 144 97
151 150 101
152 151 101
144 143 96
147 145 97
144 142 95
140 138 93
144 142 95
142 141 94
150 148 99
154 152 101
148 146 98
147 145 96
146 144 97
151 148 99
150 147 98
140 138 93
143 141 93
145 142 95
149 148 99
147 145 97
155 152 101
150 148 99
141 139 93
146 144 96
143 141 93
148 146 96
145 143 95
143 140 93
151 147 96
148 145 96
145 143 93
159 157 104
154 151 99
141 139 92
142 140 92
141 138 91
141 138 90
146 144 94
138 136 91
153 150 99
138 135 89
141 138 90
145 141 93
140 136 90
145 141 93
148 144 95
140 137 89
147 144 95
135 132 85
138 134 84
137 134 87
144 139 90
145 143 94
141 137 88
136 133 84
140 136 88
131 127 83
134 130 83
132 128 83
143 140 90
134 130 82
132 128 80
137 133 86
135 132 84
131 128 81
124 120 77
131 127 80
125 121 75
129 125 80
159 162 140
173 197 0
173 196 0
172 196 0
173 196 0
170 194 0
174 197 0
173 196 0
172 196 0
171 194 0
175 198 0
174 197 0
174 197 0
172 196 0
177 199 0
172 196 0
173 197 0
173 197 0
172 196 0
173 197 0
173 196 0
174 198 0
175 198 0
172 196 0
172 196 0
173 197 0
173 196 0
173 197 0
171 196 0
173 197 0
172 196 0
174 198 0
173 197 0
174 197 0
170 194 0
174 197 0
174 197 0
173 197 0
174 197 0
174 197 0
175 198 0
172 196 0
173 197 0
174 198 0
175 197 0
173 197 0
172 195 0
174 198 0
172 196 0
174 197 0
173 196 0
175 198 0
174 198 0
172 196 0
175 198 0
175 198 0
173 196 0
174 198 0
173 197 0
175 198 0
175 198 0
174 197 0
174 197 0
174 198 0
175 198 0
172 196 0
174 198 0
174 197 0
171 195 0
173 197 0
173 197 0
176 198 0
173 197 0
174 198 0
175 198 0
176 198 0
175 198 0
174 197 0
173 197 0
175 198 0
174 198 0
174 197 0
175 198 0
171 195 0
174 197 0
174 198 0
172 196 0
176 199 0
176 199 0
172 196 0
173 197 0
175 198 0
174 198 0
174 197 0
175 198 0
172 196 0
174 197 0
174 197 0
175 198 0
173 196 0
174 197 0
174 198 0
180 201 67
186 209 149
203 224 236
208 228 255
208 228 255
208 228 255
208 228 255
208 228 255
208 228 255
208 228 255
208 228 255
207 228 255
207 228 255
207 228 255
207 228 255
207 228 255
207 228 255
207 228 255
207 228 255
207 228 255
207 228 255
207 228 255
207 228 255
207 228 255
207 228 255
207 227 255
207 227 255
207 227 255
207 227 255
207 227 255
206 227 255
206 227 255
206 227 255
206 227 255
206 227 255
206 227 255
206 227 255
206 227 255
206 227 255
206 227 255
206 227 255
206 227 255
206 227 255
206 227 255
206 227 255
206 227 255
206 227 255
206 227 255
206 227 255
206 227 255
205 227 255
205 227 255
205 227 255
205 227 255
205 227 255
205 227 255
205 227 255
205 227 255
205 227 255
205 227 255
205 227 255
205 227 255
205 227 255
205 227 255
205 227 255
205 227 255
205 226 255
205 226 255
205 226 255
205 226 255
205 226 255
205 226 255
205 226 255
205 226 255
205 226 255
205 226 255
205 226 255
205 226 255
205 226 255
205 226 255
205 226 255
204 226 255
204 226 255
204 226 255
204 226 255
204 226 255
204 226 255
204 226 255
204 226 255
204 226 255
204 226 255
204 226 255
204 226 255
204 226 255
204 226 255
204 226 255
204 226 255
204 226 255
204 226 255
204 226 255
204 226 255
204 226 255
204 226 255
204 226 255
204 226 255
204 226 255
204 226 255
204 226 255
204 226 255
204 226 255
204 226 255
204 226 255
204 226 255
204 226 255
204 226 255
204 226 255
205 226 255
205 226 255
205 226 255
205 226 255
205 226 255
205 226 255
205 226 255
205 226 255
205 226 255
205 226 255
205 226 255
205 226 255
205 226 255
205 226 255
205 226 255
205 226 255
205 227 255
205 227 255
205 227 255
205 227 255
205 227 255
205 227 255
205 227 255
205 227 255
205 227 255
205 227 255
205 227 255
205 227 255
205 227 255
205 227 255
205 227 255
206 227 255
206 227 255
206 227 255
206 227 255
206 227 255
206 227 255
206 227 255
206 227 255
206 227 255
206 227 255
206 227 255
206 227 255
206 227 255
206 227 255
206 227 255
206 227 255
206 227 255
206 227 255
206 227 255
206 227 255
206 227 255
207 227 255
207 227 255
207 227 255
207 227 255
207 227 255
207 228 255
207 228 255
207 228 255
207 228 255
207 228 255
207 228 255
207 228 255
207 228 255
207 228 255
207 228 255
207 228 255
207 228 255
207 228 255
207 228 255
208 228 255
208 228 255
208 228 255
208 228 255
208 228 255
208 228 255
208 228 255
208 228 255
199 218 240
159 168 166
136 135 99
135 133 88
129 127 85
137 136 91
146 144 97
140 139 93
138 136 91
141 139 93
140 138 93
140 139 93
136 135 91
135 134 90
142 140 94
145 144 97
142 141 95
147 147 99
148 147 99
144 143 96
144 143 96
127 125 84
145 144 97
141 139 93
146 144 97
146 145 97
147 146 99
147 146 98
139 137 92
154 152 102
145 143 96
143 142 95
151 150 101
145 143 95
150 149 100
150 148 99
149 147 99
143 141 95
151 149 100
140 138 93
143 141 95
148 146 98
149 147 99
152 151 101
146 144 95
142 140 94
150 147 98
154 152 102
139 137 92
155 153 103
152 150 101
145 143 95
141 139 93
152 149 99
153 151 101
141 140 93
149 147 98
151 149 99
146 143 95
149 146 96
149 146 97
147 145 97
144 141 94
145 144 96
135 133 88
146 143 94
143 141 93
147 144 95
144 141 94
142 139 92
157 154 101
145 143 93
151 148 97
143 140 91
149 145 95
145 142 94
151 148 97
141 138 91
144 141 92
136 133 87
146 142 93
151 148 97
152 148 95
155 150 97
137 134 84
141 138 88
150 146 93
146 143 93
138 134 87
134 131 84
135 131 84
146 142 90
146 142 92
142 138 90
139 136 87
134 131 86
131 128 82
139 136 87
149 143 92
134 130 80
131 127 80
136 132 86
119 116 73
138 134 84
174 197 0
173 197 0
171 195 0
173 197 0
172 196 0
172 195 0
172 196 0
173 197 0
172 196 0
176 198 0
174 197 0
173 197 0
175 198 0
174 198 0
173 197 0
171 195 0
174 198 0
174 198 0
173 196 0
172 195 0
174 197 0
171 195 0
171 195 0
175 198 0
172 195 0
175 198 0
173 197 0
172 196 0
173 197 0
174 198 0
174 198 0
172 195 0
175 198 0
175 198 0
174 197 0
173 197 0
174 197 0
173 197 0
175 198 0
173 197 0
173 197 0
173 196 0
173 197 0
172 197 0
173 197 0
172 196 0
172 196 0
173 196 0
176 199 0
173 197 0
170 194 0
173 196 0
173 197 0
175 198 0
175 198 0
175 198 0
174 198 0
176 199 0
174 198 0
175 198 0
172 196 0
175 198 0
174 197 0
174 198 0
174 198 0
173 197 0
173 197 0
176 198 0
174 197 0
174 198 0
174 197 0
175 198 0
176 198 0
173 197 0
173 197 0
172 196 0
174 197 0
174 197 0
176 198 0
175 197 0
176 199 0
175 198 0
174 197 0
172 196 0
174 198 0
174 197 0
174 197 0
175 197 0
173 197 0
175 198 0
175 198 0
174 197 0
175 198 0
173 197 0
172 196 0
174 197 0
173 196 0
173 197 0
175 197 0
174 198 0
175 198 0
174 197 0
176 198 0
176 199 0
182 204 122
198 219 211
207 227 252
208 228 255
208 228 255
208 228 255
208 228 255
208 228 255
208 228 255
208 228 255
208 228 255
208 228 255
207 228 255
207 228 255
207 228 255
207 228 255
207 228 255
207 228 255
207 228 255
207 228 255
207 228 255
207 228 255
207 228 255
207 228 255
207 228 255
207 228 255
207 228 255
207 227 255
207 227 255
207 227 255
207 227 255
207 227 255
206 227 255
206 227 255
206 227 255
206 227 255
206 227 255
206 227 255
206 227 255
206 227 255
206 227 255
206 227 255
206 227 255
206 227 255
206 227 255
206 227 255
206 227 255
206 227 255
206 227 255
206 227 255
206 227 255
206 227 255
206 227 255
206 227 255
205 227 255
205 227 255
205 227 255
205 227 255
205 227 255
205 227 255
205 227 255
205 227 255
205 227 255
205 227 255
205 227 255
205 227 255
205 227 255
205 227 255
205 227 255
205 227 255
205 227 255
205 227 255
205 226 255
205 226 255
205 226 255
205 226 255
205 226 255
205 226 255
205 226 255
205 226 255
205 226 255
205 226 255
205 226 255
205 226 255
205 226 255
205 226 255
205 226 255
205 226 255
205 226 255
205 226 255
205 226 255
205 226 255
205 226 255
205 226 255
205 226 255
205 226 255
205 226 255
205 226 255
205 226 255
205 226 255
205 226 255
205 226 255
205 226 255
205 226 255
205 226 255
205 226 255
205 226 255
205 226 255
205 226 255
205 226 255
205 226 255
205 226 255
205 226 255
205 226 255
205 226 255
205 226 255
205 226 255
205 226 255
205 226 255
205 226 255
205 226 255
205 227 255
205 227 255
205 227 255
205 227 255
205 227 255
205 227 255
205 227 255
205 227 255
205 227 255
205 227 255
205 227 255
205 227 255
205 227 255
205 227 255
205 227 255
205 227 255
205 227 255
206 227 255
206 227 255
206 227 255
206 227 255
206 227 255
206 227 255
206 227 255
206 227 255
206 227 255
206 227 255
206 227 255
206 227 255
206 227 255
206 227 255
206 227 255
206 227 255
206 227 255
206 227 255
206 227 255
206 227 255
206 227 255
206 227 255
207 227 255
207 227 255
207 227 255
207 227 255
207 227 255
207 228 255
207 228 255
207 228 255
207 228 255
207 228 255
207 228 255
207 228 255
207 228 255
207 228 255
207 228 255
207 228 255
207 228 255
207 228 255
207 228 255
207 228 255
208 228 255
208 228 255
208 228 255
208 228 255
208 228 255
208 228 255
208 228 255
208 228 255
208 228 255
205 225 251
182 195 207
157 164 153
134 133 89
137 135 90
140 138 92
138 137 92
135 135 90
140 139 93
137 136 91
137 137 93
149 148 99
142 141 95
130 129 87
141 140 94
147 146 98
139 137 92
133 132 89
143 142 95
150 149 100
141 139 93
145 144 97
141 140 95
145 143 96
147 145 97
141 139 93
150 149 100
147 146 98
151 150 101
151 149 100
147 146 98
143 141 95
149 148 99
153 151 101
145 143 96
150 149 100
146 144 97
147 145 97
150 149 100
153 151 101
138 138 93
141 139 93
148 146 97
149 147 98
151 149 99
153 151 101
157 155 103
144 142 95
145 143 95
152 150 100
153 150 100
148 146 97
149 147 99
145 143 95
148 146 97
150 149 99
152 149 98
148 144 94
148 146 96
145 143 96
150 148 98
145 143 95
150 148 99
140 137 90
154 150 99
152 149 99
147 144 95
154 150 99
152 149 99
158 154 102
146 142 93
154 151 100
153 150 97
152 148 96
147 145 96
150 146 95
150 147 94
148 145 95
148 145 95
142 138 91
162 158 104
146 143 93
143 140 92
146 143 93
153 149 97
148 145 94
137 134 87
144 140 93
148 144 92
141 138 90
148 144 94
142 138 88
136 133 86
147 143 92
141 138 88
124 121 79
138 135 84
149 145 93
133 131 84
148 144 93
144 140 90
141 137 84
133 129 81
125 121 75
145 140 90
134 131 86
141 137 87
174 197 0
174 197 0
171 195 0
174 197 0
171 195 0
172 196 0
173 197 0
172 196 0
174 197 0
174 197 0
173 197 0
174 197 0
173 196 0
173 197 0
174 198 0
173 197 0
174 197 0
175 198 0
173 197 0
172 197 0
172 196 0
174 198 0
173 196 0
173 196 0
175 198 0
171 196 0
174 196 0
175 198 0
175 198 0
171 195 0
174 197 0
172 195 0
172 196 0
174 197 0
174 197 0
172 196 0
172 196 0
171 195 0
174 197 0
175 198 0
175 198 0
173 196 0
176 198 0
173 196 0
175 198 0
174 197 0
173 197 0
175 198 0
174 197 0
173 197 0
174 197 0
173 197 0
172 196 0
174 198 0
174 198 0
173 196 0
173 197 0
173 197 0
174 198 0
172 196 0
174 197 0
173 197 0
174 197 0
174 197 0
173 197 0
174 197 0
175 198 0
175 198 0
173 197 0
173 196 0
172 196 0
174 197 0
174 198 0
174 198 0
174 197 0
174 198 0
173 197 0
174 198 0
176 198 0
175 198 0
174 198 0
174 197 0
176 198 0
174 198 0
174 197 0
172 195 0
174 198 0
174 198 0
174 197 0
174 197 0
174 198 0
176 199 0
173 197 0
176 199 0
173 197 0
174 197 0
175 198 0
174 197 0
174 197 0
173 196 0
173 197 0
173 197 0
175 198 0
174 197 0
173 197 0
175 198 0
180 203 102
197 218 209
207 227 252
208 228 255
208 228 255
208 228 255
208 228 255
208 228 255
208 228 255
208 228 255
208 228 255
208 228 255
208 228 255
208 228 255
208 228 255
207 228 255
207 228 255
207 228 255
207 228 255
207 228 255
207 228 255
207 228 255
207 228 255
207 228 255
207 228 255
207 228 255
207 228 255
207 228 255
207 228 255
207 228 255
207 227 255
207 227 255
207 227 255
207 227 255
207 227 255
206 227 255
206 227 255
206 227 255
206 227 255
206 227 255
206 227 255
206 227 255
206 227 255
206 227 255
206 227 255
206 227 255
206 227 255
206 227 255
206 227 255
206 227 255
206 227 255
206 227 255
206 227 255
206 227 255
206 227 255
206 227 255
206 227 255
206 227 255
206 227 255
205 227 255
205 227 255
205 227 255
205 227 255
205 227 255
205 227 255
205 227 255
205 227 255
205 227 255
205 227 255
205 227 255
205 227 255
205 227 255
205 227 255
205 227 255
205 227 255
205 227 255
205 227 255
205 227 255
205 227 255
205 227 255
205 227 255
205 227 255
205 227 255
205 227 255
205 226 255
205 226 255
205 226 255
205 226 255
205 226 255
205 226 255
205 226 255
205 226 255
205 226 255
205 226 255
205 226 255
205 226 255
205 226 255
205 226 255
205 226 255
205 226 255
205 226 255
205 226 255
205 226 255
205 227 255
205 227 255
205 227 255
205 227 255
205 227 255
205 227 255
205 227 255
205 227 255
205 227 255
205 227 255
205 227 255
205 227 255
205 227 255
205 227 255
205 227 255
205 227 255
205 227 255
205 227 255
205 227 255
205 227 255
205 227 255
205 227 255
205 227 255
205 227 255
205 227 255
205 227 255
205 227 255
206 227 255
206 227 255
206 227 255
206 227 255
206 227 255
206 227 255
206 227 255
206 227 255
206 227 255
206 227 255
206 227 255
206 227 255
206 227 255
206 227 255
206 227 255
206 227 255
206 227 255
206 227 255
206 227 255
206 227 255
206 227 255
206 227 255
206 227 255
207 227 255
207 227 255
207 227 255
207 227 255
207 227 255
207 228 255
207 228 255
207 228 255
207 228 255
207 228 255
207 228 255
207 228 255
207 228 255
207 228 255
207 228 255
207 228 255
207 228 255
207 228 255
207 228 255
207 228 255
208 228 255
208 228 255
208 228 255
208 228 255
208 228 255
208 228 255
208 228 255
208 228 255
208 228 255
208 228 255
208 228 255
208 228 255
202 221 247
182 195 205
138 140 115
130 128 85
137 134 89
145 143 95
139 138 92
134 132 88
134 133 89
144 143 96
138 138 93
147 145 97
142 141 95
143 142 95
148 147 99
129 128 86
139 139 94
146 145 97
147 146 98
149 147 99
147 145 97
146 144 97
148 146 98
145 144 97
141 140 94
152 150 101
147 146 98
145 144 97
148 147 99
148 146 98
143 141 95
143 141 95
149 147 99
152 150 101
148 146 98
144 143 96
147 145 97
147 146 98
147 146 97
159 157 105
144 143 96
155 153 103
150 149 100
145 143 96
160 158 106
149 146 97
151 149 99
144 143 95
150 148 99
149 147 98
152 150 100
152 150 100
150 147 97
156 154 103
141 139 93
154 152 101
155 152 101
151 149 99
160 156 104
152 150 101
149 145 95
153 150 98
144 140 92
142 140 93
148 145 97
156 154 103
143 140 93
147 144 95
158 155 102
152 148 97
139 136 90
151 148 97
146 143 95
150 148 98
153 149 97
155 152 99
150 147 97
141 138 90
153 150 98
151 148 97
143 141 92
154 150 98
151 148 97
141 138 90
149 145 95
141 138 87
152 148 96
142 139 90
143 140 91
147 144 93
148 145 95
148 145 95
144 141 92
148 144 92
147 143 91
151 147 94
143 139 90
151 146 96
145 140 89
145 142 92
139 136 86
133 130 84
136 132 84
149 145 95
136 132 85
140 136 87
151 147 95
141 138 88
128 125 81
174 197 0
171 195 0
173 197 0
172 195 0
174 196 0
172 196 0
175 198 0
174 197 0
175 198 0
174 197 0
174 198 0
173 197 0
173 196 0
173 197 0
172 196 0
173 196 0
171 195 0
173 196 0
172 196 0
173 197 0
175 197 0
174 197 0
175 198 0
172 196 0
174 197 0
173 197 0
174 197 0
173 197 0
172 196 0
174 197 0
173 197 0
172 196 0
173 197 0
174 197 0
172 196 0
173 197 0
173 197 0
173 197 0
175 198 0
174 197 0
176 199 0
173 197 0
174 198 0
174 197 0
173 197 0
174 198 0
174 197 0
174 197 0
174 198 0
174 198 0
173 197 0
174 198 0
174 198 0
174 197 0
175 198 0
175 198 0
174 197 0
173 197 0
172 195 0
173 197 0
174 197 0
172 196 0
175 198 0
176 198 0
173 197 0
173 197 0
171 195 0
171 195 0
173 197 0
173 197 0
175 198 0
174 197 0
174 198 0
174 197 0
176 199 0
175 198 0
173 196 0
171 194 0
175 198 0
173 197 0
175 198 0
172 197 0
173 197 0
176 199 0
173 197 0
176 199 0
175 198 0
172 196 0
171 195 0
173 196 0
173 197 0
174 198 0
173 197 0
173 197 0
174 198 0
173 197 0
172 196 0
176 198 0
173 196 0
175 198 0
173 197 0
174 198 0
173 197 0
172 196 0
170 195 0
173 197 0
172 196 0
175 198 0
178 201 84
189 211 173
207 227 248
208 228 255
208 228 255
208 228 255
208 228 255
208 228 255
208 228 255
208 228 255
208 228 255
208 228 255
208 228 255
208 228 255
208 228 255
208 228 255
208 228 255
207 228 255
207 228 255
207 228 255
207 228 255
207 228 255
207 228 255
207 228 255
207 228 255
207 228 255
207 228 255
207 228 255
207 228 255
207 228 255
207 228 255
207 228 255
207 228 255
207 227 255
207 227 255
207 227 255
207 227 255
207 227 255
206 227 255
206 227 255
206 227 255
206 227 255
206 227 255
206 227 255
206 227 255
206 227 255
206 227 255
206 227 255
206 227 255
206 227 255
206 227 255
206 227 255
206 227 255
206 227 255
206 227 255
206 227 255
206 227 255
206 227 255
206 227 255
206 227 255
206 227 255
206 227 255
206 227 255
206 227 255
206 227 255
205 227 255
205 227 255
205 227 255
205 227 255
205 227 255
205 227 255
205 227 255
205 227 255
205 227 255
205 227 255
205 227 255
205 227 255
205 227 255
205 227 255
205 227 255
205 227 255
205 227 255
205 227 255
205 227 255
205 227 255
205 227 255
205 227 255
205 227 255
205 227 255
205 227 255
204 226 255
198 220 251
198 220 251
200 222 252
205 227 255
205 227 255
205 227 255
205 227 255
205 227 255
205 227 255
205 227 255
205 227 255
205 227 255
205 227 255
205 227 255
205 227 255
205 227 255
205 227 255
205 227 255
205 227 255
205 227 255
205 227 255
205 227 255
205 227 255
205 227 255
205 227 255
205 227 255
205 227 255
205 227 255
206 227 255
206 227 255
206 227 255
206 227 255
206 227 255
206 227 255
206 227 255
206 227 255
206 227 255
206 227 255
206 227 255
206 227 255
206 227 255
206 227 255
206 227 255
206 227 255
206 227 255
206 227 255
206 227 255
206 227 255
206 227 255
206 227 255
206 227 255
206 227 255
206 227 255
206 227 255
206 227 255
207 227 255
207 227 255
207 227 255
207 227 255
207 227 255
207 228 255
207 228 255
207 228 255
207 228 255
207 228 255
207 228 255
207 228 255
207 228 255
207 228 255
207 228 255
207 228 255
207 228 255
207 228 255
207 228 255
207 228 255
207 228 255
208 228 255
208 228 255
208 228 255
208 228 255
208 228 255
208 228 255
208 228 255
208 228 255
208 228 255
208 228 255
208 228 255
208 228 255
208 228 255
208 228 255
204 224 250
176 189 198
148 149 120
124 122 81
136 134 90
141 139 93
139 138 93
136 135 91
139 138 93
137 136 91
145 143 96
136 135 91
139 138 93
137 135 90
138 137 92
141 139 93
146 145 97
144 143 97
139 138 93
148 146 98
142 140 94
149 148 99
143 141 95
151 150 101
138 137 93
150 148 99
138 137 92
143 142 95
151 150 101
152 150 101
143 141 94
151 149 100
151 149 99
150 149 100
142 140 94
159 157 105
155 153 102
140 139 93
152 150 100
146 145 97
150 148 99
154 152 101
153 151 101
154 152 102
153 151 101
150 149 99
156 154 103
156 154 103
156 154 103
145 143 95
152 150 99
144 142 95
162 159 106
151 148 98
157 155 103
157 154 102
152 150 100
154 152 101
148 146 97
153 150 100
143 141 94
163 159 106
152 150 100
150 148 99
155 152 99
156 153 102
151 148 97
157 153 101
149 147 97
158 155 102
157 154 102
153 150 98
154 151 98
150 148 99
139 137 90
154 151 101
139 136 88
157 154 100
158 154 101
154 151 97
159 155 102
143 140 90
145 142 91
144 140 90
150 147 95
144 141 92
150 146 95
151 148 95
147 143 94
149 145 95
149 146 93
147 143 93
150 146 91
146 140 87
141 138 90
144 141 90
132 129 80
141 136 86
149 145 93
142 139 86
149 145 91
135 132 86
144 141 93
138 134 85
145 141 90
138 135 88
136 133 86
141 137 88
138 135 85
134 130 83
131 127 82
175 198 0
172 196 0
174 197 0
175 198 0
175 197 0
171 195 0
173 196 0
174 198 0
173 196 0
173 197 0
172 196 0
173 196 0
174 197 0
174 197 0
176 199 0
172 196 0
172 197 0
176 199 0
174 197 0
172 196 0
174 197 0
173 197 0
172 196 0
174 197 0
175 198 0
170 194 0
174 197 0
174 198 0
174 198 0
173 197 0
173 196 0
174 197 0
173 197 0
174 197 0
173 197 0
174 198 0
175 198 0
173 195 0
173 197 0
175 198 0
174 198 0
174 197 0
174 197 0
173 196 0
174 198 0
176 198 0
174 197 0
173 197 0
175 198 0
173 197 0
173 197 0
174 198 0
173 197 0
174 197 0
176 199 0
173 197 0
174 197 0
172 196 0
175 198 0
174 198 0
174 197 0
174 197 0
174 198 0
174 197 0
174 198 0
173 197 0
174 197 0
175 198 0
175 198 0
172 196 0
175 198 0
173 197 0
173 197 0
173 197 0
175 198 0
174 198 0
174 197 0
172 195 0
174 198 0
174 198 0
174 198 0
176 198 0
174 197 0
176 198 0
172 196 0
172 196 0
173 197 0
173 197 0
173 197 0
174 197 0
174 197 0
174 197 0
175 198 0
172 196 0
175 198 0
174 197 0
175 198 0
174 197 0
171 195 0
175 197 0
175 198 0
173 197 0
175 198 0
174 198 0
173 197 0
174 197 0
176 198 0
173 197 0
175 198 0
172 196 0
176 198 44
194 214 188
208 228 252
208 228 255
208 228 255
208 228 255
208 228 255
208 228 255
208 228 255
208 228 255
208 228 255
208 228 255
208 228 255
208 228 255
208 228 255
208 228 255
208 228 255
208 228 255
208 228 255
208 228 255
207 228 255
207 228 255
207 228 255
207 228 255
207 228 255
207 228 255
207 228 255
207 228 255
207 228 255
207 228 255
207 228 255
207 228 255
207 228 255
207 228 255
207 228 255
207 228 255
207 227 255
207 227 255
207 227 255
207 227 255
207 227 255
207 227 255
206 227 255
206 227 255
206 227 255
206 227 255
206 227 255
206 227 255
206 227 255
206 227 255
206 227 255
206 227 255
206 227 255
206 227 255
206 227 255
206 227 255
206 227 255
206 227 255
206 227 255
206 227 255
206 227 255
206 227 255
206 227 255
206 227 255
206 227 255
206 227 255
206 227 255
206 227 255
206 227 255
206 227 255
206 227 255
206 227 255
206 227 255
206 227 255
206 227 255
206 227 255
205 227 255
205 227 255
205 227 255
203 224 254
189 211 244
174 196 235
163 186 228
130 155 206
116 142 199
98 127 192
73 107 179
61 98 175
62 98 172
62 99 179
62 99 178
62 99 177
61 98 178
73 107 180
81 113 184
120 146 203
125 151 203
149 172 218
172 194 233
189 211 244
204 225 254
205 227 255
205 227 255
205 227 255
205 227 255
206 227 255
206 227 255
206 227 255
206 227 255
206 227 255
206 227 255
206 227 255
206 227 255
206 227 255
206 227 255
206 227 255
206 227 255
206 227 255
206 227 255
206 227 255
206 227 255
206 227 255
206 227 255
206 227 255
206 227 255
206 227 255
206 227 255
206 227 255
206 227 255
206 227 255
206 227 255
206 227 255
206 227 255
206 227 255
206 227 255
206 227 255
206 227 255
206 227 255
207 227 255
207 227 255
207 227 255
207 227 255
207 227 255
207 227 255
207 228 255
207 228 255
207 228 255
207 228 255
207 228 255
207 228 255
207 228 255
207 228 255
207 228 255
207 228 255
207 228 255
207 228 255
207 228 255
207 228 255
207 228 255
207 228 255
208 228 255
208 228 255
208 228 255
208 228 255
208 228 255
208 228 255
208 228 255
208 228 255
208 228 255
208 228 255
208 228 255
208 228 255
208 228 255
208 228 255
208 228 255
208 228 255
208 228 255
202 221 247
167 178 184
143 143 113
117 115 76
138 136 91
135 134 90
140 138 93
134 131 87
139 137 92
132 131 88
138 137 92
149 147 99
142 141 95
141 140 94
134 133 89
142 142 95
147 146 98
139 138 93
149 148 99
147 145 97
145 144 97
146 146 98
148 146 98
150 148 99
145 144 97
146 144 97
149 148 100
144 144 97
150 150 101
146 145 98
151 150 101
154 153 103
152 151 101
145 144 97
149 148 99
150 148 99
153 151 101
152 150 101
146 144 97
149 147 99
146 146 98
157 156 104
153 151 101
149 147 98
155 153 102
161 158 106
148 146 97
163 160 106
145 144 97
153 151 101
157 155 104
159 156 103
144 142 95
157 155 103
161 158 104
156 152 101
146 144 97
162 159 106
157 153 102
147 144 95
156 154 102
152 150 99
154 151 99
164 161 106
153 150 99
153 151 100
153 150 99
146 143 93
150 146 96
151 148 98
148 145 95
151 149 99
151 147 95
162 159 104
156 152 99
152 149 99
151 148 97
148 145 95
145 141 92
144 142 93
156 152 99
144 140 90
152 149 95
158 155 99
148 145 90
150 146 96
149 145 94
150 146 94
153 149 97
145 141 92
142 140 90
142 139 90
147 144 92
139 135 87
149 145 93
155 151 97
149 144 93
144 140 90
142 139 90
144 140 90
148 146 93
149 145 93
144 140 90
144 141 90
154 151 97
144 140 90
145 141 87
146 142 90
141 137 85
142 137 87
141 137 85
140 136 86
137 134 84
173 197 0
176 198 0
177 199 0
171 195 0
173 196 0
176 199 0
173 197 0
174 198 0
172 196 0
175 198 0
176 199 0
173 196 0
172 196 0
176 198 0
173 197 0
173 197 0
173 196 0
174 198 0
173 196 0
172 195 0
171 195 0
175 198 0
174 197 0
174 197 0
175 198 0
176 198 0
175 197 0
173 197 0
173 197 0
174 197 0
174 198 0
172 195 0
172 195 0
175 198 0
175 198 0
172 196 0
175 198 0
173 197 0
174 198 0
172 196 0
175 198 0
175 198 0
172 196 0
173 197 0
173 197 0
175 198 0
174 198 0
176 199 0
174 197 0
175 198 0
174 197 0
174 198 0
173 196 0
173 197 0
173 197 0
174 197 0
175 198 0
173 197 0
174 197 0
172 196 0
173 197 0
174 197 0
172 196 0
175 198 0
173 197 0
174 197 0
174 197 0
173 197 0
173 197 0
172 196 0
175 198 0
174 198 0
173 197 0
174 197 0
175 198 0
175 198 0
171 196 0
173 196 0
174 197 0
172 196 0
175 198 0
170 194 0
174 197 0
174 198 0
173 196 0
174 197 0
175 198 0
173 197 0
172 197 0
174 197 0
173 197 0
174 197 0
173 196 0
174 197 0
174 197 0
173 197 0
173 197 0
174 198 0
175 197 0
175 198 0
174 198 0
174 198 0
175 198 0
174 197 0
174 198 0
172 196 0
174 197 0
174 197 0
175 198 0
173 197 0
173 196 0
174 198 0
180 203 99
195 216 193
208 228 254
208 228 255
208 228 255
208 228 255
208 228 255
208 228 255
208 228 255
208 228 255
208 228 255
208 228 255
208 228 255
208 228 255
208 228 255
208 228 255
208 228 255
208 228 255
208 228 255
208 228 255
208 228 255
208 228 255
208 228 255
207 228 255
207 228 255
207 228 255
207 228 255
207 228 255
207 228 255
207 228 255
207 228 255
207 228 255
207 228 255
207 228 255
207 228 255
207 228 255
207 228 255
207 228 255
207 228 255
207 228 255
207 227 255
207 227 255
207 227 255
207 227 255
207 227 255
207 227 255
206 227 255
206 227 255
206 227 255
206 227 255
206 227 255
206 227 255
206 227 255
206 227 255
206 227 255
206 227 255
206 227 255
206 227 255
206 227 255
206 227 255
206 227 255
206 227 255
206 227 255
206 227 255
206 227 255
206 227 255
206 227 255
206 227 255
206 227 255
206 227 255
206 227 255
206 227 255
206 227 255
203 224 254
174 196 233
145 169 215
104 131 193
74 107 181
62 99 178
62 99 177
62 98 175
62 98 173
62 99 175
62 99 177
63 99 175
62 99 175
62 99 175
61 99 177
61 98 175
62 99 175
62 99 178
62 99 175
61 98 174
62 99 178
62 99 177
62 99 178
61 98 175
62 99 178
65 101 175
98 127 190
141 165 213
184 205 240
204 225 254
206 227 255
206 227 255
206 227 255
206 227 255
206 227 255
206 227 255
206 227 255
206 227 255
206 227 255
206 227 255
206 227 255
206 227 255
206 227 255
206 227 255
206 227 255
206 227 255
206 227 255
206 227 255
206 227 255
206 227 255
206 227 255
206 227 255
206 227 255
206 227 255
206 227 255
206 227 255
206 227 255
207 227 255
207 227 255
207 227 255
207 227 255
207 227 255
207 227 255
207 228 255
207 228 255
207 228 255
207 228 255
207 228 255
207 228 255
207 228 255
207 228 255
207 228 255
207 228 255
207 228 255
207 228 255
207 228 255
207 228 255
207 228 255
207 228 255
207 228 255
208 228 255
208 228 255
208 228 255
208 228 255
208 228 255
208 228 255
208 228 255
208 228 255
208 228 255
208 228 255
208 228 255
208 228 255
208 228 255
208 228 255
208 228 255
208 228 255
208 228 255
208 228 255
208 228 255
208 228 255
208 228 254
186 199 208
136 137 112
133 130 87
126 124 83
137 134 89
131 130 87
127 126 84
149 147 99
140 139 93
136 135 91
141 141 95
139 138 93
151 149 100
147 145 97
145 144 97
143 142 96
146 146 98
151 150 101
140 139 93
147 147 99
146 145 97
152 150 101
149 148 99
156 155 104
146 144 97
153 152 102
150 148 99
154 153 103
150 149 100
157 156 105
143 142 95
149 147 99
157 155 104
148 147 99
152 150 100
153 152 102
154 152 102
156 154 103
149 147 99
152 149 99
153 150 100
149 147 98
154 153 103
155 152 101
150 148 99
151 149 99
158 155 103
155 153 102
152 150 100
151 149 99
154 153 103
148 146 97
157 153 102
156 153 102
159 156 104
147 145 96
154 152 101
157 154 103
149 146 97
157 153 101
160 157 104
153 151 100
146 143 94
157 153 101
154 150 99
155 152 101
163 159 105
148 145 96
158 155 102
159 155 103
140 138 92
154 150 99
154 152 100
155 152 101
152 149 98
151 147 95
154 150 99
152 148 97
151 148 99
147 144 94
147 144 94
157 153 99
150 147 95
153 149 98
150 146 96
151 147 97
152 149 97
155 151 99
149 146 93
157 153 99
152 149 97
153 150 97
145 141 91
154 150 98
151 148 93
139 137 89
149 144 91
146 142 91
147 142 91
144 142 90
152 147 94
143 138 89
146 141 90
140 136 87
148 143 90
137 135 87
146 141 89
135 131 82
140 136 87
147 143 93
143 139 89
151 146 90
142 138 87
135 132 85
174 197 0
172 195 0
175 197 0
173 197 0
174 197 0
174 197 0
174 197 0
173 196 0
172 195 0
174 197 0
174 197 0
173 196 0
171 195 0
174 198 0
170 195 0
172 196 0
175 198 0
175 198 0
175 198 0
173 197 0
174 197 0
176 198 0
173 197 0
174 197 0
176 198 0
175 198 0
174 198 0
174 198 0
174 198 0
172 196 0
175 198 0
175 198 0
174 198 0
176 198 0
173 197 0
173 196 0
173 197 0
173 197 0
174 198 0
172 196 0
175 198 0
176 198 0
175 198 0
171 194 0
174 198 0
173 197 0
173 197 0
174 198 0
172 196 0
175 198 0
174 197 0
173 197 0
175 198 0
174 198 0
172 196 0
174 197 0
173 197 0
174 197 0
174 197 0
174 198 0
174 197 0
172 196 0
172 196 0
174 198 0
175 198 0
175 198 0
175 198 0
171 195 0
173 196 0
175 198 0
173 197 0
175 198 0
174 197 0
173 196 0
174 197 0
174 197 0
174 198 0
175 198 0
173 197 0
172 196 0
172 196 0
175 198 0
174 197 0
175 198 0
176 199 0
173 197 0
173 197 0
174 197 0
174 198 0
174 197 0
173 197 0
173 197 0
173 197 0
176 199 0
174 197 0
175 198 0
174 197 0
174 198 0
175 197 0
174 197 0
173 197 0
173 197 0
174 197 0
174 198 0
174 198 0
174 198 0
172 196 0
173 197 0
173 197 0
174 198 0
176 198 0
173 196 0
176 199 0
174 197 0
181 204 111
201 221 223
209 229 255
209 229 255
209 228 255
208 228 255
208 228 255
208 228 255
208 228 255
208 228 255
208 228 255
208 228 255
208 228 255
208 228 255
208 228 255
208 228 255
208 228 255
208 228 255
208 228 255
208 228 255
208 228 255
208 228 255
208 228 255
208 228 255
208 228 255
208 228 255
207 228 255
207 228 255
207 228 255
207 228 255
207 228 255
207 228 255
207 228 255
207 228 255
207 228 255
207 228 255
207 228 255
207 228 255
207 228 255
207 228 255
207 228 255
207 228 255
207 228 255
207 228 255
207 228 255
207 227 255
207 227 255
207 227 255
207 227 255
207 227 255
207 227 255
207 227 255
206 227 255
206 227 255
206 227 255
206 227 255
206 227 255
206 227 255
206 227 255
206 227 255
206 227 255
206 227 255
206 227 255
206 227 255
206 227 255
206 227 255
206 227 255
206 227 255
200 222 252
163 186 226
121 146 200
84 115 184
62 99 174
62 98 174
62 99 178
62 99 173
62 99 177
62 98 167
61 98 170
62 99 173
61 98 174
62 98 170
62 99 175
62 99 174
62 99 175
62 99 178
62 98 168
62 99 176
62 99 174
62 99 173
61 98 174
62 98 170
63 99 177
62 99 174
62 99 174
62 99 178
62 98 172
61 98 171
62 98 173
61 98 173
76 109 178
132 156 208
167 189 228
201 222 252
206 227 255
206 227 255
206 227 255
206 227 255
206 227 255
206 227 255
206 227 255
206 227 255
206 227 255
206 227 255
206 227 255
206 227 255
206 227 255
206 227 255
206 227 255
206 227 255
207 227 255
207 227 255
207 227 255
207 227 255
207 227 255
207 227 255
207 227 255
207 228 255
207 228 255
207 228 255
207 228 255
207 228 255
207 228 255
207 228 255
207 228 255
207 228 255
207 228 255
207 228 255
207 228 255
207 228 255
207 228 255
207 228 255
207 228 255
207 228 255
207 228 255
207 228 255
208 228 255
208 228 255
208 228 255
208 228 255
208 228 255
208 228 255
208 228 255
208 228 255
208 228 255
208 228 255
208 228 255
208 228 255
208 228 255
208 228 255
208 228 255
208 228 255
208 228 255
208 228 255
208 228 255
208 228 255
208 228 255
209 228 255
209 229 255
209 229 255
177 190 204
132 135 115
132 129 86
127 125 83
130 129 86
137 135 90
137 135 90
138 136 91
137 137 92
148 146 98
147 146 98
142 141 95
149 148 99
144 143 96
139 138 93
147 147 99
152 151 102
144 143 96
136 135 90
151 150 101
147 145 97
137 135 90
152 150 100
145 144 97
141 141 95
144 143 96
154 154 104
148 147 98
156 154 103
149 147 98
151 150 101
150 147 98
156 154 103
139 138 93
163 161 108
149 147 98
152 150 101
152 150 101
152 150 101
159 157 105
152 149 99
150 148 99
155 153 102
155 152 101
156 153 102
155 153 103
155 152 101
147 145 97
157 156 105
155 152 101
155 152 101
158 155 103
160 157 104
147 145 97
156 154 103
162 159 106
164 161 107
159 156 103
159 155 102
156 153 102
156 153 101
158 155 103
155 152 101
155 151 99
156 152 100
150 147 97
149 147 97
151 148 96
159 156 103
149 146 97
162 157 103
154 152 99
152 150 99
154 152 99
155 152 100
153 150 99
160 157 104
154 150 96
155 153 102
150 147 97
162 158 103
151 147 95
149 145 94
150 146 94
145 142 93
150 147 97
152 148 97
155 152 97
157 153 99
155 151 99
156 152 98
151 147 96
146 142 92
144 141 90
152 149 98
151 147 96
151 147 95
155 150 97
153 148 95
157 153 97
152 148 93
143 139 91
145 142 90
151 146 92
149 145 93
149 146 90
147 142 91
146 142 92
150 146 93
149 144 94
132 128 80
139 135 84
151 147 91
143 139 89
146 141 87
145 141 89
173 197 0
172 196 0
173 196 0
174 197 0
173 197 0
173 197 0
174 197 0
175 198 0
172 195 0
174 198 0
173 197 0
173 197 0
174 198 0
175 198 0
175 198 0
173 197 0
175 198 0
174 197 0
174 197 0
174 198 0
173 197 0
175 198 0
174 197 0
173 197 0
173 196 0
174 198 0
174 197 0
173 197 0
174 198 0
174 198 0
174 197 0
175 198 0
171 195 0
175 198 0
174 197 0
173 196 0
173 196 0
173 197 0
174 197 0
173 197 0
175 198 0
172 196 0
173 197 0
176 198 0
172 196 0
174 197 0
174 198 0
174 197 0
174 197 0
173 196 0
174 197 0
176 199 0
173 197 0
173 197 0
175 198 0
175 198 0
174 198 0
173 197 0
175 198 0
174 197 0
174 197 0
174 198 0
172 196 0
173 197 0
174 197 0
174 197 0
175 198 0
173 197 0
175 198 0
172 196 0
174 197 0
174 198 0
172 196 0
173 197 0
173 197 0
176 199 0
175 198 0
173 197 0
172 197 0
172 196 0
172 197 0
174 197 0
173 197 0
174 197 0
175 198 0
172 196 0
176 199 0
175 198 0
175 198 0
173 197 0
173 197 0
174 198 0
173 197 0
173 196 0
174 198 0
173 197 0
173 197 0
174 197 0
175 198 0
174 198 0
174 197 0
174 198 0
173 196 0
171 195 0
173 197 0
173 197 0
170 194 0
173 196 0
173 196 0
174 196 0
174 198 0
174 197 0
175 198 0
172 196 0
174 197 0
174 197 0
185 207 133
205 225 240
209 229 255
209 229 255
209 229 255
209 229 255
209 229 255
209 228 255
208 228 255
208 228 255
208 228 255
208 228 255
208 228 255
208 228 255
208 228 255
208 228 255
208 228 255
208 228 255
208 228 255
208 228 255
208 228 255
208 228 255
208 228 255
208 228 255
208 228 255
208 228 255
208 228 255
208 228 255
208 228 255
208 228 255
207 228 255
207 228 255
207 228 255
207 228 255
207 228 255
207 228 255
207 228 255
207 228 255
207 228 255
207 228 255
207 228 255
207 228 255
207 228 255
207 228 255
207 228 255
207 228 255
207 228 255
207 228 255
207 228 255
207 228 255
207 228 255
207 227 255
207 227 255
207 227 255
207 227 255
207 227 255
207 227 255
207 227 255
207 227 255
207 227 255
206 227 255
206 227 255
206 227 255
206 227 255
188 209 243
129 153 204
71 105 179
62 98 174
62 99 176
62 99 173
61 98 174
62 99 177
62 99 172
62 99 174
62 99 173
61 98 169
62 99 172
62 99 175
62 98 171
62 99 175
62 99 171
62 99 177
62 99 174
63 99 174
62 99 173
62 99 170
62 99 171
62 99 170
62 99 173
62 99 172
61 98 171
62 99 179
62 98 169
62 99 175
62 98 169
62 99 173
61 98 173
61 98 172
61 97 169
62 98 172
61 98 174
76 109 177
142 165 214
188 209 242
206 227 255
206 227 255
206 227 255
206 227 255
206 227 255
207 227 255
207 227 255
207 227 255
207 227 255
207 227 255
207 227 255
207 227 255
207 227 255
207 227 255
207 228 255
207 228 255
207 228 255
207 228 255
207 228 255
207 228 255
207 228 255
207 228 255
207 228 255
207 228 255
207 228 255
207 228 255
207 228 255
207 228 255
207 228 255
207 228 255
207 228 255
207 228 255
207 228 255
207 228 255
208 228 255
208 228 255
208 228 255
208 228 255
208 228 255
208 228 255
208 228 255
208 228 255
208 228 255
208 228 255
208 228 255
208 228 255
208 228 255
208 228 255
208 228 255
208 228 255
208 228 255
208 228 255
208 228 255
208 228 255
208 228 255
208 228 255
209 228 255
209 229 255
209 229 255
209 229 255
209 229 255
209 229 255
201 219 242
154 159 146
128 125 83
139 138 92
132 129 86
141 139 93
130 129 87
137 136 91
139 138 92
143 142 96
147 146 98
141 140 94
145 144 96
145 143 97
147 146 98
147 146 98
149 148 100
152 151 102
142 141 95
148 147 99
144 142 96
146 145 97
145 144 97
148 147 98
154 152 102
147 145 97
152 151 101
153 151 101
150 148 99
152 150 101
151 149 100
158 156 104
152 150 100
155 153 103
154 152 101
152 150 101
151 149 100
151 149 99
154 152 101
156 154 103
154 152 101
154 153 103
157 155 104
152 150 100
155 153 102
156 154 103
149 147 99
154 152 101
158 155 103
155 153 102
156 154 103
152 149 99
157 154 103
152 149 99
155 152 101
160 157 104
149 146 97
156 153 101
156 152 101
158 156 104
158 155 103
155 152 100
155 152 101
150 147 97
159 156 103
157 153 101
155 152 100
152 149 97
160 158 104
154 151 99
152 149 96
155 151 100
152 149 99
154 151 97
158 154 99
153 151 99
149 146 96
149 146 95
152 148 95
158 153 100
152 149 94
154 150 99
156 153 98
149 146 93
154 150 94
145 142 93
153 150 99
152 148 96
162 158 104
160 157 101
154 151 99
158 154 101
146 143 93
154 150 96
150 147 95
137 134 88
148 144 92
146 144 93
152 148 93
155 150 97
153 149 96
140 137 87
149 144 91
147 143 92
157 152 99
153 149 94
153 149 97
149 144 90
135 131 83
153 148 90
144 141 89
149 145 91
141 138 90
150 146 90
142 139 89
149 145 90
149 144 91
140 136 86
173 197 0
173 196 0
173 197 0
172 196 0
174 197 0
173 196 0
173 197 0
176 198 0
173 197 0
175 198 0
174 197 0
175 198 0
174 197 0
172 196 0
174 197 0
174 198 0
174 198 0
174 197 0
175 198 0
176 198 0
174 198 0
173 196 0
173 197 0
173 197 0
173 197 0
175 198 0
174 197 0
173 197 0
172 195 0
171 195 0
175 198 0
173 197 0
174 198 0
174 198 0
174 198 0
175 198 0
175 198 0
173 197 0
173 197 0
173 197 0
175 198 0
174 197 0
175 198 0
174 197 0
174 197 0
174 197 0
174 198 0
174 198 0
175 198 0
175 198 0
174 198 0
174 197 0
173 197 0
174 198 0
175 198 0
173 197 0
174 198 0
175 198 0
174 198 0
174 197 0
174 198 0
175 198 0
174 197 0
175 198 0
173 197 0
177 199 0
173 197 0
174 198 0
175 198 0
174 198 0
174 198 0
173 197 0
176 199 0
173 197 0
174 197 0
175 198 0
175 198 0
174 197 0
174 198 0
173 197 0
174 197 0
173 196 0
173 197 0
173 197 0
173 197 0
173 197 0
173 197 0
173 197 0
174 197 0
173 197 0
173 196 0
174 198 0
173 197 0
173 197 0
173 197 0
175 198 0
174 197 0
174 197 0
173 197 0
174 198 0
175 198 0
173 197 0
173 197 0
175 198 0
174 197 0
174 197 0
175 198 0
173 197 0
174 198 0
175 198 0
174 197 0
174 197 0
174 197 0
172 196 0
174 197 0
174 197 0
174 197 0
173 197 36
194 215 186
209 228 254
209 229 255
209 229 255
209 229 255
209 229 255
209 229 255
209 229 255
209 229 255
209 229 255
209 228 255
209 228 255
208 228 255
208 228 255
208 228 255
208 228 255
208 228 255
208 228 255
208 228 255
208 228 255
208 228 255
208 228 255
208 228 255
208 228 255
208 228 255
208 228 255
208 228 255
208 228 255
208 228 255
208 228 255
208 228 255
208 228 255
208 228 255
208 228 255
208 228 255
207 228 255
207 228 255
207 228 255
207 228 255
207 228 255
207 228 255
207 228 255
207 228 255
207 228 255
207 228 255
207 228 255
207 228 255
207 228 255
207 228 255
207 228 255
207 228 255
207 228 255
207 228 255
207 228 255
207 228 255
207 228 255
207 228 255
207 228 255
207 227 255
205 226 254
170 192 230
101 129 191
62 99 173
62 98 172
62 99 174
61 98 169
61 98 175
61 98 170
62 99 172
62 98 169
61 98 169
63 99 173
62 99 172
62 99 170
62 98 168
62 98 168
62 99 176
62 99 171
62 98 173
61 98 173
62 98 164
62 99 174
63 99 176
61 98 166
63 99 174
61 98 170
62 98 169
62 98 173
62 99 175
61 98 169
62 98 170
63 99 173
62 98 169
62 98 168
62 99 177
62 99 175
61 98 170
63 99 175
62 98 172
62 99 175
62 98 169
60 97 171
109 136 193
166 188 227
205 226 254
207 227 255
207 228 255
207 228 255
207 228 255
207 228 255
207 228 255
207 228 255
207 228 255
207 228 255
207 228 255
207 228 255
207 228 255
207 228 255
207 228 255
207 228 255
207 228 255
207 228 255
207 228 255
207 228 255
207 228 255
207 228 255
207 228 255
207 228 255
207 228 255
208 228 255
208 228 255
208 228 255
208 228 255
208 228 255
208 228 255
208 228 255
208 228 255
208 228 255
208 228 255
208 228 255
208 228 255
208 228 255
208 228 255
208 228 255
208 228 255
208 228 255
208 228 255
208 228 255
208 228 255
208 228 255
208 228 255
208 228 255
209 228 255
209 228 255
209 229 255
209 229 255
209 229 255
209 229 255
209 229 255
209 229 255
209 229 255
209 229 255
208 227 253
176 187 191
142 141 107
132 130 87
122 122 82
135 134 90
140 138 93
143 141 94
141 140 94
137 136 92
148 145 97
140 138 93
138 137 92
139 138 93
145 144 97
148 148 100
146 145 98
149 147 98
150 148 99
149 148 100
143 141 94
155 154 103
153 151 101
144 143 96
156 154 103
149 146 98
153 152 102
147 145 97
153 152 102
158 155 103
150 148 100
157 156 105
146 143 96
155 153 103
157 155 103
158 156 104
153 151 101
156 154 103
152 150 101
161 157 104
160 157 105
155 154 103
157 155 104
161 158 105
155 152 101
152 150 100
156 154 103
152 150 100
154 152 101
155 152 101
157 155 103
156 153 102
157 153 101
157 154 103
152 149 99
161 158 105
161 158 105
167 164 109
155 152 101
167 163 108
156 152 101
160 157 104
162 158 103
160 157 104
152 149 97
162 160 106
157 153 101
158 156 103
161 157 102
159 155 101
158 154 101
156 153 100
161 157 102
157 154 102
158 155 102
158 155 101
152 149 99
159 155 102
154 151 100
151 147 96
159 155 102
154 150 97
156 152 98
157 154 99
158 154 101
157 154 99
158 154 100
151 148 96
158 155 103
159 155 101
153 148 96
157 153 101
149 145 94
154 151 99
151 147 92
152 148 96
160 156 102
156 152 97
154 150 99
143 139 86
157 153 100
142 138 88
147 143 93
155 150 97
153 149 95
152 148 90
153 149 95
135 132 83
149 144 90
155 151 99
153 149 93
154 149 95
155 150 97
148 144 90
142 138 85
148 144 92
141 137 87
144 140 91
143 138 87
146 142 90
173 197 0
173 197 0
174 198 0
175 198 0
172 196 0
174 197 0
173 197 0
175 198 0
175 198 0
172 196 0
175 198 0
172 196 0
174 197 0
173 196 0
174 197 0
175 198 0
175 198 0
171 195 0
174 198 0
173 197 0
175 198 0
175 198 0
174 197 0
175 198 0
175 198 0
173 196 0
174 198 0
174 198 0
173 197 0
175 198 0
173 197 0
175 198 0
176 198 0
172 196 0
175 198 0
174 198 0
173 197 0
173 197 0
174 198 0
173 197 0
175 198 0
174 197 0
174 198 0
174 197 0
174 198 0
173 197 0
175 198 0
173 197 0
173 196 0
175 198 0
175 198 0
174 197 0
173 197 0
174 198 0
175 198 0
173 196 0
173 197 0
173 197 0
176 198 0
175 198 0
176 199 0
175 198 0
175 198 0
173 197 0
175 198 0
172 196 0
174 197 0
175 198 0
174 197 0
175 198 0
174 198 0
174 198 0
174 197 0
173 197 0
174 197 0
175 198 0
176 199 0
173 197 0
172 197 0
175 198 0
176 198 0
174 197 0
174 198 0
174 197 0
173 197 0
174 198 0
174 198 0
173 197 0
173 197 0
173 197 0
174 197 0
174 198 0
174 198 0
172 196 0
174 197 0
174 197 0
173 197 0
174 197 0
174 198 0
174 197 0
173 197 0
174 198 0
175 198 0
176 199 0
173 197 0
176 199 0
177 199 0
176 198 0
174 197 0
173 197 0
174 197 0
173 196 0
172 195 0
173 196 0
173 197 0
173 197 0
175 198 0
175 198 0
174 197 0
182 204 105
202 223 226
209 229 255
209 229 255
209 229 255
209 229 255
209 229 255
209 229 255
209 229 255
209 229 255
209 229 255
209 229 255
209 229 255
209 229 255
209 228 255
209 228 255
208 228 255
208 228 255
208 228 255
208 228 255
208 228 255
208 228 255
208 228 255
208 228 255
208 228 255
208 228 255
208 228 255
208 228 255
208 228 255
208 228 255
208 228 255
208 228 255
208 228 255
208 228 255
208 228 255
208 228 255
208 228 255
208 228 255
208 228 255
208 228 255
208 228 255
207 228 255
207 228 255
207 228 255
207 228 255
207 228 255
207 228 255
207 228 255
207 228 255
207 228 255
207 228 255
207 228 255
207 228 255
207 228 255
207 228 255
207 228 255
205 226 254
155 178 218
94 123 183
62 99 171
61 97 164
62 98 169
62 99 173
62 98 167
62 99 173
63 99 171
62 99 171
61 98 172
63 99 169
62 98 171
62 99 171
62 99 170
62 98 171
62 99 170
62 99 173
61 98 164
62 98 166
62 99 170
62 99 168
62 99 170
62 98 168
61 98 169
63 99 173
62 99 169
63 99 172
62 98 169
62 98 166
61 98 169
62 99 174
61 97 167
62 98 171
62 98 168
62 99 176
62 99 174
62 98 171
62 99 173
62 98 170
62 98 174
63 99 174
62 99 173
61 97 170
61 97 170
61 98 174
98 126 188
169 190 229
206 227 255
207 228 255
207 228 255
207 228 255
207 228 255
207 228 255
207 228 255
207 228 255
207 228 255
207 228 255
207 228 255
207 228 255
207 228 255
207 228 255
207 228 255
207 228 255
208 228 255
208 228 255
208 228 255
208 228 255
208 228 255
208 228 255
208 228 255
208 228 255
208 228 255
208 228 255
208 228 255
208 228 255
208 228 255
208 228 255
208 228 255
208 228 255
208 228 255
208 228 255
208 228 255
208 228 255
208 228 255
208 228 255
208 228 255
208 228 255
208 228 255
209 228 255
209 229 255
209 229 255
209 229 255
209 229 255
209 229 255
209 229 255
209 229 255
209 229 255
209 229 255
209 229 255
209 229 255
209 229 255
209 229 255
192 209 228
153 156 137
130 127 84
127 126 84
136 134 89
133 132 89
131 129 86
139 137 91
145 144 97
145 144 97
149 147 99
141 141 95
144 142 95
141 140 95
157 155 103
151 148 99
146 145 97
142 141 95
144 143 96
142 141 95
144 143 96
155 153 102
144 143 96
153 151 102
148 147 98
150 149 100
154 152 102
150 149 100
147 146 98
150 149 100
156 155 104
151 149 100
154 153 103
161 160 107
154 152 102
157 156 104
160 157 104
162 160 107
165 163 109
157 155 104
159 156 104
150 149 100
161 158 105
157 154 102
151 149 99
153 150 99
155 153 101
159 156 104
162 159 106
159 157 105
156 152 101
161 158 105
162 159 106
163 160 106
151 149 99
159 155 103
163 159 104
153 150 100
161 157 104
153 150 99
162 159 106
155 151 100
160 157 103
159 155 103
155 152 101
161 158 102
159 156 101
157 153 101
161 158 105
161 158 105
156 152 99
165 160 103
154 151 99
154 151 98
157 154 99
160 156 101
154 151 99
154 150 99
157 153 100
160 156 101
155 152 99
152 148 96
156 153 99
159 154 99
164 159 103
153 149 97
153 149 97
149 145 93
154 151 98
161 156 102
157 153 101
158 154 100
156 153 99
153 148 95
158 153 99
155 150 97
154 150 96
159 154 101
154 151 99
155 150 95
148 145 95
154 150 96
149 146 93
156 152 95
154 150 94
144 140 87
146 142 91
148 144 89
161 155 95
142 138 83
164 159 101
145 142 93
150 145 90
147 143 90
151 146 91
145 141 87
148 144 91
139 136 84
150 145 91
145 140 90
145 141 88
173 196 0
171 196 0
172 195 0
173 197 0
174 198 0
175 198 0
171 195 0
173 197 0
172 196 0
175 198 0
173 197 0
172 196 0
172 196 0
174 197 0
173 197 0
174 198 0
173 197 0
174 197 0
173 196 0
174 198 0
172 196 0
174 197 0
174 198 0
173 196 0
173 196 0
172 197 0
173 197 0
174 197 0
173 197 0
175 198 0
173 197 0
174 198 0
174 197 0
175 198 0
174 197 0
174 198 0
174 198 0
173 196 0
174 198 0
174 198 0
174 196 0
177 199 0
175 198 0
175 198 0
174 197 0
174 198 0
173 197 0
174 198 0
172 196 0
174 197 0
174 197 0
174 197 0
173 197 0
174 198 0
173 197 0
174 197 0
173 197 0
173 196 0
173 197 0
174 197 0
176 199 0
173 197 0
174 198 0
172 197 0
173 196 0
173 197 0
175 198 0
174 197 0
174 197 0
175 198 0
175 198 0
174 198 0
172 196 0
174 198 0
175 198 0
173 197 0
174 198 0
175 198 0
173 196 0
174 197 0
175 198 0
172 196 0
174 197 0
174 197 0
174 197 0
174 198 0
174 197 0
174 197 0
174 197 0
173 197 0
177 199 0
174 197 0
175 198 0
175 198 0
175 198 0
175 198 0
174 198 0
176 198 0
176 198 0
174 197 0
175 198 0
176 198 0
173 197 0
174 198 0
172 196 0
175 198 0
175 198 0
173 197 0
174 197 0
175 198 0
173 196 0
172 195 0
175 198 0
174 197 0
173 196 0
175 198 0
174 197 0
173 197 0
175 198 0
173 196 0
174 198 0
190 212 167
209 229 255
209 229 255
209 229 255
209 229 255
209 229 255
209 229 255
209 229 255
209 229 255
209 229 255
209 229 255
209 229 255
209 229 255
209 229 255
209 229 255
209 229 255
209 229 255
209 229 255
209 228 255
209 228 255
208 228 255
208 228 255
208 228 255
208 228 255
208 228 255
208 228 255
208 228 255
208 228 255
208 228 255
208 228 255
208 228 255
208 228 255
208 228 255
208 228 255
208 228 255
208 228 255
208 228 255
208 228 255
208 228 255
208 228 255
208 228 255
208 228 255
208 228 255
208 228 255
208 228 255
208 228 255
208 228 255
207 228 255
207 228 255
207 228 255
207 228 255
207 228 255
207 228 255
178 199 233
98 127 188
62 99 169
62 98 170
62 99 172
62 99 171
63 99 174
61 98 167
62 99 171
62 98 166
61 98 169
62 99 169
62 98 170
62 99 171
62 99 167
62 99 175
62 99 174
63 99 170
63 99 171
61 98 169
63 99 173
61 98 168
62 98 164
62 98 166
61 97 164
62 98 169
63 99 172
62 99 172
62 98 167
61 97 160
62 99 170
62 98 166
62 98 168
61 98 165
61 98 170
62 99 171
62 98 169
62 99 173
62 99 172
61 98 170
60 97 160
61 97 167
62 98 170
62 98 169
62 99 171
62 98 170
61 98 169
63 99 176
61 98 173
61 97 169
92 121 183
177 198 234
207 228 255
207 228 255
207 228 255
207 228 255
207 228 255
207 228 255
208 228 255
208 228 255
208 228 255
208 228 255
208 228 255
208 228 255
208 228 255
208 228 255
208 228 255
208 228 255
208 228 255
208 228 255
208 228 255
208 228 255
208 228 255
208 228 255
208 228 255
208 228 255
208 228 255
208 228 255
208 228 255
208 228 255
208 228 255
208 228 255
208 228 255
208 228 255
208 228 255
209 228 255
209 228 255
209 229 255
209 229 255
209 229 255
209 229 255
209 229 255
209 229 255
209 229 255
209 229 255
209 229 255
209 229 255
209 229 255
209 229 255
209 229 255
209 229 255
209 229 255
209 229 255
208 228 254
178 189 193
120 118 78
127 126 84
128 126 84
130 129 86
138 137 91
140 138 93
129 129 88
132 131 89
139 138 93
143 142 96
145 143 96
146 145 97
149 147 99
142 141 96
147 146 98
153 151 102
157 155 105
155 153 103
147 146 98
152 151 103
143 142 95
157 155 104
154 153 103
150 148 99
148 146 98
155 154 104
157 154 103
154 152 102
153 151 101
151 149 100
155 152 101
150 148 99
148 146 97
160 156 104
150 148 99
153 151 102
155 153 102
158 156 104
156 155 104
158 156 105
155 153 102
164 161 107
160 157 105
164 161 107
158 155 102
156 153 102
156 153 102
158 156 104
153 151 101
156 153 101
162 160 106
157 154 103
157 154 102
153 150 100
157 154 102
159 156 104
159 155 103
162 159 105
166 163 108
168 164 108
159 156 104
154 151 100
168 164 108
155 152 101
165 161 106
165 161 106
155 152 99
163 160 106
159 156 104
156 153 101
156 152 98
155 151 99
157 153 101
155 151 99
159 154 99
156 152 99
158 154 99
153 151 97
153 149 97
155 152 99
153 150 97
158 153 97
158 154 100
163 159 104
165 160 105
162 158 103
157 153 97
158 154 101
162 158 101
151 147 92
156 153 99
151 147 95
159 156 99
155 152 97
155 151 98
155 150 97
151 147 94
155 150 95
156 152 97
159 156 100
154 151 98
157 154 97
149 146 95
149 145 94
157 152 93
159 154 97
154 150 95
152 147 94
152 147 95
147 144 92
150 146 94
159 154 97
144 141 91
158 153 95
147 142 87
145 140 87
149 145 90
145 141 88
144 141 93
150 145 90
149 145 93
173 197 0
173 197 0
173 197 0
174 197 0
174 198 0
173 197 0
175 198 0
172 195 0
176 199 0
174 198 0
175 197 0
172 196 0
175 198 0
172 197 0
171 195 0
175 198 0
174 198 0
173 196 0
174 198 0
174 197 0
174 197 0
174 198 0
176 198 0
175 198 0
174 197 0
174 198 0
174 197 0
174 197 0
173 196 0
174 198 0
174 198 0
174 197 0
175 198 0
175 198 0
175 198 0
173 197 0
174 198 0
175 198 0
173 197 0
173 197 0
174 198 0
174 197 0
174 197 0
176 198 0
174 197 0
173 197 0
174 197 0
174 198 0
175 198 0
174 198 0
174 198 0
175 198 0
173 197 0
174 197 0
174 198 0
175 198 0
176 198 0
173 197 0
174 198 0
172 197 0
174 198 0
175 198 0
172 196 0
173 197 0
174 198 0
174 197 0
173 197 0
174 197 0
175 198 0
174 198 0
174 197 0
175 198 0
174 197 0
175 198 0
174 198 0
175 198 0
175 198 0
174 197 0
172 196 0
172 197 0
175 198 0
173 197 0
175 198 0
174 197 0
174 198 0
173 197 0
173 197 0
174 198 0
172 197 0
174 198 0
175 198 0
175 198 0
174 198 0
175 198 0
172 196 0
174 198 0
174 198 0
175 198 0
172 197 0
173 197 0
173 197 0
172 196 0
175 198 0
173 197 0
174 198 0
174 197 0
173 197 0
173 197 0
173 197 0
173 197 0
173 197 0
173 197 0
175 198 0
175 198 0
174 198 0
174 198 0
172 195 0
174 198 0
172 196 0
173 197 0
173 197 0
175 198 0
177 200 88
206 226 241
209 229 255
209 229 255
209 229 255
209 229 255
209 229 255
209 229 255
209 229 255
209 229 255
209 229 255
209 229 255
209 229 255
209 229 255
209 229 255
209 229 255
209 229 255
209 229 255
209 229 255
209 229 255
209 229 255
209 229 255
209 229 255
209 228 255
209 228 255
208 228 255
208 228 255
208 228 255
208 228 255
208 228 255
208 228 255
208 228 255
208 228 255
208 228 255
208 228 255
208 228 255
208 228 255
208 228 255
208 228 255
208 228 255
208 228 255
208 228 255
208 228 255
208 228 255
208 228 255
208 228 255
208 228 255
208 228 255
208 228 255
208 228 255
204 224 253
125 150 202
62 99 172
62 99 175
61 98 168
62 99 171
62 98 169
62 99 171
62 99 176
61 98 170
62 98 162
62 98 166
62 99 170
62 98 170
62 99 169
62 99 173
62 99 165
62 99 167
63 99 172
62 99 168
63 99 172
62 98 167
62 99 172
61 98 165
62 98 169
61 97 167
61 98 164
61 97 159
62 98 165
62 98 165
62 98 161
62 98 169
62 99 174
63 99 171
61 97 165
62 98 169
62 98 166
62 98 168
62 99 172
62 98 167
62 98 166
62 99 173
62 98 169
63 99 167
62 98 172
62 98 167
62 98 167
61 98 172
61 96 163
61 97 164
62 99 175
62 98 174
61 97 170
61 96 165
123 148 201
190 211 243
208 228 255
208 228 255
208 228 255
208 228 255
208 228 255
208 228 255
208 228 255
208 228 255
208 228 255
208 228 255
208 228 255
208 228 255
208 228 255
208 228 255
208 228 255
208 228 255
208 228 255
208 228 255
208 228 255
208 228 255
208 228 255
208 228 255
208 228 255
208 228 255
208 228 255
209 228 255
209 229 255
209 229 255
209 229 255
209 229 255
209 229 255
209 229 255
209 229 255
209 229 255
209 229 255
209 229 255
209 229 255
209 229 255
209 229 255
209 229 255
209 229 255
209 229 255
209 229 255
209 229 255
209 229 255
209 229 255
209 229 255
209 229 255
203 220 242
145 149 132
135 132 86
136 133 89
130 129 87
141 140 94
142 140 94
143 141 95
139 137 92
140 139 94
147 144 96
147 145 97
135 133 89
140 138 93
145 143 96
141 141 96
149 149 100
143 141 95
152 151 101
148 147 99
154 153 103
158 156 104
155 153 103
151 150 101
152 150 100
154 152 102
153 152 102
151 150 101
158 155 104
150 148 100
160 158 106
153 151 101
151 149 100
157 154 103
154 151 101
153 152 102
161 159 106
158 155 103
157 154 103
155 153 103
163 160 107
152 150 101
162 159 105
155 153 103
157 154 102
154 152 101
157 155 103
160 157 104
152 149 99
157 154 102
160 157 103
165 163 109
159 156 104
158 156 104
160 157 104
165 162 107
166 162 106
159 156 102
155 152 101
149 145 94
162 160 104
164 160 106
161 157 104
161 157 103
159 156 103
159 156 103
152 148 98
158 155 101
162 158 103
154 150 99
158 154 102
160 156 99
154 151 99
159 155 101
159 156 103
154 151 98
154 151 98
158 155 101
155 151 99
157 153 100
159 155 100
161 157 101
164 159 101
164 160 106
162 157 101
161 157 102
155 152 99
160 156 101
153 150 96
159 154 100
151 148 95
157 153 98
160 156 100
152 148 95
150 147 94
151 147 93
152 147 94
161 157 100
157 153 97
159 155 98
151 146 90
158 153 97
152 148 95
150 145 93
151 147 92
148 144 93
148 144 91
155 150 95
144 140 91
158 154 97
149 145 91
157 152 97
154 149 92
153 149 94
152 148 94
150 145 93
147 142 89
152 147 93
155 149 93
146 142 89
140 136 84
149 145 92
144 139 86
146 142 89
173 197 0
174 197 0
174 198 0
174 197 0
175 197 0
173 197 0
174 198 0
175 198 0
172 196 0
174 197 0
174 197 0
172 196 0
172 196 0
173 197 0
175 198 0
172 196 0
175 198 0
176 198 0
173 197 0
175 198 0
175 198 0
175 198 0
174 197 0
174 197 0
174 198 0
175 198 0
172 196 0
174 197 0
174 198 0
176 198 0
175 198 0
174 197 0
173 197 0
175 198 0
174 198 0
174 198 0
174 197 0
175 198 0
173 197 0
173 197 0
173 197 0
174 197 0
174 197 0
174 197 0
175 198 0
175 198 0
176 199 0
174 197 0
174 198 0
174 198 0
174 197 0
172 196 0
172 196 0
175 198 0
174 198 0
174 198 0
175 198 0
175 198 0
174 198 0
175 198 0
173 197 0
174 198 0
173 197 0
174 198 0
175 198 0
176 198 0
174 197 0
173 197 0
175 198 0
174 198 0
176 199 0
175 198 0
174 198 0
173 196 0
176 199 0
173 197 0
175 198 0
174 197 0
174 198 0
174 197 0
174 197 0
174 197 0
173 197 0
173 197 0
174 198 0
175 198 0
174 198 0
174 197 0
174 197 0
175 198 0
174 198 0
174 197 0
175 198 0
173 197 0
174 198 0
174 198 0
175 198 0
173 197 0
173 197 0
174 197 0
173 197 0
173 197 0
174 197 0
174 197 0
173 197 0
175 198 0
176 199 0
176 199 0
175 198 0
176 198 0
173 197 0
174 198 0
174 197 0
173 196 0
175 198 0
174 197 0
175 198 0
173 196 0
174 197 0
174 197 0
174 197 0
175 198 0
176 199 0
175 197 44
195 216 188
210 229 255
210 229 255
210 229 255
210 229 255
210 229 255
209 229 255
209 229 255
209 229 255
209 229 255
209 229 255
209 229 255
209 229 255
209 229 255
209 229 255
209 229 255
209 229 255
209 229 255
209 229 255
209 229 255
209 229 255
209 229 255
209 229 255
209 229 255
209 229 255
209 229 255
209 229 255
209 229 255
209 228 255
209 228 255
208 228 255
208 228 255
208 228 255
208 228 255
208 228 255
208 228 255
208 228 255
208 228 255
208 228 255
208 228 255
208 228 255
208 228 255
208 228 255
208 228 255
208 228 255
208 228 255
208 228 255
161 183 222
81 112 176
61 98 170
61 98 165
62 98 172
62 99 170
61 98 165
62 98 164
62 99 167
61 98 162
61 98 167
62 99 170
62 99 169
62 99 170
62 98 165
62 99 170
62 99 169
62 99 171
63 99 172
61 98 169
62 98 166
62 98 168
62 98 165
62 98 165
62 99 173
62 98 166
62 99 173
63 99 170
62 99 168
62 98 166
62 99 166
62 98 168
62 98 163
62 98 171
62 98 168
61 98 166
62 99 167
62 99 171
62 98 165
63 99 175
61 98 164
62 98 164
62 98 172
62 99 171
62 98 168
62 98 169
62 99 173
62 98 169
62 98 167
61 96 162
62 99 169
61 97 170
61 97 167
62 98 169
61 97 169
61 98 172
70 103 176
156 178 216
207 227 255
208 228 255
208 228 255
208 228 255
208 228 255
208 228 255
208 228 255
208 228 255
208 228 255
208 228 255
208 228 255
208 228 255
208 228 255
208 228 255
208 228 255
208 228 255
208 228 255
209 228 255
209 228 255
209 229 255
209 229 255
209 229 255
209 229 255
209 229 255
209 229 255
209 229 255
209 229 255
209 229 255
209 229 255
209 229 255
209 229 255
209 229 255
209 229 255
209 229 255
209 229 255
209 229 255
209 229 255
209 229 255
209 229 255
209 229 255
209 229 255
210 229 255
210 229 255
210 229 255
210 229 255
210 229 255
179 192 202
132 130 93
132 130 87
129 127 84
132 130 87
131 129 87
138 136 91
150 148 100
140 140 95
144 142 96
137 136 92
143 142 96
148 147 100
145 145 99
142 141 95
144 143 96
148 146 98
145 144 97
148 147 99
148 147 99
157 155 104
148 146 98
150 149 100
151 150 101
149 148 99
152 150 100
157 156 106
155 154 103
151 149 100
141 140 95
157 154 102
161 158 106
153 151 101
153 150 100
161 158 105
156 154 103
160 158 105
157 155 104
157 155 104
160 157 105
157 155 103
158 155 103
158 155 102
161 158 105
163 160 106
167 164 109
164 160 106
161 159 105
163 160 107
159 156 103
159 156 104
162 160 107
156 153 102
169 166 110
160 156 103
156 153 101
163 160 106
169 164 108
165 161 106
161 157 103
162 159 105
165 161 104
167 162 107
166 162 106
166 162 106
162 158 104
164 160 106
161 157 103
159 155 101
163 159 103
160 156 103
157 153 99
154 150 99
165 161 104
157 154 101
155 151 99
162 157 102
160 155 101
159 155 102
159 155 102
156 153 101
152 149 98
157 153 99
158 155 99
153 149 96
159 155 99
151 148 95
159 155 101
159 156 103
164 160 103
157 153 99
156 152 97
153 150 97
158 153 97
159 154 98
156 153 97
152 148 95
162 158 103
152 148 94
158 154 97
155 150 92
154 150 97
152 148 94
151 147 90
162 156 99
155 150 95
159 153 96
152 147 95
158 153 98
154 149 94
151 147 93
153 148 93
143 139 87
150 146 91
146 142 87
149 145 90
153 148 93
150 145 89
145 141 89
152 147 95
149 144 90
150 146 90
160 156 96
150 147 91
150 146 93
174 197 0
173 196 0
175 198 0
172 196 0
175 198 0
175 198 0
174 198 0
174 197 0
174 197 0
173 197 0
175 198 0
174 197 0
174 198 0
175 198 0
174 197 0
174 197 0
173 197 0
175 198 0
176 198 0
174 198 0
174 198 0
174 197 0
174 197 0
175 198 0
173 196 0
172 196 0
174 197 0
175 198 0
174 198 0
174 198 0
175 198 0
173 197 0
174 198 0
175 198 0
174 197 0
175 198 0
174 197 0
172 196 0
173 196 0
175 198 0
175 198 0
175 198 0
175 198 0
174 198 0
175 198 0
173 197 0
174 197 0
175 198 0
172 196 0
175 198 0
172 197 0
173 197 0
174 197 0
174 198 0
174 197 0
174 198 0
174 198 0
171 195 0
175 198 0
174 197 0
175 198 0
174 197 0
174 197 0
175 198 0
174 197 0
175 198 0
174 198 0
174 198 0
175 198 0
174 198 0
173 197 0
174 197 0
175 198 0
175 198 0
172 197 0
176 199 0
175 198 0
173 197 0
175 198 0
174 197 0
172 196 0
175 198 0
174 198 0
176 199 0
174 198 0
175 198 0
173 197 0
173 197 0
176 199 0
174 198 0
176 199 0
175 198 0
175 198 0
174 198 0
175 198 0
173 197 0
173 197 0
174 197 0
174 197 0
174 197 0
175 198 0
173 196 0
174 197 0
174 197 0
174 198 0
173 197 0
174 197 0
174 197 0
175 198 0
174 197 0
173 197 0
176 199 0
175 198 0
175 198 0
174 197 0
173 196 0
174 197 0
173 197 0
171 195 0
172 196 0
174 197 0
175 198 0
175 198 0
175 198 0
176 199 0
188 209 157
209 229 253
210 229 255
210 229 255
210 229 255
210 229 255
210 229 255
210 229 255
210 229 255
210 229 255
210 229 255
209 229 255
209 229 255
209 229 255
209 229 255
209 229 255
209 229 255
209 229 255
209 229 255
209 229 255
209 229 255
209 229 255
209 229 255
209 229 255
209 229 255
209 229 255
209 229 255
209 229 255
209 229 255
209 229 255
209 229 255
209 229 255
209 229 255
209 229 255
209 229 255
209 228 255
209 228 255
209 228 255
208 228 255
208 228 255
208 228 255
208 228 255
208 228 255
208 228 255
198 218 247
112 138 191
61 98 168
61 98 167
61 98 165
62 99 168
62 98 170
62 99 170
63 99 174
62 99 169
62 98 168
62 99 169
61 97 165
62 99 169
62 98 162
62 98 165
61 97 164
62 99 167
62 99 170
62 98 165
62 98 163
62 98 166
62 99 170
63 99 164
62 98 169
62 98 165
62 99 171
62 99 165
62 98 167
63 99 167
63 99 170
62 98 163
62 99 167
62 98 162
62 98 166
62 98 169
62 99 171
63 99 169
62 98 167
62 99 171
62 99 171
61 98 165
62 99 173
62 99 170
63 99 170
62 98 165
62 98 164
61 98 165
63 99 170
61 97 166
62 98 168
61 97 162
63 99 174
61 97 166
62 98 168
62 98 171
62 98 169
62 98 172
62 98 174
61 97 163
108 133 185
189 210 243
208 228 255
208 228 255
208 228 255
208 228 255
208 228 255
208 228 255
209 228 255
209 228 255
209 228 255
209 229 255
209 229 255
209 229 255
209 229 255
209 229 255
209 229 255
209 229 255
209 229 255
209 229 255
209 229 255
209 229 255
209 229 255
209 229 255
209 229 255
209 229 255
209 229 255
209 229 255
209 229 255
209 229 255
209 229 255
209 229 255
209 229 255
209 229 255
209 229 255
210 229 255
210 229 255
210 229 255
210 229 255
210 229 255
210 229 255
210 229 255
210 229 255
210 229 255
205 224 249
161 167 159
132 130 86
133 131 86
132 130 87
136 134 90
144 142 95
133 132 89
139 138 93
143 142 95
145 143 96
147 147 100
147 146 98
152 150 101
146 144 96
153 151 101
145 144 97
143 142 96
149 148 99
150 148 99
147 146 98
144 143 97
160 158 106
154 152 103
150 149 100
156 154 103
161 158 106
157 154 103
153 152 102
158 156 104
152 149 99
155 153 102
165 162 108
159 157 105
161 158 105
156 153 101
154 151 101
160 158 105
158 155 103
162 159 106
161 159 106
163 161 108
156 154 102
161 159 105
160 158 104
162 159 106
166 162 107
158 156 103
155 153 102
164 160 106
165 162 108
152 150 100
158 155 103
159 156 103
164 161 106
163 160 106
164 161 105
160 157 103
162 159 104
160 157 104
162 159 104
166 162 107
164 161 106
165 162 108
160 155 101
167 162 106
166 162 107
163 160 104
166 162 106
165 161 107
154 151 99
163 159 104
156 152 101
162 157 102
158 154 101
158 153 99
160 156 101
160 157 102
152 150 96
160 156 101
158 155 101
163 159 102
159 155 99
151 148 95
161 159 103
158 153 99
155 152 97
155 152 99
159 155 97
157 152 99
158 154 97
157 153 98
164 160 103
156 152 99
162 157 101
152 149 94
147 144 94
159 154 97
164 158 101
155 151 97
155 150 96
156 151 96
158 152 97
155 151 95
161 156 99
155 151 93
149 145 92
154 151 96
151 147 95
154 149 95
154 150 93
149 143 91
153 148 90
144 140 87
148 143 87
155 150 92
153 149 93
155 151 95
155 150 93
153 149 95
148 145 90
145 141 86
153 149 95
155 150 95
151 148 91
149 146 91
150 146 93
175 198 0
174 198 0
176 198 0
173 197 0
173 196 0
174 197 0
174 197 0
175 198 0
173 197 0
174 198 0
173 197 0
176 199 0
174 198 0
173 197 0
174 197 0
173 197 0
176 199 0
175 198 0
173 197 0
174 198 0
174 197 0
176 198 0
174 198 0
174 197 0
173 197 0
175 198 0
175 198 0
175 198 0
173 197 0
173 197 0
174 197 0
175 198 0
173 197 0
176 198 0
175 198 0
172 196 0
173 197 0
173 197 0
175 198 0
174 198 0
174 198 0
175 198 0
174 197 0
174 198 0
174 197 0
175 198 0
172 196 0
177 199 0
174 197 0
173 197 0
174 197 0
175 198 0
174 198 0
172 196 0
174 197 0
174 197 0
174 197 0
173 197 0
174 198 0
175 198 0
173 197 0
173 197 0
174 197 0
175 198 0
174 197 0
173 197 0
172 196 0
174 197 0
172 197 0
176 199 0
174 197 0
173 196 0
174 197 0
173 197 0
176 198 0
174 197 0
174 197 0
175 198 0
173 197 0
173 197 0
174 198 0
172 196 0
173 197 0
173 197 0
173 197 0
171 195 0
171 195 0
175 198 0
173 197 0
175 198 0
175 198 0
175 198 0
173 197 0
175 198 0
173 197 0
174 197 0
173 196 0
174 198 0
174 198 0
174 198 0
172 196 0
171 195 0
174 197 0
174 198 0
174 198 0
173 197 0
175 198 0
174 197 0
174 197 0
174 198 0
173 197 0
174 197 0
171 195 0
174 197 0
174 198 0
174 198 0
174 198 0
173 197 0
174 198 0
174 197 0
174 197 0
173 197 0
172 196 0
174 197 0
174 198 0
175 198 0
181 204 105
204 224 233
210 229 255
210 229 255
210 229 255
210 229 255
210 229 255
210 229 255
210 229 255
210 229 255
210 229 255
210 229 255
210 229 255
210 229 255
210 229 255
210 229 255
209 229 255
209 229 255
209 229 255
209 229 255
209 229 255
209 229 255
209 229 255
209 229 255
209 229 255
209 229 255
209 229 255
209 229 255
209 229 255
209 229 255
209 229 255
209 229 255
209 229 255
209 229 255
209 229 255
209 229 255
209 229 255
209 229 255
209 229 255
209 229 255
209 229 255
209 229 255
180 201 234
70 104 173
62 99 170
62 99 170
62 99 167
61 97 162
62 98 167
61 98 166
62 98 167
61 98 165
61 97 163
62 98 170
61 98 166
62 99 170
62 98 160
62 98 168
62 98 167
62 99 172
62 98 167
61 98 164
62 98 163
61 98 167
62 99 170
61 97 159
62 98 168
63 100 171
63 99 172
63 99 162
62 98 162
62 98 170
61 97 163
63 99 172
63 99 173
62 98 166
62 99 166
63 99 173
62 98 165
62 98 168
63 99 168
62 98 168
62 98 171
61 98 162
62 98 164
62 98 162
62 97 160
61 97 160
62 98 169
62 98 165
62 98 166
62 98 163
62 98 170
62 98 166
62 97 163
63 99 172
61 98 167
63 98 168
61 96 163
61 97 166
61 97 167
61 95 165
61 97 168
61 96 163
76 108 176
173 193 229
209 229 255
209 229 255
209 229 255
209 229 255
209 229 255
209 229 255
209 229 255
209 229 255
209 229 255
209 229 255
209 229 255
209 229 255
209 229 255
209 229 255
209 229 255
209 229 255
209 229 255
209 229 255
209 229 255
209 229 255
209 229 255
209 229 255
209 229 255
209 229 255
209 229 255
209 229 255
210 229 255
210 229 255
210 229 255
210 229 255
210 229 255
210 229 255
210 229 255
210 229 255
210 229 255
210 229 255
210 229 255
210 229 255
210 229 255
210 229 255
203 221 243
140 142 122
132 130 87
143 140 94
144 141 94
138 135 90
137 135 90
143 141 95
146 143 97
138 137 92
143 141 94
146 145 98
144 142 96
156 154 103
145 144 97
144 142 95
138 137 92
141 141 96
148 147 99
153 151 101
147 146 99
149 147 99
147 146 99
151 149 101
150 149 101
152 151 102
156 154 103
149 148 100
159 157 105
152 151 102
156 155 104
154 152 102
160 158 105
149 148 99
156 155 103
153 150 99
159 156 104
155 153 102
157 154 103
158 156 103
158 156 104
160 158 105
160 157 105
165 162 107
161 158 105
160 156 103
166 164 109
166 163 108
161 158 105
164 160 106
165 162 107
161 158 103
164 161 106
168 163 107
158 156 103
165 161 104
166 162 105
166 160 104
169 165 109
161 158 104
157 153 101
161 157 102
155 152 100
163 160 105
162 158 103
168 164 106
155 151 99
172 167 110
157 154 100
162 158 103
162 157 99
161 157 102
165 161 104
166 162 106
160 156 101
160 156 100
167 162 104
159 155 101
158 155 101
169 164 106
160 156 101
161 157 102
156 152 99
160 157 102
163 159 103
162 158 102
158 155 99
161 157 103
159 154 98
161 156 100
151 147 94
161 157 101
162 157 99
156 153 98
162 157 101
158 155 99
158 155 101
157 153 98
162 157 101
156 152 95
153 150 95
153 148 95
159 153 97
153 149 94
155 151 95
159 155 97
158 153 96
156 152 95
156 152 96
153 149 90
156 152 93
157 152 97
152 147 93
158 154 99
154 149 91
149 144 90
152 146 90
160 155 99
150 146 87
159 153 97
152 148 93
148 144 89
158 153 97
153 148 92
142 137 84
158 153 96
148 143 87
149 145 90
175 197 0
174 197 0
173 197 0
173 197 0
175 197 0
173 197 0
173 197 0
173 197 0
174 198 0
174 197 0
174 198 0
173 196 0
176 199 0
173 197 0
175 198 0
174 197 0
173 197 0
174 198 0
175 198 0
176 198 0
175 198 0
174 198 0
175 197 0
174 197 0
174 198 0
175 198 0
173 197 0
173 197 0
175 198 0
175 198 0
174 198 0
173 197 0
174 198 0
173 197 0
176 198 0
174 198 0
174 197 0
176 199 0
173 197 0
175 198 0
174 198 0
173 197 0
175 198 0
174 198 0
174 198 0
172 197 0
174 198 0
174 198 0
173 197 0
174 198 0
174 198 0
175 198 0
175 198 0
175 198 0
173 197 0
174 198 0
175 198 0
176 199 0
174 198 0
174 197 0
172 196 0
176 198 0
176 199 0
175 198 0
174 198 0
175 198 0
175 198 0
176 199 0
174 198 0
175 198 0
177 199 0
174 198 0
174 197 0
175 198 0
175 198 0
173 197 0
174 197 0
174 197 0
173 197 0
175 198 0
173 197 0
174 197 0
174 198 0
175 198 0
175 198 0
176 199 0
173 197 0
174 198 0
175 198 0
174 198 0
173 196 0
174 197 0
172 196 0
175 198 0
174 198 0
176 199 0
175 198 0
171 196 0
173 197 0
174 198 0
175 198 0
173 197 0
173 197 0
174 197 0
174 197 0
175 198 0
175 198 0
174 197 0
172 196 0
175 198 0
173 197 0
175 198 0
173 196 0
173 197 0
172 196 0
174 198 0
174 198 0
174 197 0
173 196 0
174 196 0
173 197 0
172 196 0
173 197 0
175 198 0
175 198 0
176 198 0
175 198 0
178 200 76
202 222 224
210 229 255
210 229 255
210 229 255
210 229 255
210 229 255
210 229 255
210 229 255
210 229 255
210 229 255
210 229 255
210 229 255
210 229 255
210 229 255
210 229 255
210 229 255
210 229 255
210 229 255
210 229 255
210 229 255
210 229 255
209 229 255
209 229 255
209 229 255
209 229 255
209 229 255
209 229 255
209 229 255
209 229 255
209 229 255
209 229 255
209 229 255
209 229 255
209 229 255
209 229 255
209 229 255
209 229 255
209 229 255
208 228 255
153 175 215
62 98 169
61 98 163
61 98 166
61 97 162
61 97 160
62 99 168
62 98 162
62 99 167
62 98 169
62 99 168
62 99 169
62 98 167
61 97 161
63 99 166
63 99 164
62 98 165
62 98 162
62 98 168
61 98 162
62 98 161
61 97 155
62 99 168
62 98 162
63 99 169
62 99 167
62 98 163
62 99 168
62 98 166
63 99 166
62 99 169
62 99 166
62 99 169
61 97 161
61 98 163
63 99 169
62 98 162
62 99 169
62 98 168
62 98 166
62 98 167
61 97 160
62 98 162
62 98 164
62 98 161
62 98 168
63 99 168
62 99 170
62 99 168
62 98 166
61 97 162
62 97 164
63 99 168
62 97 166
62 99 168
62 97 165
61 96 161
61 97 166
62 98 167
63 99 174
61 96 165
63 99 173
61 97 165
62 98 170
61 96 169
142 164 208
207 227 254
209 229 255
209 229 255
209 229 255
209 229 255
209 229 255
209 229 255
209 229 255
209 229 255
209 229 255
209 229 255
209 229 255
209 229 255
209 229 255
209 229 255
209 229 255
209 229 255
209 229 255
210 229 255
210 229 255
210 229 255
210 229 255
210 229 255
210 229 255
210 229 255
210 229 255
210 229 255
210 229 255
210 229 255
210 229 255
210 229 255
210 229 255
210 229 255
210 229 255
210 229 255
210 229 255
210 229 255
210 229 255
195 211 228
143 142 108
128 126 82
130 128 86
129 127 86
132 130 87
141 140 94
137 136 92
131 130 87
142 141 95
135 135 93
147 146 98
141 140 95
148 148 101
145 145 98
142 141 95
150 149 101
142 141 95
147 146 99
150 149 100
146 144 97
149 147 99
147 146 99
154 153 103
151 150 101
152 151 102
150 148 100
157 155 103
151 149 100
156 154 104
159 157 106
157 154 103
161 159 106
160 157 104
152 150 101
156 154 103
158 155 103
157 154 103
162 160 107
164 161 107
159 157 104
166 162 108
160 157 104
161 158 105
166 164 109
164 160 106
165 161 107
161 159 105
164 161 106
157 155 103
165 161 106
169 164 109
159 156 103
162 158 104
163 159 106
159 155 102
164 160 106
165 161 106
163 159 103
163 160 104
154 151 100
158 155 103
167 163 106
167 163 108
160 156 103
161 158 105
171 166 109
160 156 102
167 162 104
161 157 101
165 160 105
162 158 102
161 158 104
160 156 101
166 163 107
162 159 104
160 155 101
165 162 104
164 160 103
156 153 99
160 156 101
161 156 100
156 152 98
162 158 102
165 160 102
162 158 101
165 161 102
159 156 101
171 166 109
157 154 101
161 156 99
157 153 98
157 153 95
162 158 102
157 152 97
161 156 101
157 153 97
162 158 100
161 157 102
159 154 98
159 155 100
163 157 99
155 151 98
164 159 104
153 149 95
161 157 101
152 149 93
164 160 101
154 149 95
159 155 98
156 152 99
146 142 89
152 149 94
162 156 99
156 151 96
155 151 95
154 151 93
159 153 94
153 148 93
152 148 97
154 148 92
154 149 94
153 149 93
149 145 91
149 144 90
146 142 87
149 145 88
141 136 84
142 138 84
174 198 0
173 197 0
173 197 0
175 198 0
174 197 0
175 198 0
172 196 0
175 198 0
174 197 0
175 198 0
174 198 0
175 198 0
175 198 0
172 196 0
173 197 0
176 198 0
173 197 0
173 197 0
175 198 0
175 198 0
174 197 0
175 198 0
174 197 0
175 198 0
173 197 0
173 197 0
173 197 0
173 197 0
176 198 0
176 198 0
175 198 0
173 197 0
173 197 0
174 198 0
176 198 0
173 197 0
174 198 0
175 198 0
175 198 0
174 198 0
174 198 0
173 197 0
173 197 0
175 198 0
173 197 0
175 198 0
176 199 0
175 198 0
174 198 0
173 197 0
175 198 0
174 198 0
174 198 0
175 198 0
175 198 0
173 197 0
174 198 0
175 198 0
174 198 0
176 198 0
174 197 0
173 197 0
174 198 0
174 198 0
176 199 0
174 198 0
174 198 0
173 197 0
174 197 0
176 199 0
174 198 0
175 198 0
174 198 0
175 198 0
175 198 0
172 196 0
174 198 0
173 197 0
173 197 0
173 196 0
174 198 0
174 197 0
175 198 0
173 197 0
174 197 0
173 197 0
175 198 0
174 198 0
173 197 0
176 198 0
174 198 0
173 197 0
174 198 0
175 198 0
175 198 0
174 197 0
174 198 0
174 198 0
174 197 0
175 198 0
174 198 0
174 197 0
173 197 0
176 199 0
173 197 0
174 197 0
172 196 0
176 199 0
173 197 0
174 198 0
176 198 0
174 198 0
175 198 0
175 198 0
174 197 0
175 198 0
173 196 0
174 197 0
174 198 0
174 197 0
176 198 0
176 198 0
173 196 0
172 196 0
174 197 0
174 198 0
174 197 0
172 197 0
177 199 51
196 216 198
210 230 255
210 230 255
210 230 255
210 229 255
210 229 255
210 229 255
210 229 255
210 229 255
210 229 255
210 229 255
210 229 255
210 229 255
210 229 255
210 229 255
210 229 255
210 229 255
210 229 255
210 229 255
210 229 255
210 229 255
210 229 255
210 229 255
210 229 255
210 229 255
210 229 255
210 229 255
210 229 255
209 229 255
209 229 255
209 229 255
209 229 255
209 229 255
209 229 255
209 229 255
209 229 255
207 227 254
124 148 196
62 98 174
61 98 165
61 97 158
62 98 170
62 98 168
62 98 167
62 98 171
61 98 160
62 98 159
62 98 166
61 98 162
62 99 169
62 98 162
62 99 169
62 98 162
62 98 159
61 98 159
62 99 165
62 98 161
63 99 168
62 98 164
61 98 160
62 99 173
62 98 167
61 97 159
61 98 159
61 98 162
62 99 171
62 97 155
63 99 165
62 99 169
62 99 168
63 99 165
61 97 159
62 98 166
62 98 167
62 99 168
61 97 165
63 99 168
62 98 166
61 97 159
62 98 167
62 97 157
62 98 164
61 97 163
63 99 165
62 98 165
62 98 164
62 98 169
62 98 166
62 97 163
62 98 164
62 98 167
62 98 165
62 97 167
61 97 165
61 96 163
61 96 161
61 97 161
61 97 163
60 95 155
61 96 166
61 96 168
61 97 166
61 97 164
61 96 163
124 147 196
202 222 250
209 229 255
209 229 255
209 229 255
209 229 255
209 229 255
209 229 255
209 229 255
210 229 255
210 229 255
210 229 255
210 229 255
210 229 255
210 229 255
210 229 255
210 229 255
210 229 255
210 229 255
210 229 255
210 229 255
210 229 255
210 229 255
210 229 255
210 229 255
210 229 255
210 229 255
210 229 255
210 229 255
210 229 255
210 229 255
210 229 255
210 229 255
210 229 255
210 230 255
210 230 255
210 230 255
183 195 203
132 132 93
129 126 84
129 128 86
137 135 91
136 135 91
137 136 92
134 132 90
134 134 91
143 142 97
138 138 94
141 140 94
141 140 95
138 137 94
147 146 99
144 142 96
136 135 92
148 146 98
147 146 98
150 149 101
142 141 95
151 151 102
149 148 101
160 158 106
153 150 100
151 150 101
152 150 101
157 155 104
146 144 97
159 157 105
155 154 103
156 153 102
164 161 107
159 156 104
160 156 104
156 154 102
165 161 107
158 155 103
163 161 108
162 159 105
158 155 104
157 155 102
163 160 107
153 151 101
163 159 105
164 161 107
165 162 106
164 161 106
163 159 106
168 165 110
164 161 106
163 159 105
161 158 103
158 156 103
161 158 104
168 164 108
166 162 107
162 158 104
169 165 109
164 159 104
163 160 104
158 154 101
162 158 104
166 161 106
169 164 106
156 152 97
163 159 103
162 158 104
157 153 98
163 160 104
162 159 103
165 161 105
162 158 103
169 163 106
168 163 105
164 159 103
165 161 104
164 160 102
162 158 100
161 157 103
164 159 103
163 159 103
158 155 101
160 155 98
165 161 103
165 160 103
164 160 103
161 157 98
165 161 104
165 160 101
160 156 98
155 150 97
158 154 98
162 156 99
164 160 103
160 156 99
154 151 98
164 159 100
161 157 98
158 154 96
156 152 95
160 155 99
149 145 90
160 156 100
156 151 96
160 156 97
158 153 95
154 150 90
159 155 95
155 150 93
159 154 98
151 147 93
151 147 92
157 152 96
156 152 95
155 150 91
156 152 95
153 149 93
158 154 97
159 154 95
156 151 96
157 152 97
153 149 91
154 150 92
149 144 91
158 152 95
148 143 86
153 148 90
146 142 87
153 148 93
173 197 0
173 197 0
173 197 0
173 197 0
173 197 0
172 196 0
175 198 0
175 198 0
175 198 0
172 196 0
173 197 0
173 196 0
175 198 0
173 196 0
172 197 0
177 199 0
174 197 0
174 198 0
175 198 0
176 199 0
173 197 0
175 198 0
175 198 0
174 197 0
175 198 0
176 198 0
172 197 0
173 197 0
173 197 0
173 197 0
173 197 0
174 198 0
174 197 0
173 197 0
175 198 0
175 198 0
174 198 0
175 198 0
176 199 0
175 198 0
176 198 0
174 197 0
173 197 0
175 198 0
174 197 0
174 198 0
175 198 0
174 197 0
174 198 0
175 198 0
176 199 0
174 197 0
174 198 0
175 198 0
174 197 0
175 198 0
176 199 0
175 198 0
175 198 0
175 198 0
175 198 0
174 197 0
176 198 0
174 197 0
172 196 0
176 198 0
174 197 0
175 198 0
174 197 0
174 197 0
176 198 0
174 198 0
176 199 0
174 197 0
173 197 0
173 196 0
173 197 0
173 197 0
175 198 0
174 198 0
175 198 0
175 198 0
173 197 0
175 198 0
175 198 0
174 197 0
174 198 0
173 197 0
173 197 0
174 198 0
174 197 0
174 198 0
175 198 0
173 197 0
174 198 0
174 197 0
174 198 0
175 198 0
174 197 0
173 197 0
174 198 0
174 197 0
174 197 0
174 198 0
174 198 0
174 198 0
176 198 0
172 196 0
174 197 0
173 197 0
173 197 0
172 196 0
171 195 0
174 198 0
174 197 0
174 198 0
174 198 0
175 198 0
174 197 0
175 198 0
173 197 0
174 198 0
174 197 0
175 198 0
175 198 0
175 198 0
174 198 0
172 196 0
171 195 0
175 198 0
192 213 173
211 230 255
211 230 255
211 230 255
211 230 255
211 230 255
211 230 255
210 230 255
210 230 255
210 230 255
210 229 255
210 229 255
210 229 255
210 229 255
210 229 255
210 229 255
210 229 255
210 229 255
210 229 255
210 229 255
210 229 255
210 229 255
210 229 255
210 229 255
210 229 255
210 229 255
210 229 255
210 229 255
210 229 255
210 229 255
210 229 255
210 229 255
210 229 255
210 229 255
202 221 250
116 141 191
62 98 160
63 99 170
61 98 159
62 98 162
62 98 167
62 99 166
61 97 161
62 98 163
62 98 164
62 98 161
61 98 168
61 98 162
62 99 167
61 97 159
62 98 164
62 98 164
61 97 159
62 98 164
62 98 164
62 98 164
63 99 167
62 99 166
62 98 161
62 98 160
61 98 164
61 96 158
62 98 164
62 97 161
61 97 162
63 99 165
62 98 170
60 97 157
62 98 161
61 97 163
62 98 160
63 99 169
63 99 163
62 98 165
63 99 166
61 97 160
61 98 166
63 99 166
62 98 159
62 98 166
62 98 163
63 99 168
61 97 159
62 98 168
61 96 155
60 96 161
62 98 161
61 97 160
62 98 164
62 97 160
61 96 160
61 98 166
60 96 163
61 97 163
61 96 157
62 97 163
61 97 167
62 97 166
61 97 164
61 96 163
62 98 167
60 95 158
60 94 160
61 95 161
108 134 188
205 224 251
210 229 255
210 229 255
210 229 255
210 229 255
210 229 255
210 229 255
210 229 255
210 229 255
210 229 255
210 229 255
210 229 255
210 229 255
210 229 255
210 229 255
210 229 255
210 229 255
210 229 255
210 229 255
210 229 255
210 229 255
210 229 255
210 229 255
210 229 255
210 229 255
210 230 255
210 230 255
210 230 255
211 230 255
211 230 255
211 230 255
211 230 255
211 230 255
211 230 255
168 178 181
132 130 89
127 124 83
139 137 92
139 137 92
126 125 86
142 140 94
135 133 89
148 146 98
141 140 94
136 135 92
132 131 89
141 139 94
150 150 102
141 140 95
146 145 98
145 144 97
146 145 97
141 140 96
149 147 99
146 145 97
155 153 103
150 148 99
148 146 98
159 158 105
151 149 100
149 147 99
149 147 99
154 152 102
161 158 106
155 153 103
153 152 102
161 157 105
157 155 103
160 157 105
161 158 105
159 157 103
168 165 109
158 156 103
164 161 106
163 160 107
158 156 105
163 160 106
166 163 108
165 161 106
164 161 107
164 160 104
155 152 101
166 163 108
155 153 102
162 160 105
163 160 106
165 161 106
163 159 103
169 165 110
169 165 109
163 158 104
170 165 108
163 160 105
159 157 103
171 166 109
161 158 104
162 158 103
165 161 106
156 152 99
163 159 103
167 163 104
172 166 106
162 158 101
164 160 105
163 159 103
165 159 103
162 157 101
168 163 105
163 159 103
164 159 104
164 160 102
165 160 104
163 158 104
159 156 98
170 164 106
159 154 98
162 157 99
162 158 100
166 162 103
162 157 102
157 154 100
172 166 104
161 157 99
156 151 94
159 155 99
161 157 99
164 159 103
160 156 101
162 159 100
162 157 97
155 150 96
155 151 96
158 153 97
155 150 94
160 156 101
156 151 97
155 151 97
161 156 101
160 155 97
158 153 95
160 155 100
160 154 97
154 150 93
155 150 95
153 149 94
155 152 97
159 154 95
156 150 97
157 153 94
154 150 95
151 148 91
156 152 93
156 151 94
146 141 85
151 147 92
156 151 93
162 157 100
145 140 86
156 149 95
147 144 87
158 153 96
153 149 90
148 144 88
155 150 91
154 149 90
172 196 0
173 197 0
170 195 0
174 198 0
173 197 0
175 198 0
175 198 0
172 196 0
175 198 0
173 197 0
174 197 0
174 198 0
174 198 0
175 198 0
173 197 0
174 198 0
174 197 0
174 198 0
175 198 0
175 198 0
174 197 0
175 198 0
175 198 0
173 197 0
175 198 0
176 199 0
174 197 0
174 197 0
172 196 0
174 197 0
173 197 0
174 197 0
175 198 0
175 198 0
174 198 0
175 198 0
175 198 0
173 196 0
174 198 0
174 198 0
175 198 0
173 197 0
174 198 0
172 197 0
174 197 0
173 197 0
174 197 0
174 198 0
174 198 0
174 198 0
174 198 0
174 198 0
174 197 0
174 198 0
174 197 0
175 198 0
175 198 0
174 197 0
175 198 0
174 197 0
174 198 0
173 197 0
174 198 0
175 198 0
173 197 0
176 198 0
174 198 0
174 198 0
174 197 0
175 198 0
175 198 0
175 198 0
174 198 0
173 196 0
173 197 0
176 198 0
174 198 0
173 197 0
173 197 0
174 197 0
174 198 0
174 198 0
174 198 0
171 196 0
174 197 0
174 198 0
175 198 0
174 197 0
175 198 0
175 198 0
174 197 0
173 197 0
174 197 0
175 198 0
175 198 0
173 197 0
173 197 0
174 198 0
173 196 0
175 198 0
173 197 0
174 197 0
173 197 0
174 198 0
174 198 0
176 198 0
173 197 0
175 198 0
174 198 0
173 197 0
173 197 0
172 196 0
174 198 0
173 197 0
175 198 0
175 198 0
175 198 0
174 198 0
175 198 0
175 198 0
174 198 0
172 196 0
172 197 0
175 198 0
175 198 0
172 195 0
172 196 0
175 198 0
174 198 0
174 197 0
175 198 0
191 212 169
211 230 255
211 230 255
211 230 255
211 230 255
211 230 255
211 230 255
211 230 255
211 230 255
211 230 255
211 230 255
211 230 255
211 230 255
210 230 255
210 230 255
210 230 255
210 229 255
210 229 255
210 229 255
210 229 255
210 229 255
210 229 255
210 229 255
210 229 255
210 229 255
210 229 255
210 229 255
210 229 255
210 229 255
210 229 255
210 229 255
210 229 255
195 215 244
107 133 185
62 99 168
61 98 159
61 97 157
61 97 157
62 99 167
63 99 164
61 97 162
62 98 164
62 98 162
62 98 168
61 97 163
62 99 167
61 98 162
61 97 163
61 97 155
62 99 169
63 98 162
62 98 163
62 98 162
61 97 159
61 97 157
62 99 165
63 99 173
63 99 166
61 97 158
62 98 164
61 97 161
62 97 155
61 98 164
62 98 168
61 97 162
62 98 160
61 97 158
61 97 161
62 99 168
62 98 162
61 97 159
62 98 165
63 99 160
62 99 171
60 96 154
62 98 161
62 98 162
61 97 159
61 97 161
63 99 167
61 97 154
62 98 165
61 98 163
61 98 168
63 99 167
61 96 158
61 98 165
63 99 165
61 97 167
62 98 167
62 97 165
61 97 162
62 98 163
61 97 163
62 97 166
62 97 163
62 98 167
61 96 160
60 95 152
62 97 169
61 95 156
60 94 156
59 94 162
60 95 162
101 126 175
202 221 249
210 229 255
210 229 255
210 229 255
210 229 255
210 229 255
210 229 255
210 229 255
210 229 255
210 229 255
210 229 255
210 229 255
210 229 255
210 229 255
210 229 255
210 229 255
210 229 255
210 230 255
210 230 255
210 230 255
211 230 255
211 230 255
211 230 255
211 230 255
211 230 255
211 230 255
211 230 255
211 230 255
211 230 255
211 230 255
211 230 255
211 230 255
170 180 183
124 122 81
134 131 86
134 131 87
141 139 94
138 135 90
138 136 92
139 137 93
138 137 93
142 141 95
136 136 93
145 143 97
146 144 97
143 141 95
146 145 98
140 140 96
151 150 101
145 144 98
146 145 99
153 151 101
140 139 94
155 153 103
150 149 101
144 143 96
148 146 98
156 154 103
151 150 100
159 157 104
144 143 96
158 155 103
152 150 101
160 158 104
159 157 105
151 150 101
151 150 100
164 161 107
155 152 99
156 153 102
162 160 106
159 156 103
159 156 104
164 161 106
166 162 107
160 157 104
159 155 103
160 158 105
161 158 103
159 156 103
164 160 105
163 159 104
164 160 106
161 158 104
161 157 103
167 164 107
166 163 107
168 164 106
162 159 104
165 160 103
164 160 105
168 164 107
164 159 104
167 162 105
165 161 104
168 164 106
168 164 105
167 163 104
170 166 106
165 160 104
164 160 103
163 159 102
156 153 99
164 159 103
163 160 105
162 159 103
163 158 99
164 160 104
164 160 103
166 161 103
162 157 102
164 161 104
168 164 106
160 156 100
161 156 99
166 162 103
165 161 103
169 163 104
162 158 101
164 160 104
161 156 99
164 160 104
160 155 98
165 161 102
160 157 100
166 161 101
156 152 95
163 157 99
161 158 99
163 159 99
162 157 101
154 150 96
163 158 102
165 160 101
161 155 96
160 156 97
162 156 97
159 155 97
157 153 96
160 155 99
163 158 99
156 152 95
155 151 92
164 158 99
158 153 98
154 149 90
158 152 95
152 148 92
159 155 97
153 148 88
151 146 88
147 142 84
156 151 91
153 149 93
152 148 91
159 153 96
153 149 94
159 153 94
158 153 95
151 146 87
161 155 97
146 143 90
157 152 96
145 141 86
174 198 0
174 197 0
174 198 0
174 197 0
175 198 0
175 198 0
173 197 0
175 198 0
174 197 0
175 198 0
172 196 0
174 198 0
174 198 0
175 198 0
175 198 0
174 198 0
175 198 0
172 196 0
173 196 0
174 198 0
174 197 0
173 197 0
174 198 0
175 198 0
175 198 0
174 198 0
175 198 0
174 197 0
174 197 0
173 197 0
175 198 0
174 197 0
174 198 0
175 198 0
173 197 0
175 198 0
174 197 0
174 197 0
176 199 0
176 198 0
175 198 0
174 197 0
173 197 0
174 198 0
176 199 0
174 198 0
175 198 0
174 197 0
174 198 0
174 198 0
174 198 0
174 197 0
174 198 0
173 197 0
174 198 0
175 198 0
175 198 0
174 197 0
176 199 0
173 197 0
172 196 0
175 198 0
174 198 0
173 197 0
175 198 0
175 198 0
172 197 0
175 198 0
173 197 0
176 198 0
175 198 0
173 196 0
174 198 0
176 198 0
175 198 0
176 198 0
173 197 0
174 198 0
173 197 0
174 197 0
175 198 0
174 197 0
175 198 0
175 198 0
173 197 0
174 198 0
175 198 0
173 197 0
173 197 0
175 198 0
172 196 0
175 198 0
173 197 0
173 197 0
174 198 0
175 198 0
173 197 0
174 198 0
174 197 0
173 197 0
174 197 0
174 197 0
173 197 0
175 198 0
174 197 0
175 198 0
174 197 0
171 195 0
173 197 0
174 198 0
174 197 0
174 197 0
175 198 0
174 197 0
175 198 0
174 197 0
174 198 0
174 198 0
173 197 0
174 198 0
174 198 0
174 198 0
174 198 0
173 197 0
175 198 0
173 197 0
174 197 0
174 197 0
173 197 0
175 198 0
175 198 0
174 197 0
192 212 171
211 230 254
211 230 255
211 230 255
211 230 255
211 230 255
211 230 255
211 230 255
211 230 255
211 230 255
211 230 255
211 230 255
211 230 255
211 230 255
211 230 255
211 230 255
211 230 255
211 230 255
211 230 255
211 230 255
210 230 255
210 230 255
210 230 255
210 229 255
210 229 255
210 229 255
210 229 255
210 229 255
210 229 255
210 229 255
201 221 249
105 131 181
62 98 159
62 98 165
60 96 152
62 98 159
62 98 160
61 97 155
62 98 161
61 97 156
62 98 160
62 98 158
62 98 158
62 98 159
60 96 153
62 98 163
61 98 162
61 98 164
61 97 159
62 98 164
63 99 162
62 99 165
62 98 163
61 98 159
62 99 166
62 98 161
61 97 159
62 99 166
61 97 158
62 98 161
62 98 162
61 97 160
61 98 165
61 97 155
62 99 167
62 98 164
61 98 161
62 98 162
63 99 167
62 98 163
61 98 161
61 97 157
62 97 158
62 98 161
61 98 161
62 98 161
62 98 161
62 98 162
62 98 158
62 98 159
62 98 160
62 98 162
62 97 160
60 95 161
63 99 168
62 98 166
61 97 159
62 98 168
61 97 161
62 98 165
61 97 159
61 97 162
61 96 159
61 97 163
62 97 167
62 98 166
61 97 162
61 96 160
61 96 164
60 96 163
60 96 160
61 96 165
60 94 160
62 98 171
107 132 187
202 222 250
210 229 255
210 229 255
210 229 255
210 229 255
210 229 255
210 229 255
210 230 255
210 230 255
210 230 255
210 230 255
211 230 255
211 230 255
211 230 255
211 230 255
211 230 255
211 230 255
211 230 255
211 230 255
211 230 255
211 230 255
211 230 255
211 230 255
211 230 255
211 230 255
211 230 255
211 230 255
211 230 255
211 230 255
211 229 253
167 175 173
133 130 85
140 137 91
128 126 84
139 137 92
130 130 89
136 134 90
146 144 98
148 147 99
144 142 95
137 138 96
139 138 94
145 143 96
141 140 94
144 142 95
147 145 98
146 145 99
149 148 100
144 143 97
161 159 107
157 155 104
157 155 104
150 149 101
153 151 101
149 147 99
157 155 103
152 149 100
160 158 107
154 152 102
160 158 106
159 156 102
157 154 103
156 153 101
161 158 104
152 150 100
160 157 104
162 160 106
160 156 103
170 167 109
164 160 106
168 164 106
163 161 108
166 161 106
166 162 107
163 160 105
169 165 109
167 162 106
162 159 105
168 164 107
167 164 108
166 162 107
162 159 105
164 161 106
167 162 105
167 163 107
162 159 102
173 168 109
170 167 109
167 162 105
166 163 105
168 164 108
171 166 108
165 161 106
163 158 103
164 160 104
168 164 108
170 166 108
166 162 104
170 165 108
161 156 99
169 164 106
165 161 104
167 162 102
170 165 106
166 162 104
169 164 107
164 160 104
172 167 106
163 159 103
163 159 103
163 158 101
167 162 103
166 161 103
167 162 104
168 164 105
167 163 104
170 165 106
167 161 102
164 160 103
168 163 103
161 156 101
165 159 99
167 163 104
163 158 99
166 162 103
162 158 103
158 153 98
159 155 97
160 155 97
163 159 101
159 155 101
156 152 95
162 157 98
163 159 101
156 150 95
164 158 99
160 155 99
155 151 95
161 156 97
163 158 97
159 154 98
164 160 101
152 148 90
159 154 94
158 153 96
152 147 90
158 153 93
154 148 93
145 141 84
152 148 90
154 149 91
153 148 88
155 151 90
155 151 93
160 155 97
155 150 90
155 151 91
159 154 94
161 156 95
148 144 88
155 150 92
159 154 92
146 142 85
174 198 0
174 197 0
174 197 0
175 198 0
174 197 0
175 198 0
174 198 0
175 198 0
175 198 0
172 197 0
176 198 0
174 198 0
174 197 0
174 197 0
174 198 0
173 197 0
174 197 0
173 197 0
175 198 0
174 197 0
174 198 0
173 196 0
173 197 0
174 198 0
175 197 0
174 198 0
174 198 0
173 197 0
175 198 0
176 199 0
173 197 0
174 197 0
174 198 0
172 197 0
175 198 0
174 198 0
173 197 0
174 197 0
176 199 0
176 199 0
173 197 0
175 198 0
174 197 0
175 198 0
174 198 0
175 198 0
173 197 0
174 198 0
174 198 0
174 198 0
175 198 0
173 196 0
175 198 0
175 198 0
175 198 0
175 198 0
174 198 0
174 197 0
174 198 0
172 196 0
174 198 0
174 197 0
172 196 0
174 197 0
173 197 0
173 197 0
176 199 0
174 198 0
173 197 0
174 198 0
174 198 0
174 198 0
173 197 0
174 197 0
172 196 0
174 198 0
172 196 0
174 198 0
175 198 0
175 198 0
175 198 0
173 197 0
175 198 0
172 196 0
173 196 0
174 197 0
173 197 0
175 198 0
174 197 0
173 197 0
174 197 0
174 198 0
174 197 0
175 198 0
175 198 0
174 198 0
175 198 0
173 196 0
174 198 0
172 196 0
172 197 0
173 197 0
175 198 0
176 199 0
175 198 0
172 197 0
173 197 0
175 198 0
175 198 0
175 198 0
173 197 0
175 198 0
174 197 0
174 198 0
174 197 0
175 198 0
175 198 0
175 198 0
174 198 0
175 198 0
174 197 0
174 198 0
173 197 0
175 198 0
175 198 0
174 198 0
174 197 0
176 198 0
172 195 0
173 197 0
173 196 0
174 197 0
173 197 0
191 212 165
211 230 255
211 230 255
211 230 255
211 230 255
211 230 255
211 230 255
211 230 255
211 230 255
211 230 255
211 230 255
211 230 255
211 230 255
211 230 255
211 230 255
211 230 255
211 230 255
211 230 255
211 230 255
211 230 255
211 230 255
211 230 255
211 230 255
211 230 255
211 230 255
211 230 255
211 230 255
211 230 255
207 226 252
99 126 180
61 97 160
60 97 161
61 97 162
61 98 164
62 99 168
62 98 158
61 97 151
61 98 159
61 97 157
61 97 159
63 99 167
62 99 165
61 97 155
62 98 160
62 98 163
61 97 156
61 97 160
62 98 164
61 97 158
63 99 162
61 97 156
62 98 158
62 98 162
62 98 158
61 97 157
63 99 168
62 97 153
61 97 159
62 98 162
62 98 164
63 99 161
62 98 157
62 98 162
62 98 164
61 97 162
61 97 160
62 98 161
62 98 159
61 97 157
62 98 165
61 96 156
62 98 161
62 98 161
62 98 160
62 98 157
63 99 169
62 98 165
63 99 164
63 99 167
62 97 159
61 97 154
62 98 159
62 98 163
62 98 165
62 98 167
62 98 167
61 96 154
61 97 156
60 94 151
62 98 165
61 97 163
60 96 162
62 98 167
61 97 158
61 96 165
60 95 153
61 96 163
60 95 158
62 97 165
61 97 160
62 96 161
61 97 165
60 94 164
59 93 156
116 139 187
204 223 250
211 230 255
211 230 255
211 230 255
211 230 255
211 230 255
211 230 255
211 230 255
211 230 255
211 230 255
211 230 255
211 230 255
211 230 255
211 230 255
211 230 255
211 230 255
211 230 255
211 230 255
211 230 255
211 230 255
211 230 255
211 230 255
211 230 255
211 230 255
211 230 255
211 230 255
211 230 255
211 230 255
167 178 182
135 131 86
128 126 84
128 126 85
132 130 87
129 128 86
145 144 97
131 130 89
136 134 91
138 137 93
143 141 95
143 141 96
127 127 88
139 139 95
148 145 98
152 150 101
146 145 98
147 146 97
146 145 99
154 153 103
154 153 102
148 146 98
150 148 99
149 147 99
145 144 97
148 146 99
152 151 103
155 153 103
152 151 101
162 159 106
159 157 104
164 161 106
155 152 100
162 159 105
155 152 101
161 157 103
158 156 103
162 159 107
167 164 108
164 161 107
162 158 104
154 151 100
157 154 102
162 158 103
156 153 101
164 160 104
166 162 105
163 160 104
167 163 108
164 160 104
170 165 107
166 162 105
164 160 104
169 164 107
163 159 101
167 162 105
163 159 103
167 162 103
167 163 107
167 163 107
164 161 104
162 158 103
166 163 106
161 157 102
169 164 106
163 159 101
173 169 108
168 164 106
169 164 106
167 162 105
167 162 104
168 163 101
168 164 106
162 158 99
168 164 107
163 159 101
168 163 105
166 162 103
167 163 105
165 161 104
162 158 102
162 159 103
162 158 103
167 162 104
167 162 101
164 159 100
163 158 101
159 155 96
167 163 104
171 166 105
170 164 104
161 157 99
172 166 107
166 161 100
162 158 99
167 163 106
168 163 104
168 163 104
158 153 95
167 163 104
164 158 98
163 159 101
160 155 95
165 160 99
162 158 98
160 156 99
167 162 101
164 159 99
158 154 97
155 151 95
156 151 95
155 151 95
159 155 95
151 147 93
155 150 90
155 150 93
159 153 91
158 152 93
157 151 95
159 154 95
153 149 87
161 156 94
148 144 87
153 147 92
151 146 89
156 150 91
161 156 96
151 147 92
153 148 90
158 152 93
144 140 85
150 145 91
150 145 89
159 153 98
176 198 0
173 197 0
174 198 0
173 197 0
174 197 0
175 198 0
175 198 0
175 198 0
174 198 0
174 197 0
175 198 0
174 198 0
173 197 0
175 198 0
175 198 0
174 197 0
172 197 0
174 198 0
175 198 0
175 198 0
174 197 0
175 197 0
175 198 0
173 197 0
174 198 0
173 197 0
174 197 0
174 198 0
173 197 0
175 198 0
173 197 0
176 199 0
173 197 0
173 197 0
176 199 0
176 199 0
176 198 0
174 198 0
173 197 0
174 198 0
174 198 0
177 199 0
175 198 0
175 198 0
176 198 0
174 197 0
174 198 0
173 197 0
175 198 0
174 198 0
174 198 0
176 199 0
174 197 0
172 197 0
173 197 0
173 197 0
173 197 0
175 198 0
174 197 0
175 198 0
174 197 0
175 198 0
175 198 0
175 198 0
176 199 0
173 197 0
174 197 0
174 198 0
174 198 0
174 198 0
175 198 0
174 197 0
175 198 0
172 197 0
174 198 0
174 197 0
172 196 0
175 198 0
174 198 0
176 199 0
175 198 0
173 197 0
173 197 0
175 198 0
175 198 0
174 197 0
173 197 0
175 198 0
176 198 0
175 198 0
174 197 0
174 197 0
174 197 0
174 198 0
174 197 0
175 198 0
173 197 0
174 198 0
173 197 0
174 197 0
174 197 0
176 198 0
174 197 0
175 198 0
175 198 0
175 198 0
175 198 0
174 198 0
175 198 0
174 198 0
173 197 0
175 198 0
172 196 0
174 197 0
174 198 0
174 197 0
174 197 0
174 197 0
174 198 0
173 197 0
173 196 0
174 197 0
176 199 0
173 197 0
175 198 0
174 197 0
175 198 0
174 197 0
173 196 0
176 198 0
173 197 0
172 196 0
175 198 0
174 198 0
191 212 173
212 230 255
212 230 255
212 230 255
212 230 255
211 230 255
211 230 255
211 230 255
211 230 255
211 230 255
211 230 255
211 230 255
211 230 255
211 230 255
211 230 255
211 230 255
211 230 255
211 230 255
211 230 255
211 230 255
211 230 255
211 230 255
211 230 255
211 230 255
211 230 255
211 230 255
207 226 252
119 144 189
60 96 151
61 97 160
61 97 161
62 98 160
61 97 156
61 97 159
62 98 161
61 97 158
61 97 152
61 98 164
62 98 162
62 98 156
61 97 157
62 99 166
61 97 157
62 98 157
61 97 156
61 97 160
62 98 163
61 97 160
61 97 159
62 99 162
62 97 156
61 97 157
63 98 161
62 98 167
62 98 162
62 98 161
62 98 161
62 98 155
61 96 154
63 99 165
62 98 157
62 99 164
62 98 162
63 99 164
61 97 157
62 98 160
62 98 163
63 99 167
62 98 164
61 97 155
62 98 160
62 98 162
61 96 153
63 99 163
62 98 159
60 95 151
61 97 164
62 98 160
62 97 161
61 96 157
62 98 164
62 97 162
63 99 167
61 96 152
62 99 169
62 97 156
61 97 164
61 96 160
61 97 156
62 97 162
61 96 158
61 96 159
61 96 155
60 96 158
61 97 165
61 96 160
61 96 162
62 98 166
60 95 158
61 96 164
60 94 159
60 94 161
60 95 162
60 95 161
122 145 192
211 230 255
211 230 255
211 230 255
211 230 255
211 230 255
211 230 255
211 230 255
211 230 255
211 230 255
211 230 255
211 230 255
211 230 255
211 230 255
211 230 255
211 230 255
211 230 255
211 230 255
211 230 255
211 230 255
211 230 255
211 230 255
211 230 255
212 230 255
212 230 255
212 230 255
212 230 255
173 183 187
127 123 81
130 127 84
128 126 84
134 133 89
130 128 87
128 128 88
134 134 91
132 131 89
139 138 95
139 137 93
140 139 94
139 138 94
132 132 91
140 139 95
146 145 97
141 140 95
146 145 99
142 142 98
151 150 102
147 145 96
148 147 99
142 140 94
149 148 101
148 146 99
151 149 101
145 143 96
152 150 100
153 151 99
158 157 105
162 159 105
155 153 102
160 157 104
153 151 100
159 156 104
159 156 104
165 162 107
162 159 104
166 162 105
157 154 99
159 156 102
167 163 107
168 164 107
162 159 104
163 159 105
162 159 106
168 165 108
164 161 105
166 163 106
159 155 103
168 164 108
161 159 101
167 163 103
167 164 106
165 160 103
168 164 106
169 165 108
167 162 104
170 165 105
166 163 108
166 162 104
172 168 108
173 169 109
172 167 107
168 165 104
166 161 102
169 165 106
171 166 106
169 166 109
162 159 103
164 160 101
162 159 101
171 166 107
165 161 104
164 160 103
166 161 104
170 164 104
166 162 103
169 163 103
166 161 101
167 162 101
170 164 103
172 167 106
164 160 100
168 163 103
165 160 101
171 166 104
165 160 101
166 161 100
158 153 97
167 162 103
162 158 98
167 162 103
159 154 95
164 158 101
166 160 99
164 159 101
164 160 103
163 157 99
170 165 103
162 156 98
153 149 94
157 152 93
167 162 103
165 159 100
166 161 99
160 155 95
162 157 97
158 153 95
161 156 99
157 152 95
155 149 93
162 157 97
163 157 96
156 152 95
161 155 97
160 155 97
155 150 94
164 159 98
162 156 97
158 154 95
157 151 95
158 153 96
155 151 95
162 158 95
160 153 95
159 153 92
154 149 92
153 147 88
154 148 89
155 151 92
157 153 92
156 151 86
154 149 93
154 149 90
172 197 0
175 198 0
173 197 0
173 197 0
175 198 0
174 198 0
172 196 0
173 197 0
175 198 0
174 198 0
174 198 0
175 198 0
174 197 0
175 198 0
174 197 0
174 198 0
175 198 0
173 196 0
175 198 0
174 198 0
173 197 0
174 198 0
174 197 0
175 198 0
172 197 0
174 198 0
174 198 0
176 199 0
175 198 0
174 198 0
173 197 0
172 196 0
174 197 0
175 198 0
174 198 0
174 198 0
175 198 0
174 197 0
174 197 0
174 198 0
174 197 0
173 197 0
176 199 0
175 198 0
174 198 0
175 198 0
174 198 0
175 198 0
175 198 0
174 197 0
175 198 0
175 198 0
175 198 0
174 197 0
174 197 0
175 198 0
174 198 0
172 196 0
173 197 0
174 198 0
174 198 0
174 198 0
175 198 0
175 198 0
176 198 0
174 197 0
175 198 0
175 198 0
175 198 0
175 198 0
175 198 0
173 197 0
174 197 0
176 199 0
174 198 0
173 197 0
173 197 0
174 198 0
175 198 0
174 198 0
174 198 0
174 198 0
174 197 0
174 198 0
175 198 0
174 197 0
175 198 0
176 199 0
175 198 0
173 197 0
175 198 0
174 198 0
174 198 0
173 197 0
174 197 0
173 197 0
175 198 0
174 197 0
175 198 0
174 197 0
175 198 0
175 198 0
174 197 0
174 197 0
174 197 0
175 198 0
174 197 0
174 197 0
174 197 0
174 197 0
175 198 0
172 196 0
174 197 0
174 198 0
174 198 0
174 198 0
173 197 0
173 197 0
175 198 0
175 198 0
173 197 0
175 198 0
174 198 0
175 198 0
175 198 0
173 197 0
173 197 0
175 198 0
174 197 0
174 197 0
174 198 0
175 198 0
175 197 0
175 198 0
172 196 0
194 214 182
212 230 255
212 230 255
212 230 255
212 230 255
212 230 255
212 230 255
212 230 255
212 230 255
212 230 255
212 230 255
212 230 255
212 230 255
211 230 255
211 230 255
211 230 255
211 230 255
211 230 255
211 230 255
211 230 255
211 230 255
211 230 255
211 230 255
211 230 255
211 230 255
143 165 205
62 98 165
61 96 157
62 98 162
61 97 159
61 97 157
61 97 156
61 97 158
62 98 162
62 98 167
61 97 160
62 98 162
62 98 161
62 98 161
62 97 155
61 97 158
62 98 157
61 97 155
61 98 161
61 97 155
62 98 160
62 98 157
62 99 164
61 97 157
63 99 164
62 98 159
61 96 150
63 98 158
61 97 155
61 97 157
62 98 157
62 98 164
62 98 164
62 98 165
63 99 163
61 97 155
61 96 156
62 98 165
62 99 162
62 98 162
62 98 162
61 97 153
62 98 161
62 98 154
61 96 154
62 98 160
62 98 156
63 99 167
62 98 160
62 98 162
62 98 166
62 98 158
61 96 150
62 97 159
61 97 152
62 98 162
62 98 158
61 97 158
62 98 158
61 97 158
60 96 156
61 96 156
62 98 164
61 97 164
61 96 154
62 97 163
61 96 155
61 96 159
59 94 151
61 97 157
61 96 159
60 94 152
61 96 159
61 95 158
60 94 156
60 95 159
61 96 161
61 95 161
60 93 156
133 155 195
211 230 255
211 230 255
211 230 255
211 230 255
211 230 255
211 230 255
211 230 255
211 230 255
211 230 255
211 230 255
211 230 255
211 230 255
212 230 255
212 230 255
212 230 255
212 230 255
212 230 255
212 230 255
212 230 255
212 230 255
212 230 255
212 230 255
212 230 255
212 230 255
179 189 191
130 128 85
121 119 81
141 138 93
132 130 88
132 131 88
129 128 88
125 124 85
141 141 96
141 140 95
131 130 89
135 134 92
143 142 96
143 142 97
145 144 98
142 142 96
136 135 93
149 148 100
147 146 99
143 142 97
145 144 97
145 145 99
154 152 103
149 147 98
153 152 102
151 148 99
146 145 97
156 154 102
152 150 100
156 153 103
161 158 103
154 152 101
160 157 102
157 155 102
158 155 103
160 157 104
157 155 102
159 156 104
158 156 104
161 158 105
161 158 102
168 164 108
163 160 104
160 158 104
165 161 106
166 162 107
168 164 107
167 162 104
162 158 102
163 160 103
166 162 105
165 162 106
170 166 107
162 158 101
165 161 103
166 162 106
170 166 109
170 165 107
169 163 107
165 160 103
174 169 109
167 162 104
168 163 105
169 165 105
168 163 104
173 167 106
167 163 104
168 163 104
170 164 105
170 165 106
165 162 103
161 156 99
173 167 108
170 166 108
168 162 101
168 163 103
166 162 103
165 161 103
165 161 104
164 160 101
165 161 103
171 166 105
166 163 102
163 159 99
169 165 104
167 162 102
167 162 101
165 160 100
165 161 101
166 161 101
165 159 99
171 165 104
167 162 101
164 160 100
160 156 97
160 155 97
169 162 102
161 157 101
164 159 100
167 162 100
156 152 95
158 153 95
163 159 97
160 156 97
167 162 99
160 155 97
159 154 97
162 157 94
159 154 93
158 153 93
156 152 95
166 160 100
162 157 93
159 154 97
162 157 97
156 152 95
156 151 97
150 147 88
163 159 101
160 155 95
159 154 94
159 154 94
153 147 85
161 155 93
161 156 95
159 154 96
155 151 94
162 157 93
157 151 92
153 149 94
156 151 92
152 147 91
158 153 95
153 149 90
148 144 87
154 149 92
173 197 0
173 197 0
175 198 0
174 198 0
175 198 0
174 197 0
174 198 0
174 198 0
174 198 0
175 198 0
173 197 0
173 197 0
175 198 0
173 197 0
173 197 0
174 198 0
174 198 0
173 197 0
175 198 0
173 197 0
174 198 0
175 198 0
174 198 0
174 197 0
174 197 0
175 198 0
174 197 0
174 197 0
174 198 0
175 198 0
175 198 0
175 198 0
174 198 0
174 197 0
173 197 0
174 197 0
173 197 0
175 198 0
174 197 0
175 198 0
174 197 0
174 198 0
173 197 0
175 198 0
174 197 0
174 197 0
175 198 0
176 198 0
176 199 0
175 198 0
174 198 0
174 197 0
175 198 0
175 198 0
176 199 0
174 198 0
175 198 0
172 197 0
175 198 0
174 198 0
175 198 0
174 198 0
174 198 0
175 198 0
173 197 0
176 199 0
172 196 0
174 198 0
174 197 0
175 198 0
174 198 0
174 197 0
175 198 0
173 197 0
174 198 0
173 197 0
174 198 0
177 199 0
174 198 0
175 198 0
174 198 0
174 198 0
174 198 0
174 198 0
175 198 0
172 196 0
175 198 0
174 198 0
174 198 0
176 199 0
175 198 0
173 197 0
174 198 0
174 198 0
175 198 0
174 197 0
172 197 0
173 197 0
174 197 0
173 197 0
177 199 0
173 196 0
173 197 0
173 197 0
174 197 0
174 197 0
175 198 0
174 198 0
173 197 0
174 197 0
175 198 0
176 199 0
173 197 0
174 197 0
173 197 0
174 198 0
175 198 0
175 198 0
172 196 0
173 197 0
175 198 0
174 197 0
173 197 0
173 197 0
175 198 0
174 197 0
174 198 0
174 198 0
175 198 0
173 197 0
174 198 0
175 198 0
174 197 0
174 197 0
171 195 0
173 197 36
198 218 198
212 230 255
212 230 255
212 230 255
212 230 255
212 230 255
212 230 255
212 230 255
212 230 255
212 230 255
212 230 255
212 230 255
212 230 255
212 230 255
212 230 255
212 230 255
212 230 255
212 230 255
212 230 255
212 230 255
212 230 255
211 230 255
211 230 255
157 178 211
62 98 158
62 98 162
61 97 151
61 96 153
61 97 156
61 97 154
61 97 158
61 97 161
62 98 162
61 97 155
62 98 161
62 98 161
62 98 158
62 98 157
62 98 159
61 97 156
61 97 152
63 99 165
62 97 152
62 98 162
63 99 165
62 98 160
62 97 154
61 97 155
61 97 155
61 97 158
62 98 157
62 98 158
62 98 160
61 97 158
62 99 165
62 99 163
62 98 165
61 97 154
62 98 162
62 98 157
61 97 154
61 97 156
63 99 162
62 98 156
62 97 157
62 97 156
62 97 158
62 98 162
61 96 154
60 96 151
61 96 155
62 98 162
62 98 159
63 98 163
62 97 153
61 98 162
61 96 154
61 97 159
62 97 157
61 97 162
60 96 154
61 97 157
63 98 165
62 97 159
61 97 158
62 98 165
61 96 158
61 97 161
62 97 158
61 96 155
61 95 157
59 94 152
61 96 158
62 97 162
61 96 158
61 96 156
61 96 156
61 96 161
60 95 155
60 94 153
60 95 160
59 93 154
62 96 161
58 90 151
172 192 223
211 230 255
211 230 255
212 230 255
212 230 255
212 230 255
212 230 255
212 230 255
212 230 255
212 230 255
212 230 255
212 230 255
212 230 255
212 230 255
212 230 255
212 230 255
212 230 255
212 230 255
212 230 255
212 230 255
212 230 255
212 230 255
212 230 255
179 190 198
117 115 78
123 121 82
132 130 86
135 132 87
132 131 89
129 127 86
137 136 91
138 137 93
133 133 92
136 136 91
143 142 96
137 136 92
141 140 95
148 146 99
139 139 94
142 142 96
145 143 97
143 143 96
147 146 98
143 141 95
144 143 96
145 144 97
151 148 99
140 139 95
149 147 99
152 151 101
152 150 101
151 149 99
158 156 103
156 153 101
153 152 101
158 155 104
161 158 105
163 160 101
154 152 101
155 153 102
164 160 104
158 156 104
157 155 101
159 156 103
160 157 104
166 163 107
156 154 103
160 157 102
161 158 104
166 163 107
164 161 105
173 168 109
165 161 103
166 162 105
170 165 107
164 161 105
167 162 106
166 161 103
169 164 106
173 168 110
164 160 105
167 163 106
167 162 103
167 162 105
170 165 107
164 160 99
161 157 101
170 166 106
172 167 105
167 163 104
170 165 103
171 166 105
164 159 101
170 165 104
168 163 104
167 162 103
166 162 103
169 165 104
165 160 101
168 163 105
166 161 103
166 162 100
171 166 106
166 162 104
166 161 101
169 165 102
174 169 109
170 165 106
169 164 102
167 163 104
172 166 103
165 161 104
171 166 104
168 163 105
159 154 99
168 163 103
165 160 101
161 156 98
167 162 104
162 158 97
163 159 100
169 163 101
162 157 94
163 158 101
162 158 101
169 163 98
163 158 97
163 158 97
158 154 95
161 156 96
159 154 95
167 161 101
154 149 92
165 159 101
164 159 98
160 155 96
158 153 94
155 151 92
160 156 96
165 159 97
162 157 99
161 156 93
159 154 92
163 157 98
157 152 92
162 157 96
155 151 93
152 148 88
164 157 93
155 150 94
156 150 88
152 147 87
153 149 91
159 154 93
151 145 91
159 153 95
148 143 87
151 147 92
158 153 89
152 147 93
175 198 0
173 197 0
175 198 0
173 197 0
174 198 0
174 198 0
175 198 0
174 197 0
175 198 0
175 198 0
174 198 0
174 197 0
173 197 0
173 197 0
173 197 0
174 198 0
174 197 0
174 198 0
175 198 0
173 197 0
175 198 0
175 198 0
174 197 0
174 197 0
176 199 0
173 197 0
175 198 0
175 198 0
175 198 0
176 199 0
174 198 0
174 197 0
174 198 0
174 198 0
173 197 0
173 197 0
174 198 0
175 198 0
174 197 0
175 198 0
175 198 0
174 197 0
174 198 0
174 198 0
174 198 0
174 197 0
176 198 0
173 197 0
174 198 0
174 197 0
175 198 0
174 197 0
175 198 0
175 198 0
176 198 0
174 197 0
175 198 0
175 198 0
174 198 0
173 197 0
174 198 0
174 197 0
175 198 0
175 198 0
175 198 0
175 198 0
176 199 0
174 197 0
174 197 0
173 197 0
175 198 0
173 197 0
173 197 0
175 198 0
173 197 0
174 197 0
174 198 0
174 198 0
173 197 0
174 198 0
174 198 0
174 198 0
173 197 0
174 198 0
174 197 0
173 196 0
175 198 0
175 198 0
174 198 0
175 198 0
176 198 0
174 198 0
174 197 0
175 198 0
174 197 0
174 198 0
174 198 0
175 198 0
174 198 0
175 198 0
175 198 0
175 198 0
174 198 0
174 198 0
174 198 0
174 198 0
174 198 0
172 196 0
174 198 0
175 198 0
175 198 0
175 198 0
173 197 0
175 198 0
175 198 0
173 197 0
176 199 0
174 198 0
174 197 0
174 198 0
175 198 0
174 198 0
174 198 0
174 197 0
176 198 0
175 198 0
174 198 0
173 197 0
174 197 0
175 198 0
175 198 0
174 197 0
176 199 0
175 198 0
175 198 0
175 198 0
176 199 51
204 223 221
212 231 255
212 231 255
212 231 255
212 231 255
212 231 255
212 230 255
212 230 255
212 230 255
212 230 255
212 230 255
212 230 255
212 230 255
212 230 255
212 230 255
212 230 255
212 230 255
212 230 255
212 230 255
212 230 255
212 230 255
191 210 238
68 102 161
60 96 152
62 98 162
61 97 162
61 97 156
60 96 151
61 96 150
61 97 159
61 96 153
62 98 164
61 97 151
62 98 162
62 98 156
62 98 159
62 98 158
61 97 153
61 97 151
61 97 156
62 98 164
62 98 159
62 98 158
61 97 152
61 97 155
62 98 163
62 99 164
62 98 156
61 97 157
62 97 157
62 98 157
62 98 159
62 98 159
62 98 160
61 97 148
62 98 158
61 97 157
62 98 163
63 99 160
62 98 155
62 98 156
62 98 156
61 97 156
62 98 155
61 97 157
62 98 161
61 96 155
61 97 152
62 97 156
61 97 155
63 99 163
61 96 154
61 97 156
62 97 157
61 97 159
61 96 151
61 97 155
60 95 147
62 98 163
62 97 158
61 97 162
61 97 156
61 97 154
61 96 153
61 96 159
62 97 158
62 97 162
62 97 159
62 97 155
61 96 156
62 97 163
61 96 163
61 96 158
60 94 157
61 97 164
59 94 153
61 96 164
60 94 154
61 95 159
59 94 155
60 95 159
60 95 157
59 94 160
74 104 160
192 211 241
212 230 255
212 230 255
212 230 255
212 230 255
212 230 255
212 230 255
212 230 255
212 230 255
212 230 255
212 230 255
212 230 255
212 230 255
212 230 255
212 230 255
212 230 255
212 230 255
212 231 255
212 231 255
212 231 255
212 231 255
205 221 240
134 132 89
129 127 84
126 125 84
132 131 89
129 129 88
125 125 86
137 135 92
142 141 95
139 138 94
136 136 92
128 127 87
146 145 100
136 135 92
146 145 98
137 136 92
147 145 97
150 149 101
140 140 96
147 146 98
142 141 97
147 146 100
150 148 101
157 156 105
152 151 101
145 143 95
154 151 100
153 151 100
152 149 100
154 151 101
152 149 99
157 154 101
162 159 104
152 150 97
163 160 102
161 158 105
156 153 101
163 160 105
163 159 105
163 159 103
156 153 101
165 162 104
169 165 108
157 154 99
168 164 108
165 162 104
166 163 106
165 161 102
167 162 106
168 163 104
162 159 103
170 166 106
166 161 106
167 163 104
164 160 100
165 161 101
168 164 106
164 161 103
169 165 107
168 164 106
168 163 106
173 167 106
163 159 101
173 167 105
169 164 103
168 164 104
173 168 106
171 166 107
167 161 104
171 165 106
168 164 105
163 159 104
171 165 107
172 167 109
165 160 103
169 165 106
170 165 104
166 162 103
169 165 106
167 162 101
167 162 104
167 162 103
163 158 99
168 163 104
172 165 103
171 165 101
164 160 97
168 162 98
171 166 106
166 159 98
168 162 103
166 162 99
167 162 101
168 163 103
168 163 103
166 160 101
166 160 100
161 157 97
165 160 103
169 164 103
165 161 99
164 159 95
163 158 96
162 157 97
168 162 98
162 156 97
169 163 100
165 160 97
170 164 102
167 161 102
171 165 101
165 160 98
160 156 95
159 154 96
163 157 97
168 162 97
159 154 95
167 161 103
158 152 93
148 145 90
160 155 97
161 156 95
163 156 97
162 156 95
160 156 97
155 151 93
154 150 90
154 149 90
147 142 84
168 162 96
156 150 92
158 153 90
161 154 93
157 153 92
156 151 91
151 146 87
153 147 89
151 146 87
172 196 0
173 197 0
173 197 0
174 198 0
174 198 0
174 198 0
175 198 0
175 198 0
175 198 0
174 198 0
174 198 0
175 198 0
174 197 0
173 197 0
173 197 0
175 198 0
175 198 0
172 196 0
172 197 0
172 197 0
175 198 0
172 197 0
173 197 0
175 198 0
174 197 0
173 197 0
174 197 0
175 198 0
175 198 0
173 197 0
174 198 0
175 198 0
174 197 0
174 198 0
175 198 0
174 197 0
175 198 0
174 198 0
175 198 0
173 197 0
175 198 0
174 197 0
175 198 0
175 198 0
175 198 0
173 197 0
175 198 0
174 198 0
177 199 0
176 198 0
175 198 0
175 198 0
174 197 0
174 198 0
176 198 0
175 198 0
174 198 0
173 197 0
174 197 0
174 198 0
175 198 0
173 197 0
174 197 0
175 198 0
175 198 0
173 197 0
173 196 0
174 197 0
175 198 0
175 198 0
174 197 0
176 198 0
173 197 0
173 197 0
174 198 0
174 198 0
176 199 0
175 198 0
173 197 0
174 198 0
175 198 0
175 198 0
174 198 0
174 198 0
174 198 0
175 198 0
172 197 0
175 198 0
175 198 0
174 198 0
174 198 0
174 198 0
174 198 0
174 198 0
174 198 0
175 198 0
174 198 0
174 198 0
173 197 0
174 198 0
175 198 0
175 198 0
175 198 0
174 197 0
175 198 0
175 198 0
175 198 0
175 198 0
174 197 0
175 198 0
174 198 0
175 198 0
175 198 0
173 197 0
172 196 0
174 198 0
174 198 0
174 197 0
173 197 0
173 197 0
175 198 0
174 198 0
173 197 0
174 197 0
175 198 0
174 197 0
173 197 0
176 199 0
173 196 0
174 198 0
174 197 0
173 196 0
174 197 0
173 196 0
173 197 0
174 198 0
173 196 0
179 202 102
209 227 242
213 231 255
213 231 255
213 231 255
212 231 255
212 231 255
212 231 255
212 231 255
212 231 255
212 231 255
212 231 255
212 231 255
212 231 255
212 231 255
212 230 255
212 230 255
212 230 255
212 230 255
212 230 255
208 227 252
93 121 169
61 97 158
61 97 159
60 96 143
61 97 160
61 97 152
61 97 156
61 97 152
61 96 150
61 97 154
62 98 160
63 98 158
61 97 154
62 97 150
62 98 163
61 97 158
61 96 151
61 97 152
61 97 157
62 98 160
62 98 156
62 98 163
61 96 150
61 97 157
61 97 154
60 96 154
61 97 156
61 97 152
62 97 156
62 98 158
62 97 162
60 95 140
61 97 155
62 98 154
62 97 154
62 97 154
63 99 168
61 98 159
62 98 156
62 99 163
62 98 160
61 97 153
62 98 158
61 98 162
61 96 152
62 98 158
62 97 154
61 97 151
62 97 158
62 98 165
62 97 156
62 98 156
61 97 153
61 97 153
61 97 159
61 97 160
61 96 154
61 97 158
61 96 155
61 97 156
62 97 153
61 97 160
61 96 149
61 96 151
62 97 155
62 97 162
61 96 158
61 97 157
61 96 155
61 96 159
61 96 157
60 94 150
61 95 158
61 96 157
61 97 161
61 96 151
60 94 150
60 94 157
59 93 154
59 93 153
57 90 140
58 90 144
59 92 148
94 119 169
210 228 253
212 230 255
212 230 255
212 230 255
212 230 255
212 230 255
212 231 255
212 231 255
212 231 255
212 231 255
212 231 255
212 231 255
212 231 255
212 231 255
212 231 255
212 231 255
213 231 255
213 231 255
213 231 255
211 228 250
132 135 119
116 113 74
132 130 89
126 125 85
120 120 83
128 129 90
142 141 95
134 133 91
136 135 92
133 133 92
125 125 87
131 131 91
129 128 87
140 139 95
141 141 97
139 138 94
135 136 94
141 140 95
145 144 96
140 139 94
153 151 101
146 145 98
147 145 97
157 155 102
148 146 97
149 148 100
145 144 99
156 153 103
155 153 103
147 145 97
155 152 100
154 152 101
153 151 99
156 153 100
158 157 104
164 160 105
153 150 100
164 160 104
160 157 104
164 161 106
160 157 100
159 156 102
160 156 100
167 163 106
171 166 106
163 160 105
166 161 105
166 161 104
168 163 103
160 157 101
167 163 106
170 165 108
165 161 105
168 163 106
168 164 106
165 161 103
167 163 103
166 161 104
165 162 102
170 165 103
166 163 101
170 164 106
173 168 105
169 165 106
166 161 102
170 166 106
169 164 103
170 166 103
166 162 102
161 157 99
166 162 104
170 166 104
171 166 106
167 162 103
168 162 99
164 160 98
170 165 104
168 163 105
168 164 102
167 162 103
169 164 103
174 168 104
167 162 100
171 166 103
172 166 104
174 169 108
165 160 102
160 156 98
162 158 99
166 162 103
165 161 102
171 166 103
173 167 104
164 158 97
168 163 101
159 154 97
167 161 100
164 159 100
168 163 99
165 161 101
168 162 99
165 160 102
169 163 101
165 160 99
166 160 95
169 163 100
161 156 94
167 161 101
164 159 97
166 162 99
158 153 90
163 158 94
161 156 96
157 151 94
164 158 97
154 149 93
157 152 95
163 158 97
159 155 94
165 160 98
160 155 94
163 157 98
160 155 94
158 153 92
162 158 95
162 158 101
156 150 88
162 156 96
154 148 87
153 149 86
157 152 96
160 155 97
158 154 92
150 145 87
158 152 93
148 144 84
151 146 90
147 142 84
174 197 0
176 198 0
176 199 0
174 198 0
176 199 0
176 199 0
175 198 0
175 198 0
174 197 0
173 196 0
174 198 0
174 197 0
174 198 0
175 198 0
174 198 0
175 198 0
175 198 0
174 197 0
174 198 0
174 198 0
173 197 0
173 197 0
174 198 0
175 198 0
174 197 0
175 198 0
175 198 0
175 198 0
175 198 0
174 198 0
174 198 0
175 198 0
174 198 0
174 198 0
172 196 0
173 197 0
175 198 0
173 197 0
176 198 0
174 197 0
175 198 0
174 198 0
174 198 0
173 197 0
174 198 0
174 198 0
174 198 0
175 198 0
174 198 0
176 198 0
173 197 0
174 197 0
173 197 0
175 198 0
176 199 0
175 198 0
175 198 0
173 197 0
175 198 0
175 198 0
174 198 0
174 198 0
175 198 0
175 198 0
175 198 0
174 198 0
173 197 0
174 197 0
175 198 0
174 198 0
175 198 0
175 198 0
175 198 0
174 198 0
175 198 0
174 197 0
173 197 0
176 199 0
175 198 0
176 198 0
174 198 0
175 198 0
175 198 0
175 198 0
175 198 0
174 197 0
174 198 0
173 197 0
175 198 0
175 198 0
174 198 0
175 198 0
173 197 0
174 198 0
174 198 0
174 197 0
174 198 0
172 197 0
174 197 0
174 198 0
174 198 0
174 198 0
174 197 0
175 198 0
175 198 0
174 198 0
174 198 0
175 198 0
174 198 0
175 198 0
172 197 0
175 198 0
174 198 0
174 198 0
175 198 0
174 197 0
174 198 0
174 198 0
174 197 0
174 197 0
175 198 0
173 197 0
172 197 0
173 197 0
176 199 0
174 197 0
176 199 0
175 198 0
175 198 0
173 197 0
174 198 0
174 198 0
175 198 0
173 197 0
175 198 0
175 198 0
173 197 0
171 195 0
180 203 108
213 231 255
213 231 255
213 231 255
213 231 255
213 231 255
213 231 255
213 231 255
213 231 255
213 231 255
213 231 255
213 231 255
213 231 255
213 231 255
212 231 255
212 231 255
212 231 255
212 231 255
212 231 255
148 169 200
61 97 158
60 96 145
61 97 156
61 97 154
61 97 156
61 97 158
61 97 153
61 97 153
62 98 163
62 97 151
62 98 156
61 97 153
61 97 157
61 97 159
62 98 158
62 97 161
62 97 155
61 96 151
61 97 156
61 97 155
63 98 157
61 97 155
61 97 153
61 97 154
61 97 155
62 98 157
62 97 153
62 98 160
62 98 159
62 97 154
61 97 155
62 98 158
62 98 157
62 98 156
62 98 163
61 97 154
61 97 153
61 96 153
62 98 159
61 97 153
62 98 160
62 98 155
62 98 162
60 96 148
62 99 167
61 97 149
62 97 155
62 98 157
62 97 154
61 97 158
62 98 153
62 97 161
62 97 155
62 97 159
62 98 158
60 96 160
63 98 163
62 98 159
61 96 153
60 95 147
62 98 162
62 98 166
61 96 160
61 96 157
61 97 155
60 95 151
61 96 150
61 97 160
61 96 156
61 96 158
60 95 152
60 95 149
61 96 159
61 95 152
61 96 158
61 96 152
59 94 156
60 95 159
60 93 151
61 94 152
59 92 151
59 94 153
58 90 147
58 92 155
124 146 185
212 231 255
212 231 255
212 231 255
212 231 255
212 231 255
213 231 255
213 231 255
213 231 255
213 231 255
213 231 255
213 231 255
213 231 255
213 231 255
213 231 255
213 231 255
213 231 255
213 231 255
211 229 253
148 149 125
128 126 83
127 125 82
130 128 86
139 136 91
120 119 82
129 129 89
125 125 87
125 125 86
135 134 92
135 134 91
135 134 91
133 133 91
136 136 94
136 136 93
137 136 93
134 134 91
136 136 94
153 151 102
146 144 97
138 137 94
161 158 106
139 138 94
151 150 99
151 149 99
149 148 99
156 154 102
150 148 99
143 141 93
156 154 103
150 147 98
154 151 98
152 150 98
159 156 100
163 159 103
153 151 100
161 157 101
158 155 100
164 160 105
154 152 99
164 160 106
166 162 106
164 161 105
170 166 108
167 162 105
165 161 105
166 162 104
163 159 100
170 167 107
169 165 107
164 160 103
159 156 98
165 160 104
171 166 104
171 166 104
171 166 106
169 165 105
172 167 107
166 161 103
169 165 104
167 163 103
168 163 103
168 163 104
170 166 103
168 163 104
174 168 102
165 161 101
169 164 103
171 166 109
168 162 101
171 166 104
169 165 103
170 165 105
172 167 103
169 164 103
167 161 101
170 165 100
175 169 106
163 159 99
172 167 104
166 161 99
163 158 99
170 164 101
171 166 101
165 160 101
167 162 102
172 166 106
167 162 101
168 162 99
163 158 100
168 163 97
169 163 97
169 164 102
169 165 103
165 160 101
166 161 99
164 159 93
165 160 101
168 162 101
158 153 93
170 164 103
170 165 103
161 156 95
166 160 93
168 162 102
168 163 100
166 161 99
165 160 100
166 161 97
167 161 99
164 159 94
164 159 97
160 155 95
162 157 92
163 157 96
163 158 93
158 152 91
160 156 94
157 153 93
165 158 96
159 155 93
162 156 95
164 158 97
164 159 97
158 152 93
164 159 97
158 152 92
160 155 94
160 155 94
160 154 94
163 158 99
158 153 95
151 146 86
161 155 95
162 157 96
160 154 94
149 145 88
153 149 90
155 150 91
173 196 0
174 197 0
173 197 0
174 198 0
175 198 0
174 198 0
174 198 0
174 198 0
174 198 0
176 198 0
174 197 0
176 199 0
174 198 0
173 197 0
174 197 0
173 197 0
175 198 0
174 197 0
173 197 0
175 198 0
175 198 0
174 198 0
175 198 0
174 198 0
174 198 0
174 198 0
175 198 0
175 198 0
174 198 0
174 198 0
174 198 0
175 198 0
174 198 0
173 197 0
174 198 0
176 198 0
173 197 0
173 197 0
174 198 0
173 197 0
176 199 0
174 198 0
174 197 0
174 198 0
176 199 0
174 198 0
174 197 0
173 197 0
174 197 0
177 199 0
174 198 0
173 197 0
175 198 0
174 198 0
174 198 0
175 198 0
173 197 0
175 198 0
173 197 0
175 198 0
176 199 0
175 198 0
173 196 0
175 198 0
175 198 0
174 198 0
174 198 0
174 198 0
174 197 0
174 197 0
175 198 0
174 197 0
173 197 0
174 197 0
174 198 0
174 198 0
173 197 0
174 197 0
174 198 0
173 197 0
175 198 0
175 198 0
174 197 0
174 198 0
177 199 0
175 198 0
173 197 0
174 198 0
174 198 0
175 198 0
174 197 0
175 198 0
174 197 0
174 198 0
174 197 0
173 197 0
174 198 0
175 198 0
175 198 0
174 197 0
175 198 0
174 198 0
173 197 0
175 198 0
175 198 0
173 197 0
174 198 0
175 198 0
175 198 0
174 197 0
176 199 0
174 198 0
175 198 0
175 198 0
174 197 0
174 198 0
176 199 0
175 198 0
175 198 0
175 198 0
174 197 0
176 199 0
175 198 0
174 198 0
174 198 0
174 198 0
174 198 0
175 198 0
174 198 0
175 198 0
174 198 0
174 197 0
175 198 0
176 199 0
173 197 0
175 198 0
173 197 0
174 197 0
174 198 0
192 212 177
213 231 255
213 231 255
213 231 255
213 231 255
213 231 255
213 231 255
213 231 255
213 231 255
213 231 255
213 231 255
213 231 255
213 231 255
213 231 255
213 231 255
213 231 255
213 231 255
180 199 229
60 95 139
61 97 159
61 97 156
61 97 154
62 98 158
60 95 149
61 96 144
61 98 161
62 98 157
61 97 150
62 98 158
60 95 145
61 97 152
61 96 154
63 99 161
60 96 150
62 98 161
61 97 154
61 96 153
61 97 154
61 97 153
62 97 158
61 97 155
62 97 156
62 98 152
62 98 158
61 97 159
61 97 154
61 97 154
61 97 153
62 98 159
61 97 155
62 97 157
60 95 144
61 96 149
61 96 155
62 98 163
61 97 154
62 98 158
60 96 150
61 97 151
61 97 155
62 98 160
61 97 155
61 97 161
62 98 156
61 96 159
62 98 162
62 97 159
61 96 152
61 96 150
61 97 153
60 95 147
62 98 165
62 97 151
62 97 161
61 97 156
62 98 163
61 97 155
62 98 160
62 98 159
61 97 159
61 97 161
62 98 160
61 96 149
61 96 153
61 96 157
62 98 161
62 97 157
61 96 153
62 98 163
59 93 146
62 97 158
60 95 149
61 95 156
61 97 161
61 95 156
60 94 151
60 93 153
60 95 154
61 95 153
60 94 152
57 91 144
58 91 148
58 92 151
57 90 147
172 191 221
213 231 255
213 231 255
213 231 255
213 231 255
213 231 255
213 231 255
213 231 255
213 231 255
213 231 255
213 231 255
213 231 255
213 231 255
213 231 255
213 231 255
213 231 255
213 231 255
165 175 179
132 130 85
134 131 87
120 118 80
145 142 94
134 133 91
123 122 83
137 136 93
123 123 86
120 119 81
135 135 93
123 124 88
129 130 91
136 135 92
137 137 94
141 140 95
137 137 94
139 138 93
146 145 99
140 140 96
139 139 95
148 147 100
141 138 92
144 141 95
144 143 96
151 150 101
154 152 100
148 147 97
154 152 103
142 141 94
155 151 98
156 153 100
155 152 101
161 159 104
166 162 105
165 161 105
160 157 102
162 159 102
156 153 100
165 161 104
159 156 101
159 155 101
163 159 101
166 162 102
164 161 102
159 156 100
160 156 101
168 164 105
165 161 106
171 167 107
163 159 103
163 159 101
169 164 103
171 167 105
170 165 105
168 163 104
171 166 102
169 165 104
166 161 101
169 164 106
170 164 104
171 167 103
166 162 99
173 168 106
166 161 98
168 162 100
173 166 105
171 165 104
166 162 104
169 164 106
164 160 101
172 166 105
172 167 105
169 164 97
170 165 102
170 165 103
169 165 104
172 167 106
166 161 99
169 163 101
168 163 104
168 163 101
170 164 103
168 164 99
172 167 106
171 166 106
169 163 104
171 165 105
164 159 99
172 166 103
163 157 95
168 163 103
167 162 101
167 161 103
163 158 93
169 163 100
167 162 101
167 161 101
164 159 95
166 161 100
162 156 96
164 159 96
168 162 98
166 161 99
169 163 102
161 156 93
166 161 98
160 155 95
160 155 93
167 161 97
165 160 96
162 157 92
166 160 99
169 163 97
170 164 96
162 156 95
161 155 91
166 160 98
164 159 96
164 158 96
158 153 98
163 157 98
160 155 92
153 148 87
155 151 93
148 142 82
163 157 97
160 156 93
163 157 97
155 149 87
162 156 96
162 156 95
160 154 90
154 147 87
156 152 93
159 153 88
156 150 88
155 149 88
153 147 89
160 154 87
175 198 0
173 197 0
175 198 0
175 198 0
175 198 0
173 196 0
175 198 0
172 196 0
175 198 0
174 197 0
175 198 0
174 198 0
174 198 0
174 198 0
175 198 0
176 199 0
173 197 0
174 198 0
174 198 0
176 199 0
174 197 0
173 197 0
175 198 0
175 198 0
174 198 0
174 197 0
174 198 0
174 198 0
175 198 0
174 197 0
173 197 0
173 197 0
175 198 0
174 197 0
174 197 0
174 198 0
174 198 0
175 198 0
174 197 0
174 198 0
175 198 0
174 198 0
176 198 0
175 198 0
173 197 0
174 198 0
175 198 0
173 197 0
174 198 0
173 197 0
176 199 0
175 198 0
174 197 0
175 198 0
175 198 0
174 198 0
175 198 0
175 198 0
175 198 0
175 198 0
175 198 0
173 197 0
175 198 0
175 198 0
174 198 0
176 198 0
175 198 0
173 197 0
173 197 0
173 197 0
174 198 0
175 198 0
174 198 0
175 198 0
175 198 0
175 198 0
173 197 0
174 197 0
174 198 0
174 197 0
172 196 0
173 197 0
173 197 0
173 197 0
175 198 0
173 197 0
175 198 0
176 198 0
173 197 0
174 197 0
174 198 0
172 197 0
173 197 0
173 197 0
173 197 0
176 199 0
174 198 0
176 198 0
176 198 0
175 198 0
175 198 0
175 198 0
175 198 0
173 197 0
175 198 0
173 197 0
174 198 0
174 197 0
175 198 0
174 198 0
176 199 0
174 198 0
174 198 0
174 197 0
174 198 0
175 198 0
174 198 0
173 197 0
174 197 0
175 198 0
174 198 0
175 198 0
173 197 0
175 198 0
175 198 0
172 196 0
173 197 0
174 197 0
176 198 0
174 198 0
172 196 0
177 199 0
175 198 0
173 197 0
175 198 0
172 196 0
176 198 0
175 198 0
173 197 0
173 196 44
208 227 236
213 231 255
213 231 255
213 231 255
213 231 255
213 231 255
213 231 255
213 231 255
213 231 255
213 231 255
213 231 255
213 231 255
213 231 255
213 231 255
213 231 255
206 224 251
91 119 170
60 96 147
61 96 151
60 96 152
60 96 153
60 96 155
60 96 147
61 97 150
62 97 149
62 97 156
61 96 152
61 96 149
62 98 158
62 98 160
61 97 148
62 98 162
62 98 156
62 97 155
62 97 149
61 96 145
61 96 150
62 98 157
62 98 161
62 98 158
62 98 158
62 98 159
62 98 157
62 97 154
61 97 162
62 98 160
61 97 152
62 98 154
61 97 154
61 96 148
61 97 156
61 97 151
61 97 152
62 98 153
62 97 154
61 97 152
61 97 155
62 98 161
61 96 151
61 97 156
60 96 145
62 98 155
61 97 152
61 97 156
61 97 159
61 96 147
61 96 149
61 97 157
61 97 149
61 97 151
61 96 153
60 95 150
61 96 152
61 96 155
62 97 157
61 98 159
61 96 147
61 97 152
62 97 154
60 95 145
61 96 145
61 97 160
61 97 156
62 98 163
61 96 152
61 95 150
61 96 155
61 96 153
62 97 162
60 94 142
61 96 158
61 96 154
60 94 157
60 94 155
60 94 151
60 95 157
59 93 150
60 95 160
60 93 147
60 93 151
60 93 149
59 94 154
59 91 154
89 113 158
210 228 254
213 231 255
213 231 255
213 231 255
213 231 255
213 231 255
213 231 255
213 231 255
213 231 255
213 231 255
213 231 255
213 231 255
213 231 255
213 231 255
213 231 255
197 211 229
124 122 84
132 129 83
117 116 79
130 129 88
122 122 84
130 128 86
127 127 88
122 123 85
125 125 87
126 125 86
139 139 94
137 137 95
126 126 87
142 141 96
128 128 87
131 132 91
136 135 91
131 132 90
138 138 94
143 142 97
144 142 95
140 140 95
133 133 90
154 151 101
147 146 97
158 155 103
149 148 96
147 145 96
148 147 99
153 152 102
147 145 97
151 150 98
152 149 98
151 149 100
161 159 104
158 155 101
156 153 100
156 153 100
167 162 105
155 152 99
162 158 103
165 161 106
165 160 104
165 161 104
165 161 102
160 156 98
158 156 103
165 162 104
164 160 103
162 157 97
167 163 102
162 159 102
168 163 103
169 164 103
168 163 103
166 162 102
169 165 107
171 166 105
169 164 102
167 163 101
171 166 105
173 167 104
170 166 106
168 162 101
170 165 105
173 170 110
175 170 109
175 169 104
173 168 105
168 164 103
168 164 103
169 165 101
175 168 104
172 167 107
173 168 105
166 162 99
169 165 102
169 164 103
161 156 95
169 164 105
168 163 102
173 168 105
170 164 100
174 168 105
170 165 101
168 164 99
169 164 100
172 167 103
170 165 102
166 160 97
168 163 103
163 159 97
164 159 101
169 164 101
162 157 95
167 161 100
172 165 101
168 163 100
164 159 97
169 164 102
168 162 100
164 159 96
170 164 101
168 163 99
167 161 99
166 160 97
164 159 97
171 165 100
169 163 102
166 160 95
159 153 87
167 162 99
158 152 93
165 159 94
164 159 95
159 154 92
156 151 88
169 164 101
162 155 93
166 159 95
162 157 91
159 154 90
160 156 93
160 153 94
165 160 98
164 159 98
159 154 95
160 154 91
156 151 90
166 160 97
161 156 94
158 153 91
160 154 90
162 155 95
158 153 92
159 154 90
150 146 87
154 150 90
147 142 85
157 151 90
175 198 0
174 197 0
174 198 0
175 198 0
174 197 0
175 198 0
174 198 0
175 198 0
174 197 0
177 199 0
174 197 0
174 198 0
175 198 0
172 196 0
176 199 0
175 198 0
176 199 0
174 198 0
174 198 0
175 198 0
175 198 0
176 198 0
175 198 0
174 198 0
173 197 0
175 198 0
174 198 0
174 197 0
175 198 0
175 198 0
175 198 0
175 198 0
176 198 0
175 198 0
173 197 0
174 197 0
174 198 0
173 197 0
175 198 0
173 197 0
174 197 0
175 198 0
173 197 0
174 198 0
174 197 0
173 197 0
173 197 0
176 198 0
174 198 0
175 198 0
174 198 0
174 197 0
175 198 0
175 198 0
176 199 0
177 199 0
173 197 0
175 198 0
173 197 0
174 198 0
175 198 0
176 198 0
175 198 0
174 198 0
173 197 0
175 198 0
174 198 0
172 197 0
174 198 0
175 198 0
176 198 0
175 198 0
174 197 0
174 197 0
174 198 0
175 198 0
175 198 0
175 198 0
173 197 0
174 198 0
177 199 0
175 198 0
176 199 0
172 196 0
175 198 0
175 198 0
175 198 0
174 198 0
175 198 0
173 197 0
173 197 0
173 197 0
176 198 0
173 197 0
174 198 0
173 197 0
173 197 0
175 198 0
175 198 0
175 198 0
175 198 0
174 198 0
173 197 0
176 199 0
173 197 0
175 198 0
174 197 0
174 198 0
176 199 0
174 197 0
174 197 0
173 196 0
174 198 0
174 198 0
173 197 0
174 197 0
174 198 0
173 197 0
173 197 0
176 199 0
175 198 0
173 197 0
174 198 0
176 198 0
175 198 0
174 198 0
175 198 0
173 197 0
174 198 0
174 197 0
173 197 0
174 198 0
174 197 0
174 197 0
175 198 0
174 198 0
174 198 0
173 197 0
171 195 0
176 199 0
177 200 76
211 229 248
214 231 255
214 231 255
214 231 255
214 231 255
214 231 255
213 231 255
213 231 255
213 231 255
213 231 255
213 231 255
213 231 255
213 231 255
213 231 255
149 169 204
60 96 148
61 97 150
61 97 153
62 97 152
62 98 155
60 96 151
61 97 155
62 98 159
60 96 151
61 97 152
62 97 155
61 97 154
61 97 152
61 97 158
61 97 152
62 98 156
60 96 143
61 97 153
61 97 156
61 96 149
62 97 156
61 97 151
62 98 156
61 97 149
61 97 156
61 96 152
62 98 159
61 96 152
62 98 157
62 98 160
61 97 156
62 97 151
61 97 156
62 98 154
62 98 161
62 97 151
62 98 156
62 97 157
62 99 163
62 98 157
61 96 141
61 96 152
61 97 155
62 98 161
62 98 153
62 98 162
62 97 152
61 97 159
62 98 156
62 97 154
61 97 155
62 98 154
62 97 152
61 96 154
62 98 159
61 96 151
60 95 150
62 98 160
62 98 161
60 95 149
61 96 146
63 98 163
61 96 145
61 96 152
62 97 156
60 95 148
62 98 160
61 96 149
60 95 142
60 95 147
62 97 156
60 95 154
61 95 152
61 97 157
61 95 153
60 94 145
59 94 143
60 95 155
60 95 151
60 94 150
60 95 158
60 93 146
59 93 148
59 92 144
58 91 147
59 93 154
58 91 147
59 92 155
151 170 204
213 231 255
213 231 255
213 231 255
213 231 255
213 231 255
213 231 255
213 231 255
213 231 255
214 231 255
214 231 255
214 231 255
214 231 255
214 231 255
205 221 241
142 143 115
126 122 80
121 120 80
123 122 81
117 117 81
124 123 85
120 121 85
130 130 88
119 119 83
123 123 85
130 130 89
126 127 89
129 130 91
122 123 85
138 138 95
136 136 93
139 138 94
131 131 91
140 139 94
146 144 98
144 143 96
138 137 95
149 148 100
146 144 96
145 143 96
150 149 99
155 152 101
152 150 97
149 147 98
142 142 95
143 143 96
159 157 103
156 153 100
153 151 100
149 148 99
154 152 98
159 156 100
159 156 101
159 156 103
164 159 102
163 160 105
161 156 99
157 154 99
165 161 100
164 160 102
166 161 104
161 157 103
165 160 101
167 163 101
166 162 104
162 159 102
167 162 104
168 164 105
171 166 106
169 165 102
168 165 102
166 161 100
166 160 99
168 164 103
169 164 104
170 165 104
173 167 105
167 162 98
168 163 102
169 163 100
170 166 104
172 167 104
172 166 104
174 169 105
174 168 101
171 165 105
173 167 107
169 164 97
169 163 103
169 164 103
175 169 104
174 168 104
167 162 99
171 166 103
170 165 100
165 161 100
171 166 101
164 159 95
171 166 102
167 163 101
169 164 103
172 167 103
169 164 100
170 164 101
168 163 101
167 161 99
172 167 106
164 158 97
170 165 104
160 154 90
168 163 99
169 163 99
170 165 101
171 165 103
171 165 100
164 158 96
172 166 99
163 158 98
170 165 100
160 155 95
167 162 101
169 163 103
157 152 94
158 153 94
167 161 97
167 162 97
157 152 90
169 162 99
165 160 95
172 165 100
167 161 99
161 156 93
162 156 95
157 152 93
162 155 91
165 159 95
164 158 94
157 152 90
159 154 93
160 155 91
168 163 98
157 152 86
165 158 93
160 153 94
151 147 84
161 156 95
163 157 95
160 154 95
166 160 91
159 154 91
152 147 87
168 162 98
160 155 93
147 142 84
145 141 83
159 153 93
175 198 0
174 198 0
175 198 0
174 197 0
174 198 0
174 198 0
176 199 0
174 198 0
175 198 0
174 197 0
172 196 0
174 197 0
175 198 0
174 197 0
176 199 0
174 197 0
173 197 0
174 198 0
175 198 0
175 198 0
174 198 0
176 198 0
174 198 0
174 197 0
175 198 0
173 197 0
175 198 0
173 197 0
174 198 0
176 198 0
172 197 0
174 198 0
173 197 0
174 198 0
173 197 0
174 198 0
173 197 0
176 199 0
175 198 0
174 197 0
174 198 0
176 199 0
175 198 0
174 198 0
174 198 0
176 199 0
175 198 0
175 198 0
176 198 0
174 198 0
174 197 0
174 197 0
174 198 0
174 197 0
174 198 0
175 198 0
174 197 0
174 198 0
174 198 0
174 198 0
175 198 0
175 198 0
175 198 0
175 198 0
176 199 0
174 198 0
176 199 0
174 198 0
174 197 0
174 197 0
175 198 0
174 198 0
174 198 0
174 197 0
176 199 0
173 197 0
174 198 0
174 198 0
174 197 0
173 197 0
175 198 0
175 198 0
174 198 0
174 198 0
175 198 0
176 199 0
173 197 0
174 197 0
174 197 0
173 197 0
174 197 0
175 198 0
176 198 0
174 197 0
173 197 0
175 198 0
174 197 0
175 198 0
175 198 0
176 199 0
175 198 0
175 198 0
175 198 0
175 198 0
174 198 0
174 198 0
175 198 0
175 198 0
173 197 0
173 197 0
175 198 0
173 197 0
174 198 0
176 198 0
174 198 0
174 198 0
175 198 0
175 198 0
175 198 0
174 197 0
175 198 0
174 198 0
173 197 0
174 197 0
176 198 0
173 197 0
176 198 0
175 198 0
175 198 0
174 197 0
173 197 0
174 197 0
173 196 0
173 197 0
174 198 0
173 197 0
174 197 0
174 198 0
173 197 0
173 197 0
174 197 0
189 210 163
214 231 255
214 231 255
214 231 255
214 231 255
214 231 255
214 231 255
214 231 255
214 231 255
214 231 255
214 231 255
214 231 255
214 231 255
202 220 245
69 101 143
61 97 154
60 96 141
61 97 147
61 97 150
61 97 151
61 97 155
61 96 152
61 96 156
61 97 154
61 97 151
62 98 158
60 96 143
62 98 154
61 97 155
61 97 149
61 97 157
62 98 160
61 97 151
61 97 152
62 97 149
61 97 154
61 97 148
62 98 156
62 97 156
62 97 157
61 97 154
61 97 151
62 97 149
61 97 156
61 97 153
62 97 153
60 96 144
61 96 150
61 96 148
62 98 159
61 97 154
62 98 158
63 99 166
61 97 152
61 96 147
63 98 159
62 98 161
62 97 151
60 95 145
60 96 151
60 95 147
61 97 151
61 97 150
61 97 148
62 97 156
61 97 150
61 97 150
61 97 152
60 95 150
61 97 155
61 96 149
61 97 150
61 96 153
61 96 154
61 97 153
62 98 158
61 97 154
62 97 155
61 97 150
62 96 150
60 95 150
61 97 154
61 96 156
60 95 145
61 96 153
59 93 141
62 98 157
61 96 153
60 95 154
60 94 149
60 94 147
61 95 151
60 94 149
59 94 149
60 92 144
59 93 144
61 95 160
61 95 149
59 91 146
58 91 147
58 91 145
58 89 141
57 89 145
64 93 145
204 221 247
214 231 255
214 231 255
214 231 255
214 231 255
214 231 255
214 231 255
214 231 255
214 231 255
214 231 255
214 231 255
214 231 255
214 231 255
165 174 175
131 128 83
127 124 80
118 118 79
108 108 76
112 113 78
111 112 78
111 111 77
121 121 84
114 116 81
106 109 78
122 123 84
131 132 92
128 128 89
121 122 86
125 126 87
133 132 91
134 133 89
141 140 95
137 136 93
143 142 96
136 135 90
145 143 96
137 137 92
149 147 97
151 149 99
150 148 97
145 144 96
154 152 102
134 135 90
150 147 96
154 152 101
150 148 99
154 152 98
150 148 95
159 156 102
156 154 102
163 159 102
163 158 103
159 156 103
164 161 105
155 153 98
161 158 102
165 161 102
159 157 101
157 154 99
160 157 95
167 162 104
165 161 103
165 161 100
170 165 104
162 159 101
169 164 103
167 162 101
170 165 103
164 160 102
167 162 105
171 165 102
172 167 103
170 165 105
171 165 105
166 161 99
174 168 106
168 163 102
169 164 103
173 168 105
174 169 105
170 165 101
172 168 105
170 166 108
172 167 102
165 161 103
172 166 101
173 168 104
172 167 101
172 166 103
170 165 101
174 168 106
169 164 100
174 168 106
167 162 97
174 169 103
165 160 94
173 167 104
170 164 97
169 163 97
166 161 96
172 166 99
168 163 101
169 163 96
167 160 95
172 165 102
168 164 99
169 164 101
167 162 99
169 162 99
168 162 101
170 164 100
168 162 99
168 163 101
171 165 103
166 160 95
166 161 99
161 157 95
167 161 99
164 158 97
160 155 95
166 160 97
167 161 96
166 161 94
171 165 98
165 160 97
163 158 90
160 155 93
163 158 95
160 155 90
164 160 97
167 161 97
156 151 87
164 158 93
166 160 97
163 157 96
163 157 91
160 154 90
163 157 97
159 154 95
155 150 87
162 156 90
156 151 89
158 152 90
163 157 93
159 154 91
158 152 88
157 151 90
153 147 87
156 150 90
161 156 92
161 155 92
153 147 87
161 155 90
160 153 93
157 152 88
175 198 0
175 198 0
174 198 0
175 198 0
173 197 0
173 197 0
174 198 0
174 198 0
175 198 0
174 198 0
174 198 0
172 197 0
174 198 0
174 197 0
174 198 0
174 197 0
175 198 0
174 198 0
175 198 0
174 198 0
174 198 0
174 197 0
175 198 0
175 198 0
175 198 0
174 198 0
173 197 0
173 197 0
175 198 0
174 198 0
175 198 0
173 197 0
174 197 0
176 199 0
175 198 0
175 198 0
175 198 0
175 198 0
175 198 0
174 198 0
176 198 0
175 198 0
174 198 0
173 197 0
174 198 0
174 198 0
174 198 0
175 198 0
176 199 0
176 199 0
174 198 0
175 198 0
174 197 0
175 198 0
174 197 0
174 198 0
175 198 0
174 198 0
175 198 0
176 199 0
174 198 0
174 198 0
174 198 0
174 197 0
174 198 0
173 197 0
175 198 0
176 199 0
175 198 0
174 197 0
175 198 0
174 197 0
172 196 0
174 198 0
174 198 0
175 198 0
174 197 0
175 198 0
173 197 0
174 198 0
176 199 0
175 198 0
174 197 0
175 198 0
174 198 0
175 198 0
176 198 0
175 198 0
175 198 0
174 198 0
175 198 0
175 198 0
177 199 0
174 198 0
174 198 0
173 197 0
174 198 0
175 198 0
174 198 0
174 198 0
176 199 0
174 198 0
173 197 0
175 198 0
174 198 0
174 197 0
174 198 0
173 197 0
173 197 0
173 197 0
175 198 0
175 198 0
174 197 0
174 198 0
175 198 0
174 197 0
175 198 0
175 198 0
174 197 0
175 198 0
174 198 0
176 199 0
177 199 0
174 198 0
174 197 0
173 197 0
173 197 0
173 197 0
174 197 0
174 198 0
174 197 0
174 198 0
175 198 0
174 198 0
174 197 0
173 197 0
173 197 0
174 198 0
174 198 0
173 197 0
174 197 0
173 197 0
210 228 240
214 232 255
214 232 255
214 232 255
214 232 255
214 232 255
214 232 255
214 232 255
214 231 255
214 231 255
214 231 255
214 231 255
129 151 184
61 97 147
60 96 144
61 97 149
60 95 136
61 97 157
61 96 147
61 96 144
60 96 150
61 97 149
61 97 150
61 97 154
61 96 153
61 97 154
62 98 159
60 96 149
62 98 158
61 97 154
62 98 157
61 97 152
63 99 160
61 97 156
61 97 153
62 98 158
61 97 153
61 97 153
61 96 150
62 97 153
62 97 155
62 98 156
61 96 149
61 97 155
61 96 149
61 97 152
62 98 154
61 96 145
62 97 156
62 98 161
60 96 141
61 97 152
61 96 147
62 98 158
60 95 145
61 97 153
61 96 143
62 98 156
61 96 144
61 96 154
61 96 147
60 95 144
61 97 154
60 95 141
62 98 162
63 98 155
61 96 151
61 97 157
61 96 147
61 95 149
61 97 154
62 97 156
60 95 147
61 96 151
61 97 157
61 96 152
61 95 147
61 96 152
62 98 157
61 96 149
60 95 142
59 94 142
62 97 159
61 97 158
61 95 148
61 95 149
59 92 140
61 95 151
60 94 152
59 93 139
60 95 157
59 94 141
60 94 155
60 94 146
60 94 153
60 94 151
60 93 149
58 90 144
60 94 150
57 90 140
58 90 146
58 90 148
55 86 146
141 160 197
214 231 255
214 231 255
214 231 255
214 231 255
214 232 255
214 232 255
214 232 255
214 232 255
214 232 255
214 232 255
214 232 255
206 221 241
121 119 82
118 117 80
123 121 82
119 119 82
118 118 83
112 113 80
126 126 87
119 120 83
113 115 82
124 125 87
135 134 92
130 130 91
128 128 89
131 131 90
140 140 95
131 131 89
135 135 93
131 131 90
140 140 95
143 143 96
130 131 89
148 147 100
139 138 91
140 140 94
137 137 92
145 144 95
148 147 97
147 146 96
146 144 95
147 146 97
149 147 95
150 148 97
148 146 98
152 150 100
148 146 97
158 155 100
160 157 103
160 158 101
157 154 99
152 150 96
167 163 103
166 160 103
158 155 98
161 157 102
168 164 103
168 163 103
168 164 104
163 160 102
167 162 103
168 163 103
165 160 97
163 159 100
169 164 103
168 163 102
165 161 101
168 163 103
170 166 102
172 167 107
171 166 104
167 162 103
172 166 103
174 168 103
167 162 102
169 164 102
168 164 102
169 165 103
170 165 103
173 167 103
173 168 104
176 170 107
169 164 99
170 164 98
173 168 106
171 165 102
171 165 102
166 161 97
168 163 100
171 165 103
169 163 96
169 163 97
169 163 100
170 165 105
168 163 100
172 167 101
169 163 99
168 163 98
172 166 100
174 168 102
169 163 101
168 164 102
173 166 103
171 165 97
169 164 95
174 168 103
170 164 99
167 161 96
173 167 103
165 159 95
162 157 93
169 164 101
168 161 97
172 166 102
161 156 97
166 160 95
167 162 101
171 165 101
165 159 90
167 161 95
161 155 93
165 159 93
170 165 100
162 156 97
170 165 99
165 160 97
164 159 97
163 157 95
162 157 93
167 162 99
164 159 93
161 156 95
164 159 91
168 162 97
164 158 95
162 157 95
161 155 93
165 159 93
164 158 93
158 152 90
163 158 93
163 157 89
163 157 92
162 156 93
162 157 95
161 155 90
160 154 90
159 153 92
158 153 89
157 151 90
159 153 88
155 151 87
156 151 89
151 147 89
173 197 0
175 198 0
175 198 0
174 198 0
175 198 0
174 197 0
175 198 0
176 198 0
175 198 0
175 198 0
173 197 0
176 199 0
175 198 0
175 198 0
173 197 0
175 198 0
174 198 0
173 197 0
174 198 0
174 198 0
174 198 0
175 198 0
174 197 0
176 199 0
174 198 0
174 198 0
176 199 0
174 197 0
175 198 0
173 197 0
175 198 0
174 198 0
173 197 0
175 198 0
175 198 0
173 197 0
174 198 0
175 198 0
175 198 0
175 198 0
175 198 0
175 198 0
176 199 0
174 198 0
173 197 0
174 198 0
174 198 0
175 198 0
175 198 0
176 198 0
174 198 0
175 198 0
175 198 0
174 198 0
175 198 0
175 198 0
175 198 0
175 198 0
174 198 0
176 199 0
174 198 0
174 198 0
173 197 0
174 198 0
173 197 0
175 198 0
175 198 0
174 198 0
175 198 0
175 198 0
173 197 0
174 198 0
175 198 0
174 198 0
174 198 0
174 198 0
173 197 0
175 198 0
176 198 0
173 197 0
175 198 0
175 198 0
173 197 0
174 197 0
173 197 0
176 198 0
174 197 0
175 198 0
175 198 0
174 197 0
174 198 0
175 198 0
173 197 0
174 198 0
173 197 0
174 198 0
175 198 0
174 198 0
172 196 0
174 198 0
175 198 0
174 197 0
175 198 0
173 197 0
172 196 0
175 198 0
173 197 0
173 197 0
172 197 0
174 198 0
175 198 0
173 196 0
174 197 0
175 198 0
175 198 0
173 197 0
175 198 0
175 198 0
174 198 0
173 197 0
174 197 0
173 197 0
174 198 0
175 198 0
172 196 0
175 197 0
175 198 0
174 197 0
176 199 0
174 197 0
174 197 0
173 197 0
175 198 0
174 197 0
174 198 0
173 197 0
173 197 0
174 198 0
173 196 0
175 198 0
174 197 0
172 195 0
179 201 108
214 232 255
214 232 255
214 232 255
214 232 255
214 232 255
214 232 255
214 232 255
214 232 255
214 232 255
214 232 255
199 217 243
63 98 150
60 96 145
62 97 155
60 95 149
61 97 151
61 96 140
61 96 147
61 97 154
62 98 155
61 97 149
61 97 151
61 97 153
61 96 150
61 96 150
62 97 154
62 97 157
61 97 150
62 98 154
61 97 154
61 96 149
61 96 150
62 98 160
62 98 159
61 97 157
62 98 157
60 95 141
62 97 150
61 96 143
62 97 152
61 97 152
62 98 156
61 97 155
62 98 156
62 97 157
61 96 149
61 97 156
62 98 158
61 97 153
61 97 153
61 97 154
61 96 150
61 97 151
61 97 153
62 98 157
61 97 153
62 97 152
61 97 154
62 97 153
62 97 152
61 96 149
62 98 153
61 97 154
61 97 153
62 97 150
61 96 151
61 96 147
62 97 152
61 96 149
62 96 142
62 97 160
62 97 156
60 95 147
61 96 154
61 95 145
62 97 154
61 96 152
62 97 156
60 94 144
60 95 142
60 95 149
61 95 155
59 94 147
61 96 149
60 94 148
60 94 143
61 97 157
57 90 140
61 95 157
60 94 144
61 95 147
60 95 145
61 94 146
60 93 145
59 92 139
60 93 145
59 93 153
60 94 155
58 91 147
59 91 150
58 90 138
57 89 140
58 88 142
195 213 239
214 232 255
214 232 255
214 232 255
214 232 255
214 232 255
214 232 255
214 232 255
214 232 255
214 232 255
212 229 253
140 143 129
108 107 71
118 117 80
114 113 78
118 117 78
116 116 80
126 125 85
120 120 82
122 123 87
121 121 84
111 114 82
120 121 85
120 122 85
125 126 86
125 127 88
133 133 91
120 121 81
133 133 90
135 135 93
139 139 94
129 129 89
139 138 95
142 141 94
138 137 91
154 152 102
141 141 95
145 143 95
151 149 97
148 147 94
146 144 93
148 146 96
145 144 96
151 150 97
157 154 96
150 149 98
156 154 98
161 157 103
164 159 103
154 151 97
158 155 101
158 154 99
165 162 106
162 160 103
162 159 103
161 157 99
165 162 101
167 162 103
170 166 103
168 164 100
163 159 100
169 164 105
168 164 101
168 163 100
171 165 105
166 162 101
166 161 99
168 164 102
169 165 101
174 169 104
165 160 100
171 167 105
171 166 103
170 165 102
169 164 98
170 165 104
172 167 106
174 168 106
172 167 105
175 169 106
170 164 99
168 162 101
172 167 104
173 167 104
171 166 103
173 167 100
174 169 108
170 164 101
172 166 103
170 164 99
174 168 104
168 163 101
172 166 104
173 167 103
171 165 97
170 165 101
168 162 98
170 164 99
173 167 99
168 162 99
170 165 98
169 164 99
174 169 104
165 159 93
166 161 96
173 167 102
173 167 104
164 159 93
172 166 98
164 158 97
168 163 99
168 162 96
169 163 97
158 154 90
171 165 99
162 157 95
167 162 98
164 160 97
165 159 97
167 160 93
166 160 93
169 163 98
164 158 95
169 163 100
159 154 90
164 158 95
164 159 96
166 161 97
158 154 89
163 157 94
165 160 93
167 161 99
164 159 91
162 156 90
162 156 94
166 160 96
163 157 92
161 156 88
153 148 84
160 155 88
165 158 93
164 158 92
155 148 87
155 150 89
159 154 95
155 150 89
159 154 87
156 151 88
163 156 95
163 157 93
156 150 83
163 156 95
153 148 89
157 151 87
174 198 0
174 197 0
174 198 0
175 198 0
175 198 0
174 198 0
175 198 0
173 197 0
173 197 0
174 198 0
174 197 0
175 198 0
174 197 0
173 197 0
174 198 0
174 198 0
175 198 0
175 198 0
175 198 0
174 197 0
174 198 0
175 198 0
175 198 0
172 197 0
176 199 0
174 197 0
174 198 0
175 198 0
174 198 0
175 198 0
173 197 0
175 198 0
175 198 0
174 197 0
174 197 0
174 198 0
174 198 0
175 198 0
174 198 0
176 199 0
176 199 0
175 198 0
174 198 0
173 197 0
175 198 0
173 197 0
174 197 0
174 198 0
176 199 0
174 198 0
175 198 0
175 198 0
174 198 0
174 198 0
174 198 0
175 198 0
175 198 0
174 198 0
175 198 0
175 198 0
175 198 0
175 198 0
176 198 0
175 198 0
174 198 0
174 198 0
175 198 0
175 198 0
175 198 0
177 199 0
175 198 0
176 199 0
174 197 0
173 197 0
174 198 0
177 199 0
175 198 0
176 199 0
173 197 0
174 198 0
175 198 0
174 197 0
174 198 0
177 199 0
173 197 0
175 198 0
174 198 0
175 198 0
174 197 0
175 198 0
174 198 0
174 198 0
173 197 0
174 198 0
174 197 0
175 198 0
174 198 0
174 198 0
175 198 0
175 198 0
175 198 0
175 198 0
175 198 0
173 197 0
173 197 0
173 197 0
174 198 0
174 198 0
175 198 0
174 198 0
175 198 0
174 198 0
176 198 0
174 198 0
175 198 0
173 197 0
174 198 0
175 198 0
175 198 0
176 199 0
176 198 0
175 198 0
175 198 0
175 198 0
175 198 0
175 198 0
174 198 0
173 197 0
174 198 0
173 197 0
173 197 0
174 198 0
173 197 0
174 197 0
175 198 0
174 198 0
175 198 0
173 197 0
175 198 0
174 198 0
174 197 0
174 197 0
173 197 0
200 219 211
215 232 255
215 232 255
215 232 255
215 232 255
215 232 255
215 232 255
215 232 255
215 232 255
215 232 255
144 165 188
60 95 140
60 96 143
60 95 136
61 97 152
61 96 145
60 95 145
62 98 159
60 96 144
61 96 149
62 97 147
61 97 157
61 96 149
62 97 151
61 96 144
61 97 149
60 96 143
61 96 149
60 95 143
61 97 153
61 96 151
61 97 155
61 97 152
61 96 150
62 98 156
62 98 158
61 97 151
62 98 156
62 97 149
63 98 158
61 97 149
61 96 149
61 97 153
61 96 147
62 97 153
62 98 156
62 98 157
61 96 144
61 96 149
62 97 151
62 97 156
62 97 153
61 97 158
61 97 155
62 97 152
61 97 155
61 97 149
62 98 155
62 98 157
62 97 157
61 97 156
61 96 151
61 96 145
61 96 147
62 98 157
62 98 159
62 97 155
62 97 152
61 96 148
61 96 152
60 95 141
61 97 157
61 96 157
61 96 153
60 95 144
61 96 143
61 97 159
60 95 151
61 97 150
61 96 154
60 94 139
61 95 152
59 94 145
60 95 155
60 94 140
60 95 152
61 96 156
62 97 156
60 96 145
61 96 153
60 93 148
60 94 148
59 93 138
59 93 147
58 92 148
59 93 142
60 94 153
59 92 145
59 92 147
58 91 144
59 90 138
56 86 125
57 88 141
130 149 183
215 232 255
215 232 255
215 232 255
215 232 255
215 232 255
215 232 255
215 232 255
215 232 255
215 232 255
189 202 216
129 126 81
123 121 81
114 114 79
121 120 83
110 111 77
118 118 81
109 110 78
116 117 83
117 118 83
119 121 85
121 122 86
121 122 83
122 123 86
134 134 90
127 126 85
120 122 84
127 128 88
117 119 82
142 141 97
126 126 86
141 140 94
129 128 87
132 132 89
133 133 88
144 141 94
143 141 93
149 148 96
145 143 93
146 144 95
152 150 97
160 157 101
153 150 98
147 146 95
156 153 99
146 145 94
152 149 96
153 150 97
158 154 93
162 158 97
163 159 103
159 156 98
163 160 99
153 151 92
168 162 102
160 156 98
163 159 101
166 161 102
165 161 101
168 163 101
166 162 103
163 160 101
169 164 104
169 164 100
169 164 103
172 167 105
164 160 97
166 162 102
164 159 97
172 166 104
168 163 99
165 161 98
166 162 98
170 164 100
172 166 103
170 164 102
173 167 104
171 166 100
171 166 104
170 165 100
173 168 105
169 164 102
170 165 100
176 170 106
175 169 103
164 160 94
173 167 101
171 165 102
173 167 100
171 165 99
167 162 99
172 167 105
168 162 95
168 163 97
168 164 102
169 163 102
168 163 100
170 164 101
170 165 99
171 165 99
173 167 100
166 161 96
172 167 103
172 165 101
169 162 95
175 168 105
173 166 97
163 158 96
163 158 96
167 160 96
168 163 99
166 160 95
163 158 95
168 162 98
167 161 96
167 161 91
164 159 95
165 158 97
168 162 97
156 152 89
164 159 92
167 162 100
165 159 94
159 153 86
167 161 93
167 161 95
166 159 92
168 161 95
160 154 94
162 157 93
160 156 89
160 155 90
158 152 90
156 150 87
161 155 93
163 158 90
160 155 93
157 151 89
167 160 93
161 156 95
165 160 95
162 156 91
159 153 89
161 156 93
168 162 92
161 156 94
165 158 95
163 156 90
153 147 85
165 159 94
151 145 84
150 145 82
150 145 84
145 141 83
176 198 0
173 197 0
175 198 0
174 198 0
178 200 0
172 196 0
174 197 0
175 198 0
174 198 0
174 198 0
174 198 0
175 198 0
174 198 0
173 197 0
174 198 0
175 198 0
175 198 0
173 197 0
175 198 0
175 198 0
175 198 0
174 198 0
176 199 0
173 197 0
175 198 0
176 198 0
175 198 0
175 198 0
173 197 0
174 198 0
176 198 0
174 198 0
173 197 0
174 197 0
175 198 0
174 198 25
177 200 72
184 205 105
185 206 114
187 207 114
192 211 142
193 212 144
197 215 163
202 219 179
202 219 182
200 218 175
204 221 191
205 222 191
211 226 211
211 226 214
208 224 204
209 225 204
212 227 217
208 224 204
215 229 224
218 231 231
218 232 233
218 232 233
219 232 236
220 234 240
220 233 237
219 233 238
219 232 234
217 231 233
217 231 231
221 234 244
219 233 238
221 235 242
215 230 227
216 230 227
220 233 238
216 230 227
215 230 224
216 230 226
206 222 194
206 223 198
206 222 194
202 219 182
201 218 177
202 219 182
199 216 169
191 210 142
185 205 105
183 204 99
180 202 76
174 198 36
173 197 0
174 198 0
174 198 0
175 198 0
174 198 0
175 198 0
174 198 0
174 198 0
173 197 0
173 197 0
174 198 0
173 197 0
176 198 0
174 197 0
176 199 0
175 198 0
173 197 0
175 198 0
175 198 0
173 197 0
175 198 0
174 198 0
175 198 0
176 199 0
174 198 0
175 198 0
174 198 0
176 199 0
176 199 0
175 198 0
175 198 0
174 198 0
173 197 0
172 197 0
172 197 0
173 197 0
174 198 0
175 198 0
174 197 0
174 198 0
173 197 0
175 198 0
174 198 0
174 197 0
175 198 0
173 197 0
176 198 0
174 198 0
173 197 0
175 198 0
173 197 0
175 198 0
172 197 0
175 198 0
173 197 0
174 197 0
173 196 0
173 196 80
214 231 253
215 232 255
215 232 255
215 232 255
215 232 255
215 232 255
215 232 255
215 232 255
206 223 246
63 97 141
60 95 131
59 95 142
61 96 149
61 97 151
61 97 158
61 97 148
62 97 147
61 97 152
62 97 152
60 96 145
60 96 139
62 98 150
62 97 150
61 96 144
61 97 155
60 95 140
61 97 147
62 97 147
62 98 156
61 97 148
61 96 147
62 97 152
61 97 154
60 96 149
60 96 144
61 96 150
61 97 149
62 97 153
62 97 155
62 97 153
61 97 153
62 97 153
61 97 149
62 98 153
60 95 147
62 97 152
61 97 150
61 97 158
62 97 150
62 97 149
61 97 150
61 95 142
61 97 151
60 95 148
62 97 158
60 95 145
61 97 149
60 96 152
62 98 156
59 95 142
61 96 146
62 98 157
62 97 153
62 98 163
61 96 142
59 94 145
62 97 151
61 96 151
62 97 152
61 96 143
61 97 152
60 95 137
61 96 152
62 97 158
59 93 140
60 95 146
60 95 148
60 95 148
60 94 145
61 97 156
60 95 145
61 96 153
61 96 152
59 93 141
60 95 148
60 94 153
59 93 150
60 94 147
61 95 151
61 96 150
60 94 147
60 94 142
59 92 143
58 92 142
60 93 149
60 93 152
60 95 156
58 90 137
58 92 145
58 90 144
58 90 141
55 86 133
68 96 150
206 223 247
215 232 255
215 232 255
215 232 255
215 232 255
215 232 255
215 232 255
215 232 255
213 229 251
143 144 119
117 115 77
118 117 80
117 117 79
109 110 79
112 114 80
115 115 80
106 107 75
121 121 83
120 122 86
125 126 88
114 115 81
112 115 81
125 125 87
127 128 88
115 118 82
129 131 91
124 125 85
133 133 93
129 129 89
129 129 89
139 137 92
138 138 92
140 140 93
147 145 96
135 135 88
143 142 95
146 144 94
145 144 94
154 151 99
141 139 91
153 152 102
150 147 94
146 144 94
158 155 102
152 149 94
161 157 101
160 156 98
154 151 96
156 152 95
162 159 101
159 156 95
165 160 101
156 153 95
163 159 100
164 161 102
161 157 95
164 160 99
158 154 96
167 162 102
169 164 106
163 160 99
166 162 102
166 161 98
169 164 101
166 162 100
169 164 101
167 163 99
167 163 100
168 163 99
170 165 107
166 161 100
171 165 103
169 163 99
172 167 99
170 165 100
176 170 107
174 168 104
172 167 98
173 168 104
172 166 105
168 163 99
175 170 106
171 166 103
176 169 103
169 165 101
169 163 95
170 164 100
170 164 100
176 169 104
170 165 100
171 166 99
169 164 100
170 165 103
169 163 95
172 166 97
169 164 97
173 166 100
169 164 98
165 161 95
175 169 101
173 166 100
164 160 93
169 164 97
167 161 97
168 163 99
172 166 99
166 162 95
172 165 98
169 164 98
167 162 95
162 156 87
162 156 93
173 167 104
168 162 97
173 167 101
171 165 97
171 166 101
159 154 92
163 157 90
164 158 91
165 159 94
167 161 98
164 159 92
171 164 97
170 163 93
165 158 91
165 159 90
162 157 89
166 161 95
163 157 90
156 152 87
162 157 93
166 160 93
171 164 99
170 163 96
165 160 95
159 153 90
158 152 91
158 152 86
165 159 93
159 153 93
160 154 92
162 157 92
155 151 83
160 155 91
164 158 95
150 146 85
162 156 93
161 155 94
155 149 84
151 145 80
156 151 87
162 155 91
173 197 0
174 197 0
175 198 0
174 197 0
174 198 0
176 199 0
174 198 0
174 197 0
173 197 0
174 198 0
175 198 0
174 198 0
174 197 0
175 198 0
175 198 0
175 198 0
176 199 0
174 197 0
175 198 0
175 198 0
175 198 0
176 199 36
185 205 105
184 205 105
191 211 137
202 219 182
194 213 151
203 220 189
206 222 196
208 224 201
209 225 206
215 229 224
217 231 230
219 233 237
224 237 252
225 238 255
225 238 255
225 238 255
225 238 255
225 238 255
225 238 255
225 238 255
225 238 255
225 238 255
225 238 255
225 238 255
225 238 255
225 238 255
225 238 255
225 238 255
225 238 255
225 238 255
225 238 255
225 238 255
225 238 255
225 238 255
225 238 255
225 238 255
225 238 255
225 238 255
225 238 255
225 238 255
225 238 255
225 238 255
225 238 255
225 238 255
225 238 255
225 238 255
225 238 255
225 238 255
225 238 255
225 238 255
225 238 255
225 238 255
225 238 255
225 238 255
225 238 255
225 238 255
225 238 255
225 238 255
225 238 255
226 238 255
226 238 255
226 238 255
226 238 255
226 238 255
224 237 250
219 233 237
218 232 233
212 227 214
206 222 196
203 220 186
199 217 167
191 211 147
183 205 102
176 199 51
174 198 0
174 198 0
174 197 0
174 198 0
172 197 0
174 198 0
174 197 0
174 198 0
174 197 0
175 198 0
176 199 0
173 197 0
175 198 0
174 198 0
174 198 0
174 198 0
175 198 0
174 198 0
173 197 0
175 198 0
175 198 0
175 198 0
173 197 0
173 197 0
174 198 0
175 198 0
174 198 0
173 197 0
174 197 0
175 198 0
175 198 0
174 198 0
174 197 0
173 197 0
175 198 0
175 198 0
174 197 0
174 198 0
175 198 0
173 197 0
175 198 0
175 198 0
176 198 0
174 197 0
173 197 0
174 197 0
172 196 0
174 196 0
203 221 214
215 232 255
215 232 255
215 232 255
215 232 255
215 232 255
215 232 255
215 232 255
156 176 199
59 95 137
60 96 140
61 96 144
61 96 153
60 95 137
61 97 154
61 96 144
63 98 158
61 97 154
62 97 145
60 95 143
61 96 147
62 98 155
61 96 145
61 96 148
61 97 147
62 97 149
62 98 159
61 96 145
61 96 152
61 96 150
61 96 153
61 96 143
62 97 147
61 96 151
60 96 145
60 96 144
61 97 154
61 96 147
59 95 137
62 97 153
62 97 151
61 96 151
62 98 153
62 98 156
62 98 156
61 97 153
61 96 152
61 96 143
61 97 154
62 97 151
63 99 163
61 97 152
62 97 152
62 97 153
62 97 154
61 96 152
62 97 154
61 97 150
62 97 153
61 97 152
60 95 145
61 96 146
61 96 150
61 97 151
61 97 155
61 97 151
61 97 153
61 96 148
61 96 148
60 95 142
61 96 146
60 95 142
61 96 149
61 97 150
61 96 156
61 97 150
61 96 146
60 94 143
61 96 156
61 96 150
62 97 155
61 96 150
61 96 154
61 95 144
62 97 160
61 94 149
62 97 161
60 95 147
61 95 155
61 97 157
61 95 150
60 94 150
59 93 149
59 93 141
58 91 135
59 93 146
60 92 149
58 91 143
59 93 147
59 92 147
58 90 134
55 87 138
58 89 132
156 174 206
215 232 255
215 232 255
215 232 255
215 232 255
215 232 255
215 232 255
215 232 255
187 198 208
123 121 80
107 107 74
116 115 76
114 115 80
95 97 69
105 107 77
104 105 75
107 110 78
112 114 80
110 111 78
119 119 83
115 117 81
122 123 85
133 134 93
121 123 85
119 121 83
128 128 88
121 123 86
134 134 90
137 137 94
130 130 88
134 134 89
139 139 95
138 137 88
142 141 96
145 144 94
140 139 88
143 143 93
151 149 97
142 140 92
152 149 99
153 151 100
154 151 96
152 150 95
154 151 96
154 152 97
158 154 98
159 156 99
161 157 101
161 159 105
159 155 98
160 157 101
163 159 100
161 157 96
160 158 98
165 161 100
167 162 102
167 162 103
170 165 105
165 161 104
174 168 107
166 161 98
172 167 103
170 165 100
167 162 102
167 162 103
167 162 99
169 164 102
172 167 103
169 164 101
167 163 100
170 165 98
170 166 106
173 168 104
173 166 97
171 165 99
173 167 103
174 168 103
171 165 100
172 166 99
173 167 103
172 166 101
169 165 102
173 168 102
173 167 100
171 166 98
172 167 99
172 167 102
172 167 103
175 169 101
173 166 98
167 163 98
170 164 98
172 166 103
173 167 101
171 165 98
164 159 92
172 166 97
166 161 93
172 166 100
169 164 99
172 166 100
166 161 94
168 162 97
173 166 100
169 163 97
172 166 97
169 163 96
168 162 97
168 163 98
170 164 99
166 160 97
170 164 98
169 163 95
166 159 95
164 159 93
167 162 92
164 158 92
169 164 99
168 162 94
165 160 92
159 153 88
164 159 97
166 160 96
161 156 90
166 159 97
164 159 92
162 157 90
164 160 90
169 163 98
165 159 89
166 160 94
163 157 91
165 158 90
168 162 92
167 161 95
165 159 91
163 158 93
165 159 93
166 160 93
162 156 95
161 156 90
164 157 90
162 155 92
162 156 89
153 147 85
160 155 89
154 150 87
161 155 89
151 145 88
154 149 87
157 151 82
158 153 90
148 143 79
174 197 0
175 198 0
174 198 0
171 196 0
174 198 0
173 197 0
174 198 0
173 197 0
175 198 0
175 198 0
178 201 62
182 203 88
187 208 122
195 214 157
201 218 177
203 220 184
208 224 201
208 224 201
218 232 233
216 230 227
219 233 238
225 237 254
225 238 255
225 238 255
225 238 255
225 238 255
225 238 255
225 238 255
225 238 255
225 238 255
225 238 255
225 238 255
225 238 255
225 238 255
225 238 255
225 238 255
225 238 255
225 238 255
225 238 255
225 238 255
225 238 255
225 238 255
225 238 255
225 238 255
225 238 255
225 238 255
225 238 255
225 238 255
225 238 255
225 238 255
225 238 255
225 238 255
225 238 255
225 238 255
225 238 255
225 238 255
225 238 255
225 238 255
225 238 255
225 238 255
225 238 255
225 238 255
225 238 255
225 238 255
225 238 255
225 238 255
225 238 255
225 238 255
225 238 255
225 238 255
225 238 255
225 238 255
225 238 255
225 238 255
225 238 255
225 238 255
225 238 255
225 238 255
225 238 255
225 238 255
225 238 255
225 238 255
225 238 255
225 238 255
225 238 255
225 238 255
225 238 255
225 238 255
225 238 255
225 238 255
225 238 255
225 238 255
225 238 255
226 238 255
226 238 255
226 238 255
222 235 242
214 229 223
213 228 217
203 220 184
196 214 157
188 208 125
181 203 80
175 198 0
174 197 0
176 199 0
174 198 0
173 197 0
174 198 0
173 197 0
174 198 0
174 197 0
174 197 0
173 197 0
173 197 0
173 197 0
175 198 0
174 198 0
175 198 0
175 198 0
174 197 0
175 198 0
174 198 0
173 197 0
175 198 0
175 198 0
174 197 0
174 198 0
174 198 0
175 198 0
174 198 0
174 198 0
175 198 0
174 198 0
173 197 0
175 198 0
174 198 0
176 198 0
175 197 0
175 198 0
173 197 0
173 197 0
174 197 0
172 196 0
178 200 99
216 232 255
216 232 255
216 232 255
216 232 255
216 232 255
215 232 255
214 231 254
83 111 134
60 96 144
60 95 142
61 97 147
61 96 151
61 96 148
61 96 143
61 97 152
60 96 141
60 95 140
61 97 154
62 97 156
62 97 151
61 97 149
62 97 145
62 98 154
61 96 154
60 96 142
62 98 151
60 96 148
61 96 147
60 95 142
61 97 149
62 98 157
61 96 144
61 97 155
61 97 150
61 97 156
61 96 144
63 98 156
62 97 151
61 97 152
61 96 148
61 97 151
61 97 149
61 97 158
60 95 144
61 97 150
61 96 148
62 97 155
61 97 151
61 96 147
61 96 147
61 97 149
61 96 143
62 97 150
61 96 150
63 98 151
61 96 141
61 96 144
61 97 155
62 97 150
61 96 148
61 96 152
61 96 146
60 95 152
61 96 154
62 97 154
60 94 140
61 97 153
61 96 152
62 97 154
60 96 149
61 96 149
62 97 146
61 96 146
61 96 151
61 97 156
61 97 155
60 96 141
61 97 156
60 94 138
61 95 149
59 93 150
60 95 151
62 97 155
62 97 161
61 95 150
60 94 149
61 95 149
60 95 149
59 94 145
61 95 153
60 94 145
60 94 145
60 95 153
59 93 143
60 94 150
60 93 144
59 93 146
56 89 136
57 89 139
59 92 147
54 85 134
56 86 128
85 107 144
212 229 252
215 232 255
215 232 255
216 232 255
216 232 255
216 232 255
214 231 254
129 132 112
102 101 67
113 112 75
104 105 74
102 103 73
93 96 67
118 118 81
115 116 80
102 104 74
113 114 78
112 115 81
111 114 81
120 122 86
114 115 80
118 120 83
114 117 83
120 121 84
129 129 87
128 129 89
120 121 83
137 137 92
125 124 81
143 142 96
137 137 90
141 140 91
148 146 97
137 137 91
141 140 93
150 147 93
146 145 94
145 142 89
147 145 94
145 143 94
148 144 88
157 155 98
158 155 100
150 149 98
151 149 94
151 149 95
157 155 98
164 160 102
159 155 97
157 154 95
162 158 99
169 164 100
165 161 100
162 159 101
162 158 98
167 163 101
166 161 103
164 160 100
165 161 99
166 161 102
170 165 103
169 164 101
167 164 102
165 162 98
173 168 103
175 168 101
171 166 102
172 167 101
168 162 98
170 164 98
172 166 101
171 165 101
168 163 98
173 168 103
167 162 100
171 166 100
171 166 101
172 166 99
172 167 101
173 168 102
175 168 100
173 167 100
175 169 100
176 169 104
168 164 99
173 167 98
168 162 100
168 163 93
172 166 99
173 168 101
168 163 95
169 162 95
171 165 101
165 159 95
173 167 95
171 164 95
171 165 96
171 165 96
171 165 95
173 167 99
168 163 93
166 161 95
170 165 99
165 160 90
166 161 93
165 159 95
167 161 93
171 165 95
173 167 96
170 164 97
169 163 95
165 159 91
165 160 95
172 165 98
168 161 95
163 158 92
167 161 96
166 160 98
171 165 97
167 161 91
165 159 95
165 159 92
170 164 97
169 163 97
157 152 88
166 160 95
171 164 97
168 161 96
165 159 92
166 160 93
167 162 94
164 157 93
160 155 88
156 150 90
157 150 84
164 158 95
160 154 89
167 160 94
166 159 92
161 155 87
161 154 87
158 152 93
159 154 90
156 150 85
161 155 90
164 159 95
157 152 86
163 157 95
159 155 87
155 149 86
156 151 81
159 153 90
179 201 67
184 206 111
187 208 122
195 214 157
197 215 163
205 221 189
212 228 218
212 227 215
214 229 223
223 236 250
225 238 255
225 238 255
225 238 255
225 238 255
225 238 255
225 238 255
225 238 255
225 238 255
225 238 255
225 238 255
225 238 255
225 238 255
225 238 255
225 238 255
225 238 255
225 238 255
225 238 255
225 238 255
225 238 255
225 238 255
225 238 255
225 238 255
225 238 255
225 238 255
225 238 255
225 238 255
225 238 255
225 238 255
225 238 255
225 238 255
225 238 255
225 238 255
225 238 255
225 238 255
225 238 255
225 238 255
225 238 255
225 238 255
225 238 255
225 238 255
225 238 255
225 238 255
225 238 255
225 238 255
225 238 255
225 238 255
225 238 255
225 238 255
225 238 255
225 238 255
225 238 255
225 238 255
225 238 255
225 238 255
225 238 255
225 238 255
225 238 255
225 238 255
225 238 255
225 238 255
225 238 255
225 238 255
225 238 255
225 238 255
225 238 255
225 238 255
225 238 255
225 238 255
225 238 255
225 238 255
225 238 255
225 238 255
225 238 255
225 238 255
225 238 255
225 238 255
225 238 255
225 238 255
225 238 255
225 238 255
225 238 255
225 238 255
225 238 255
225 238 255
225 238 255
225 238 255
225 238 255
225 238 255
225 238 255
225 238 255
225 238 255
226 238 255
226 238 255
222 235 245
214 228 218
208 224 203
199 216 169
188 208 120
178 201 67
176 198 0
174 197 0
176 198 0
175 198 0
175 198 0
175 198 0
174 198 0
174 198 0
174 197 0
174 197 0
175 198 0
173 197 0
174 197 0
175 198 0
174 197 0
175 198 0
174 197 0
173 197 0
174 197 0
174 198 0
174 198 0
174 198 0
173 197 0
173 197 0
173 197 0
174 198 0
175 198 0
174 197 0
173 197 0
174 198 0
176 199 0
174 198 0
174 197 0
172 196 0
173 197 0
174 198 0
199 218 194
216 233 255
216 233 255
216 233 255
216 232 255
216 232 255
184 202 226
59 94 120
60 96 140
60 96 147
60 96 144
61 96 142
62 97 151
61 96 144
61 96 142
61 96 142
61 97 153
62 98 154
61 96 150
62 97 149
61 97 151
61 97 148
62 97 152
62 97 147
62 97 149
61 96 151
61 96 148
61 96 153
61 96 145
62 97 154
59 94 137
62 97 147
61 97 142
61 96 143
61 97 152
61 96 142
61 97 144
63 99 161
61 96 148
62 97 153
61 96 147
61 96 148
62 98 153
61 96 151
62 97 149
60 95 143
61 96 147
61 97 151
62 97 152
61 96 147
61 97 149
62 97 145
61 96 147
61 97 148
61 97 148
62 98 154
61 96 149
61 96 148
61 96 149
60 96 143
61 95 147
61 96 151
61 96 151
60 94 140
60 95 145
62 98 159
61 96 145
61 96 142
61 96 148
62 96 152
60 95 143
61 96 151
61 96 148
61 95 144
60 95 149
60 95 149
61 96 148
62 97 155
61 96 144
60 95 142
61 96 150
60 95 146
60 95 151
62 97 152
59 94 141
60 94 142
59 94 151
61 95 151
59 93 139
59 93 143
60 94 145
59 92 145
59 93 146
58 92 141
60 94 145
60 94 149
58 90 137
57 90 141
58 92 150
58 89 142
55 85 129
58 90 141
54 82 121
183 200 226
216 232 255
216 232 255
216 232 255
216 233 255
216 233 255
188 201 212
103 102 66
110 110 75
115 115 76
97 99 69
95 97 67
103 104 72
99 101 72
102 104 74
105 107 77
107 110 79
110 113 81
108 111 79
110 112 80
103 105 75
109 111 79
125 126 84
119 120 81
125 125 84
124 125 84
114 115 79
121 121 80
127 128 87
137 136 89
127 128 85
137 137 89
133 133 89
148 145 91
151 148 96
144 143 92
135 134 87
145 141 92
144 143 92
137 136 91
155 152 95
152 149 93
148 146 90
148 147 95
151 148 92
152 149 94
155 152 97
159 156 98
153 152 93
162 157 98
158 155 93
162 158 94
163 158 97
165 161 100
168 163 100
166 161 101
168 163 100
159 155 94
168 163 101
171 165 103
167 163 99
173 167 102
170 164 98
166 161 99
168 163 98
174 168 102
172 166 102
169 163 99
167 162 100
167 162 93
173 167 100
169 164 97
171 165 101
172 166 101
175 168 104
172 166 97
173 167 103
174 169 102
169 164 99
167 162 94
170 164 98
177 170 102
174 169 105
173 168 99
173 167 99
174 168 104
174 168 103
170 166 98
176 169 102
165 159 95
169 165 91
173 167 99
174 168 103
168 162 95
172 166 97
169 163 99
169 164 95
174 167 101
172 165 97
172 165 95
171 165 95
167 162 92
169 162 96
171 165 95
172 165 99
169 164 95
174 167 101
168 162 98
169 163 94
168 162 94
169 162 95
169 163 98
171 165 95
168 162 94
164 159 97
168 161 90
166 160 90
167 162 94
167 161 93
166 160 93
167 161 93
167 161 95
166 161 98
160 154 84
164 158 90
171 164 98
168 162 94
169 163 98
167 161 97
162 157 93
158 152 88
162 157 90
156 150 87
162 157 92
162 156 87
161 155 93
167 161 96
163 157 93
157 151 88
161 154 92
154 150 84
155 149 84
153 147 83
157 150 88
163 157 91
154 148 87
162 156 87
158 152 83
158 152 87
157 150 90
159 153 90
159 154 87
225 238 255
225 238 255
225 238 255
225 238 255
225 238 255
225 238 255
225 238 255
225 238 255
225 238 255
225 238 255
225 238 255
225 238 255
225 238 255
225 238 255
225 238 255
225 238 255
225 238 255
225 238 255
225 238 255
225 238 255
225 238 255
225 238 255
225 238 255
225 238 255
225 238 255
225 238 255
225 238 255
225 238 255
225 238 255
225 238 255
225 238 255
225 238 255
225 238 255
225 238 255
225 238 255
225 238 255
225 238 255
225 238 255
225 238 255
225 238 255
225 238 255
225 237 255
225 237 255
225 237 255
225 237 255
225 237 255
225 237 255
225 237 255
225 237 255
225 237 255
225 237 255
225 237 255
225 237 255
225 237 255
225 237 255
225 237 255
225 237 255
225 237 255
225 237 255
225 237 255
225 237 255
225 237 255
225 237 255
225 237 255
225 237 255
225 237 255
225 237 255
225 237 255
225 237 255
225 237 255
225 237 255
225 237 255
225 237 255
225 238 255
225 238 255
225 238 255
225 238 255
225 238 255
225 238 255
225 238 255
225 238 255
225 238 255
225 238 255
225 238 255
225 238 255
225 238 255
225 238 255
225 238 255
225 238 255
225 238 255
225 238 255
225 238 255
225 238 255
225 238 255
225 238 255
225 238 255
225 238 255
225 238 255
225 238 255
225 238 255
225 238 255
225 238 255
225 238 255
225 238 255
225 238 255
225 238 255
225 238 255
225 238 255
225 238 254
222 235 244
210 226 209
200 217 175
189 209 130
180 202 76
176 198 0
174 198 0
175 198 0
174 197 0
175 198 0
175 198 0
174 198 0
175 198 0
175 198 0
174 197 0
175 198 0
176 199 0
174 198 0
174 197 0
173 196 0
175 198 0
174 197 0
175 198 0
174 198 0
175 198 0
175 198 0
176 199 0
174 198 0
173 196 0
173 197 0
174 197 0
173 197 0
173 197 0
175 198 0
174 198 0
173 197 0
184 206 127
216 233 255
216 233 255
216 233 255
216 233 255
216 233 255
128 149 170
59 95 134
61 97 148
61 96 140
60 96 139
61 97 148
59 94 135
61 96 139
62 97 145
61 96 149
61 96 145
61 96 144
61 97 150
61 96 145
60 96 143
62 97 151
61 97 152
61 96 148
62 97 141
62 97 147
60 95 140
62 97 149
61 96 150
62 97 152
61 97 147
61 96 147
60 96 141
61 97 149
63 98 156
60 95 142
62 97 152
62 98 153
62 97 150
61 97 153
62 97 150
61 97 151
61 97 151
61 96 148
61 97 149
61 96 144
61 96 145
62 98 159
60 95 140
61 96 143
60 95 136
60 95 149
61 96 145
60 95 145
61 97 148
60 95 139
61 95 142
61 96 148
60 95 143
61 96 148
60 95 145
60 96 143
61 96 148
61 97 149
61 96 148
61 95 148
61 96 147
61 96 152
60 95 150
61 96 145
61 96 151
62 97 154
61 96 149
60 94 143
62 97 151
62 97 152
59 93 146
60 94 145
60 95 146
60 95 146
60 94 139
61 96 142
61 95 145
60 94 136
59 92 130
61 96 146
62 96 144
61 95 150
60 94 146
60 93 142
58 92 143
61 95 145
58 91 142
59 93 146
60 93 147
59 91 143
58 90 140
59 93 149
57 88 131
59 92 145
58 90 144
55 86 136
53 82 128
131 149 180
216 233 255
216 233 255
216 233 255
216 233 255
216 233 255
142 148 142
106 105 69
101 102 69
95 96 67
88 89 63
103 103 70
93 95 67
116 117 81
113 115 82
102 104 73
113 114 80
101 104 73
99 103 74
117 119 83
104 106 73
117 119 84
120 120 81
128 129 90
127 128 88
128 128 87
127 127 86
117 119 80
127 128 83
123 123 81
131 131 83
130 131 88
132 132 88
147 146 96
140 139 92
144 141 91
135 135 91
143 141 88
136 135 90
155 152 97
150 147 91
156 154 98
148 146 91
155 152 97
150 147 95
152 149 92
152 149 88
155 152 96
158 155 94
156 153 98
160 155 97
159 155 96
165 160 98
160 156 99
164 160 93
153 150 92
164 160 97
165 160 97
164 159 92
170 164 101
166 162 97
164 160 92
167 163 100
172 167 104
171 165 100
168 163 103
168 163 93
169 164 96
170 165 98
173 168 102
171 166 98
168 164 95
173 167 97
170 166 99
174 168 97
171 166 100
177 170 102
172 166 99
172 166 99
167 162 95
175 168 98
173 167 100
174 168 100
165 160 97
172 167 102
170 165 95
169 164 93
169 164 96
173 167 99
173 167 101
172 166 96
172 166 99
172 165 97
174 168 98
169 163 99
170 164 96
174 168 99
170 165 97
171 166 98
173 167 97
176 169 99
171 165 94
172 167 100
169 164 98
168 162 95
166 161 90
166 160 90
168 162 94
173 166 98
165 159 92
169 163 88
171 164 98
166 160 94
166 160 90
168 161 94
167 161 93
167 162 96
167 162 98
161 156 90
163 158 89
166 160 95
166 160 95
166 160 95
167 160 95
167 161 93
165 160 93
165 159 88
164 158 93
162 156 87
166 159 95
166 161 95
158 151 88
166 159 93
163 158 88
163 158 87
159 154 90
167 161 92
165 159 91
163 157 87
163 157 92
165 158 91
163 158 90
162 156 95
161 156 88
163 157 93
160 154 91
159 154 83
160 155 86
161 154 87
155 151 87
164 158 95
158 153 88
225 238 255
225 238 255
225 238 255
225 238 255
225 238 255
225 238 255
225 238 255
225 238 255
225 238 255
225 238 255
225 238 255
225 238 255
225 238 255
225 238 255
225 238 255
225 238 255
225 238 255
225 237 255
225 237 255
225 237 255
225 237 255
225 237 255
225 237 255
225 237 255
225 237 255
225 237 255
225 237 255
225 237 255
225 237 255
225 237 255
225 237 255
225 237 255
225 237 255
225 237 255
225 237 255
225 237 255
224 237 255
225 237 255
224 237 255
224 237 255
224 237 255
224 237 255
224 237 255
224 237 255
224 237 255
224 237 255
224 237 255
224 237 255
224 237 255
224 237 255
224 237 255
224 237 255
224 237 255
224 237 255
224 237 255
224 237 255
224 237 255
224 237 255
224 237 255
224 237 255
224 237 255
224 237 255
224 237 255
224 237 255
224 237 255
224 237 255
224 237 255
224 237 255
224 237 255
224 237 255
224 237 255
224 237 255
224 237 255
224 237 255
224 237 255
224 237 255
225 237 255
225 237 255
225 237 255
225 237 255
225 237 255
225 237 255
225 237 255
225 237 255
225 237 255
225 237 255
225 237 255
225 237 255
225 237 255
225 237 255
225 238 255
225 238 255
225 238 255
225 238 255
225 238 255
225 238 255
225 238 255
225 238 255
225 238 255
225 238 255
225 238 255
225 238 255
225 238 255
225 238 255
225 238 255
225 238 255
225 238 255
225 238 255
225 238 255
225 238 255
225 238 255
225 238 255
225 238 255
226 238 255
218 232 234
209 225 206
202 219 179
185 206 105
176 199 25
174 197 0
175 198 0
173 197 0
173 197 0
173 197 0
175 198 0
175 198 0
174 197 0
174 198 0
174 197 0
175 198 0
174 197 0
175 198 0
175 198 0
175 198 0
176 198 0
174 198 0
175 198 0
174 198 0
173 197 0
175 198 0
175 198 0
174 198 0
175 198 0
173 197 0
175 198 0
174 197 0
211 229 240
216 233 255
216 233 255
216 233 255
210 227 250
69 101 129
59 95 136
60 95 142
58 93 118
61 97 143
61 96 149
61 97 143
60 95 139
61 96 144
61 97 152
61 96 139
60 96 137
60 95 141
62 97 152
61 96 140
61 96 142
60 95 137
61 97 144
62 97 148
62 97 150
61 97 147
61 97 148
61 97 152
62 97 152
61 96 145
61 96 139
62 98 150
62 97 145
61 97 152
61 96 151
61 97 144
60 95 133
61 97 149
62 98 157
61 96 142
61 96 144
62 97 152
61 97 149
61 96 153
61 96 142
61 96 144
61 97 155
62 97 148
60 95 141
61 96 147
62 97 148
61 97 158
62 97 154
61 97 150
61 96 147
61 96 144
62 97 154
61 96 148
60 95 140
61 96 149
60 95 143
61 96 149
61 96 145
61 96 145
61 96 143
60 95 143
61 97 147
61 96 146
61 95 150
61 96 141
62 96 150
60 95 144
60 94 141
61 96 152
60 94 148
61 96 146
60 94 145
61 95 147
61 96 142
59 92 136
61 96 148
59 93 147
60 94 147
61 95 151
60 94 140
60 94 137
60 93 143
59 93 146
60 94 146
59 93 134
58 91 137
59 92 145
58 92 142
59 93 142
56 88 127
58 91 134
56 89 138
57 89 144
58 91 145
57 89 137
56 87 128
55 85 129
66 93 138
213 230 253
216 233 255
216 233 255
216 233 255
204 218 236
112 110 71
92 92 63
99 100 67
111 112 77
97 99 70
89 90 63
94 95 67
89 93 69
106 107 74
97 100 72
89 92 66
101 105 75
108 110 78
110 112 78
108 109 76
104 106 75
115 117 82
124 124 84
127 127 83
114 117 80
136 136 90
128 127 86
127 127 86
140 139 89
125 126 84
149 147 97
133 133 86
133 133 84
150 147 92
132 132 89
139 138 90
147 145 92
146 144 89
152 149 90
144 142 91
154 151 93
150 149 92
149 147 89
151 148 93
161 157 97
157 153 93
155 151 92
163 158 98
158 155 95
160 156 95
163 159 98
168 163 101
158 155 95
163 159 97
170 165 101
161 156 98
164 159 95
165 160 95
169 163 97
163 159 96
165 160 98
169 163 102
171 167 104
169 164 95
172 167 101
167 162 95
169 163 102
170 165 95
170 165 99
169 164 98
171 165 97
168 164 99
170 165 103
175 168 99
166 161 96
162 158 91
167 162 96
172 166 99
175 169 99
170 165 96
172 166 97
173 166 98
171 165 93
173 167 97
172 166 99
169 164 91
172 166 98
173 167 100
170 164 98
174 168 101
173 167 99
173 166 96
175 168 95
175 169 101
174 168 101
171 166 100
170 164 95
169 163 95
171 165 95
169 164 98
172 165 97
162 156 88
167 162 94
172 167 100
165 159 93
168 162 95
171 166 98
172 167 94
171 165 94
165 159 94
168 162 95
170 165 99
169 163 92
166 160 92
172 165 96
169 164 95
164 160 97
163 158 90
168 161 95
166 160 88
161 155 90
163 158 92
167 161 91
166 160 94
163 157 87
167 161 88
167 160 95
162 156 89
160 155 89
167 160 92
164 159 90
164 157 95
165 159 93
169 163 95
163 156 87
163 157 93
161 155 88
161 153 86
156 150 85
166 159 93
167 160 93
160 154 89
160 154 84
158 153 83
158 153 90
159 154 91
166 159 92
166 159 89
157 152 84
167 160 90
163 157 90
225 238 255
225 237 255
225 237 255
225 237 255
225 237 255
225 237 255
225 237 255
225 237 255
225 237 255
225 237 255
225 237 255
225 237 255
225 237 255
225 237 255
225 237 255
224 237 255
224 237 255
224 237 255
224 237 255
224 237 255
224 237 255
224 237 255
224 237 255
224 237 255
224 237 255
224 237 255
224 237 255
224 237 255
224 237 255
224 237 255
224 237 255
224 237 255
224 237 255
224 237 255
224 237 255
224 237 255
224 237 255
224 237 255
224 237 255
224 237 255
224 237 255
224 237 255
224 237 255
224 237 255
224 237 255
224 237 255
224 237 255
224 237 255
224 237 255
224 237 255
224 237 255
224 237 255
224 237 255
224 237 255
224 237 255
224 237 255
224 237 255
224 237 255
224 237 255
224 237 255
224 237 255
224 237 255
224 237 255
224 237 255
224 237 255
224 237 255
224 237 255
224 237 255
224 237 255
224 237 255
224 237 255
224 237 255
224 237 255
224 237 255
224 237 255
224 237 255
224 237 255
224 237 255
224 237 255
224 237 255
224 237 255
224 237 255
224 237 255
224 237 255
224 237 255
224 237 255
224 237 255
224 237 255
224 237 255
224 237 255
224 237 255
224 237 255
225 237 255
225 237 255
225 237 255
225 237 255
225 237 255
225 237 255
225 237 255
225 237 255
225 237 255
225 238 255
225 238 255
225 238 255
225 238 255
225 238 255
225 238 255
225 238 255
225 238 255
225 238 255
225 238 255
225 238 255
225 238 255
225 238 255
225 238 255
225 238 255
225 238 255
225 238 255
225 237 253
209 224 204
197 215 165
191 210 137
176 199 57
175 198 0
174 198 0
174 198 0
173 197 0
175 198 0
176 198 0
175 198 0
174 197 0
174 197 0
174 198 0
176 199 0
174 198 0
174 198 0
174 198 0
174 198 0
174 198 0
173 197 0
174 198 0
175 198 0
174 198 0
174 197 0
174 197 0
170 195 0
195 215 181
217 233 255
217 233 255
217 233 255
185 202 220
59 94 122
60 95 141
59 94 129
61 96 145
60 96 139
60 96 142
61 97 149
60 96 140
61 96 143
61 96 142
60 96 144
62 97 154
62 97 145
61 96 143
61 97 156
61 96 147
61 97 153
61 96 144
62 97 148
61 96 144
60 96 145
61 96 153
61 97 150
62 97 152
62 97 149
61 96 153
62 98 152
60 95 140
61 96 151
60 95 142
61 97 150
61 96 147
61 96 149
61 96 148
60 94 139
63 99 161
60 96 139
60 95 141
60 95 142
61 96 142
61 96 140
60 95 142
61 97 148
61 96 140
61 96 143
61 96 147
61 96 137
61 96 143
61 96 147
61 96 145
62 97 150
61 97 148
61 97 152
62 97 154
61 96 143
61 96 147
60 94 137
61 97 151
60 95 141
62 96 144
60 95 145
60 95 141
61 95 146
60 94 142
61 96 150
62 98 157
61 97 152
60 95 148
61 95 150
61 96 146
61 96 144
59 94 142
60 94 133
59 94 138
60 94 140
59 93 138
61 95 154
58 91 132
59 92 144
60 94 143
60 94 142
58 91 134
61 95 145
60 94 142
61 95 144
59 92 145
59 93 143
59 93 142
59 92 141
57 90 129
58 90 138
57 88 134
57 89 125
59 90 141
56 87 136
58 90 140
53 82 124
52 80 120
188 204 229
217 233 255
217 233 255
217 233 255
174 183 185
116 114 76
98 97 65
103 103 70
86 88 61
91 93 65
90 93 66
105 108 76
93 95 68
89 91 64
111 113 80
111 113 78
99 103 74
101 105 75
108 111 77
121 122 86
113 115 80
128 129 85
124 125 85
111 114 78
125 126 85
118 119 80
121 122 84
129 129 84
133 132 87
140 139 92
134 134 90
142 139 85
142 140 87
135 135 87
143 142 90
148 145 91
152 148 91
148 145 92
151 148 93
156 153 98
156 153 98
159 155 96
158 154 96
160 156 96
155 152 92
154 151 88
160 157 91
159 156 97
159 155 93
162 157 97
162 159 98
156 153 96
159 157 95
164 159 100
168 163 97
170 165 102
164 160 98
159 155 91
173 167 104
166 160 96
168 163 95
173 167 101
172 166 101
170 165 98
166 160 91
170 164 100
168 164 97
171 166 100
169 165 95
169 164 96
171 166 100
170 164 100
170 164 94
172 166 99
169 163 99
171 166 98
168 162 96
175 169 101
173 167 101
171 166 97
172 166 96
172 167 97
171 166 99
175 168 96
170 164 92
170 164 92
173 165 94
173 167 97
168 163 93
172 165 99
172 166 97
166 161 91
167 161 91
169 164 95
174 167 97
174 167 99
166 161 93
170 164 93
175 168 98
172 166 99
168 163 96
170 164 97
162 157 84
167 161 90
173 167 95
168 163 93
168 162 92
169 163 98
167 160 91
165 160 93
169 162 93
170 164 95
167 161 93
166 160 90
167 161 93
164 160 90
166 160 96
165 160 93
166 159 91
171 163 95
162 156 88
166 161 92
166 161 88
167 161 93
162 156 87
166 160 93
158 152 84
163 157 90
162 157 88
155 150 86
162 157 90
165 159 90
163 157 95
163 157 87
161 154 88
164 158 94
162 157 85
161 156 83
159 153 87
161 155 87
163 157 89
159 154 86
154 149 83
155 149 84
163 157 87
160 154 87
154 148 82
160 154 88
158 152 85
154 148 80
159 153 88
224 237 255
224 237 255
224 237 255
224 237 255
224 237 255
224 237 255
224 237 255
224 237 255
224 237 255
224 237 255
224 237 255
224 237 255
224 237 255
224 237 255
224 237 255
224 237 255
224 237 255
224 237 255
224 237 255
224 237 255
224 237 255
224 237 255
224 237 255
224 237 255
224 237 255
224 237 255
224 237 255
224 237 255
224 237 255
224 237 255
224 237 255
224 237 255
224 237 255
224 237 255
224 237 255
224 237 255
224 237 255
224 237 255
224 237 255
224 237 255
224 237 255
224 237 255
224 237 255
224 237 255
224 237 255
224 237 255
224 237 255
224 237 255
224 237 255
224 237 255
224 237 255
224 237 255
224 237 255
224 237 255
224 237 255
224 237 255
224 237 255
224 237 255
224 237 255
224 237 255
224 237 255
224 237 255
224 237 255
224 237 255
224 237 255
224 237 255
224 237 255
224 237 255
224 237 255
224 237 255
224 237 255
224 237 255
224 237 255
224 237 255
224 237 255
224 237 255
224 237 255
224 237 255
224 237 255
224 237 255
224 237 255
224 237 255
224 237 255
224 237 255
224 237 255
224 237 255
224 237 255
224 237 255
224 237 255
224 237 255
224 237 255
224 237 255
224 237 255
224 237 255
224 237 255
224 237 255
224 237 255
224 237 255
224 237 255
224 237 255
224 237 255
224 237 255
225 237 255
225 237 255
225 237 255
225 237 255
225 237 255
225 237 255
225 237 255
225 238 255
225 238 255
225 238 255
225 238 255
225 238 255
225 238 255
225 238 255
225 238 255
225 238 255
225 238 255
225 238 255
225 238 255
225 238 255
224 237 252
213 228 220
197 215 163
184 205 102
176 199 25
173 197 0
174 197 0
175 198 0
178 199 0
175 198 0
175 198 0
173 197 0
175 198 0
174 198 0
174 198 0
175 198 0
174 198 0
174 198 0
174 198 0
175 198 0
174 197 0
173 197 0
173 197 0
172 196 0
179 202 95
217 233 255
217 233 255
217 233 255
147 166 188
58 93 120
60 95 131
60 95 139
61 96 137
60 95 133
61 97 147
61 96 143
61 96 140
62 97 144
61 96 145
61 96 142
61 97 150
60 96 141
61 96 142
59 93 135
61 96 149
62 97 147
61 96 142
61 96 142
61 96 147
61 97 150
61 97 150
61 97 150
61 96 150
60 95 136
61 97 151
60 96 144
63 98 159
61 97 151
61 96 143
61 96 153
60 95 129
61 97 147
60 96 143
61 96 143
61 96 147
61 96 140
62 97 148
61 97 145
62 97 148
61 97 142
61 97 151
60 95 136
61 96 152
61 95 143
60 95 145
62 97 151
62 97 148
62 97 150
61 96 141
61 96 148
60 94 139
61 96 142
60 95 147
60 95 145
62 97 154
60 95 136
60 94 139
60 95 136
60 95 138
62 97 147
60 94 143
61 95 141
61 96 146
60 95 142
61 95 145
61 96 141
60 94 135
61 95 141
61 96 142
60 95 149
61 96 151
62 96 145
61 95 143
60 94 148
60 94 143
62 97 149
60 94 147
61 95 145
61 95 148
60 94 140
59 93 145
60 94 148
59 93 141
61 94 143
59 93 147
60 94 151
59 92 143
58 90 132
59 92 137
57 90 131
59 92 142
58 91 143
56 87 130
56 86 136
56 87 129
59 93 153
53 82 123
147 164 189
217 233 255
217 233 255
217 233 255
125 128 112
102 101 67
89 90 60
85 86 61
93 95 67
93 95 67
81 86 64
79 84 61
81 86 65
86 90 66
85 89 65
105 108 76
98 101 71
103 106 74
115 116 82
109 110 77
99 103 72
121 123 85
114 116 80
121 122 84
116 119 82
129 130 87
118 118 79
132 131 87
135 135 90
133 132 83
129 130 85
137 136 88
146 144 91
140 138 90
133 132 84
146 144 90
145 142 90
152 149 93
148 147 94
148 146 91
158 155 96
157 154 96
160 156 95
156 152 97
153 150 93
157 153 90
150 148 90
165 160 100
154 151 90
162 159 97
167 162 98
162 158 96
158 155 94
168 163 98
167 162 99
163 159 92
160 156 87
165 161 96
165 161 95
166 161 99
169 163 95
173 167 102
169 164 98
167 161 96
170 164 102
164 159 90
172 166 96
168 164 100
170 166 95
172 166 97
169 165 99
172 166 97
167 161 90
172 167 97
174 168 97
171 165 97
172 165 98
170 164 92
171 166 97
172 167 96
176 169 101
173 168 100
170 164 92
171 165 96
169 164 90
171 166 99
174 168 94
169 164 93
171 165 95
170 165 96
172 167 101
170 165 95
167 162 89
172 166 96
172 166 97
162 156 91
169 163 95
171 165 98
168 162 94
167 161 88
174 168 96
172 165 99
172 165 95
166 161 91
172 165 97
166 161 90
172 165 96
168 162 96
167 161 91
171 165 96
172 166 97
171 163 87
164 159 88
164 157 87
168 161 92
168 162 90
169 163 94
167 161 95
165 159 87
165 160 92
163 157 90
167 161 92
163 157 87
157 152 86
165 159 92
159 153 88
170 164 97
168 162 94
170 164 96
164 157 90
166 162 96
155 150 87
162 155 88
170 164 93
166 159 91
162 157 90
165 159 92
166 160 90
167 160 92
164 158 89
158 151 87
160 154 84
159 153 84
166 159 89
164 156 85
157 150 83
156 151 84
155 150 86
149 145 75
156 151 87
156 151 83
224 237 255
224 237 255
224 237 255
224 237 255
224 237 255
224 237 255
224 237 255
224 237 255
224 237 255
224 237 255
224 237 255
224 237 255
224 237 255
224 237 255
224 237 255
224 237 255
224 237 255
224 237 255
224 237 255
224 237 255
224 237 255
224 237 255
224 237 255
224 237 255
224 237 255
224 237 255
224 237 255
224 237 255
224 237 255
224 237 255
224 237 255
224 237 255
224 237 255
224 237 255
224 237 255
224 237 255
224 237 255
224 237 255
224 237 255
224 237 255
224 237 255
224 237 255
224 237 255
224 237 255
224 237 255
224 237 255
224 237 255
224 237 255
224 237 255
224 237 255
224 237 255
224 237 255
224 237 255
224 237 255
224 237 255
224 237 255
224 237 255
224 237 255
224 237 255
224 237 255
224 237 255
224 237 255
224 237 255
224 237 255
224 237 255
224 237 255
224 237 255
224 237 255
224 237 255
224 237 255
224 237 255
224 237 255
224 237 255
224 237 255
224 237 255
224 237 255
224 237 255
224 237 255
224 237 255
224 237 255
224 237 255
224 237 255
224 237 255
224 237 255
224 237 255
224 237 255
224 237 255
224 237 255
224 237 255
224 237 255
224 237 255
224 237 255
224 237 255
224 237 255
224 237 255
224 237 255
224 237 255
224 237 255
224 237 255
224 237 255
224 237 255
224 237 255
224 237 255
224 237 255
224 237 255
224 237 255
224 237 255
224 237 255
224 237 255
224 237 255
225 237 255
225 237 255
225 237 255
225 237 255
225 237 255
225 238 255
225 238 255
225 238 255
225 238 255
225 238 255
225 238 255
225 238 255
225 238 255
225 238 255
225 238 255
225 238 255
222 235 245
212 227 215
198 216 167
177 200 57
174 198 0
172 197 0
174 198 0
173 197 0
172 197 0
176 199 0
175 198 0
175 198 0
174 198 0
174 198 0
174 197 0
174 198 0
174 197 0
175 198 0
175 198 0
174 198 0
174 198 0
210 227 231
217 233 255
217 233 255
89 116 143
59 95 129
60 95 134
59 93 129
61 96 141
59 94 131
61 97 145
61 97 148
61 96 142
61 95 137
61 97 143
60 95 133
62 97 151
60 96 140
61 97 148
61 96 144
59 95 141
61 96 144
62 97 143
61 96 139
61 97 151
59 94 136
62 97 143
61 96 141
61 97 149
61 96 145
62 97 152
60 95 144
60 95 139
60 95 141
60 95 143
60 95 147
61 96 142
61 97 151
61 96 155
61 95 139
59 94 131
62 97 147
62 98 156
61 97 154
61 96 147
61 96 153
59 94 135
59 93 134
61 96 147
62 97 152
61 96 152
61 97 149
61 96 139
61 96 147
61 96 145
61 96 147
60 95 135
62 97 153
61 95 139
61 95 145
61 96 152
62 97 152
60 95 139
61 97 154
61 96 147
61 95 142
61 96 141
61 96 141
61 96 147
61 96 146
60 95 142
61 96 150
62 98 153
60 96 149
61 95 143
61 96 142
60 95 141
61 95 143
60 96 148
60 95 146
59 93 136
60 93 141
60 95 146
61 95 147
59 93 139
61 96 147
59 92 134
59 92 141
60 93 143
59 92 142
59 92 134
60 94 142
59 92 145
57 89 135
61 95 147
59 91 141
57 89 139
58 90 138
57 89 129
58 89 137
57 89 137
56 86 128
51 79 123
89 108 138
217 233 255
217 233 255
204 217 234
92 91 58
84 84 57
92 93 64
88 89 61
82 84 59
82 85 61
77 82 60
92 93 65
91 95 70
90 94 68
83 88 65
95 98 70
88 92 67
102 106 77
105 108 73
101 103 69
114 116 81
118 120 81
115 116 76
114 115 76
118 119 76
122 124 83
131 131 87
130 128 82
131 130 86
132 132 83
133 134 91
129 128 79
137 136 84
121 122 76
135 133 85
144 142 90
151 148 91
150 148 92
146 143 89
151 148 90
157 153 92
147 144 83
150 147 93
155 151 90
151 148 91
154 150 93
157 155 98
158 155 91
157 154 93
161 158 95
161 157 93
161 157 92
162 157 89
158 154 93
166 162 98
168 162 93
159 155 96
167 163 97
168 163 96
168 163 98
168 162 98
166 161 97
171 165 100
167 163 92
173 167 100
171 165 97
172 165 98
170 164 95
171 166 101
165 161 93
170 164 97
171 165 96
174 168 99
170 164 95
173 166 96
172 166 96
174 167 97
172 165 96
175 169 98
173 167 90
170 164 94
175 168 98
174 167 98
172 166 99
170 164 98
174 167 97
170 164 91
169 164 92
172 166 94
174 167 95
171 165 90
169 163 95
172 166 97
174 168 97
176 169 99
173 167 97
175 168 101
168 162 91
171 166 97
167 161 93
167 161 92
165 159 90
169 163 90
168 162 88
170 163 94
166 161 93
162 157 85
168 162 90
169 163 86
171 165 98
168 162 94
162 157 91
175 168 96
166 159 89
167 161 93
167 161 93
171 165 95
167 161 93
173 165 97
168 162 90
160 155 83
159 155 84
169 161 93
160 154 81
161 155 90
160 155 86
163 157 87
166 160 89
160 154 87
159 153 85
170 164 99
163 157 90
168 162 91
159 152 84
159 153 87
167 160 92
167 160 88
160 154 84
155 150 80
161 155 89
162 156 89
160 153 84
164 157 87
157 151 80
157 152 87
157 151 85
160 154 88
158 152 85
158 152 84
161 154 87
159 153 85
224 237 255
224 237 255
224 237 255
224 237 255
224 237 255
224 237 255
224 237 255
224 237 255
224 237 255
224 237 255
224 237 255
224 237 255
224 237 255
224 237 255
224 237 255
224 237 255
224 237 255
224 237 255
224 237 255
224 237 255
224 237 255
224 237 255
224 237 255
224 237 255
224 237 255
224 237 255
224 237 255
224 237 255
224 237 255
224 237 255
224 237 255
224 237 255
224 237 255
224 237 255
224 237 255
224 237 255
224 237 255
224 237 255
224 237 255
224 237 255
224 237 255
224 237 255
224 237 255
224 237 255
224 237 255
224 237 255
224 237 255
224 237 255
224 237 255
224 237 255
224 237 255
224 237 255
224 237 255
224 237 255
224 237 255
224 237 255
224 237 255
224 237 255
224 237 255
224 237 255
224 237 255
224 237 255
224 237 255
224 237 255
224 237 255
224 237 255
224 237 255
224 237 255
224 237 255
224 237 255
224 237 255
224 237 255
224 237 255
224 237 255
224 237 255
224 237 255
224 237 255
224 237 255
224 237 255
224 237 255
224 237 255
224 237 255
224 237 255
224 237 255
224 237 255
224 237 255
224 237 255
224 237 255
224 237 255
224 237 255
224 237 255
224 237 255
224 237 255
224 237 255
224 237 255
224 237 255
224 237 255
224 237 255
224 237 255
224 237 255
224 237 255
224 237 255
224 237 255
224 237 255
224 237 255
224 237 255
224 237 255
224 237 255
224 237 255
224 237 255
224 237 255
224 237 255
224 237 255
224 237 255
224 237 255
224 237 255
224 237 255
225 237 255
225 237 255
225 237 255
225 237 255
225 238 255
225 238 255
225 238 255
225 238 255
225 238 255
225 238 255
225 238 255
225 238 255
225 238 254
208 224 203
197 215 163
183 205 99
174 197 0
174 198 0
175 198 0
174 198 0
175 198 0
176 198 0
175 198 0
173 197 0
174 198 0
175 198 0
174 198 0
173 197 0
174 198 0
174 197 0
199 217 182
218 233 255
196 213 233
60 94 129
59 93 111
60 95 127
61 96 144
61 96 140
61 96 137
61 96 144
62 97 145
61 96 137
61 96 137
60 95 136
61 96 141
62 97 147
62 97 149
61 96 142
61 97 148
62 97 150
61 97 143
62 97 142
60 94 136
61 96 139
62 97 145
60 95 136
62 97 152
60 95 137
60 95 142
61 96 147
61 95 140
61 96 143
61 97 158
60 95 136
61 97 143
61 97 148
61 97 148
61 97 149
61 96 144
60 96 141
61 96 149
61 96 143
61 96 149
61 96 148
61 96 140
61 96 143
61 96 149
60 95 142
61 97 150
61 96 140
61 96 152
62 97 141
62 97 150
62 97 149
62 96 144
61 96 139
60 94 134
61 96 148
61 96 145
61 95 145
60 95 143
61 97 151
60 95 145
62 98 158
61 97 148
60 95 142
60 96 143
60 95 135
60 95 144
61 97 155
59 94 135
61 96 146
58 92 126
61 96 149
61 96 140
59 93 133
60 94 137
59 92 134
60 95 141
60 94 138
59 93 138
60 93 143
59 93 134
60 93 138
58 91 135
60 93 141
60 94 145
60 93 137
59 92 144
60 93 141
58 91 138
59 93 141
57 90 126
60 94 147
57 90 138
58 90 136
57 89 134
57 88 135
57 89 137
57 88 134
54 83 125
53 82 120
53 81 119
204 219 242
218 234 255
165 174 175
91 91 60
81 82 52
90 91 64
97 98 68
83 86 61
92 92 64
71 75 54
75 79 57
88 92 66
81 85 64
78 84 63
85 90 66
90 94 66
87 91 64
107 109 75
99 103 72
101 105 73
120 120 77
116 117 81
116 117 79
117 118 78
120 120 80
132 132 87
127 126 86
128 129 86
133 132 85
140 138 86
137 136 90
131 131 84
141 139 85
135 134 85
152 149 86
142 140 87
151 149 93
152 150 96
141 140 85
159 156 98
153 150 92
155 152 95
160 155 94
162 157 97
153 149 90
160 155 91
156 152 92
160 156 92
161 157 95
158 153 89
166 162 99
167 161 93
166 161 96
168 162 97
166 162 95
168 164 98
163 158 92
166 161 94
172 166 100
163 158 92
170 164 97
165 160 93
168 163 93
168 162 93
167 161 88
171 165 98
163 159 94
172 167 98
172 165 99
170 165 96
174 167 94
173 167 99
171 166 93
172 165 96
168 163 94
170 165 97
172 166 94
176 169 100
170 165 95
178 171 102
170 165 94
170 164 94
174 167 98
171 165 97
171 166 95
172 164 93
169 163 87
171 165 92
173 167 97
172 167 95
172 165 94
173 166 96
175 169 98
170 164 94
170 163 94
174 168 97
170 164 93
174 168 97
171 165 99
173 166 95
170 163 91
174 167 97
171 165 89
170 163 90
170 164 93
172 166 95
167 162 94
167 161 88
168 161 91
169 163 93
167 161 90
169 163 96
165 160 93
166 161 91
172 165 95
165 159 90
168 162 89
162 155 87
170 164 93
163 158 91
166 161 91
158 153 89
164 158 87
163 157 90
164 158 89
160 156 85
159 154 82
163 157 90
163 157 87
169 163 96
156 150 85
163 156 83
164 157 93
164 158 87
162 157 86
162 156 87
170 163 94
163 156 82
158 152 86
164 159 93
166 160 88
157 151 83
158 153 83
157 151 83
158 153 84
161 156 87
163 156 84
152 146 81
158 152 84
151 146 78
224 237 255
224 237 255
224 237 255
224 237 255
224 237 255
224 237 255
224 237 255
224 237 255
224 237 255
224 237 255
224 237 255
224 237 255
224 237 255
224 237 255
224 237 255
224 237 255
224 237 255
224 237 255
224 237 255
224 237 255
224 237 255
224 237 255
224 237 255
224 237 255
224 237 255
223 237 255
224 237 255
223 237 255
223 237 255
223 237 255
223 237 255
223 237 255
223 237 255
223 237 255
223 237 255
223 237 255
223 237 255
223 237 255
223 237 255
223 237 255
223 237 255
223 237 255
223 237 255
223 237 255
223 237 255
223 237 255
223 237 255
223 237 255
223 237 255
223 237 255
223 237 255
223 237 255
223 237 255
223 237 255
223 237 255
223 237 255
223 237 255
223 237 255
223 237 255
223 237 255
223 237 255
223 237 255
223 237 255
223 237 255
223 237 255
223 237 255
223 237 255
223 237 255
223 237 255
223 237 255
223 237 255
223 237 255
223 237 255
223 237 255
223 237 255
223 237 255
223 237 255
223 237 255
223 237 255
223 237 255
223 237 255
223 237 255
223 237 255
223 237 255
223 237 255
223 237 255
223 237 255
224 237 255
224 237 255
224 237 255
224 237 255
224 237 255
224 237 255
224 237 255
224 237 255
224 237 255
224 237 255
224 237 255
224 237 255
224 237 255
224 237 255
224 237 255
224 237 255
224 237 255
224 237 255
224 237 255
224 237 255
224 237 255
224 237 255
224 237 255
224 237 255
224 237 255
224 237 255
224 237 255
224 237 255
224 237 255
224 237 255
224 237 255
224 237 255
224 237 255
224 237 255
224 237 255
224 237 255
225 237 255
225 237 255
225 237 255
225 238 255
225 238 255
225 238 255
225 238 255
225 238 255
225 238 255
225 238 255
217 231 233
204 221 189
188 208 122
175 198 0
174 198 0
175 198 0
175 198 0
175 198 0
175 198 0
174 197 0
173 197 0
173 197 0
174 197 0
176 199 0
183 204 114
218 234 255
173 191 215
60 95 131
60 95 133
62 97 147
61 96 139
62 97 149
61 96 142
61 96 141
63 98 151
59 93 135
61 96 142
62 97 151
61 95 139
62 98 145
61 96 144
61 96 150
61 96 149
61 96 145
61 96 148
61 96 147
60 95 144
60 95 134
60 96 142
61 96 145
62 98 150
62 97 147
59 94 136
60 95 141
61 97 144
62 97 147
61 97 142
61 97 148
61 97 150
61 96 142
60 95 143
61 95 142
62 97 141
61 96 148
61 96 137
61 96 142
62 97 157
60 95 136
60 95 148
62 97 153
61 97 143
62 97 154
60 95 141
62 98 158
60 95 137
61 96 141
61 96 143
61 96 148
60 95 139
60 95 142
61 96 144
60 95 141
60 95 142
60 95 137
60 95 149
61 96 142
61 96 152
61 96 150
61 96 140
60 94 141
61 96 143
61 96 145
60 95 141
61 96 147
60 95 141
61 95 147
61 95 137
60 94 148
61 95 143
60 94 139
59 93 132
60 95 148
60 94 137
60 94 142
60 95 147
59 93 132
61 96 149
59 93 145
59 93 137
61 95 154
60 94 137
59 93 142
59 92 131
60 94 136
57 89 129
60 94 142
58 91 135
59 92 141
57 88 130
57 89 129
56 86 121
57 88 133
57 88 132
53 83 118
55 84 124
54 83 122
50 77 107
180 196 218
218 234 255
150 156 152
108 105 66
90 90 60
72 74 51
79 82 59
85 86 60
78 82 59
86 89 63
87 90 64
84 88 62
99 103 73
80 84 61
95 98 69
96 100 71
93 97 68
94 98 68
108 108 71
108 111 76
111 113 76
111 113 75
122 123 80
112 115 76
129 128 83
127 127 81
122 123 78
120 121 76
132 130 83
134 132 82
138 137 88
136 135 85
127 127 77
143 140 86
135 134 85
122 122 75
143 141 84
155 150 89
139 139 89
152 148 89
150 148 89
143 141 88
153 149 87
151 148 91
153 150 91
158 155 93
158 155 93
159 155 90
153 150 84
166 161 92
163 158 94
166 161 96
164 159 95
161 157 90
164 160 94
160 157 92
163 158 89
164 159 90
168 162 94
170 164 99
171 165 97
170 165 96
168 163 96
169 164 95
168 162 94
169 164 98
171 166 98
168 162 95
170 165 94
172 167 98
167 162 92
171 165 97
172 166 94
173 167 95
175 167 99
172 166 98
175 169 99
172 166 96
176 169 98
171 166 94
173 166 94
171 165 95
169 164 94
171 164 92
175 168 97
169 163 95
172 166 93
173 167 95
171 165 95
163 158 87
174 167 95
169 164 92
170 165 91
168 162 90
172 166 93
174 167 97
175 168 99
171 166 90
170 165 97
167 160 88
174 167 91
164 158 85
170 164 90
173 166 99
169 163 90
169 161 90
161 156 87
168 162 92
170 164 93
164 158 90
169 162 90
168 161 95
169 163 95
170 164 93
170 164 91
168 162 89
164 158 90
172 165 95
164 159 90
165 158 84
164 157 84
170 164 88
166 160 89
167 161 90
162 156 89
164 157 90
163 157 90
162 156 85
164 159 90
164 157 83
157 151 83
163 157 86
161 155 86
163 157 88
162 154 87
160 155 87
155 149 84
162 155 85
158 153 81
160 154 90
158 153 87
156 150 84
160 154 80
162 155 85
158 152 89
154 149 81
157 151 84
154 148 81
160 154 87
157 151 81
224 237 255
223 237 255
223 237 255
223 237 255
223 237 255
223 237 255
223 237 255
223 237 255
223 237 255
223 237 255
223 237 255
223 237 255
223 237 255
223 237 255
223 237 255
223 237 255
223 237 255
223 237 255
223 237 255
223 237 255
223 237 255
223 237 255
223 237 255
223 237 255
223 237 255
223 237 255
223 237 255
223 237 255
223 237 255
223 237 255
223 237 255
223 237 255
223 237 255
223 237 255
223 237 255
223 237 255
223 237 255
223 237 255
223 237 255
223 237 255
223 237 255
223 237 255
223 237 255
223 237 255
223 237 255
223 237 255
223 237 255
223 237 255
223 237 255
223 237 255
223 237 255
223 237 255
223 237 255
223 237 255
223 237 255
223 237 255
223 237 255
223 237 255
223 237 255
223 237 255
223 237 255
223 237 255
223 237 255
223 237 255
223 237 255
223 237 255
223 237 255
223 237 255
223 237 255
223 237 255
223 237 255
223 237 255
223 237 255
223 237 255
223 237 255
223 237 255
223 237 255
223 237 255
223 237 255
223 237 255
223 237 255
223 237 255
223 237 255
223 237 255
223 237 255
223 237 255
223 237 255
223 237 255
223 237 255
223 237 255
223 237 255
223 237 255
223 237 255
223 237 255
223 237 255
223 237 255
223 237 255
223 237 255
223 237 255
223 237 255
223 237 255
223 237 255
224 237 255
224 237 255
224 237 255
224 237 255
224 237 255
224 237 255
224 237 255
224 237 255
224 237 255
224 237 255
224 237 255
224 237 255
224 237 255
224 237 255
224 237 255
224 237 255
224 237 255
224 237 255
224 237 255
224 237 255
224 237 255
224 237 255
224 237 255
224 237 255
224 237 255
225 237 255
225 237 255
225 237 255
225 238 255
225 238 255
225 238 255
225 238 255
225 238 255
225 238 255
218 232 236
209 225 206
191 210 137
175 198 0
175 198 0
176 198 0
173 197 0
175 198 0
174 198 0
174 197 0
175 198 0
175 199 51
216 232 248
142 162 184
61 96 136
61 96 142
62 98 152
62 97 145
62 97 144
62 97 147
63 98 152
62 97 145
61 96 143
61 96 143
62 97 152
60 95 139
61 96 143
61 97 143
61 97 150
61 97 149
62 97 148
62 97 148
60 95 141
60 95 131
62 97 150
61 96 141
62 98 151
61 96 141
61 97 149
61 96 142
61 96 139
61 96 152
62 97 149
61 96 142
62 97 151
60 95 142
61 96 147
61 96 140
60 95 133
60 95 140
62 97 143
61 96 149
60 96 142
61 96 139
61 96 143
60 95 144
61 96 144
60 94 127
61 96 144
63 99 158
61 96 145
61 96 147
62 97 149
60 96 144
60 95 141
60 96 144
60 95 144
60 95 143
60 95 130
61 96 147
60 95 141
61 96 139
59 94 134
60 95 139
61 96 148
60 95 141
61 95 137
61 96 147
61 97 150
60 95 141
61 96 140
60 95 144
60 95 138
59 93 137
60 95 144
60 93 137
60 95 146
62 96 144
60 94 141
61 96 147
59 93 137
59 93 134
60 94 137
58 91 125
60 94 139
60 93 135
59 92 135
60 94 140
58 91 131
61 95 145
59 92 137
59 92 141
59 91 134
58 91 140
58 91 129
59 92 137
57 89 127
56 88 124
55 86 123
55 85 129
55 87 126
55 86 122
53 81 121
51 79 117
148 164 192
212 226 246
96 93 60
101 100 62
89 90 61
74 74 50
79 82 58
62 67 50
76 81 58
74 78 55
83 89 64
74 79 58
81 85 62
88 92 65
92 93 63
109 110 75
96 98 65
94 99 70
100 104 72
102 105 73
114 116 80
110 113 77
111 113 72
122 122 82
125 125 82
110 112 74
129 129 79
127 127 80
133 133 79
130 128 81
135 135 86
131 130 83
132 131 79
128 127 75
137 135 85
133 132 78
137 135 81
142 139 82
149 145 90
155 152 90
149 146 86
156 152 92
154 150 91
152 148 87
155 151 91
163 158 93
154 152 89
160 155 93
154 150 90
165 160 96
161 156 90
155 151 90
162 158 93
163 159 93
161 157 96
168 163 98
161 156 92
166 161 90
171 165 95
168 163 95
170 164 96
169 163 96
166 161 94
165 160 85
167 162 93
172 166 99
170 164 91
171 165 97
168 163 92
170 164 95
171 166 91
172 166 94
168 163 92
170 165 96
173 167 97
169 163 88
175 168 92
170 164 92
172 166 98
172 165 95
166 160 85
167 161 84
170 164 93
173 166 94
170 164 90
171 165 94
172 166 93
169 163 87
172 166 93
167 162 93
169 163 88
170 164 89
170 165 94
168 162 89
171 165 90
167 162 87
167 162 87
173 166 96
165 159 87
170 163 92
168 163 94
168 162 91
170 163 92
171 163 97
170 163 92
172 166 95
165 160 84
165 160 86
164 158 86
168 162 90
164 157 85
165 158 87
168 161 93
160 154 84
168 162 90
169 162 90
169 163 93
163 157 90
168 161 94
170 164 91
165 159 89
164 158 89
164 158 91
158 153 84
159 153 85
169 163 94
163 156 92
163 157 86
164 158 87
166 161 91
156 150 80
163 156 84
164 158 87
158 152 82
162 156 87
156 150 88
160 154 77
163 157 87
163 156 84
156 150 84
156 151 84
159 154 85
157 152 85
157 151 76
157 150 80
157 151 84
151 145 79
169 162 93
163 156 85
155 151 87
223 237 255
223 237 255
223 237 255
223 237 255
223 237 255
223 237 255
223 237 255
223 237 255
223 237 255
223 237 255
223 237 255
223 237 255
223 237 255
223 237 255
223 237 255
223 237 255
223 237 255
223 237 255
223 237 255
223 237 255
223 237 255
223 237 255
223 237 255
223 237 255
223 237 255
223 237 255
223 237 255
223 237 255
223 237 255
223 237 255
223 237 255
223 237 255
223 237 255
223 237 255
223 237 255
223 237 255
223 237 255
223 237 255
223 237 255
223 237 255
223 237 255
223 237 255
223 237 255
223 237 255
223 237 255
223 237 255
223 237 255
223 237 255
223 237 255
223 237 255
223 237 255
223 237 255
223 237 255
223 237 255
223 237 255
223 237 255
223 237 255
223 237 255
223 237 255
223 237 255
223 237 255
223 237 255
223 237 255
223 237 255
223 237 255
223 237 255
223 237 255
223 237 255
223 237 255
223 237 255
223 237 255
223 237 255
223 237 255
223 237 255
223 237 255
223 237 255
223 237 255
223 237 255
223 237 255
223 237 255
223 237 255
223 237 255
223 237 255
223 237 255
223 237 255
223 237 255
223 237 255
223 237 255
223 237 255
223 237 255
223 237 255
223 237 255
223 237 255
223 237 255
223 237 255
223 237 255
223 237 255
223 237 255
223 237 255
223 237 255
223 237 255
223 237 255
223 237 255
223 237 255
223 237 255
223 237 255
223 237 255
223 237 255
223 237 255
223 237 255
223 237 255
223 237 255
223 237 255
224 237 255
224 237 255
224 237 255
224 237 255
224 237 255
224 237 255
224 237 255
224 237 255
224 237 255
224 237 255
224 237 255
224 237 255
224 237 255
224 237 255
224 237 255
224 237 255
224 237 255
224 237 255
224 237 255
225 237 255
225 237 255
225 238 255
225 238 255
225 238 255
225 238 255
225 238 255
220 234 241
201 218 173
180 202 80
173 197 0
174 198 0
174 197 0
173 197 0
174 198 0
174 198 0
206 223 212
134 155 187
61 96 135
62 98 149
63 99 156
62 97 144
62 98 153
63 98 148
62 97 145
61 96 139
61 96 147
62 97 148
62 97 148
60 95 134
61 96 144
61 96 147
62 98 153
62 97 145
61 95 137
61 96 143
60 95 140
60 95 140
60 95 143
61 96 142
61 95 137
62 97 148
61 96 139
61 96 148
61 95 141
61 96 140
60 96 143
62 97 155
61 96 144
61 96 148
61 97 143
62 97 147
61 97 153
59 94 135
61 96 143
61 96 144
61 96 144
60 95 134
61 96 140
62 97 149
61 97 147
61 96 140
60 94 142
60 95 137
61 96 144
59 93 134
61 97 148
60 94 133
60 96 143
61 96 141
59 93 127
60 95 135
60 95 134
59 94 136
61 96 145
60 94 139
60 95 147
61 96 145
61 96 144
59 93 130
62 97 153
60 94 138
60 95 144
60 96 147
60 95 135
60 94 143
60 95 147
60 94 136
61 96 149
60 95 140
60 94 136
60 95 141
61 96 149
60 94 139
61 95 142
58 92 128
59 93 137
61 96 151
60 95 133
59 92 133
60 94 146
60 94 136
59 93 134
60 93 141
59 93 135
59 92 136
58 91 135
59 92 133
60 92 134
57 90 133
59 90 136
57 89 131
57 88 127
56 86 127
54 83 118
53 82 122
54 83 119
54 83 122
116 134 165
201 214 230
98 96 57
87 87 57
86 87 58
83 85 61
68 72 52
84 86 60
71 75 55
79 83 59
80 85 63
75 80 59
83 85 59
79 83 59
78 83 57
84 87 61
91 94 65
105 106 71
106 108 71
96 101 68
105 107 73
120 121 79
107 109 73
114 115 76
129 127 83
125 125 81
121 122 72
121 121 79
131 130 80
130 129 82
129 127 78
132 131 82
129 128 81
143 141 87
128 127 75
140 138 88
144 142 88
141 141 91
139 137 85
139 138 83
150 146 89
146 143 85
155 152 91
153 148 87
154 151 94
151 149 85
157 153 92
159 156 92
165 161 92
151 149 88
163 158 91
160 155 94
170 164 95
162 159 94
167 162 95
166 161 93
160 156 84
165 160 86
163 159 93
164 159 87
165 160 92
168 162 92
172 167 101
167 163 97
172 166 95
167 163 91
173 167 97
169 163 91
173 166 96
168 162 89
169 163 92
168 162 93
170 163 87
168 162 93
173 167 96
168 163 91
171 165 90
172 166 95
168 163 93
170 164 94
171 165 97
170 165 92
170 165 88
170 163 90
172 166 95
172 165 92
168 162 88
170 165 91
171 164 90
168 162 85
174 167 96
171 165 98
169 163 88
170 165 91
173 166 95
171 164 92
167 161 90
168 162 89
169 162 91
171 164 88
170 163 95
172 166 89
168 162 91
165 158 85
173 166 95
172 165 93
168 162 91
170 164 89
165 160 88
166 161 87
166 159 87
174 167 95
167 160 88
168 162 94
173 167 92
164 158 80
168 161 87
169 162 93
171 164 91
165 159 89
171 164 89
161 156 87
174 167 94
167 161 88
162 156 80
161 155 84
162 157 86
159 154 84
167 160 90
164 158 87
163 156 88
157 151 80
164 157 87
165 158 90
165 159 85
159 153 85
168 161 89
157 151 81
160 153 84
161 154 83
154 148 79
163 157 84
159 153 84
154 149 83
158 152 80
158 152 83
159 152 86
162 155 86
160 153 83
158 151 83
223 237 255
223 237 255
223 237 255
223 237 255
223 237 255
223 237 255
223 237 255
223 237 255
223 237 255
223 237 255
223 237 255
223 237 255
223 237 255
223 236 255
223 237 255
223 236 255
223 236 255
223 236 255
223 236 255
223 236 255
223 236 255
223 236 255
223 236 255
223 236 255
223 236 255
223 236 255
223 236 255
223 236 255
223 236 255
223 236 255
223 236 255
223 236 255
223 236 255
223 236 255
223 236 255
223 236 255
223 236 255
223 236 255
223 236 255
223 236 255
223 236 255
223 236 255
223 236 255
223 236 255
223 236 255
223 236 255
223 236 255
223 236 255
223 236 255
223 236 255
223 236 255
223 236 255
223 236 255
223 236 255
223 236 255
223 236 255
223 236 255
223 236 255
223 236 255
223 236 255
223 236 255
223 236 255
223 236 255
223 236 255
223 236 255
223 236 255
223 236 255
223 236 255
223 236 255
223 236 255
223 236 255
223 236 255
223 236 255
223 236 255
223 236 255
223 236 255
223 236 255
223 236 255
223 236 255
223 236 255
223 236 255
223 236 255
223 236 255
223 236 255
223 236 255
223 236 255
223 236 255
223 236 255
223 236 255
223 236 255
223 236 255
223 236 255
223 236 255
223 236 255
223 236 255
223 237 255
223 237 255
223 237 255
223 237 255
223 237 255
223 237 255
223 237 255
223 237 255
223 237 255
223 237 255
223 237 255
223 237 255
223 237 255
223 237 255
223 237 255
223 237 255
223 237 255
223 237 255
223 237 255
223 237 255
223 237 255
223 237 255
223 237 255
223 237 255
223 237 255
223 237 255
224 237 255
224 237 255
224 237 255
224 237 255
224 237 255
224 237 255
224 237 255
224 237 255
224 237 255
224 237 255
224 237 255
224 237 255
224 237 255
224 237 255
224 237 255
225 237 255
225 237 255
225 238 255
225 238 255
225 238 255
225 237 254
215 229 224
194 213 153
175 198 36
174 197 0
175 198 0
175 198 0
202 220 196
79 109 156
63 98 148
62 97 147
62 96 142
63 98 149
62 97 150
63 98 151
62 97 144
62 97 149
61 96 141
62 97 142
62 98 152
62 97 141
62 97 145
61 96 145
60 95 142
62 97 148
62 97 150
62 97 141
61 96 144
60 96 140
60 95 136
62 97 142
61 96 135
61 96 140
61 96 142
61 96 147
61 96 142
61 97 144
60 95 136
61 97 153
59 93 127
61 95 137
60 96 135
60 95 140
60 95 141
61 96 140
60 95 135
59 94 133
61 96 147
61 95 147
61 96 135
59 94 137
60 94 135
61 96 140
59 93 130
59 93 125
60 95 137
61 96 144
60 95 136
62 97 146
62 98 152
61 97 150
61 96 143
60 95 142
61 96 145
61 97 148
61 95 142
59 94 130
61 95 145
61 95 134
60 95 140
61 96 150
60 95 139
61 96 147
60 95 140
62 97 149
62 96 147
61 96 148
62 96 145
60 94 138
59 94 138
59 93 134
61 96 142
61 95 147
59 94 136
58 92 131
61 96 151
58 92 140
60 94 145
59 92 136
61 94 139
58 91 127
59 91 133
59 93 135
59 92 139
60 95 142
58 91 136
58 91 134
57 89 119
58 91 131
59 92 142
57 90 136
57 87 125
56 88 127
57 88 134
56 88 128
57 89 137
55 86 122
56 87 131
53 82 112
67 87 110
176 186 192
90 89 53
80 80 51
79 79 53
75 77 55
69 74 55
65 70 54
71 76 56
70 75 56
82 87 63
77 82 60
75 79 56
98 100 70
87 91 62
80 85 62
84 87 57
100 101 66
107 109 71
99 103 70
99 103 69
113 114 74
109 110 73
119 121 79
130 128 77
120 121 80
120 120 74
119 119 75
125 123 76
136 134 85
128 127 77
136 134 83
136 134 83
131 131 80
136 134 79
139 137 79
141 138 75
144 142 86
145 141 87
140 138 79
149 147 86
154 150 88
153 148 88
155 151 89
157 153 93
159 155 94
155 152 87
153 150 89
158 154 85
155 151 86
155 151 90
162 157 91
161 157 93
163 159 93
160 156 94
161 157 89
164 159 91
163 158 92
169 163 94
168 163 90
161 157 90
163 158 90
166 160 95
168 162 91
168 162 94
171 165 90
172 166 96
170 164 89
171 165 93
168 162 88
170 164 94
169 164 92
172 166 95
168 163 90
172 166 95
166 161 90
170 164 93
171 165 90
172 166 94
172 165 90
172 166 98
173 166 95
169 163 93
168 162 87
172 166 93
172 166 92
170 165 93
166 161 84
169 163 87
165 159 89
169 163 90
166 161 85
172 164 97
176 169 101
167 162 89
168 162 89
173 166 96
167 162 90
169 163 88
168 162 91
167 160 87
169 163 88
172 165 94
168 163 90
164 159 90
170 164 88
171 165 91
169 162 91
167 161 90
172 166 90
169 162 87
172 165 92
165 160 91
165 159 84
165 159 84
165 159 83
165 158 88
162 156 86
169 164 91
171 164 95
165 159 89
164 159 86
158 152 81
167 160 85
161 156 84
166 159 89
162 157 87
162 156 80
163 156 87
164 158 82
158 153 79
162 156 85
160 155 84
162 156 83
161 154 86
162 155 80
158 152 80
159 153 80
156 150 77
163 157 84
156 151 83
159 153 84
160 154 90
161 154 81
156 150 79
163 156 90
157 151 82
153 147 76
155 149 83
145 140 76
223 236 255
223 236 255
223 236 255
223 236 255
223 236 255
223 236 255
223 236 255
223 236 255
223 236 255
223 236 255
223 236 255
223 236 255
223 236 255
223 236 255
223 236 255
223 236 255
223 236 255
223 236 255
223 236 255
223 236 255
223 236 255
223 236 255
223 236 255
223 236 255
223 236 255
223 236 255
223 236 255
223 236 255
223 236 255
223 236 255
223 236 255
223 236 255
223 236 255
223 236 255
223 236 255
223 236 255
223 236 255
223 236 255
223 236 255
223 236 255
223 236 255
223 236 255
223 236 255
223 236 255
223 236 255
223 236 255
223 236 255
223 236 255
223 236 255
223 236 255
223 236 255
223 236 255
223 236 255
223 236 255
223 236 255
223 236 255
223 236 255
223 236 255
223 236 255
223 236 255
223 236 255
223 236 255
223 236 255
223 236 255
223 236 255
223 236 255
223 236 255
223 236 255
223 236 255
223 236 255
223 236 255
223 236 255
223 236 255
223 236 255
223 236 255
223 236 255
223 236 255
223 236 255
223 236 255
223 236 255
223 236 255
223 236 255
223 236 255
223 236 255
223 236 255
223 236 255
223 236 255
223 236 255
223 236 255
223 236 255
223 236 255
223 236 255
223 236 255
223 236 255
223 236 255
223 236 255
223 236 255
223 236 255
223 236 255
223 236 255
223 236 255
223 236 255
223 236 255
223 236 255
223 236 255
223 236 255
223 236 255
223 236 255
223 236 255
223 236 255
223 236 255
223 237 255
223 237 255
223 237 255
223 237 255
223 237 255
223 237 255
223 237 255
223 237 255
223 237 255
223 237 255
223 237 255
223 237 255
223 237 255
223 237 255
223 237 255
223 237 255
223 237 255
224 237 255
224 237 255
224 237 255
224 237 255
224 237 255
224 237 255
224 237 255
224 237 255
224 237 255
224 237 255
224 237 255
224 237 255
225 237 255
225 237 255
225 238 255
225 238 255
222 235 245
201 219 181
181 203 88
176 199 0
181 202 137
65 100 156
62 97 143
61 96 134
63 99 152
62 97 145
62 97 140
63 97 148
61 96 149
62 97 149
61 95 139
62 97 143
62 97 144
62 97 143
62 97 150
60 95 139
62 97 147
61 96 154
62 96 143
62 97 145
61 96 142
62 97 150
61 96 144
61 97 150
60 95 136
61 96 141
61 96 141
61 95 140
61 96 147
62 97 144
60 95 140
61 97 150
60 95 140
62 97 147
61 96 147
60 95 136
63 98 150
61 97 144
60 94 136
60 95 139
60 95 145
60 95 142
58 93 127
60 95 145
60 96 142
61 96 149
60 95 141
61 96 139
62 97 150
60 95 139
61 96 142
61 96 136
60 95 142
60 95 139
59 93 133
59 94 128
60 94 136
60 94 139
60 95 142
61 95 140
61 96 143
61 96 146
59 93 128
60 94 136
60 94 130
61 96 151
61 96 149
61 95 139
61 95 143
59 92 134
60 95 139
61 96 149
59 93 135
61 96 142
60 93 137
59 93 136
61 95 143
58 92 139
60 94 145
58 91 131
62 96 145
60 94 144
59 92 133
58 91 137
58 90 127
60 93 132
60 94 142
59 93 139
60 94 142
60 93 138
57 89 135
58 91 131
60 93 141
58 90 131
57 89 124
58 90 133
57 88 123
58 90 130
56 86 131
53 81 108
54 83 122
53 82 117
49 75 114
146 150 139
85 84 52
71 70 41
62 64 45
70 73 50
75 78 55
72 76 55
61 65 44
68 72 51
65 68 49
75 80 56
79 83 60
95 97 68
82 86 57
82 86 60
89 91 60
90 94 63
103 104 68
103 105 69
103 106 68
99 102 65
121 122 77
113 114 74
109 111 73
118 119 77
122 121 74
131 130 84
132 130 82
128 128 79
127 126 78
133 133 82
126 124 72
134 132 82
136 135 78
145 143 89
147 144 86
141 141 82
143 141 83
146 143 88
145 143 80
144 143 86
144 143 83
159 155 92
152 149 90
155 151 85
158 155 88
156 152 92
158 153 88
159 156 89
160 156 92
157 153 85
168 162 95
161 157 91
161 157 89
164 158 92
167 162 94
165 160 94
168 162 93
164 158 88
165 160 90
159 155 90
169 164 92
169 164 95
171 165 91
168 163 93
168 162 89
167 162 86
162 158 78
169 163 87
167 161 89
172 165 92
168 162 87
168 162 86
170 164 93
171 165 93
170 164 92
168 162 89
176 168 94
170 164 87
171 165 87
175 168 94
174 167 98
175 168 95
171 165 97
171 164 90
172 165 90
169 164 89
166 161 86
171 165 89
173 167 90
172 165 90
169 163 87
168 162 87
174 167 93
170 164 94
166 161 90
171 164 87
174 167 91
167 161 87
172 166 95
174 167 96
168 162 90
166 160 86
174 166 99
165 159 90
166 160 91
166 160 89
169 162 91
163 157 85
168 161 90
163 156 83
165 159 84
168 162 85
162 158 84
174 166 94
166 161 90
167 162 87
169 163 95
166 160 84
171 164 91
163 158 82
172 165 94
169 162 96
160 154 92
161 155 85
167 160 89
157 152 84
164 157 83
168 161 90
164 158 83
165 159 86
164 158 77
157 151 79
157 152 75
165 159 89
157 151 82
161 155 86
165 158 88
161 155 88
155 149 80
163 156 82
159 153 85
163 156 87
154 148 79
164 157 84
165 158 86
158 152 84
160 154 86
159 154 85
223 236 255
223 236 255
223 236 255
223 236 255
223 236 255
223 236 255
223 236 255
223 236 255
223 236 255
223 236 255
223 236 255
223 236 255
222 236 255
223 236 255
223 236 255
222 236 255
222 236 255
222 236 255
222 236 255
222 236 255
222 236 255
222 236 255
222 236 255
222 236 255
222 236 255
222 236 255
222 236 255
222 236 255
222 236 255
222 236 255
222 236 255
222 236 255
222 236 255
222 236 255
222 236 255
222 236 255
222 236 255
222 236 255
222 236 255
222 236 255
222 236 255
222 236 255
222 236 255
222 236 255
222 236 255
222 236 255
222 236 255
222 236 255
222 236 255
222 236 255
222 236 255
222 236 255
222 236 255
222 236 255
222 236 255
222 236 255
222 236 255
222 236 255
222 236 255
222 236 255
222 236 255
222 236 255
222 236 255
222 236 255
222 236 255
222 236 255
222 236 255
222 236 255
222 236 255
222 236 255
222 236 255
222 236 255
222 236 255
222 236 255
222 236 255
222 236 255
222 236 255
222 236 255
222 236 255
222 236 255
222 236 255
222 236 255
222 236 255
222 236 255
222 236 255
222 236 255
222 236 255
222 236 255
222 236 255
222 236 255
222 236 255
222 236 255
222 236 255
222 236 255
222 236 255
222 236 255
223 236 255
223 236 255
223 236 255
223 236 255
223 236 255
223 236 255
223 236 255
223 236 255
223 236 255
223 236 255
223 236 255
223 236 255
223 236 255
223 236 255
223 236 255
223 236 255
223 236 255
223 236 255
223 236 255
223 236 255
223 236 255
223 236 255
223 236 255
223 236 255
223 236 255
223 236 255
223 237 255
223 237 255
223 237 255
223 237 255
223 237 255
223 237 255
223 237 255
223 237 255
223 237 255
223 237 255
223 237 255
223 237 255
224 237 255
224 237 255
224 237 255
224 237 255
224 237 255
224 237 255
224 237 255
224 237 255
224 237 255
224 237 255
225 237 255
225 238 255
224 237 252
210 225 206
164 186 114
64 99 150
63 98 148
64 100 158
62 97 142
63 98 152
62 98 153
61 96 144
63 98 153
62 96 144
62 97 153
62 97 145
61 96 144
62 97 150
63 98 156
62 97 143
60 95 137
60 95 134
61 96 139
61 96 135
61 96 140
61 96 137
61 96 144
61 96 141
63 98 156
61 97 144
62 97 149
60 95 136
61 96 144
61 96 140
61 96 147
59 94 127
61 96 147
60 95 135
60 95 136
61 96 142
60 95 130
60 96 143
61 96 142
61 96 140
60 95 130
60 94 133
61 96 139
61 95 139
61 96 143
58 93 131
61 96 143
62 97 149
60 94 133
61 96 140
61 96 140
60 94 126
62 97 147
61 96 149
60 95 140
60 95 140
61 95 145
59 94 129
60 95 139
60 95 136
60 95 134
62 97 149
60 95 138
61 95 143
62 97 149
60 95 139
60 94 136
60 94 137
60 95 150
61 95 151
60 95 143
60 94 132
59 93 136
60 93 135
61 96 149
59 93 135
61 96 149
59 92 125
60 93 138
60 94 137
59 93 132
59 93 137
59 92 132
59 92 134
59 92 127
59 93 142
59 93 142
58 91 139
59 93 139
59 92 135
60 94 140
58 91 127
58 90 134
57 90 128
56 88 127
57 89 128
59 91 136
57 89 134
55 84 115
54 84 116
51 79 114
52 79 108
50 76 109
99 102 84
82 80 49
75 75 46
60 62 40
58 60 40
53 56 41
58 63 47
52 57 43
70 75 52
59 65 50
62 69 52
78 81 57
83 87 61
68 75 52
106 107 70
84 88 58
98 101 65
113 113 71
104 106 68
104 107 70
111 113 71
107 108 70
116 117 72
114 115 73
117 117 73
126 125 77
120 121 76
128 127 77
121 121 73
137 135 81
133 131 77
137 135 83
131 131 83
145 142 84
128 126 75
137 135 76
148 146 88
139 137 80
141 139 82
153 148 87
143 140 80
158 153 89
159 154 87
149 146 81
154 150 87
148 144 83
153 150 84
156 152 86
160 156 88
157 152 87
157 152 87
163 158 92
162 157 95
168 162 93
162 157 90
162 158 87
168 162 88
166 160 91
166 161 94
161 157 86
163 158 86
168 162 95
164 159 83
168 161 87
170 165 97
171 164 92
170 164 93
167 161 91
172 166 95
170 163 93
171 165 90
167 162 93
177 169 97
167 162 91
173 168 95
170 164 87
172 166 95
169 163 87
170 164 87
173 166 95
173 166 91
171 164 89
169 164 86
166 160 81
170 164 87
170 165 91
171 164 87
169 162 85
170 163 89
170 163 89
170 165 89
171 164 90
166 160 84
170 165 89
164 158 80
169 163 87
170 164 87
166 160 84
169 163 90
171 165 90
166 160 87
172 165 91
169 163 93
173 166 93
167 161 88
165 159 85
168 161 93
173 166 90
171 165 90
169 162 87
163 157 85
169 163 87
168 161 91
164 157 82
163 157 85
164 159 82
167 160 92
162 157 80
170 163 95
164 158 81
166 159 87
168 162 95
164 157 83
167 160 85
159 153 82
166 159 87
165 158 86
163 157 83
161 154 79
167 161 85
164 157 86
161 155 80
157 150 77
165 158 90
161 154 87
161 154 89
166 160 90
154 148 80
164 158 87
162 156 83
154 149 77
157 152 80
164 158 82
150 143 78
161 156 87
158 154 78
158 152 85
161 155 81
158 152 84
222 236 255
222 236 255
222 236 255
222 236 255
222 236 255
222 236 255
222 236 255
222 236 255
222 236 255
222 236 255
222 236 255
222 236 255
222 236 255
222 236 255
222 236 255
222 236 255
222 236 255
222 236 255
222 236 255
222 236 255
222 236 255
222 236 255
222 236 255
222 236 255
222 236 255
222 236 255
222 236 255
222 236 255
222 236 255
222 236 255
222 236 255
222 236 255
222 236 255
222 236 255
222 236 255
222 236 255
222 236 255
222 236 255
222 236 255
222 236 255
222 236 255
222 236 255
222 236 255
222 236 255
222 236 255
222 236 255
222 236 255
222 236 255
222 236 255
222 236 255
222 236 255
222 236 255
222 236 255
222 236 255
222 236 255
222 236 255
222 236 255
222 236 255
222 236 255
222 236 255
222 236 255
222 236 255
222 236 255
222 236 255
222 236 255
222 236 255
222 236 255
222 236 255
222 236 255
222 236 255
222 236 255
222 236 255
222 236 255
222 236 255
222 236 255
222 236 255
222 236 255
222 236 255
222 236 255
222 236 255
222 236 255
222 236 255
222 236 255
222 236 255
222 236 255
222 236 255
222 236 255
222 236 255
222 236 255
222 236 255
222 236 255
222 236 255
222 236 255
222 236 255
222 236 255
222 236 255
222 236 255
222 236 255
222 236 255
222 236 255
222 236 255
222 236 255
222 236 255
222 236 255
222 236 255
222 236 255
222 236 255
222 236 255
222 236 255
222 236 255
222 236 255
222 236 255
222 236 255
222 236 255
222 236 255
223 236 255
223 236 255
223 236 255
223 236 255
223 236 255
223 236 255
223 236 255
223 236 255
223 236 255
223 236 255
223 236 255
223 236 255
223 236 255
223 236 255
223 236 255
223 236 255
223 237 255
223 237 255
223 237 255
223 237 255
223 237 255
223 237 255
223 237 255
223 237 255
223 237 255
224 237 255
224 237 255
224 237 255
224 237 255
224 237 255
224 237 255
224 237 255
225 237 255
184 200 222
64 99 160
64 99 152
63 99 155
64 99 159
63 98 145
62 98 150
62 96 143
61 96 140
61 96 137
61 96 137
61 95 140
63 98 143
61 97 144
61 96 149
63 98 148
61 96 142
61 96 143
60 95 134
61 96 149
61 96 134
60 95 127
60 95 147
59 93 137
61 96 140
60 95 140
61 96 139
59 94 126
60 95 129
60 95 136
59 93 136
63 98 152
61 96 140
60 95 137
62 98 153
59 93 125
61 96 143
61 96 147
61 95 142
61 95 135
60 95 137
60 95 142
60 95 142
61 96 139
61 96 143
60 94 137
59 94 136
61 96 145
61 96 136
61 96 140
61 96 140
61 96 147
59 94 129
60 95 134
60 95 134
60 95 143
60 95 143
60 94 139
60 95 145
59 93 127
59 94 127
61 95 144
61 96 143
60 95 142
61 95 141
60 96 142
61 95 141
59 94 138
60 95 145
61 96 141
60 94 134
59 92 136
59 93 134
59 92 138
60 94 141
59 93 141
59 93 138
61 95 140
59 92 129
60 94 140
60 94 132
59 92 125
60 94 132
60 93 137
60 93 129
60 94 147
57 90 134
58 91 124
58 90 126
58 90 130
59 93 139
57 88 134
57 89 125
57 89 129
57 88 124
56 86 116
55 86 119
56 87 125
54 83 108
55 85 124
52 80 116
51 79 109
47 73 99
83 88 73
73 71 43
72 71 46
60 62 44
55 58 36
39 46 34
59 62 43
48 54 40
53 61 47
53 60 42
66 72 52
58 65 46
64 69 52
75 81 56
72 78 50
77 81 53
84 88 55
105 107 71
108 110 70
100 102 66
97 100 65
121 121 77
123 122 71
115 116 72
118 119 71
123 123 75
123 123 76
121 121 77
135 134 77
132 130 76
136 134 74
138 136 81
136 135 78
140 139 79
139 138 82
138 137 77
146 143 81
150 146 82
146 142 80
150 146 86
152 148 84
154 149 86
157 152 89
154 151 84
151 147 81
157 152 83
151 148 82
154 151 85
155 151 83
155 150 86
156 152 82
165 160 92
156 152 81
163 158 87
169 162 89
161 156 87
160 156 86
166 161 82
166 160 89
170 164 93
167 161 89
169 163 93
159 155 87
166 161 90
164 159 83
170 163 91
169 163 93
170 164 90
166 160 89
168 162 88
170 164 90
169 163 92
171 166 91
171 165 91
168 161 89
169 163 94
169 163 93
173 166 93
171 164 90
170 163 86
171 164 87
169 163 88
167 161 88
169 164 94
171 165 89
171 165 87
172 165 88
168 162 86
168 161 87
169 163 93
169 162 87
166 159 88
171 165 95
166 160 82
171 165 90
161 156 77
171 164 91
168 162 86
169 162 87
174 167 92
168 161 85
166 160 81
167 160 86
168 162 86
167 160 88
168 162 87
171 163 89
162 156 80
168 162 89
164 159 87
165 159 84
170 163 88
166 160 87
165 159 84
166 160 87
170 162 88
166 159 87
168 162 83
171 164 95
165 158 86
163 157 80
164 157 86
161 155 84
163 156 87
166 160 90
162 156 81
163 156 84
169 162 87
163 156 80
168 161 88
166 159 87
157 152 81
158 152 87
167 159 83
160 154 78
164 158 84
160 154 84
162 156 85
159 154 86
166 160 85
159 154 83
159 153 83
162 155 81
156 150 84
168 161 91
156 152 80
164 157 87
153 147 77
151 145 82
222 236 255
222 236 255
222 236 255
222 236 255
222 236 255
222 236 255
222 236 255
222 236 255
222 236 255
222 236 255
222 236 255
222 236 255
222 236 255
222 236 255
222 236 255
222 236 255
222 236 255
222 236 255
222 236 255
222 236 255
222 236 255
222 236 255
222 236 255
222 236 255
222 236 255
222 236 255
222 236 255
222 236 255
222 236 255
222 236 255
222 236 255
222 236 255
222 236 255
222 236 255
222 236 255
222 236 255
222 236 255
222 236 255
222 236 255
222 236 255
222 236 255
222 236 255
222 236 255
222 236 255
222 236 255
222 236 255
222 236 255
222 236 255
222 236 255
222 236 255
222 236 255
222 236 255
222 236 255
222 236 255
222 236 255
222 236 255
222 236 255
222 236 255
222 236 255
222 236 255
222 236 255
222 236 255
222 236 255
222 236 255
222 236 255
222 236 255
222 236 255
222 236 255
222 236 255
222 236 255
222 236 255
222 236 255
222 236 255
222 236 255
222 236 255
222 236 255
222 236 255
222 236 255
222 236 255
222 236 255
222 236 255
222 236 255
222 236 255
222 236 255
222 236 255
222 236 255
222 236 255
222 236 255
222 236 255
222 236 255
222 236 255
222 236 255
222 236 255
222 236 255
222 236 255
222 236 255
222 236 255
222 236 255
222 236 255
222 236 255
222 236 255
222 236 255
222 236 255
222 236 255
222 236 255
222 236 255
222 236 255
222 236 255
222 236 255
222 236 255
222 236 255
222 236 255
222 236 255
222 236 255
222 236 255
222 236 255
222 236 255
222 236 255
222 236 255
222 236 255
222 236 255
222 236 255
222 236 255
222 236 255
222 236 255
222 236 255
222 236 255
222 236 255
223 236 255
223 236 255
223 236 255
223 236 255
223 236 255
223 236 255
223 236 255
223 236 255
223 236 255
223 236 255
223 237 255
223 237 255
223 237 255
223 237 255
223 237 255
223 237 255
223 237 255
224 237 255
224 237 255
224 237 255
175 191 220
65 100 157
64 99 155
63 98 148
62 97 141
63 99 153
61 96 147
62 98 156
62 97 148
62 97 147
63 98 150
61 96 144
61 96 141
61 96 145
61 96 144
61 96 136
61 96 145
61 96 139
60 94 140
60 95 131
61 97 153
61 96 143
61 95 140
61 96 143
62 96 143
62 97 150
60 95 142
61 96 135
61 95 144
61 97 145
60 95 139
60 95 140
61 97 151
60 95 139
60 95 139
60 95 139
61 97 149
60 94 140
60 95 133
60 95 141
59 93 134
59 93 136
60 94 141
59 94 139
61 96 143
61 96 142
60 95 141
60 95 137
61 96 143
60 95 140
60 95 139
60 95 140
60 95 136
60 95 144
60 94 127
61 95 135
60 94 135
60 95 135
59 94 126
60 94 131
60 95 140
60 94 143
60 95 142
61 95 138
61 95 139
60 95 142
60 94 133
60 95 145
59 93 131
59 93 126
59 92 134
58 92 130
60 94 144
60 94 134
60 95 140
59 92 126
59 93 134
60 95 145
59 92 135
60 95 143
60 93 135
60 95 143
58 92 131
58 91 132
58 92 120
58 91 120
59 92 133
58 90 124
58 92 130
58 91 133
58 91 131
58 91 127
58 90 132
57 87 124
56 86 121
57 88 122
58 91 137
57 88 124
56 85 111
55 85 117
51 78 102
50 77 108
50 76 105
74 79 67
66 66 39
61 62 39
52 54 38
51 55 35
36 42 30
55 60 44
48 55 40
54 61 45
66 71 45
62 70 52
66 71 47
74 80 55
81 85 55
83 88 59
86 90 61
95 99 64
92 95 55
91 94 58
93 95 59
104 107 63
114 114 72
110 112 64
117 118 68
117 117 67
131 129 77
123 122 73
131 128 73
121 120 74
128 127 76
136 133 75
137 136 86
120 120 66
134 133 75
144 141 80
143 141 83
151 147 85
148 145 80
156 151 89
150 147 84
148 144 81
144 141 77
154 149 80
155 151 86
160 155 89
156 152 89
151 149 84
148 145 82
155 151 81
157 153 87
161 157 86
156 152 87
162 157 83
164 158 82
155 151 87
157 153 82
167 162 91
166 161 91
165 160 87
164 158 89
167 161 92
173 166 92
171 164 92
166 160 91
167 162 87
168 162 90
166 159 85
169 163 88
171 164 89
170 163 86
168 163 88
169 163 90
171 165 91
171 165 91
170 163 88
172 165 91
171 164 88
170 164 91
167 162 86
167 161 77
170 164 87
170 164 88
171 165 91
171 164 89
168 161 88
172 164 88
167 161 86
170 164 87
168 162 83
168 161 83
169 163 88
171 165 86
169 163 88
171 165 87
169 163 85
170 163 87
170 163 88
169 163 91
170 164 96
169 164 91
172 165 88
169 162 90
169 163 87
166 159 86
167 160 88
168 161 87
170 163 84
163 158 78
167 161 92
165 159 86
169 162 87
168 162 88
168 161 87
166 160 87
169 162 90
163 158 75
167 161 89
165 159 84
159 152 75
162 156 80
165 159 91
160 154 79
166 159 84
165 159 86
157 152 82
161 155 80
159 153 83
159 153 77
165 159 87
163 157 82
163 156 84
164 158 87
159 153 83
156 149 77
158 151 80
167 161 90
157 150 83
163 157 83
166 160 90
159 153 85
163 157 82
151 146 72
168 161 88
154 149 75
162 156 85
155 149 80
159 153 86
157 151 83
156 150 80
222 236 255
222 236 255
222 236 255
222 236 255
222 236 255
222 236 255
222 236 255
222 236 255
222 236 255
222 236 255
222 236 255
222 236 255
222 236 255
222 236 255
222 236 255
222 236 255
222 236 255
222 236 255
222 236 255
222 236 255
222 236 255
222 236 255
222 236 255
222 236 255
222 236 255
222 236 255
222 236 255
222 236 255
222 236 255
222 236 255
222 236 255
222 236 255
222 236 255
222 236 255
222 236 255
222 236 255
222 236 255
222 236 255
222 236 255
222 236 255
222 236 255
222 236 255
222 236 255
222 236 255
222 236 255
222 236 255
222 236 255
222 236 255
222 236 255
222 236 255
222 236 255
222 236 255
222 236 255
222 236 255
222 236 255
222 236 255
222 236 255
222 236 255
222 236 255
222 236 255
222 236 255
222 236 255
222 236 255
222 236 255
222 236 255
222 236 255
222 236 255
222 236 255
222 236 255
222 236 255
222 236 255
222 236 255
222 236 255
222 236 255
222 236 255
222 236 255
222 236 255
222 236 255
222 236 255
222 236 255
222 236 255
222 236 255
222 236 255
222 236 255
222 236 255
222 236 255
222 236 255
222 236 255
222 236 255
222 236 255
222 236 255
222 236 255
222 236 255
222 236 255
222 236 255
222 236 255
222 236 255
222 236 255
222 236 255
222 236 255
222 236 255
222 236 255
222 236 255
222 236 255
222 236 255
222 236 255
222 236 255
222 236 255
222 236 255
222 236 255
222 236 255
222 236 255
222 236 255
222 236 255
222 236 255
222 236 255
222 236 255
222 236 255
222 236 255
222 236 255
222 236 255
222 236 255
222 236 255
222 236 255
222 236 255
222 236 255
222 236 255
222 236 255
222 236 255
222 236 255
222 236 255
222 236 255
222 236 255
222 236 255
222 236 255
222 236 255
222 236 255
222 236 255
223 236 255
223 236 255
223 236 255
223 236 255
223 236 255
223 236 255
223 236 255
223 237 255
223 237 255
223 237 255
153 171 206
65 100 155
63 99 154
64 99 153
63 98 149
63 98 148
62 97 135
62 98 145
62 97 148
62 97 145
62 98 149
61 96 135
62 97 141
61 96 140
62 97 150
60 96 136
62 98 149
62 97 153
61 96 135
61 95 140
61 96 142
61 96 137
60 96 143
62 97 148
60 94 130
61 96 140
60 95 136
61 96 137
61 95 135
61 96 145
59 94 129
60 95 144
63 98 150
61 96 136
61 95 142
60 95 131
60 95 136
60 95 130
61 96 140
61 96 139
61 96 136
61 96 144
60 95 144
59 93 121
59 93 134
60 95 137
61 95 140
61 95 141
60 95 142
59 94 129
59 94 134
60 94 135
61 96 142
60 94 131
60 95 137
61 96 141
60 94 130
61 95 142
59 94 131
60 95 141
60 94 135
60 95 134
61 95 143
59 94 126
59 93 129
60 94 134
59 93 133
62 96 146
61 95 140
60 94 140
61 96 148
63 97 152
60 94 132
59 93 133
60 94 131
58 92 128
61 96 140
59 92 129
58 93 134
60 93 130
60 95 143
57 90 123
59 93 137
59 92 133
59 91 130
57 90 122
60 94 130
57 90 127
59 92 133
58 91 127
57 88 130
58 90 139
58 91 140
55 86 112
56 87 122
54 84 117
54 85 122
58 90 131
55 84 121
55 84 116
54 83 113
50 78 111
47 71 88
61 72 74
72 72 43
64 64 38
51 53 34
51 54 34
53 57 39
43 48 28
47 54 38
59 66 49
56 63 47
57 65 46
68 73 48
75 78 48
81 85 57
76 81 54
78 81 52
102 104 67
101 103 69
99 103 68
92 97 65
104 106 68
105 106 65
109 111 65
116 117 72
126 125 72
112 113 65
115 117 68
134 132 79
120 119 67
131 130 74
128 126 72
140 137 82
140 137 76
137 135 80
139 137 78
145 142 80
149 145 82
143 141 73
144 141 75
144 141 79
146 143 79
144 142 80
147 144 87
150 146 81
152 148 78
155 150 85
149 146 78
159 153 82
163 159 85
145 143 81
153 149 77
160 155 86
155 151 81
161 156 86
155 151 76
162 157 89
167 161 84
163 158 85
165 159 90
169 163 89
161 155 85
169 162 89
166 160 84
171 164 93
171 165 87
168 162 83
169 162 90
163 158 84
171 164 93
166 161 87
169 163 87
167 162 84
169 163 83
169 163 94
164 159 84
169 162 84
170 164 91
168 162 90
163 158 81
168 163 83
169 163 87
169 163 87
172 165 90
170 165 88
167 161 85
169 161 86
171 165 92
166 159 80
173 166 91
171 164 90
168 162 85
170 162 87
170 164 90
170 162 87
167 161 86
170 163 87
165 159 81
169 162 89
171 164 88
170 163 84
169 162 86
170 163 90
168 162 84
170 163 90
168 162 83
165 158 84
171 164 86
167 161 83
173 166 93
167 160 80
163 156 84
166 159 85
168 162 87
168 162 86
175 167 93
164 158 85
166 159 87
168 161 87
165 159 86
166 160 83
163 157 75
162 156 80
160 155 78
160 153 78
167 161 82
169 162 90
172 165 90
169 163 89
168 161 83
164 157 82
162 156 84
168 162 93
170 163 88
154 149 75
162 156 80
159 152 78
158 151 81
156 150 80
156 150 79
159 154 85
162 156 81
157 151 80
154 148 77
158 153 81
164 157 81
158 152 80
160 153 85
154 148 76
153 148 74
222 236 255
222 236 255
222 236 255
222 236 255
222 236 255
222 236 255
222 236 255
222 236 255
222 236 255
222 236 255
222 236 255
222 236 255
222 236 255
222 236 255
222 236 255
222 236 255
222 236 255
222 236 255
222 236 255
222 236 255
222 236 255
222 236 255
222 236 255
222 236 255
222 236 255
222 236 255
222 236 255
222 236 255
222 236 255
222 236 255
222 236 255
222 236 255
222 236 255
222 236 255
222 236 255
222 236 255
222 236 255
222 236 255
222 236 255
222 236 255
222 236 255
222 236 255
222 236 255
222 236 255
222 236 255
222 236 255
222 236 255
222 236 255
222 236 255
222 236 255
222 236 255
222 236 255
222 236 255
222 236 255
222 236 255
222 236 255
222 236 255
222 236 255
222 236 255
222 236 255
222 236 255
222 236 255
222 236 255
222 236 255
222 236 255
222 236 255
222 236 255
222 236 255
222 236 255
222 236 255
222 236 255
222 236 255
222 236 255
222 236 255
222 236 255
222 236 255
222 236 255
222 236 255
222 236 255
222 236 255
222 236 255
222 236 255
222 236 255
222 236 255
222 236 255
222 236 255
222 236 255
222 236 255
222 236 255
222 236 255
222 236 255
222 236 255
222 236 255
222 236 255
222 236 255
222 236 255
222 236 255
222 236 255
222 236 255
222 236 255
222 236 255
222 236 255
222 236 255
222 236 255
222 236 255
222 236 255
222 236 255
222 236 255
222 236 255
222 236 255
222 236 255
222 236 255
222 236 255
222 236 255
222 236 255
222 236 255
222 236 255
222 236 255
222 236 255
222 236 255
222 236 255
222 236 255
222 236 255
222 236 255
222 236 255
222 236 255
222 236 255
222 236 255
222 236 255
222 236 255
222 236 255
222 236 255
222 236 255
222 236 255
222 236 255
222 236 255
222 236 255
222 236 255
222 236 255
222 236 255
222 236 255
222 236 255
222 236 255
222 236 255
222 236 255
222 236 255
222 236 255
223 236 255
153 171 206
65 100 160
64 99 158
64 98 153
63 98 151
61 96 141
62 97 142
62 97 139
60 95 135
61 96 139
62 96 144
61 96 140
62 97 143
62 97 144
61 96 141
59 93 125
59 94 137
62 97 145
59 94 130
61 96 139
59 94 130
61 97 142
62 97 143
60 95 135
61 96 141
62 96 140
61 95 141
61 96 142
62 97 145
60 95 137
59 94 134
59 94 131
60 95 137
59 93 129
60 95 137
59 94 125
60 95 137
61 95 139
61 96 142
58 93 127
60 95 136
60 94 137
60 95 129
60 95 139
61 96 145
61 96 141
59 93 134
61 96 145
60 94 142
60 95 137
60 95 141
60 95 134
61 97 142
59 94 134
60 95 137
60 94 136
61 96 144
59 94 133
60 95 134
60 95 143
59 93 129
60 95 133
61 95 139
59 94 132
61 95 142
59 93 137
60 95 131
60 94 136
59 94 137
60 93 137
61 95 141
59 93 134
61 96 146
60 95 139
60 94 141
60 94 139
56 90 125
61 95 147
60 93 141
59 92 127
60 95 139
59 92 132
59 93 135
59 92 135
57 89 123
57 89 120
58 91 132
59 93 139
59 93 135
58 90 132
57 89 128
59 91 139
57 89 129
58 90 138
55 86 121
56 86 114
56 88 122
56 87 126
56 86 118
54 83 117
52 82 113
51 77 106
50 76 106
66 76 76
82 81 44
42 45 29
57 58 38
51 54 38
56 60 44
43 49 34
42 49 33
51 57 39
41 49 36
55 62 46
68 73 50
68 73 47
77 81 54
94 96 62
62 69 39
89 91 58
78 84 57
88 91 54
82 85 53
98 101 60
103 104 62
101 103 61
103 104 64
102 104 60
122 123 74
126 124 71
128 127 74
115 117 68
129 129 70
135 132 77
138 136 77
147 143 81
139 136 79
137 135 73
149 145 80
143 138 77
134 133 75
138 136 79
151 147 82
151 147 84
156 152 88
156 151 81
153 150 87
150 146 81
157 152 84
155 151 85
155 151 86
159 154 86
153 148 80
159 154 83
156 152 79
156 150 79
156 152 80
162 156 80
164 159 86
161 156 84
162 157 85
165 160 89
162 158 84
162 156 84
162 157 84
172 165 94
167 161 90
169 163 85
165 159 86
169 163 88
168 161 86
165 160 87
165 160 85
166 161 94
171 165 92
171 164 86
175 168 94
171 165 88
168 162 84
171 164 88
172 165 90
168 162 87
168 163 86
173 166 87
172 165 90
169 162 82
171 164 88
168 162 89
168 162 78
168 161 86
164 158 77
171 165 86
168 162 86
168 162 87
172 164 87
168 161 84
169 163 83
162 157 82
172 165 90
166 160 82
166 160 82
166 160 79
169 163 85
174 166 95
170 163 91
172 166 94
167 161 81
169 162 90
166 159 84
169 162 91
164 158 84
167 161 84
170 163 88
168 161 87
163 156 83
163 157 84
164 159 76
167 160 88
166 159 82
167 159 82
167 160 87
168 161 84
168 161 84
162 155 81
160 153 81
164 156 86
161 156 75
163 157 82
169 162 84
164 158 82
158 154 79
158 153 75
164 158 90
154 148 76
160 154 80
161 155 80
161 155 84
161 155 83
161 154 84
159 154 82
163 157 81
166 159 87
159 154 77
155 149 79
156 150 80
158 152 82
153 147 75
160 153 82
161 155 80
156 149 82
159 153 80
150 146 77
221 236 255
221 236 255
221 236 255
221 236 255
221 236 255
221 236 255
221 236 255
221 236 255
221 236 255
221 236 255
221 236 255
221 236 255
221 236 255
221 236 255
221 236 255
221 236 255
221 236 255
221 236 255
221 236 255
221 236 255
221 236 255
221 236 255
221 236 255
221 236 255
221 236 255
221 236 255
221 236 255
221 236 255
221 236 255
221 236 255
221 236 255
221 236 255
221 236 255
221 236 255
221 236 255
221 236 255
221 236 255
221 236 255
221 236 255
221 236 255
221 236 255
221 236 255
221 236 255
221 236 255
221 236 255
221 236 255
221 236 255
221 236 255
221 236 255
221 236 255
221 236 255
221 236 255
221 236 255
221 236 255
221 236 255
221 236 255
221 236 255
221 236 255
221 236 255
221 236 255
221 236 255
221 236 255
221 236 255
221 236 255
221 236 255
221 236 255
221 236 255
221 236 255
221 236 255
221 236 255
221 236 255
221 236 255
221 236 255
221 236 255
221 236 255
221 236 255
221 236 255
221 236 255
221 236 255
221 236 255
221 236 255
221 236 255
221 236 255
221 236 255
221 236 255
221 236 255
221 236 255
221 236 255
221 236 255
221 236 255
221 236 255
221 236 255
221 236 255
221 236 255
221 236 255
221 236 255
221 236 255
221 236 255
221 236 255
221 236 255
221 236 255
221 236 255
221 236 255
221 236 255
221 236 255
221 236 255
221 236 255
221 236 255
221 236 255
221 236 255
221 236 255
221 236 255
221 236 255
221 236 255
221 236 255
221 236 255
221 236 255
221 236 255
221 236 255
221 236 255
221 236 255
221 236 255
221 236 255
221 236 255
221 236 255
222 236 255
222 236 255
222 236 255
222 236 255
222 236 255
222 236 255
222 236 255
222 236 255
222 236 255
222 236 255
222 236 255
222 236 255
222 236 255
222 236 255
222 236 255
222 236 255
222 236 255
222 236 255
222 236 255
222 236 255
222 236 255
222 236 255
222 236 255
144 164 201
64 99 154
64 99 157
63 98 149
62 97 151
63 98 152
61 96 143
62 97 144
62 97 140
63 98 153
62 97 148
60 95 134
62 98 147
60 95 131
61 96 139
60 94 129
62 97 143
62 97 145
59 94 134
61 96 136
60 95 139
61 96 143
60 94 129
61 96 136
59 94 129
60 95 135
60 95 134
61 96 135
60 95 127
61 96 134
61 95 134
60 95 134
61 96 140
60 94 144
62 97 149
59 94 125
61 96 140
61 95 141
61 96 137
61 96 147
60 95 133
59 93 120
61 96 145
60 95 136
61 96 140
60 94 136
60 95 139
60 95 151
62 97 151
61 96 141
61 96 141
61 95 135
60 94 139
59 93 124
60 95 136
61 96 142
60 95 145
60 94 129
59 93 136
58 92 123
59 93 125
61 96 147
61 96 144
61 96 144
59 93 133
61 95 145
60 94 135
60 94 137
60 94 138
58 92 121
60 95 136
59 94 132
60 94 139
59 93 135
60 94 142
60 95 140
60 94 139
59 93 135
58 91 122
59 93 127
58 91 132
58 91 127
59 92 134
59 92 133
59 92 129
58 92 132
58 91 134
58 90 133
59 93 134
58 91 129
57 88 126
57 88 115
57 88 129
55 86 125
57 88 122
56 87 120
57 88 116
55 85 117
55 85 119
54 83 117
55 84 115
52 80 102
49 76 105
53 65 75
73 73 40
45 47 27
63 65 41
53 55 32
41 45 30
43 50 30
40 49 34
48 54 38
65 69 45
56 62 45
53 59 37
62 68 44
73 78 47
84 87 49
86 89 53
85 88 55
98 99 60
96 98 54
108 109 62
102 104 62
100 101 60
106 106 60
111 111 67
120 119 67
119 119 68
119 119 59
117 117 68
128 126 73
126 125 69
125 124 74
135 133 73
133 131 76
132 131 70
118 118 63
136 134 76
143 140 80
139 136 76
144 140 76
153 149 81
142 139 78
150 147 86
150 145 78
140 138 74
152 149 79
148 145 78
147 143 79
155 150 85
158 154 81
154 149 80
155 151 79
161 154 84
164 159 86
158 154 88
163 158 81
154 150 76
158 154 84
164 159 85
161 156 86
164 159 84
162 157 84
161 156 80
168 163 90
164 159 87
162 156 82
162 157 80
165 159 84
173 165 90
166 160 86
168 162 90
161 156 81
166 160 83
162 158 85
166 160 82
169 163 86
168 162 85
172 165 90
172 166 89
167 162 80
173 166 91
163 158 80
169 162 78
167 161 80
171 164 85
167 161 81
161 156 84
169 162 80
170 163 87
171 165 90
168 161 87
172 166 90
168 162 84
168 162 84
164 159 80
173 166 91
171 164 90
167 160 84
171 163 87
166 160 84
165 158 79
168 161 84
167 161 83
170 164 90
169 163 84
170 164 89
172 164 84
167 161 80
168 162 83
165 159 82
166 160 87
170 163 90
164 158 82
169 162 83
168 161 84
165 159 86
168 162 87
163 157 83
168 162 86
167 160 84
160 154 81
152 146 72
162 156 84
162 156 83
161 155 84
162 157 82
168 161 87
163 158 84
166 159 84
165 159 84
161 155 78
159 154 75
161 154 80
156 151 75
157 151 75
159 152 82
156 149 79
163 157 86
158 152 85
153 148 75
164 157 84
156 151 75
166 160 84
154 148 80
167 159 89
159 153 80
162 156 84
155 149 77
162 155 84
153 148 72
221 236 255
221 236 255
221 236 255
221 236 255
221 236 255
221 236 255
221 236 255
221 236 255
221 236 255
221 236 255
221 236 255
221 236 255
221 236 255
221 236 255
221 236 255
221 236 255
221 236 255
221 236 255
221 236 255
221 236 255
221 236 255
221 236 255
221 236 255
221 236 255
221 236 255
221 236 255
221 236 255
221 236 255
221 236 255
221 236 255
221 236 255
221 236 255
221 236 255
221 236 255
221 236 255
221 236 255
221 236 255
221 236 255
221 236 255
221 236 255
221 236 255
221 236 255
221 236 255
221 236 255
221 236 255
221 236 255
221 236 255
221 236 255
221 236 255
221 236 255
221 236 255
221 236 255
221 236 255
221 236 255
221 236 255
221 236 255
221 236 255
221 236 255
221 236 255
221 236 255
221 236 255
221 236 255
221 236 255
221 236 255
221 236 255
221 236 255
221 236 255
221 236 255
221 236 255
221 236 255
221 236 255
221 236 255
221 236 255
221 236 255
221 236 255
221 236 255
221 236 255
221 236 255
221 236 255
221 236 255
221 236 255
221 236 255
221 236 255
221 236 255
221 236 255
221 236 255
221 236 255
221 236 255
221 236 255
221 236 255
221 236 255
221 236 255
221 236 255
221 236 255
221 236 255
221 236 255
221 236 255
221 236 255
221 236 255
221 236 255
221 236 255
221 236 255
221 236 255
221 236 255
221 236 255
221 236 255
221 236 255
221 236 255
221 236 255
221 236 255
221 236 255
221 236 255
221 236 255
221 236 255
221 236 255
221 236 255
221 236 255
221 236 255
221 236 255
221 236 255
221 236 255
221 236 255
221 236 255
221 236 255
221 236 255
221 236 255
221 236 255
221 236 255
221 236 255
221 236 255
221 236 255
221 236 255
221 236 255
221 236 255
221 236 255
221 236 255
221 236 255
221 236 255
221 236 255
221 236 255
221 236 255
221 236 255
221 236 255
221 236 255
221 236 255
221 236 255
221 236 255
221 236 255
153 172 209
65 100 160
63 98 153
62 96 143
62 97 141
62 97 145
63 97 150
62 97 148
62 97 145
62 97 145
62 96 143
62 96 135
62 97 141
62 97 147
62 96 142
62 96 144
63 98 158
61 96 141
61 96 150
61 96 142
62 96 148
62 97 145
61 96 140
60 94 136
60 95 137
62 97 148
60 95 135
60 94 131
61 96 144
61 95 136
60 94 130
60 94 129
61 96 144
59 93 127
60 94 127
60 95 135
59 93 136
60 95 136
59 93 121
61 96 143
60 94 135
61 95 137
60 95 140
59 93 131
60 95 137
59 94 136
61 96 136
61 96 139
60 95 139
61 96 142
60 94 131
61 95 144
60 95 139
61 95 133
59 93 126
59 94 122
61 95 141
59 94 129
61 96 144
59 94 135
59 93 129
59 94 130
60 94 132
60 94 136
59 92 139
60 94 134
60 95 139
59 93 133
60 95 139
59 93 131
59 92 138
60 94 134
59 93 125
60 95 134
60 94 136
57 89 128
59 93 132
59 93 133
59 93 129
60 95 141
59 93 138
58 92 124
59 93 133
58 91 132
56 88 114
58 91 130
60 95 137
57 89 115
58 91 125
59 91 128
58 90 127
57 89 131
58 89 130
57 89 130
57 89 129
56 88 125
55 85 101
55 84 113
54 83 109
54 83 106
53 82 119
52 80 115
49 75 105
61 76 85
65 63 36
62 62 36
63 63 38
38 44 25
34 40 24
46 51 36
44 51 37
43 50 32
52 58 35
66 70 43
70 75 48
67 71 40
76 80 50
70 75 49
85 89 56
77 82 49
92 95 57
90 94 59
92 94 56
104 106 65
109 108 58
102 103 62
111 111 65
113 114 68
110 111 67
129 129 74
124 122 71
121 122 71
122 121 70
122 121 65
129 128 73
126 125 69
130 129 70
142 139 77
140 137 71
138 136 75
147 143 71
142 139 73
146 143 76
150 148 86
154 150 80
146 142 79
148 144 79
148 145 77
143 140 74
150 146 76
151 147 79
154 149 82
152 147 73
158 152 79
151 147 80
157 152 76
154 150 81
159 154 83
164 158 84
157 153 76
163 158 78
165 160 85
167 161 89
155 151 78
159 155 81
166 161 87
164 158 87
166 160 84
167 161 81
166 160 86
170 164 88
167 161 88
169 162 87
169 163 90
170 164 86
164 159 79
169 162 82
169 162 84
169 162 84
167 161 80
171 165 91
169 163 91
172 165 90
173 166 92
169 163 87
169 163 85
164 159 80
171 165 83
171 164 85
166 160 80
167 161 82
167 161 84
170 164 84
165 159 87
171 164 89
173 166 90
168 161 80
165 159 78
170 163 87
171 164 87
171 165 89
169 163 85
168 162 81
169 163 83
169 161 83
170 162 87
165 158 75
167 159 84
169 162 84
166 160 84
166 160 84
164 157 84
165 159 77
166 160 84
159 153 78
163 157 83
165 158 81
163 157 83
161 155 75
164 158 78
163 156 76
162 156 78
164 157 80
169 162 88
166 159 80
163 156 78
163 157 80
163 157 79
163 157 78
158 153 80
160 153 79
159 153 78
162 156 83
159 153 75
166 158 87
162 156 80
155 149 74
162 156 85
165 157 79
159 154 80
157 150 75
163 156 84
159 153 85
157 151 79
157 151 79
155 148 74
153 148 73
154 149 74
158 151 81
159 152 80
160 153 84
157 151 78
221 235 255
221 235 255
221 235 255
221 235 255
221 235 255
221 235 255
221 235 255
221 235 255
221 235 255
221 235 255
221 235 255
221 235 255
221 235 255
221 235 255
221 235 255
221 235 255
221 235 255
221 235 255
221 235 255
221 235 255
221 235 255
221 235 255
221 235 255
221 235 255
221 235 255
221 235 255
221 235 255
221 235 255
221 235 255
221 235 255
221 235 255
221 235 255
221 235 255
221 235 255
221 235 255
221 235 255
221 235 255
221 235 255
221 235 255
221 235 255
221 235 255
221 235 255
221 235 255
221 235 255
221 235 255
221 235 255
221 235 255
221 235 255
221 235 255
221 235 255
221 235 255
221 235 255
221 235 255
221 235 255
221 235 255
221 235 255
221 235 255
221 235 255
221 235 255
221 235 255
221 235 255
221 235 255
221 235 255
221 235 255
221 235 255
221 235 255
221 235 255
221 235 255
221 235 255
221 235 255
221 235 255
221 235 255
221 235 255
221 235 255
221 235 255
221 235 255
221 235 255
221 235 255
221 235 255
221 235 255
221 235 255
221 235 255
221 235 255
221 235 255
221 235 255
221 235 255
221 235 255
221 235 255
221 235 255
221 235 255
221 235 255
221 235 255
221 235 255
221 235 255
221 235 255
221 235 255
221 235 255
221 235 255
221 235 255
221 235 255
221 235 255
221 235 255
221 235 255
221 235 255
221 235 255
221 235 255
221 235 255
221 235 255
221 235 255
221 235 255
221 235 255
221 235 255
221 235 255
221 235 255
221 235 255
221 235 255
221 235 255
221 235 255
221 235 255
221 235 255
221 235 255
221 235 255
221 235 255
221 235 255
221 235 255
221 235 255
221 235 255
221 235 255
221 235 255
221 235 255
221 235 255
221 235 255
221 235 255
221 235 255
221 235 255
221 235 255
221 235 255
221 235 255
221 235 255
221 235 255
221 235 255
221 235 255
221 235 255
221 235 255
221 235 255
221 235 255
221 235 255
221 235 255
161 179 209
65 100 160
62 97 149
62 97 148
64 99 152
63 98 151
62 97 145
62 98 145
61 96 129
61 96 142
61 96 140
61 96 140
63 98 149
61 96 135
62 97 139
61 95 139
59 94 133
62 97 142
60 95 134
60 95 135
62 98 150
60 96 136
59 93 133
61 96 136
61 95 145
60 95 134
60 94 131
60 95 131
60 95 137
59 94 131
59 94 130
60 95 135
61 95 129
60 94 130
62 97 145
61 95 134
60 95 135
59 94 136
62 97 143
60 95 141
60 95 136
59 94 136
59 93 130
60 95 136
59 93 127
60 95 131
60 95 135
60 95 133
59 93 126
61 95 140
59 94 129
61 96 141
60 94 144
60 95 140
59 93 127
60 95 132
61 95 139
61 95 136
59 94 131
59 94 134
60 94 134
60 94 132
59 93 130
60 94 136
59 93 130
59 92 129
59 93 131
60 93 134
60 94 140
61 95 146
60 94 135
58 91 124
58 91 120
59 93 129
59 93 135
60 94 136
60 94 134
60 93 130
58 92 132
58 92 131
58 92 137
59 93 130
58 91 122
60 93 139
59 93 130
59 92 131
57 89 121
58 90 127
59 91 126
58 92 129
57 89 126
56 88 118
58 89 129
57 88 123
56 86 111
56 86 115
57 89 130
56 87 128
55 85 111
52 81 103
51 79 106
50 77 98
49 74 92
69 77 71
56 55 26
62 62 35
46 49 25
44 48 25
38 45 32
40 47 31
46 53 33
57 61 38
44 50 28
43 49 30
58 67 47
59 64 38
73 78 51
76 79 50
78 80 51
83 85 51
82 85 53
91 95 59
106 108 66
100 102 58
101 102 59
97 99 60
105 107 70
105 107 62
119 118 67
113 113 62
122 122 69
126 125 70
126 125 70
135 132 73
131 129 66
143 140 81
133 131 68
144 141 75
137 135 73
145 141 77
141 137 73
142 138 70
146 142 77
148 144 77
154 149 80
147 144 75
151 147 83
144 141 78
151 147 76
148 144 78
158 152 83
150 146 70
156 151 79
153 149 87
155 150 78
164 159 85
160 155 83
159 154 81
162 155 86
158 153 79
160 155 80
159 155 73
162 157 82
162 156 83
157 152 80
166 161 82
166 160 88
164 158 82
167 161 88
165 159 84
166 160 83
162 157 80
166 161 83
171 164 89
163 158 78
170 163 83
173 166 89
165 159 82
166 160 80
169 163 86
166 160 82
170 163 86
166 159 84
170 162 87
167 161 82
168 162 84
170 164 85
170 162 89
170 164 87
170 163 82
169 162 86
165 159 82
167 160 80
166 160 78
164 158 80
167 161 81
173 165 87
165 159 83
164 158 79
171 163 84
170 163 89
166 159 82
163 157 75
172 164 89
164 158 78
173 165 92
168 161 86
165 158 82
168 160 83
169 162 81
166 159 84
165 158 82
163 157 82
161 156 75
164 158 84
166 159 84
167 161 81
161 155 75
166 158 83
160 153 76
167 161 83
165 159 86
168 160 86
170 162 86
164 157 78
160 154 75
165 159 82
164 157 80
165 158 84
164 158 84
164 157 83
164 158 81
162 157 80
161 154 79
165 158 80
162 155 77
155 149 74
160 154 79
165 158 87
151 144 70
163 156 80
158 151 75
164 157 85
164 158 82
150 144 74
162 155 81
167 160 86
153 149 76
155 149 79
159 152 87
160 154 80
158 152 80
221 235 255
221 235 255
221 235 255
221 235 255
221 235 255
221 235 255
221 235 255
221 235 255
221 235 255
221 235 255
221 235 255
221 235 255
221 235 255
221 235 255
221 235 255
221 235 255
221 235 255
221 235 255
221 235 255
221 235 255
221 235 255
221 235 255
221 235 255
221 235 255
221 235 255
221 235 255
221 235 255
221 235 255
221 235 255
221 235 255
221 235 255
221 235 255
221 235 255
221 235 255
221 235 255
221 235 255
221 235 255
221 235 255
221 235 255
221 235 255
221 235 255
221 235 255
221 235 255
221 235 255
221 235 255
221 235 255
221 235 255
221 235 255
221 235 255
221 235 255
221 235 255
221 235 255
221 235 255
221 235 255
221 235 255
221 235 255
221 235 255
221 235 255
221 235 255
221 235 255
221 235 255
221 235 255
221 235 255
221 235 255
221 235 255
221 235 255
221 235 255
221 235 255
221 235 255
221 235 255
221 235 255
221 235 255
221 235 255
221 235 255
221 235 255
221 235 255
221 235 255
221 235 255
221 235 255
221 235 255
221 235 255
221 235 255
221 235 255
221 235 255
221 235 255
221 235 255
221 235 255
221 235 255
221 235 255
221 235 255
221 235 255
221 235 255
221 235 255
221 235 255
221 235 255
221 235 255
221 235 255
221 235 255
221 235 255
221 235 255
221 235 255
221 235 255
221 235 255
221 235 255
221 235 255
221 235 255
221 235 255
221 235 255
221 235 255
221 235 255
221 235 255
221 235 255
221 235 255
221 235 255
221 235 255
221 235 255
221 235 255
221 235 255
221 235 255
221 235 255
221 235 255
221 235 255
221 235 255
221 235 255
221 235 255
221 235 255
221 235 255
221 235 255
221 235 255
221 235 255
221 235 255
220 235 255
220 235 255
220 235 255
220 235 255
220 235 255
220 235 255
220 235 255
220 235 255
220 235 255
220 235 255
220 235 255
220 235 255
220 235 255
220 235 255
220 235 255
220 235 255
220 235 255
156 175 208
66 101 164
64 99 155
63 98 155
62 97 147
62 97 147
63 98 150
61 96 140
62 97 142
62 96 142
62 97 140
62 97 148
62 98 153
61 96 136
62 96 139
62 96 137
60 95 136
60 95 130
59 93 126
60 95 133
60 94 127
60 94 135
61 96 144
59 94 135
58 92 125
60 95 143
59 93 125
60 95 139
60 95 136
63 98 148
61 96 144
60 95 140
60 95 139
61 96 140
57 91 122
60 95 133
61 96 148
61 96 141
60 95 136
60 95 137
59 94 133
60 95 140
61 96 144
60 94 134
60 94 135
60 95 136
60 94 129
59 93 134
61 95 143
59 94 135
60 94 129
59 93 136
59 93 126
60 95 137
60 94 137
60 94 137
61 96 141
60 94 133
58 92 122
59 92 129
59 93 124
59 93 133
59 93 140
61 96 143
62 96 147
59 93 133
60 95 142
60 95 139
58 92 123
59 93 132
58 92 134
60 94 140
60 95 139
58 92 117
59 93 133
60 94 134
59 92 129
57 90 123
59 92 134
58 91 123
59 92 139
59 92 127
58 90 124
60 94 138
58 91 118
59 92 125
58 90 126
58 91 124
57 89 121
58 90 125
56 88 118
57 89 129
57 88 108
56 88 113
58 91 125
57 88 130
57 88 130
54 83 115
55 86 116
55 83 111
52 80 106
53 80 110
49 75 98
57 68 62
84 82 43
57 57 26
57 57 27
46 48 26
36 42 25
42 47 26
37 45 31
39 48 37
47 53 34
62 68 43
51 57 30
58 64 38
66 72 47
80 86 56
73 77 52
82 87 52
76 81 51
86 90 51
98 99 58
106 106 57
107 106 63
95 98 54
114 115 65
122 120 67
115 114 61
116 115 65
124 123 69
116 117 61
117 117 67
134 132 67
130 129 71
134 131 75
125 124 69
126 125 62
142 138 70
140 136 73
146 143 77
144 141 74
144 141 81
141 138 76
148 144 77
136 134 64
147 143 76
160 154 86
152 148 77
153 148 75
148 145 77
155 150 82
160 154 78
146 142 72
157 152 75
159 154 83
161 155 80
155 151 76
159 154 84
160 155 78
160 154 86
161 156 83
164 158 86
157 152 77
165 160 82
170 163 86
163 157 80
164 159 78
160 155 81
167 160 83
166 160 88
165 160 82
168 162 79
163 157 81
167 161 79
165 159 82
169 163 87
171 165 90
162 157 82
170 163 81
165 159 78
169 162 85
169 163 85
171 164 88
172 165 87
169 163 84
165 160 81
167 161 73
167 161 82
168 161 78
168 163 79
174 167 90
165 159 80
168 161 84
166 160 77
166 160 80
164 158 77
164 157 80
174 166 90
171 164 82
166 159 80
169 162 84
168 161 81
166 159 88
167 160 84
161 156 69
170 163 83
168 162 84
163 156 76
163 158 76
163 156 84
168 161 86
164 158 82
160 154 77
165 158 82
163 158 80
171 164 90
173 165 87
165 159 80
164 156 79
167 161 85
160 154 77
160 154 75
160 154 80
164 157 83
163 157 80
167 160 84
160 154 81
162 157 78
164 158 79
156 152 75
163 156 71
164 156 81
162 155 77
157 151 75
150 144 75
158 152 78
154 149 69
158 152 82
162 156 80
156 150 76
160 154 77
157 151 81
156 150 74
159 153 77
158 153 76
162 157 82
160 154 73
159 152 79
159 154 79
157 151 75
164 157 79
221 235 255
221 235 255
221 235 255
221 235 255
221 235 255
221 235 255
221 235 255
221 235 255
221 235 255
221 235 255
221 235 255
221 235 255
221 235 255
221 235 255
221 235 255
221 235 255
221 235 255
221 235 255
221 235 255
221 235 255
221 235 255
221 235 255
221 235 255
221 235 255
221 235 255
221 235 255
221 235 255
221 235 255
221 235 255
221 235 255
221 235 255
221 235 255
221 235 255
221 235 255
221 235 255
221 235 255
221 235 255
221 235 255
221 235 255
221 235 255
221 235 255
221 235 255
221 235 255
221 235 255
221 235 255
221 235 255
221 235 255
221 235 255
221 235 255
221 235 255
221 235 255
221 235 255
221 235 255
221 235 255
221 235 255
221 235 255
221 235 255
221 235 255
221 235 255
221 235 255
221 235 255
221 235 255
221 235 255
221 235 255
221 235 255
221 235 255
221 235 255
221 235 255
221 235 255
221 235 255
221 235 255
221 235 255
221 235 255
221 235 255
221 235 255
221 235 255
221 235 255
221 235 255
221 235 255
221 235 255
221 235 255
221 235 255
221 235 255
221 235 255
221 235 255
221 235 255
221 235 255
221 235 255
221 235 255
221 235 255
221 235 255
221 235 255
221 235 255
221 235 255
221 235 255
221 235 255
221 235 255
221 235 255
221 235 255
221 235 255
221 235 255
221 235 255
221 235 255
221 235 255
220 235 255
221 235 255
220 235 255
220 235 255
220 235 255
220 235 255
220 235 255
220 235 255
220 235 255
220 235 255
220 235 255
220 235 255
220 235 255
220 235 255
220 235 255
220 235 255
220 235 255
220 235 255
220 235 255
220 235 255
220 235 255
220 235 255
220 235 255
220 235 255
220 235 255
220 235 255
220 235 255
220 235 255
220 235 255
220 235 255
220 235 255
220 235 255
220 235 255
220 235 255
220 235 255
220 235 255
220 235 255
220 235 255
220 235 255
220 235 255
220 235 255
219 235 255
219 234 255
219 234 255
173 191 220
64 99 155
65 100 157
64 99 154
62 97 141
63 97 150
62 97 140
63 98 152
61 96 134
62 97 137
61 95 144
62 97 151
60 95 137
61 95 136
61 96 136
62 96 142
60 95 136
61 96 144
61 95 137
59 94 130
61 96 141
59 93 130
60 95 136
61 96 141
61 95 136
60 94 131
59 93 136
60 95 133
59 94 125
60 95 130
58 92 118
60 95 134
60 94 131
59 94 133
62 97 145
59 93 129
61 96 139
59 93 121
59 94 126
60 95 131
60 95 142
61 96 140
62 97 141
61 95 133
60 95 134
61 95 140
60 94 133
60 95 143
59 93 130
59 94 136
59 92 126
58 91 122
60 94 131
58 92 124
61 95 136
58 92 124
59 93 132
59 93 121
61 95 139
61 96 140
59 93 129
57 90 125
61 96 140
60 94 131
61 96 142
58 92 116
58 93 131
60 93 133
60 95 139
60 95 137
60 94 136
59 93 125
60 94 140
58 91 122
58 91 128
59 92 129
59 92 131
59 92 127
60 94 134
56 89 124
58 90 129
58 91 129
57 90 115
58 90 126
58 90 131
58 92 129
59 92 137
56 86 112
58 91 122
57 90 125
57 89 115
58 89 130
56 86 119
58 89 130
56 87 120
58 90 124
56 87 112
54 83 112
54 83 112
53 82 101
51 78 105
52 79 112
48 73 99
65 73 74
62 62 31
47 48 21
56 57 31
34 38 17
31 36 23
42 45 26
34 42 27
33 41 26
45 51 29
51 58 42
50 57 37
64 69 41
72 75 42
68 73 39
76 82 51
76 82 44
85 88 46
85 88 46
87 88 46
94 97 61
108 108 51
103 105 61
107 106 55
116 115 62
121 120 63
115 115 62
122 121 63
117 117 66
118 119 60
124 123 65
127 124 68
139 137 76
134 132 69
130 127 70
134 132 71
128 127 68
135 133 66
140 137 70
142 139 74
137 135 65
146 144 71
146 142 74
144 141 78
154 150 79
149 145 78
151 146 75
150 146 75
151 147 76
158 153 82
152 147 79
158 153 82
161 156 81
158 154 78
165 160 83
157 152 69
156 152 82
163 158 80
157 153 74
156 152 77
162 157 82
163 157 79
161 155 75
167 160 85
167 161 83
161 155 76
161 156 76
163 157 73
162 157 76
166 160 78
164 158 77
165 159 80
168 161 86
170 163 85
169 162 85
166 160 80
170 164 81
168 162 82
168 161 82
164 159 77
167 161 80
165 160 89
171 165 84
169 163 86
169 163 85
163 157 81
168 161 84
170 163 79
171 163 86
162 157 80
173 165 89
169 162 83
167 161 82
169 162 80
166 159 84
162 156 82
169 162 87
166 159 79
169 162 86
166 159 81
165 160 82
164 157 80
164 156 74
168 162 79
171 163 83
171 165 88
164 157 79
168 162 83
166 159 80
159 153 76
167 160 83
161 156 75
160 154 80
166 159 84
161 155 78
163 157 80
172 165 83
163 157 77
156 150 69
163 157 78
163 156 79
159 154 75
162 156 79
162 155 74
161 155 80
161 156 78
166 159 86
164 158 77
157 151 79
161 155 80
157 151 76
158 152 72
163 156 84
154 148 75
162 156 78
158 152 75
162 155 84
161 155 84
155 149 70
164 157 84
152 147 71
161 154 85
155 148 75
154 148 69
151 147 76
157 150 77
158 152 79
153 147 73
153 147 78
220 235 255
220 235 255
220 235 255
220 235 255
220 235 255
220 235 255
220 235 255
220 235 255
220 235 255
220 235 255
220 235 255
220 235 255
220 235 255
220 235 255
220 235 255
220 235 255
220 235 255
220 235 255
220 235 255
220 235 255
220 235 255
220 235 255
220 235 255
220 235 255
220 235 255
220 235 255
220 235 255
220 235 255
220 235 255
220 235 255
220 235 255
220 235 255
220 235 255
220 235 255
220 235 255
220 235 255
220 235 255
220 235 255
220 235 255
220 235 255
220 235 255
220 235 255
220 235 255
220 235 255
220 235 255
220 235 255
220 235 255
220 235 255
220 235 255
220 235 255
220 235 255
220 235 255
220 235 255
220 235 255
220 235 255
220 235 255
220 235 255
220 235 255
220 235 255
220 235 255
220 235 255
220 235 255
220 235 255
220 235 255
220 235 255
220 235 255
220 235 255
220 235 255
220 235 255
220 235 255
220 235 255
220 235 255
220 235 255
220 235 255
220 235 255
220 235 255
220 235 255
220 235 255
220 235 255
220 235 255
220 235 255
220 235 255
220 235 255
220 235 255
220 235 255
220 235 255
220 235 255
220 235 255
220 235 255
220 235 255
220 235 255
220 235 255
220 235 255
220 235 255
220 235 255
220 235 255
220 235 255
220 235 255
220 235 255
220 235 255
220 235 255
220 235 255
220 235 255
220 235 255
220 235 255
220 235 255
220 235 255
220 235 255
220 235 255
220 235 255
220 235 255
220 235 255
220 235 255
220 235 255
220 235 255
220 235 255
220 235 255
220 235 255
220 235 255
220 235 255
220 235 255
220 235 255
220 235 255
220 235 255
220 235 255
220 235 255
220 235 255
220 235 255
220 235 255
220 235 255
220 235 255
220 235 255
220 235 255
220 235 255
220 235 255
220 235 255
220 235 255
220 235 255
219 235 255
219 235 255
219 234 255
219 234 255
219 234 255
219 234 255
219 234 255
219 234 255
219 234 255
218 234 255
176 194 221
64 99 155
62 96 150
64 99 158
63 98 148
62 96 147
62 97 147
62 96 136
62 97 148
61 96 135
61 95 140
62 97 148
61 96 143
61 96 137
60 95 135
60 94 133
61 96 144
61 96 139
61 96 141
60 94 129
61 95 134
61 96 142
61 96 136
60 94 129
60 95 135
61 96 133
60 94 129
60 95 140
60 95 133
60 94 122
60 95 137
60 95 141
59 94 135
59 93 131
59 93 125
60 95 135
60 95 136
60 95 133
59 93 131
59 93 124
61 96 143
60 94 139
60 94 129
60 94 137
60 94 135
60 94 122
59 93 134
59 93 133
58 91 121
60 94 131
60 94 133
60 95 136
59 94 125
60 94 140
59 93 134
60 94 131
58 92 139
59 93 128
60 95 131
61 96 141
60 94 138
60 94 132
60 95 135
58 92 121
59 93 138
60 95 136
59 92 134
60 94 131
60 95 139
60 94 130
59 92 121
60 94 138
59 92 130
60 94 132
58 91 118
58 92 135
59 92 132
58 90 126
57 90 118
57 89 118
57 91 129
58 90 126
59 93 135
58 90 127
56 88 120
59 92 126
58 92 131
57 89 119
59 91 134
58 90 121
57 89 125
54 85 107
58 90 121
55 85 124
55 85 118
55 85 115
54 83 109
54 83 113
51 80 98
53 82 112
53 80 109
48 73 89
48 73 101
52 64 68
69 69 30
53 53 24
39 43 23
42 46 27
37 42 22
48 53 24
45 52 29
42 48 26
51 59 38
61 65 32
64 70 42
52 57 34
65 70 34
70 76 45
88 90 44
72 75 33
86 89 52
83 88 48
92 94 51
102 103 58
89 91 50
106 106 54
118 118 64
114 113 68
118 117 67
118 117 70
112 111 59
128 126 66
121 120 65
132 130 68
114 115 57
134 131 65
121 120 64
127 126 58
134 133 69
141 137 71
136 133 70
146 142 77
145 141 79
147 143 73
140 137 68
138 135 71
142 138 67
151 148 76
152 147 76
155 150 75
156 151 76
152 146 77
152 147 71
160 154 76
154 151 75
150 146 66
147 142 71
153 149 75
159 155 82
155 151 72
157 152 77
157 153 71
160 155 80
165 159 81
164 158 87
162 157 82
165 159 82
162 156 80
164 158 78
162 156 75
161 156 83
162 157 78
168 162 81
164 157 80
166 160 80
170 162 84
168 162 80
166 159 78
168 162 86
164 158 78
168 161 80
169 162 84
171 165 87
164 159 78
170 164 84
171 165 85
169 162 83
166 159 81
167 160 84
168 160 86
165 159 79
167 161 85
166 159 79
167 161 80
168 161 84
169 162 80
168 162 79
166 158 76
165 160 84
167 160 84
167 161 83
163 157 81
162 157 77
168 160 79
164 157 79
164 158 81
164 158 83
167 160 82
167 161 80
170 162 81
163 156 76
161 155 75
163 157 78
162 156 81
169 162 86
160 154 75
162 156 79
165 158 80
165 158 80
165 159 83
164 157 76
159 153 73
165 158 77
165 158 82
158 152 80
166 159 80
162 156 81
164 156 83
163 156 80
164 156 82
162 155 82
159 152 84
159 154 72
166 159 85
164 157 84
152 147 71
155 149 70
162 157 77
166 159 88
161 154 80
161 154 83
159 153 81
162 156 76
160 153 75
157 151 75
159 153 75
152 147 69
160 155 80
153 149 72
152 147 76
151 145 73
147 142 72
220 235 255
220 235 255
220 235 255
220 235 255
220 235 255
220 235 255
220 235 255
220 235 255
220 235 255
220 235 255
220 235 255
220 235 255
220 235 255
220 235 255
220 235 255
220 235 255
220 235 255
220 235 255
220 235 255
220 235 255
220 235 255
220 235 255
220 235 255
220 235 255
220 235 255
220 235 255
220 235 255
220 235 255
220 235 255
220 235 255
220 235 255
220 235 255
220 235 255
220 235 255
220 235 255
220 235 255
220 235 255
220 235 255
220 235 255
220 235 255
220 235 255
220 235 255
220 235 255
220 235 255
220 235 255
220 235 255
220 235 255
220 235 255
220 235 255
220 235 255
220 235 255
220 235 255
220 235 255
220 235 255
220 235 255
220 235 255
220 235 255
220 235 255
220 235 255
220 235 255
220 235 255
220 235 255
220 235 255
220 235 255
220 235 255
220 235 255
220 235 255
220 235 255
220 235 255
220 235 255
220 235 255
220 235 255
220 235 255
220 235 255
220 235 255
220 235 255
220 235 255
220 235 255
220 235 255
220 235 255
220 235 255
220 235 255
220 235 255
220 235 255
220 235 255
220 235 255
220 235 255
220 235 255
220 235 255
220 235 255
220 235 255
220 235 255
220 235 255
220 235 255
220 235 255
220 235 255
220 235 255
220 235 255
220 235 255
220 235 255
220 235 255
220 235 255
220 235 255
220 235 255
220 235 255
220 235 255
220 235 255
220 235 255
220 235 255
220 235 255
220 235 255
220 235 255
220 235 255
220 235 255
220 235 255
220 235 255
220 235 255
220 235 255
220 235 255
220 235 255
220 235 255
220 235 255
220 235 255
220 235 255
220 235 255
220 235 255
220 235 255
220 235 255
220 235 255
220 235 255
219 235 255
219 235 255
219 234 255
219 234 255
219 234 255
219 234 255
219 234 255
219 234 255
219 234 255
219 234 255
219 234 255
219 234 255
219 234 255
219 234 255
218 234 255
218 234 255
218 234 255
218 234 255
198 215 240
64 98 159
63 98 148
62 97 141
64 99 157
62 97 137
61 95 140
60 95 131
61 95 135
61 96 134
61 95 136
63 98 148
61 96 142
63 98 144
61 95 136
60 94 130
60 95 139
60 95 136
61 96 131
61 95 136
61 96 136
59 93 127
59 94 125
60 94 131
59 93 126
60 94 135
60 95 134
60 94 127
60 94 124
59 93 130
61 95 139
58 92 121
61 95 129
59 93 122
58 92 125
60 95 136
58 93 125
61 96 140
59 93 124
58 92 124
60 94 127
61 95 141
59 93 121
61 96 133
60 94 134
60 94 137
58 91 120
61 95 133
62 96 145
59 94 135
59 93 130
58 92 122
58 92 115
58 93 129
60 95 145
59 93 133
59 93 127
58 92 123
59 92 132
59 93 131
59 93 126
59 93 126
60 93 134
59 94 136
60 95 133
61 95 136
60 93 133
60 94 136
59 94 133
58 92 118
57 90 118
59 94 122
60 94 136
59 92 121
60 94 133
59 92 129
60 93 134
59 93 141
58 91 127
59 92 129
59 93 129
58 91 129
57 89 122
58 91 129
58 91 121
56 87 113
57 89 115
57 89 125
57 88 114
58 90 119
58 90 118
57 88 110
57 88 112
56 87 116
53 82 101
57 88 116
56 85 119
56 86 113
54 83 108
52 79 105
50 77 91
48 74 94
47 72 98
67 72 62
72 70 31
67 66 30
59 58 22
50 53 14
47 51 18
36 41 24
35 42 24
40 46 26
46 52 23
49 56 31
55 60 36
55 60 37
59 64 39
75 80 47
86 86 31
78 81 43
87 89 47
85 87 47
100 101 50
93 95 48
91 93 53
108 107 56
99 100 57
117 115 64
114 113 58
122 120 66
108 108 56
118 119 63
122 120 58
131 130 71
131 128 65
129 126 68
137 134 69
129 127 62
141 136 67
134 131 68
137 134 62
139 136 68
138 133 58
147 143 81
147 144 70
143 140 69
147 143 76
146 142 77
149 144 67
153 148 76
147 143 67
154 149 74
150 144 78
154 150 78
155 149 76
156 151 78
158 153 81
162 156 85
153 149 78
168 161 82
158 153 73
157 152 81
156 151 78
159 153 74
156 151 72
158 153 76
158 153 78
158 154 71
163 157 79
164 158 75
160 154 80
162 156 71
166 160 82
164 159 81
167 161 80
168 161 75
170 163 83
166 159 79
165 160 83
167 161 84
169 163 80
164 158 84
168 162 78
165 158 75
167 161 80
169 162 84
168 162 85
170 163 85
165 159 80
171 164 86
167 161 84
164 159 70
164 158 77
166 159 82
168 161 79
171 164 87
168 161 86
171 164 86
167 161 83
165 159 78
164 156 77
164 159 75
170 163 80
163 158 76
170 163 86
165 159 75
169 163 78
169 162 77
172 165 84
165 158 84
167 160 82
160 153 76
168 160 81
164 158 82
168 160 85
157 152 72
161 155 79
156 150 72
166 160 77
163 157 79
162 156 76
163 156 79
168 161 82
165 159 79
169 161 84
160 154 72
162 155 80
157 151 74
158 153 74
159 154 72
160 153 75
166 159 78
153 148 74
161 155 75
158 152 75
166 159 84
162 156 76
161 154 80
161 155 70
163 156 79
161 154 82
157 150 78
161 154 84
153 148 74
158 152 77
153 148 74
158 152 75
163 157 83
156 150 76
151 145 75
148 143 63
152 146 67
220 235 255
220 235 255
220 235 255
220 235 255
220 235 255
220 235 255
220 235 255
220 235 255
220 235 255
220 235 255
220 235 255
220 235 255
220 235 255
220 235 255
220 235 255
220 235 255
220 235 255
220 235 255
220 235 255
220 235 255
220 235 255
220 235 255
220 235 255
220 235 255
220 235 255
220 235 255
220 235 255
220 235 255
220 235 255
220 235 255
220 235 255
220 235 255
220 235 255
220 235 255
220 235 255
220 235 255
220 235 255
220 235 255
220 235 255
220 235 255
220 235 255
220 235 255
220 235 255
220 235 255
220 235 255
220 235 255
220 235 255
220 235 255
220 235 255
220 235 255
220 235 255
220 235 255
220 235 255
220 235 255
220 235 255
220 235 255
220 235 255
220 235 255
220 235 255
220 235 255
220 235 255
220 235 255
220 235 255
220 235 255
220 235 255
220 235 255
220 235 255
220 235 255
220 235 255
220 235 255
220 235 255
220 235 255
220 235 255
220 235 255
220 235 255
220 235 255
220 235 255
220 235 255
220 235 255
220 235 255
220 235 255
220 235 255
220 235 255
220 235 255
220 235 255
220 235 255
220 235 255
220 235 255
220 235 255
220 235 255
220 235 255
220 235 255
220 235 255
220 235 255
220 235 255
220 235 255
220 235 255
220 235 255
220 235 255
220 235 255
220 235 255
220 235 255
220 235 255
220 235 255
220 235 255
220 235 255
220 235 255
220 235 255
220 235 255
220 235 255
220 235 255
220 235 255
220 235 255
220 235 255
220 235 255
220 235 255
220 235 255
220 235 255
220 235 255
220 235 255
219 235 255
219 235 255
219 235 255
219 234 255
219 234 255
219 234 255
219 234 255
219 234 255
219 234 255
219 234 255
219 234 255
219 234 255
219 234 255
219 234 255
219 234 255
219 234 255
219 234 255
219 234 255
219 234 255
218 234 255
218 234 255
218 234 255
218 234 255
218 234 255
218 234 255
218 233 255
217 233 255
217 233 255
196 213 239
65 100 158
63 98 156
63 98 155
62 97 144
62 97 148
62 97 147
62 96 147
61 95 139
62 96 139
62 96 144
61 95 139
61 95 135
62 97 142
61 96 141
60 94 127
62 97 140
60 95 131
60 94 136
61 96 143
61 95 133
59 94 127
61 95 135
61 96 144
61 96 141
59 92 122
60 95 135
61 96 139
60 94 122
61 97 147
59 93 126
59 93 122
58 92 111
60 95 136
60 94 133
60 95 135
60 95 129
60 94 135
59 93 124
60 95 130
58 92 122
60 94 130
61 95 140
60 95 136
60 94 130
59 93 133
60 94 126
60 94 130
60 94 126
60 94 133
60 95 138
59 93 130
59 93 127
60 94 126
58 91 116
60 94 135
58 91 118
60 94 129
59 93 130
58 92 129
60 94 135
59 94 132
60 95 134
60 94 135
60 94 140
60 94 141
58 92 124
57 89 110
61 95 139
59 93 136
59 93 128
60 94 129
58 90 125
59 93 125
60 94 134
57 90 126
59 92 123
59 93 133
58 91 124
58 91 119
60 94 142
57 90 122
59 92 128
56 88 122
59 92 123
58 89 122
58 90 122
59 91 132
57 89 128
58 91 125
57 89 135
57 89 120
54 84 110
57 89 116
56 87 117
53 83 112
56 87 123
54 84 117
54 84 122
53 82 111
51 79 104
49 74 98
45 68 82
94 96 70
73 71 35
57 58 23
55 56 21
38 40 14
39 44 19
31 37 15
53 56 25
52 54 23
46 53 31
49 55 31
51 55 33
76 78 38
57 63 28
72 74 36
85 86 45
79 83 48
93 95 43
86 89 49
98 100 51
99 100 55
99 100 57
90 92 47
106 107 57
109 110 56
107 107 53
108 109 56
116 115 61
109 108 54
115 115 58
119 118 61
125 123 57
130 129 63
130 127 67
131 128 65
122 120 55
125 124 70
137 134 71
144 140 76
139 136 65
146 144 77
142 138 70
143 140 71
146 143 77
144 141 66
143 139 65
150 146 75
150 145 73
148 144 67
139 137 60
154 149 74
159 153 78
154 150 79
157 152 72
160 154 76
161 155 70
158 152 74
159 154 81
158 152 70
158 153 75
160 155 77
159 154 76
164 158 67
160 154 75
164 158 75
156 151 75
161 155 71
162 156 81
170 162 84
167 160 84
162 156 76
163 158 75
163 157 77
165 159 78
162 156 72
164 158 75
165 159 75
165 159 75
164 158 77
166 160 80
168 162 80
163 158 78
165 159 75
170 163 84
167 160 80
171 164 87
165 159 73
166 159 76
165 159 75
163 157 71
171 164 83
171 163 84
160 155 63
168 162 78
168 162 83
161 156 75
169 162 80
162 155 75
161 155 72
165 158 79
169 163 80
168 161 77
170 163 86
161 155 71
166 159 78
166 160 80
168 161 85
163 157 75
160 154 77
168 162 79
165 158 78
158 152 71
164 157 80
163 155 76
160 154 75
162 156 75
161 155 76
165 159 81
156 150 69
159 152 77
162 156 76
163 157 77
159 153 74
162 155 76
167 159 82
161 155 78
158 152 73
159 153 78
152 146 68
161 155 74
158 151 76
166 158 84
166 160 80
163 157 83
166 159 79
162 155 80
163 156 81
161 154 77
149 143 71
155 148 75
161 155 75
152 146 68
156 150 79
156 151 75
159 152 79
162 155 79
154 149 78
153 147 71
154 148 73
220 235 255
220 235 255
220 235 255
220 235 255
220 235 255
220 235 255
220 235 255
220 235 255
220 235 255
220 235 255
220 235 255
220 235 255
220 235 255
220 235 255
220 235 255
220 235 255
220 235 255
220 235 255
220 235 255
220 235 255
220 235 255
220 235 255
220 235 255
220 235 255
220 235 255
220 235 255
220 235 255
220 235 255
220 235 255
220 235 255
220 235 255
220 235 255
220 235 255
220 235 255
220 235 255
220 235 255
220 235 255
220 235 255
220 235 255
220 235 255
220 235 255
220 235 255
220 235 255
220 235 255
220 235 255
220 235 255
220 235 255
220 235 255
220 235 255
220 235 255
220 235 255
220 235 255
220 235 255
220 235 255
220 235 255
220 235 255
220 235 255
220 235 255
220 235 255
220 235 255
220 235 255
220 235 255
220 235 255
220 235 255
220 235 255
220 235 255
220 235 255
220 235 255
220 235 255
220 235 255
220 235 255
220 235 255
220 235 255
220 235 255
220 235 255
220 235 255
220 235 255
220 235 255
220 235 255
220 235 255
220 235 255
220 235 255
220 235 255
220 235 255
220 235 255
220 235 255
220 235 255
220 235 255
220 235 255
220 235 255
220 235 255
220 235 255
220 235 255
220 235 255
220 235 255
220 235 255
220 235 255
220 235 255
220 235 255
220 235 255
220 235 255
220 235 255
220 235 255
220 235 255
220 235 255
220 235 255
220 235 255
220 235 255
219 235 255
219 235 255
219 235 255
219 235 255
219 235 255
219 235 255
219 234 255
219 234 255
219 234 255
219 234 255
219 234 255
219 234 255
219 234 255
219 234 255
219 234 255
219 234 255
219 234 255
219 234 255
219 234 255
219 234 255
219 234 255
219 234 255
219 234 255
219 234 255
219 234 255
219 234 255
218 234 255
218 234 255
218 234 255
218 234 255
218 234 255
218 234 255
218 234 255
218 234 255
218 233 255
217 233 255
217 233 255
217 233 255
217 233 255
216 233 255
204 220 245
64 99 161
63 97 147
61 95 137
62 96 136
61 95 135
61 96 140
61 96 137
63 98 144
62 96 140
61 95 133
61 96 134
60 94 126
61 96 142
60 94 124
60 94 135
59 93 127
61 96 134
59 94 129
60 95 136
59 93 124
61 95 131
59 93 125
60 94 135
60 94 131
61 96 141
59 93 127
61 96 137
62 96 141
59 93 126
61 95 134
59 94 136
60 94 135
60 95 139
60 94 129
59 93 129
61 95 135
59 92 125
59 94 133
59 94 130
59 94 124
60 95 131
60 94 131
60 95 137
61 95 137
58 92 118
58 92 124
60 94 141
58 92 124
59 93 124
60 94 130
60 94 133
59 94 131
60 95 127
60 95 137
59 93 124
57 91 114
60 95 134
58 92 124
59 93 125
58 92 122
58 92 126
59 93 134
58 92 128
60 94 136
59 92 127
58 92 126
60 95 136
58 91 124
59 92 135
58 92 118
58 92 129
59 92 123
57 91 122
58 92 132
57 90 126
60 94 133
57 90 118
58 90 121
59 92 135
55 87 112
58 90 128
57 90 124
56 88 118
58 91 127
59 92 121
56 88 115
57 89 125
57 88 119
56 89 120
59 91 135
57 89 117
57 89 121
57 88 115
57 89 117
55 85 112
52 81 104
51 79 99
54 85 112
55 85 107
51 78 94
49 73 86
44 66 76
133 139 137
80 80 34
65 65 22
58 58 18
53 55 21
45 50 23
50 54 23
47 49 16
47 50 23
53 56 27
56 62 37
58 62 30
66 70 40
67 69 31
66 68 27
81 85 48
75 78 42
76 78 37
101 100 52
92 94 47
88 90 48
87 89 52
101 102 47
100 102 53
107 106 49
109 110 55
103 104 45
125 123 60
117 117 61
108 108 55
121 120 61
128 125 68
126 123 63
129 128 67
129 126 58
131 129 58
132 129 61
136 133 59
127 126 62
141 138 72
138 134 60
150 145 70
142 139 61
143 139 70
147 144 70
150 144 73
145 142 71
142 139 64
148 143 70
145 140 68
148 145 71
148 144 72
157 151 72
158 153 68
149 144 70
153 148 67
153 148 74
166 158 81
156 150 72
155 151 67
154 150 67
156 151 71
164 158 75
162 156 80
164 157 80
164 158 78
161 156 75
164 158 83
166 160 80
165 159 76
166 160 75
169 162 86
163 157 74
162 157 75
165 159 78
166 160 80
166 159 77
167 161 83
168 161 79
165 159 79
162 156 73
164 157 74
161 155 70
166 160 71
164 158 78
161 156 71
164 158 78
167 162 80
166 159 80
163 156 80
168 161 81
166 159 74
161 155 74
162 155 75
166 161 80
159 153 71
166 159 74
164 158 75
164 157 77
166 160 76
161 156 67
170 162 79
161 155 74
166 159 81
161 156 77
162 155 79
169 162 81
160 154 74
160 155 69
159 152 75
165 158 78
164 157 82
168 160 80
159 153 73
166 158 74
158 151 71
166 159 85
162 156 73
161 155 78
159 153 73
163 156 77
168 161 85
155 148 70
163 157 75
159 153 69
162 155 78
159 153 73
163 156 78
162 156 78
162 156 77
163 155 85
160 153 80
159 152 77
156 150 72
159 152 79
158 152 69
156 150 74
152 146 75
159 153 71
161 154 80
156 151 69
157 150 74
152 146 71
154 148 72
162 156 82
162 156 78
155 149 69
150 145 64
152 146 67
219 234 255
219 234 255
219 234 255
219 234 255
219 234 255
219 235 255
219 235 255
219 235 255
219 235 255
219 235 255
219 235 255
219 235 255
219 235 255
219 235 255
219 235 255
219 235 255
219 235 255
219 235 255
219 235 255
219 235 255
219 235 255
219 235 255
220 235 255
220 235 255
220 235 255
220 235 255
220 235 255
220 235 255
220 235 255
220 235 255
220 235 255
220 235 255
220 235 255
220 235 255
220 235 255
220 235 255
220 235 255
220 235 255
220 235 255
220 235 255
220 235 255
220 235 255
220 235 255
220 235 255
220 235 255
220 235 255
220 235 255
220 235 255
220 235 255
220 235 255
220 235 255
220 235 255
220 235 255
220 235 255
220 235 255
220 235 255
220 235 255
220 235 255
220 235 255
220 235 255
220 235 255
220 235 255
220 235 255
220 235 255
220 235 255
220 235 255
220 235 255
220 235 255
220 235 255
220 235 255
220 235 255
220 235 255
220 235 255
220 235 255
220 235 255
220 235 255
220 235 255
220 235 255
220 235 255
220 235 255
220 235 255
220 235 255
220 235 255
220 235 255
220 235 255
220 235 255
220 235 255
220 235 255
220 235 255
220 235 255
220 235 255
219 235 255
219 235 255
219 235 255
219 235 255
219 235 255
219 235 255
219 235 255
219 235 255
219 235 255
219 235 255
219 234 255
219 234 255
219 234 255
219 234 255
219 234 255
219 234 255
219 234 255
219 234 255
219 234 255
219 234 255
219 234 255
219 234 255
219 234 255
219 234 255
219 234 255
219 234 255
219 234 255
219 234 255
219 234 255
219 234 255
219 234 255
219 234 255
219 234 255
219 234 255
219 234 255
219 234 255
219 234 255
219 234 255
218 234 255
218 234 255
218 234 255
218 234 255
218 234 255
218 234 255
218 234 255
218 234 255
218 234 255
218 233 255
217 233 255
217 233 255
217 233 255
217 233 255
217 233 255
217 233 255
216 233 255
216 233 255
215 232 255
219 234 255
88 116 166
63 98 148
63 97 144
61 95 131
61 96 142
61 96 131
61 96 134
59 93 130
58 91 122
61 95 134
58 92 122
60 94 126
59 92 118
60 95 131
59 93 127
59 93 130
61 96 139
59 93 122
58 92 120
60 94 133
61 96 139
59 93 122
61 95 139
60 94 120
58 91 120
59 94 126
58 93 124
60 94 127
59 93 120
60 94 127
60 94 131
60 95 134
60 94 117
59 93 129
61 95 136
60 95 131
58 92 124
61 96 135
60 94 126
60 94 137
60 95 131
59 92 125
60 94 122
61 96 135
61 96 135
59 93 131
60 94 137
60 95 136
60 95 142
61 96 134
60 94 131
60 94 122
60 95 131
61 96 137
60 94 124
59 93 122
60 94 136
59 93 127
58 91 111
60 95 136
59 93 127
59 92 122
60 94 132
60 95 137
58 92 124
57 91 126
59 92 128
58 92 126
59 93 126
59 93 126
59 93 138
57 90 115
59 93 129
58 92 128
57 89 116
59 93 131
58 91 125
58 91 132
56 90 110
58 90 113
58 90 120
58 90 117
58 92 130
56 89 111
60 93 133
57 89 120
55 86 108
56 88 121
56 88 108
56 87 117
55 86 110
57 88 109
56 87 111
54 85 110
56 87 116
55 85 107
52 81 104
52 81 106
51 79 99
48 72 76
46 70 72
67 87 97
180 189 197
79 77 37
67 67 29
54 54 16
56 57 15
52 53 18
53 56 16
40 44 22
46 50 19
43 49 28
52 56 21
57 61 26
60 64 32
69 73 35
71 75 40
73 78 33
73 78 43
79 80 37
77 81 37
98 100 47
88 89 46
93 95 52
113 112 61
109 109 51
103 105 56
123 122 56
115 115 59
103 104 52
125 123 56
111 111 62
123 120 61
121 121 61
128 125 56
133 132 65
131 128 60
132 129 69
134 131 63
142 138 68
131 129 64
139 136 66
146 141 71
146 143 72
143 138 67
139 136 59
141 139 69
148 144 66
146 142 65
152 147 72
150 147 68
139 137 70
150 146 72
152 148 71
150 145 72
155 151 75
155 150 70
154 150 74
157 152 83
156 150 68
154 149 61
164 159 73
156 150 69
154 148 75
159 152 78
162 156 77
161 155 75
156 152 71
165 159 76
158 153 74
160 154 71
156 150 70
166 159 77
166 160 83
169 162 82
166 160 80
163 157 74
164 158 74
167 160 80
164 158 73
167 160 75
163 156 83
165 159 75
164 158 76
163 157 74
164 157 71
166 159 77
166 159 73
167 160 78
167 160 73
164 159 79
164 158 77
163 157 75
164 158 72
166 159 73
165 158 76
163 157 75
164 157 79
165 159 73
165 159 77
165 159 77
165 157 78
165 158 79
166 159 80
166 160 73
161 155 73
165 159 75
165 160 72
162 154 73
166 159 79
163 158 79
162 155 78
164 158 73
163 157 71
166 159 83
163 157 77
157 151 72
160 154 72
166 160 80
160 155 72
159 154 75
164 156 75
161 155 72
159 153 82
167 160 81
162 154 80
156 152 74
154 148 71
161 155 73
160 153 76
158 153 76
156 150 72
161 154 76
152 145 75
160 153 72
156 149 77
162 155 77
162 156 75
155 149 80
160 154 78
152 146 67
153 146 70
163 156 80
158 152 75
161 154 78
159 152 75
154 148 75
155 150 74
150 145 69
157 151 75
148 142 64
219 234 255
219 234 255
219 234 255
219 234 255
219 234 255
219 234 255
219 234 255
219 234 255
219 234 255
219 234 255
219 234 255
219 234 255
219 234 255
219 234 255
219 234 255
219 234 255
219 234 255
219 234 255
219 234 255
219 234 255
219 234 255
219 234 255
219 234 255
219 234 255
219 234 255
219 234 255
219 234 255
219 234 255
219 234 255
219 234 255
219 234 255
219 234 255
219 234 255
219 234 255
219 234 255
219 234 255
219 234 255
219 234 255
219 234 255
219 234 255
219 234 255
219 235 255
219 234 255
219 235 255
219 234 255
219 235 255
219 235 255
219 235 255
219 235 255
219 235 255
219 235 255
219 235 255
219 235 255
219 235 255
219 235 255
219 235 255
219 235 255
219 235 255
219 235 255
219 235 255
219 235 255
219 235 255
219 235 255
219 235 255
219 235 255
219 235 255
219 235 255
219 235 255
219 235 255
219 235 255
219 235 255
219 235 255
219 235 255
219 235 255
219 234 255
219 234 255
219 234 255
219 235 255
219 234 255
219 234 255
219 234 255
219 234 255
219 234 255
219 234 255
219 234 255
219 234 255
219 234 255
219 234 255
219 234 255
219 234 255
219 234 255
219 234 255
219 234 255
219 234 255
219 234 255
219 234 255
219 234 255
219 234 255
219 234 255
219 234 255
219 234 255
219 234 255
219 234 255
219 234 255
219 234 255
219 234 255
219 234 255
219 234 255
219 234 255
219 234 255
219 234 255
219 234 255
219 234 255
219 234 255
219 234 255
219 234 255
219 234 255
219 234 255
219 234 255
219 234 255
219 234 255
219 234 255
218 234 255
218 234 255
218 234 255
218 234 255
218 234 255
218 234 255
218 234 255
218 234 255
218 234 255
218 234 255
218 234 255
218 234 255
218 234 255
218 233 255
217 233 255
217 233 255
217 233 255
217 233 255
217 233 255
217 233 255
216 233 255
216 233 255
216 233 255
216 232 255
215 232 255
215 232 255
221 235 255
125 147 188
63 98 155
63 98 151
59 93 125
59 93 117
61 95 127
61 95 131
60 95 134
60 94 127
62 96 135
60 94 121
58 92 120
61 95 134
59 93 121
60 94 129
60 94 134
60 94 129
61 95 130
58 92 113
60 94 129
60 94 129
59 93 124
59 94 125
60 94 134
60 95 130
59 93 114
60 95 131
60 94 125
60 94 125
59 93 125
59 93 126
60 94 130
60 94 130
60 94 134
59 93 121
58 92 127
60 94 133
58 92 122
60 94 126
58 92 125
59 93 121
59 94 133
58 91 129
59 92 129
59 93 127
60 95 137
59 92 121
60 94 126
59 93 131
58 92 125
59 93 136
60 94 127
61 96 137
58 91 126
59 94 130
59 92 120
58 91 117
58 93 126
59 92 126
61 95 137
60 94 127
59 93 126
59 92 124
58 91 133
58 91 129
57 90 124
59 92 118
60 94 136
59 93 125
61 95 147
60 94 134
57 90 130
58 91 123
57 91 121
57 89 120
57 89 128
58 91 125
59 93 130
57 89 126
58 92 124
56 88 118
56 89 120
58 90 111
59 91 127
57 90 113
57 89 121
57 89 123
57 89 123
56 88 112
58 90 130
58 91 125
54 85 102
54 84 108
55 86 115
54 83 113
52 79 97
55 85 115
54 83 109
53 81 109
47 72 92
52 80 102
115 128 140
202 212 224
88 86 43
65 65 23
51 53 12
58 59 24
48 50 13
53 54 13
33 39 21
53 56 15
48 54 27
53 58 27
63 68 27
66 67 22
71 74 31
72 76 39
70 75 38
85 87 41
79 81 33
88 91 51
78 82 39
102 101 45
93 95 50
103 102 50
117 116 64
117 116 57
113 112 48
111 111 52
119 118 54
100 101 53
120 119 56
122 119 59
110 109 57
122 120 61
126 125 59
129 127 62
118 117 64
136 131 65
134 132 63
143 139 69
137 134 58
139 137 63
129 127 63
148 144 70
147 143 71
139 135 65
147 143 75
145 141 66
144 141 70
148 144 70
140 136 64
155 149 72
155 150 67
151 146 65
157 152 75
156 150 72
151 146 68
147 143 67
157 152 75
160 154 76
152 148 65
159 153 74
160 155 71
163 156 74
163 158 79
162 157 78
159 154 75
163 157 73
159 153 74
164 158 76
157 153 70
167 161 82
161 155 73
165 157 76
160 154 72
165 159 71
157 151 70
162 157 75
164 157 77
164 158 73
164 158 78
160 154 72
165 158 75
167 160 75
165 158 73
161 155 69
163 157 74
163 157 68
167 160 74
163 157 70
170 163 82
167 161 80
164 157 74
162 155 71
165 159 74
161 155 69
166 159 80
169 162 84
163 156 75
162 154 74
161 156 73
157 150 69
163 156 75
165 158 77
163 157 74
163 157 80
162 156 79
167 159 84
168 161 83
160 155 75
164 158 75
163 157 80
158 152 75
166 158 80
163 156 72
161 153 74
158 152 69
157 152 65
159 153 74
161 154 80
165 158 76
157 151 76
155 149 67
157 151 69
164 158 75
160 153 77
163 156 80
158 152 66
154 148 73
156 150 75
163 157 79
153 147 71
152 146 71
156 149 71
157 150 78
157 151 77
156 149 73
156 150 71
153 147 71
159 152 75
153 147 68
163 157 74
158 151 81
157 150 74
153 147 71
153 147 69
158 152 70
151 145 70
159 153 75
156 149 68
219 234 255
219 234 255
219 234 255
219 234 255
219 234 255
219 234 255
219 234 255
219 234 255
219 234 255
219 234 255
219 234 255
219 234 255
219 234 255
219 234 255
219 234 255
219 234 255
219 234 255
219 234 255
219 234 255
219 234 255
219 234 255
219 234 255
219 234 255
219 234 255
219 234 255
219 234 255
219 234 255
219 234 255
219 234 255
219 234 255
219 234 255
219 234 255
219 234 255
219 234 255
219 234 255
219 234 255
219 234 255
219 234 255
219 234 255
219 234 255
219 234 255
219 234 255
219 234 255
219 234 255
219 234 255
219 234 255
219 234 255
219 234 255
219 234 255
219 234 255
219 234 255
219 234 255
219 234 255
219 234 255
219 234 255
219 234 255
219 234 255
219 234 255
219 234 255
219 234 255
219 234 255
219 234 255
219 234 255
219 234 255
219 234 255
219 234 255
219 234 255
219 234 255
219 234 255
219 234 255
219 234 255
219 234 255
219 234 255
219 234 255
219 234 255
219 234 255
219 234 255
219 234 255
219 234 255
219 234 255
219 234 255
219 234 255
219 234 255
219 234 255
219 234 255
219 234 255
219 234 255
219 234 255
219 234 255
219 234 255
219 234 255
219 234 255
219 234 255
219 234 255
219 234 255
219 234 255
219 234 255
219 234 255
219 234 255
219 234 255
219 234 255
219 234 255
219 234 255
219 234 255
219 234 255
219 234 255
219 234 255
219 234 255
219 234 255
219 234 255
219 234 255
219 234 255
219 234 255
219 234 255
219 234 255
219 234 255
218 234 255
218 234 255
218 234 255
218 234 255
218 234 255
218 234 255
218 234 255
218 234 255
218 234 255
218 234 255
218 234 255
218 234 255
218 234 255
218 234 255
218 234 255
217 233 255
217 233 255
217 233 255
217 233 255
217 233 255
217 233 255
217 233 255
217 233 255
216 233 255
216 233 255
216 233 255
216 232 255
216 232 255
215 232 255
215 232 255
214 232 255
214 232 255
224 237 255
134 154 196
63 98 149
63 98 152
61 96 136
59 93 125
60 95 131
59 93 118
60 94 130
61 96 135
61 96 130
59 94 127
60 94 121
60 94 127
60 95 134
59 93 131
61 96 139
60 94 125
61 95 127
60 94 124
59 93 118
59 94 131
60 95 129
59 93 131
59 93 130
60 94 135
60 95 122
58 91 125
61 95 139
60 94 133
60 95 137
58 92 117
59 93 129
59 93 131
60 95 137
60 94 125
59 93 124
59 93 126
59 93 127
61 95 131
59 92 130
60 94 137
59 93 124
59 93 131
58 92 114
61 95 124
59 93 125
59 94 129
59 93 118
60 95 136
60 95 133
60 95 136
61 96 137
60 94 138
58 92 120
58 92 117
58 92 117
59 93 125
59 93 134
58 92 124
60 94 125
60 94 129
57 90 116
57 90 123
60 95 135
59 92 118
60 94 132
57 89 120
59 93 127
58 91 113
59 93 126
60 94 127
57 91 113
59 92 130
57 90 116
57 90 119
60 93 125
59 92 123
61 94 136
57 90 125
58 91 125
57 90 109
57 89 120
58 91 116
58 90 123
55 87 115
55 86 112
55 86 107
55 85 116
56 87 111
57 88 115
59 91 118
55 86 114
57 89 119
55 85 111
53 81 101
55 86 121
52 79 107
53 80 103
53 83 114
50 76 86
48 74 82
146 160 175
220 233 250
107 105 60
69 66 23
58 58 23
68 68 29
55 56 13
57 58 13
50 53 19
49 52 20
51 56 21
55 59 22
54 58 22
61 63 16
54 60 27
70 73 31
76 78 33
74 78 39
69 73 31
90 91 45
90 90 44
81 82 28
110 109 48
103 102 48
104 105 48
104 104 44
105 105 54
122 118 57
110 109 55
116 116 56
123 121 56
114 112 56
122 119 57
134 131 65
126 124 64
127 124 56
126 124 54
128 126 54
123 122 57
125 124 57
137 133 57
138 135 63
141 138 64
136 134 63
134 130 56
143 139 63
154 149 72
142 138 67
143 139 66
138 134 60
149 144 69
153 148 70
154 149 77
152 148 64
146 143 66
156 151 73
153 147 65
150 147 66
153 148 67
154 150 69
159 153 75
154 148 66
158 153 67
160 155 71
154 149 66
158 152 76
157 152 68
158 152 65
157 151 71
164 157 77
159 153 70
163 156 67
165 158 78
162 155 75
161 155 74
160 154 71
163 157 76
171 164 76
164 157 72
161 155 69
164 157 75
168 161 75
160 154 65
162 157 71
164 158 78
167 160 82
162 156 70
164 156 74
166 159 81
164 158 74
164 158 75
162 156 72
166 159 78
161 155 75
159 153 75
168 161 72
168 161 75
162 156 69
164 157 80
164 156 77
165 159 73
167 160 80
167 160 75
159 152 63
159 154 63
159 153 71
158 153 73
159 153 72
163 156 74
162 156 74
158 154 75
161 154 76
159 152 72
158 152 72
159 153 71
161 156 72
162 156 76
157 151 71
162 156 74
166 159 80
160 154 75
158 151 71
160 154 74
163 156 75
165 158 80
162 156 77
157 150 62
159 152 78
162 156 74
159 153 73
165 159 84
152 146 69
160 153 71
151 145 70
152 146 74
158 152 72
161 154 81
152 145 71
155 149 71
151 146 66
147 140 63
151 145 66
156 150 72
149 143 67
158 151 75
159 153 72
157 151 70
157 150 73
157 149 75
154 147 74
219 234 255
219 234 255
219 234 255
219 234 255
219 234 255
219 234 255
219 234 255
219 234 255
219 234 255
219 234 255
219 234 255
219 234 255
219 234 255
219 234 255
219 234 255
219 234 255
219 234 255
219 234 255
219 234 255
219 234 255
219 234 255
219 234 255
219 234 255
219 234 255
219 234 255
219 234 255
219 234 255
219 234 255
219 234 255
219 234 255
219 234 255
219 234 255
219 234 255
219 234 255
219 234 255
219 234 255
219 234 255
219 234 255
219 234 255
219 234 255
219 234 255
219 234 255
219 234 255
219 234 255
219 234 255
219 234 255
219 234 255
219 234 255
219 234 255
219 234 255
219 234 255
219 234 255
219 234 255
219 234 255
219 234 255
219 234 255
219 234 255
219 234 255
219 234 255
219 234 255
219 234 255
219 234 255
219 234 255
219 234 255
219 234 255
219 234 255
219 234 255
219 234 255
219 234 255
219 234 255
219 234 255
219 234 255
219 234 255
219 234 255
219 234 255
219 234 255
219 234 255
219 234 255
219 234 255
219 234 255
219 234 255
219 234 255
219 234 255
219 234 255
219 234 255
219 234 255
219 234 255
219 234 255
219 234 255
219 234 255
219 234 255
219 234 255
219 234 255
219 234 255
219 234 255
219 234 255
219 234 255
219 234 255
219 234 255
219 234 255
219 234 255
219 234 255
219 234 255
219 234 255
219 234 255
219 234 255
219 234 255
218 234 255
218 234 255
218 234 255
218 234 255
218 234 255
218 234 255
218 234 255
218 234 255
218 234 255
218 234 255
218 234 255
218 234 255
218 234 255
218 234 255
218 234 255
218 234 255
218 234 255
218 234 255
218 234 255
218 233 255
217 233 255
217 233 255
217 233 255
217 233 255
217 233 255
217 233 255
217 233 255
217 233 255
217 233 255
216 233 255
216 233 255
216 233 255
216 233 255
216 232 255
215 232 255
215 232 255
215 232 255
214 232 255
214 232 255
214 231 255
213 230 249
213 228 223
169 187 197
63 98 152
61 96 136
60 94 118
61 95 126
60 94 129
61 95 130
62 96 136
61 95 136
60 95 127
62 97 148
59 93 118
60 95 130
60 94 127
59 93 129
58 92 120
60 94 127
58 92 114
60 95 130
59 93 120
60 94 133
60 95 137
59 93 122
58 92 125
60 94 136
60 94 129
58 92 120
59 93 129
58 91 124
60 95 133
59 93 122
59 93 122
58 92 117
60 94 131
58 91 115
60 94 141
58 92 127
60 94 130
58 92 122
59 93 125
59 94 134
59 93 121
60 94 126
59 92 126
59 93 129
60 94 127
59 93 117
58 92 115
58 92 127
60 94 129
58 92 125
59 93 133
59 92 125
59 93 121
59 93 132
59 92 117
60 94 128
59 94 130
59 93 122
59 93 124
59 93 130
60 94 135
60 94 136
56 89 113
58 92 129
58 91 123
57 90 127
59 93 131
59 93 126
58 91 122
58 91 121
60 94 134
58 92 130
58 91 125
57 90 118
57 90 111
59 91 126
58 90 128
58 91 128
59 93 131
58 90 125
57 89 115
57 90 106
58 90 127
58 91 123
56 87 119
57 90 108
56 87 117
55 86 106
56 87 117
56 88 113
55 86 117
55 85 113
55 85 99
54 84 107
54 85 116
53 82 104
52 80 103
49 75 93
50 76 96
46 70 82
164 179 170
216 231 231
133 136 100
83 81 24
64 65 26
62 62 15
53 54 15
59 62 19
51 54 12
54 55 19
56 60 18
47 51 22
53 58 25
52 57 22
62 67 29
63 69 30
79 80 28
66 70 31
84 85 37
81 82 46
76 80 40
92 92 44
93 93 40
98 97 45
111 111 58
113 112 49
105 105 52
111 109 52
116 115 50
125 122 51
111 111 48
114 113 57
124 120 53
117 115 57
123 121 63
125 124 52
128 126 57
125 123 48
136 133 65
125 123 57
144 139 65
140 136 65
132 129 60
142 138 61
135 133 57
144 141 64
133 130 64
138 135 56
151 146 65
145 141 64
145 141 64
144 139 63
146 143 59
158 152 73
152 147 68
152 147 69
159 153 74
159 154 72
152 148 64
153 149 65
157 151 75
159 153 67
160 154 74
154 148 66
159 153 72
153 148 66
158 153 69
157 151 73
165 159 82
163 157 73
161 155 68
160 154 70
158 153 65
165 158 74
160 154 67
165 158 76
164 157 79
163 156 74
152 147 63
159 153 74
163 156 74
160 155 77
163 156 76
157 152 72
165 159 77
163 156 72
166 159 75
163 156 75
164 158 75
161 155 71
160 155 74
167 160 78
162 154 73
161 155 69
161 154 72
166 159 75
163 156 75
163 157 76
166 158 80
159 154 66
160 154 72
158 153 69
159 153 73
165 159 80
165 157 76
160 153 67
159 153 75
158 152 69
160 153 65
159 153 71
159 154 72
168 161 77
164 157 74
161 155 75
160 154 73
162 156 71
160 153 67
162 155 71
157 152 76
163 157 74
161 154 76
155 148 69
157 151 71
157 151 68
161 154 76
159 152 73
157 151 72
158 152 65
156 151 76
163 157 77
162 155 77
161 154 76
161 153 78
159 153 70
159 153 72
158 150 72
159 152 78
160 154 71
155 148 74
156 149 65
154 148 71
160 153 75
151 145 69
153 146 69
149 144 67
157 151 75
152 146 70
161 154 76
151 145 66
154 148 68
218 234 255
218 234 255
218 234 255
218 234 255
218 234 255
218 234 255
218 234 255
218 234 255
218 234 255
218 234 255
219 234 255
218 234 255
219 234 255
219 234 255
219 234 255
219 234 255
219 234 255
219 234 255
219 234 255
219 234 255
219 234 255
219 234 255
219 234 255
219 234 255
219 234 255
219 234 255
219 234 255
219 234 255
219 234 255
219 234 255
219 234 255
219 234 255
219 234 255
219 234 255
219 234 255
219 234 255
219 234 255
219 234 255
219 234 255
219 234 255
219 234 255
219 234 255
219 234 255
219 234 255
219 234 255
219 234 255
219 234 255
219 234 255
219 234 255
219 234 255
219 234 255
219 234 255
219 234 255
219 234 255
219 234 255
219 234 255
219 234 255
219 234 255
219 234 255
219 234 255
219 234 255
219 234 255
219 234 255
219 234 255
219 234 255
219 234 255
219 234 255
219 234 255
219 234 255
219 234 255
219 234 255
219 234 255
219 234 255
219 234 255
219 234 255
219 234 255
219 234 255
219 234 255
219 234 255
219 234 255
219 234 255
219 234 255
219 234 255
219 234 255
219 234 255
219 234 255
219 234 255
219 234 255
219 234 255
219 234 255
219 234 255
219 234 255
219 234 255
219 234 255
219 234 255
219 234 255
218 234 255
218 234 255
218 234 255
218 234 255
218 234 255
218 234 255
218 234 255
218 234 255
218 234 255
218 234 255
218 234 255
218 234 255
218 234 255
218 234 255
218 234 255
218 234 255
218 234 255
218 234 255
218 234 255
218 234 255
218 234 255
218 234 255
218 234 255
218 234 255
218 234 255
218 233 255
218 233 255
217 233 255
217 233 255
217 233 255
217 233 255
217 233 255
217 233 255
217 233 255
217 233 255
217 233 255
217 233 255
216 233 255
216 233 255
216 233 255
216 233 255
216 232 255
216 232 255
215 232 255
215 232 255
215 232 255
215 232 255
214 232 255
214 231 255
213 231 255
213 231 255
194 214 182
175 198 0
166 189 54
63 98 154
62 97 151
61 95 133
61 95 130
61 95 130
60 94 135
59 93 117
59 93 126
59 93 121
58 92 122
60 95 127
59 94 127
60 94 131
60 94 134
60 94 133
59 93 122
59 93 127
58 92 125
57 90 120
59 93 117
59 94 130
59 93 120
61 95 140
59 93 118
59 94 121
58 91 125
59 93 126
60 94 126
58 92 113
59 93 114
59 94 125
59 93 126
58 92 118
58 92 122
60 95 131
60 94 124
58 92 126
58 92 118
59 93 120
59 93 121
60 94 127
58 92 121
59 93 118
59 93 122
58 92 118
59 94 127
58 91 118
60 94 128
59 93 125
60 94 131
59 93 133
59 93 125
59 94 129
59 93 125
58 92 122
59 93 126
58 91 120
59 93 125
57 91 108
59 93 125
59 93 117
58 92 124
59 92 123
59 93 130
57 90 117
58 91 121
57 90 117
60 94 137
59 93 135
59 93 133
58 92 128
59 92 126
56 88 119
59 92 129
57 90 120
56 89 117
58 91 120
59 92 128
55 87 112
58 91 123
57 89 111
58 91 124
57 89 129
56 88 124
55 86 112
57 89 123
55 86 111
56 86 118
57 88 117
55 85 107
53 83 109
53 82 100
53 82 102
55 85 95
54 82 102
55 85 112
52 80 100
53 81 96
50 76 93
48 72 86
163 186 25
175 198 0
144 159 28
80 78 31
76 73 33
70 69 20
50 53 14
64 65 12
55 56 19
61 63 11
56 59 20
58 63 27
65 69 18
46 53 21
62 65 30
75 77 27
68 71 33
67 70 23
85 86 41
88 89 32
92 93 41
90 91 48
96 96 39
93 93 38
105 104 46
106 105 46
100 100 44
115 112 53
113 111 48
119 117 58
111 110 47
129 126 53
115 114 55
113 111 51
118 116 50
131 128 65
127 124 60
125 123 53
131 129 59
128 126 52
132 129 58
134 131 63
135 132 56
134 131 52
140 136 63
137 133 58
144 138 64
146 142 70
145 140 67
139 136 57
154 149 70
155 149 73
149 144 63
152 146 71
150 145 67
158 153 74
159 153 70
151 146 64
160 154 75
158 152 73
157 152 71
152 148 60
157 152 71
165 158 73
163 157 75
150 145 62
155 149 66
158 152 64
158 152 61
156 151 66
157 152 63
170 162 79
159 153 68
163 157 77
159 152 70
166 159 78
164 157 74
165 159 68
158 152 69
162 156 68
162 155 69
164 158 78
161 154 75
159 153 64
160 153 75
164 158 69
162 155 75
164 157 73
161 155 72
160 155 67
156 151 63
161 155 71
164 157 70
163 157 78
159 153 71
167 160 77
158 152 68
157 151 65
158 152 67
159 152 67
163 156 76
163 157 71
158 153 67
160 154 65
157 151 66
161 155 69
158 153 67
161 155 70
161 154 73
156 149 71
159 154 64
160 155 72
157 152 68
161 154 72
161 155 68
161 155 73
162 156 75
166 160 79
159 152 67
160 154 65
152 147 64
157 153 72
158 152 63
161 155 73
158 151 73
159 153 66
161 154 72
165 158 75
156 149 69
154 147 71
157 151 70
155 149 71
158 150 72
153 148 62
157 151 69
153 147 63
155 149 71
159 154 76
156 150 72
149 143 70
157 150 68
156 150 68
152 146 65
158 150 76
157 150 75
150 144 70
153 148 70
146 141 61
152 147 71
155 148 75
218 234 255
218 234 255
218 234 255
218 234 255
218 234 255
218 234 255
218 234 255
218 234 255
218 234 255
218 234 255
218 234 255
218 234 255
218 234 255
218 234 255
218 234 255
218 234 255
218 234 255
218 234 255
218 234 255
218 234 255
218 234 255
218 234 255
218 234 255
218 234 255
218 234 255
218 234 255
218 234 255
218 234 255
218 234 255
218 234 255
218 234 255
218 234 255
218 234 255
218 234 255
218 234 255
219 234 255
219 234 255
219 234 255
219 234 255
219 234 255
219 234 255
219 234 255
219 234 255
219 234 255
219 234 255
219 234 255
219 234 255
219 234 255
219 234 255
219 234 255
219 234 255
219 234 255
219 234 255
219 234 255
219 234 255
219 234 255
219 234 255
219 234 255
219 234 255
219 234 255
219 234 255
219 234 255
219 234 255
219 234 255
219 234 255
219 234 255
219 234 255
219 234 255
219 234 255
219 234 255
219 234 255
219 234 255
219 234 255
219 234 255
219 234 255
219 234 255
219 234 255
219 234 255
219 234 255
219 234 255
218 234 255
218 234 255
218 234 255
218 234 255
218 234 255
218 234 255
218 234 255
218 234 255
218 234 255
218 234 255
218 234 255
218 234 255
218 234 255
218 234 255
218 234 255
218 234 255
218 234 255
218 234 255
218 234 255
218 234 255
218 234 255
218 234 255
218 234 255
218 234 255
218 234 255
218 234 255
218 234 255
218 234 255
218 234 255
218 234 255
218 234 255
218 234 255
218 234 255
218 234 255
218 234 255
218 234 255
218 233 255
217 233 255
217 233 255
217 233 255
217 233 255
217 233 255
217 233 255
217 233 255
217 233 255
217 233 255
217 233 255
217 233 255
217 233 255
217 233 255
216 233 255
216 233 255
216 233 255
216 233 255
216 233 255
216 232 255
215 232 255
215 232 255
215 232 255
215 232 255
215 232 255
214 232 255
214 231 255
213 231 255
213 231 255
212 231 255
212 230 255
182 204 108
174 198 0
175 198 0
80 111 147
61 96 145
61 95 130
60 94 131
60 94 126
60 94 122
59 94 127
61 95 134
59 93 122
59 93 127
59 93 120
59 94 124
59 93 127
60 95 135
59 92 124
60 94 130
59 93 124
60 95 133
59 93 129
60 94 125
61 96 134
59 93 120
59 94 127
59 93 122
60 94 122
58 91 121
59 93 122
59 93 118
60 94 126
58 92 114
57 91 120
60 95 135
60 94 129
60 94 131
58 92 121
58 92 121
58 92 122
58 91 117
59 93 121
58 92 124
58 91 115
60 95 127
60 94 133
60 94 125
59 93 125
60 94 129
59 92 125
58 92 115
59 93 130
60 94 131
59 93 122
60 93 137
55 87 113
57 91 121
58 91 120
59 93 125
60 93 130
59 93 124
58 91 117
59 93 124
57 90 115
59 93 126
58 92 124
59 93 131
60 93 129
59 93 128
59 93 124
57 89 113
58 91 124
58 92 124
57 90 117
58 91 130
57 90 125
61 95 129
58 92 127
57 89 118
55 87 112
56 89 118
58 91 116
57 89 123
57 90 120
56 88 104
57 89 122
58 90 123
56 87 115
53 84 94
57 89 115
56 88 121
54 84 107
56 87 106
56 88 116
55 85 103
53 82 102
51 79 90
54 84 106
52 80 96
50 77 92
50 76 90
50 76 92
68 88 85
174 198 0
174 198 0
158 176 19
82 80 35
73 72 20
76 74 23
68 67 29
54 55 20
62 63 17
46 49 20
63 64 17
51 53 21
56 59 14
53 58 23
67 69 23
65 67 21
62 65 27
77 81 28
87 87 36
75 78 36
95 95 43
82 84 39
90 91 39
100 99 46
92 94 42
99 99 40
99 100 48
109 109 43
110 109 48
115 115 49
110 109 54
123 121 58
117 115 55
124 122 54
113 112 46
127 123 54
127 125 61
132 128 60
133 130 58
134 132 59
141 137 61
132 128 60
128 127 54
135 131 61
143 139 65
142 139 65
132 130 51
147 142 70
146 143 64
145 141 65
142 138 59
143 138 64
153 147 66
150 146 64
145 140 62
153 147 64
152 147 60
151 144 67
155 149 67
157 151 76
151 146 65
157 151 69
158 152 71
152 148 60
154 148 69
156 151 76
157 152 70
158 152 62
152 147 65
158 152 65
160 153 70
155 150 64
156 150 67
156 150 60
158 152 67
163 157 72
168 160 77
157 150 69
159 154 73
159 153 68
157 152 66
164 158 68
161 155 73
170 163 80
164 157 72
160 153 68
166 159 75
159 154 73
162 156 70
158 152 65
161 154 68
166 158 80
165 158 76
166 160 71
157 151 68
161 154 71
163 156 74
168 160 76
164 157 77
158 152 63
163 157 66
157 151 72
165 158 71
163 157 74
165 158 77
162 156 69
156 151 69
162 156 73
161 155 73
158 153 65
160 154 67
159 153 71
162 155 74
166 159 78
161 154 66
161 154 75
163 157 75
154 147 61
156 150 71
160 153 72
159 152 69
158 152 67
163 156 75
158 153 72
161 154 75
160 152 76
162 156 75
160 152 75
159 152 72
155 149 68
153 148 61
159 153 75
158 153 74
156 150 69
155 149 68
159 153 71
160 153 77
158 152 72
147 141 64
146 142 61
161 154 74
157 151 66
159 153 64
150 144 68
158 151 72
153 147 70
149 143 68
161 154 77
158 151 74
149 143 64
218 234 255
218 234 255
218 234 255
218 234 255
218 234 255
218 234 255
218 234 255
218 234 255
218 234 255
218 234 255
218 234 255
218 234 255
218 234 255
218 234 255
218 234 255
218 234 255
218 234 255
218 234 255
218 234 255
218 234 255
218 234 255
218 234 255
218 234 255
218 234 255
218 234 255
218 234 255
218 234 255
218 234 255
218 234 255
218 234 255
218 234 255
218 234 255
218 234 255
218 234 255
218 234 255
218 234 255
218 234 255
218 234 255
218 234 255
218 234 255
218 234 255
218 234 255
218 234 255
218 234 255
218 234 255
218 234 255
218 234 255
218 234 255
218 234 255
218 234 255
218 234 255
218 234 255
218 234 255
218 234 255
218 234 255
218 234 255
218 234 255
218 234 255
218 234 255
218 234 255
218 234 255
218 234 255
218 234 255
218 234 255
218 234 255
218 234 255
218 234 255
218 234 255
218 234 255
218 234 255
218 234 255
218 234 255
218 234 255
218 234 255
218 234 255
218 234 255
218 234 255
218 234 255
218 234 255
218 234 255
218 234 255
218 234 255
218 234 255
218 234 255
218 234 255
218 234 255
218 234 255
218 234 255
218 234 255
218 234 255
218 234 255
218 234 255
218 234 255
218 234 255
218 234 255
218 234 255
218 234 255
218 234 255
218 234 255
218 234 255
218 234 255
218 234 255
218 234 255
218 234 255
218 234 255
218 234 255
218 234 255
218 234 255
218 234 255
218 234 255
218 233 255
218 233 255
217 233 255
217 233 255
217 233 255
217 233 255
217 233 255
217 233 255
217 233 255
217 233 255
217 233 255
217 233 255
217 233 255
217 233 255
217 233 255
217 233 255
216 233 255
216 233 255
216 233 255
216 233 255
216 233 255
216 232 255
216 232 255
216 232 255
215 232 255
215 232 255
215 232 255
215 232 255
214 232 255
214 232 255
214 231 255
214 231 255
213 231 255
213 231 255
212 230 255
211 230 255
206 226 240
176 199 0
175 198 0
175 198 0
118 144 114
61 96 144
61 95 133
60 94 130
60 94 125
59 92 120
59 93 118
62 97 142
60 94 130
59 93 125
60 94 127
59 93 122
60 94 129
60 95 133
59 94 129
60 94 130
60 95 133
59 92 122
59 94 125
58 91 118
60 94 130
60 93 124
60 95 133
59 93 124
57 91 118
58 92 122
57 91 115
59 94 121
58 91 124
58 91 113
58 91 115
57 91 114
58 91 115
58 91 121
59 93 127
60 94 129
58 92 121
59 93 118
59 94 126
59 93 122
58 92 122
58 92 125
59 94 129
59 93 131
58 92 122
59 93 126
59 92 124
58 91 118
60 94 133
57 90 117
59 94 139
57 90 124
58 92 130
57 90 118
58 92 114
60 94 131
58 91 118
59 92 124
58 92 118
59 93 128
57 90 117
59 92 133
59 93 118
60 94 131
57 91 118
59 93 129
59 92 131
58 92 129
57 89 111
59 93 121
57 90 126
58 92 127
56 89 113
57 90 118
58 91 116
58 91 113
58 91 121
59 93 130
58 91 121
57 89 119
57 89 119
59 92 132
58 91 113
57 89 110
56 88 112
56 88 109
56 87 115
57 88 118
51 80 90
52 82 105
56 87 117
56 87 114
52 80 98
55 85 110
52 81 100
51 80 95
51 78 102
49 74 77
44 66 65
119 139 55
176 198 0
172 196 0
172 196 0
113 117 33
82 81 29
69 68 24
60 62 9
73 73 19
61 60 14
57 59 21
59 63 18
57 58 12
48 52 20
69 71 22
60 62 13
74 75 23
62 65 26
74 76 31
75 78 24
83 85 31
73 76 26
92 94 41
82 84 41
96 95 39
97 97 36
90 92 36
101 103 48
105 104 46
105 104 43
117 116 54
108 108 50
122 120 50
124 121 49
122 120 54
119 118 60
128 126 52
132 129 56
126 123 55
130 127 54
131 127 49
128 125 54
132 129 55
133 129 57
147 143 63
132 129 54
141 137 67
133 130 60
146 141 60
147 143 63
135 132 58
150 145 71
146 141 66
153 148 65
153 148 68
147 143 66
153 148 68
150 146 57
153 147 71
157 152 66
154 149 64
156 150 71
154 148 64
158 153 69
154 148 65
161 154 70
150 145 63
156 150 68
155 149 62
165 158 72
160 153 70
159 152 66
157 151 71
158 152 64
159 154 70
157 151 60
158 153 61
164 157 77
158 151 70
158 153 70
157 151 60
158 152 71
161 154 71
158 151 69
161 155 69
161 154 66
162 155 70
162 155 71
163 156 69
162 156 66
160 154 70
163 156 72
157 151 70
163 156 71
159 153 69
159 153 67
163 157 73
161 154 65
161 153 72
161 154 69
163 156 70
156 150 59
158 152 66
151 145 62
154 148 62
160 154 68
156 149 65
159 153 69
162 155 79
156 150 71
160 154 73
157 150 71
164 156 71
161 155 70
155 147 63
158 152 61
157 150 64
158 151 71
162 155 75
153 147 63
157 151 67
156 150 62
156 151 68
157 151 68
156 150 68
166 158 75
154 148 64
159 153 75
159 153 70
162 156 73
160 153 77
155 149 67
146 140 64
151 146 64
157 151 70
155 148 69
155 149 66
152 147 69
155 149 68
153 147 70
149 144 65
153 147 67
154 147 61
148 142 61
149 144 68
157 150 71
149 143 65
157 150 67
151 145 65
153 147 69
156 150 75
218 234 255
218 234 255
218 234 255
218 234 255
218 234 255
218 234 255
218 234 255
218 234 255
218 234 255
218 234 255
218 234 255
218 234 255
218 234 255
218 234 255
218 234 255
218 234 255
218 234 255
218 234 255
218 234 255
218 234 255
218 234 255
218 234 255
218 234 255
218 234 255
218 234 255
218 234 255
218 234 255
218 234 255
218 234 255
218 234 255
218 234 255
218 234 255
218 234 255
218 234 255
218 234 255
218 234 255
218 234 255
218 234 255
218 234 255
218 234 255
218 234 255
218 234 255
218 234 255
218 234 255
218 234 255
218 234 255
218 234 255
218 234 255
218 234 255
218 234 255
218 234 255
218 234 255
218 234 255
218 234 255
218 234 255
218 234 255
218 234 255
218 234 255
218 234 255
218 234 255
218 234 255
218 234 255
218 234 255
218 234 255
218 234 255
218 234 255
218 234 255
218 234 255
218 234 255
218 234 255
218 234 255
218 234 255
218 234 255
218 234 255
218 234 255
218 234 255
218 234 255
218 234 255
218 234 255
218 234 255
218 234 255
218 234 255
218 234 255
218 234 255
218 234 255
218 234 255
218 234 255
218 234 255
218 234 255
218 234 255
218 234 255
218 234 255
218 234 255
218 234 255
218 234 255
218 234 255
218 234 255
218 234 255
218 234 255
218 234 255
218 234 255
218 234 255
218 233 255
218 233 255
218 233 255
217 233 255
217 233 255
217 233 255
217 233 255
217 233 255
217 233 255
217 233 255
217 233 255
217 233 255
217 233 255
217 233 255
217 233 255
217 233 255
217 233 255
217 233 255
217 233 255
217 233 255
216 233 255
216 233 255
216 233 255
216 233 255
216 233 255
216 233 255
216 232 255
216 232 255
216 232 255
215 232 255
215 232 255
215 232 255
215 232 255
215 232 255
214 232 255
214 232 255
214 231 255
214 231 255
213 231 255
213 231 255
212 231 255
212 230 255
211 230 255
210 230 255
194 215 186
174 198 0
175 198 0
176 198 0
156 179 70
61 96 140
62 96 134
60 94 125
60 94 122
58 92 115
61 95 134
59 93 118
57 91 114
59 93 117
58 92 121
59 94 125
59 92 124
59 93 125
59 93 125
58 92 122
58 91 108
59 93 121
61 95 137
57 91 105
59 93 127
60 94 130
58 91 114
58 91 117
58 92 113
60 94 130
60 94 125
58 91 111
58 92 118
58 92 124
58 91 115
60 94 117
59 93 127
58 92 120
59 93 125
59 93 127
59 93 122
59 92 125
58 92 122
59 94 118
58 91 118
60 93 136
60 94 133
60 94 126
58 92 126
58 92 122
59 93 122
58 91 117
58 91 113
60 94 135
56 89 110
59 93 114
59 93 124
58 92 115
60 94 131
58 92 121
56 88 114
58 92 130
57 90 119
59 93 124
58 92 118
59 92 127
58 91 123
58 91 121
57 91 110
60 94 137
57 90 118
58 91 116
59 92 125
58 90 117
58 90 124
57 90 117
58 92 129
58 91 119
58 91 114
57 90 120
58 91 124
57 89 111
59 92 126
56 88 106
55 87 105
57 88 112
55 85 112
56 88 123
55 86 101
57 89 119
56 87 115
55 86 112
53 82 105
56 88 113
58 90 132
57 88 117
52 81 93
52 80 97
53 80 99
51 79 99
47 72 79
47 73 72
45 69 62
142 162 46
175 198 0
173 197 0
173 197 0
135 149 32
88 85 33
74 73 20
73 74 19
59 59 12
72 72 14
70 70 14
60 62 14
61 63 18
65 68 20
65 68 22
66 68 24
78 79 30
77 78 19
77 77 30
72 74 23
78 82 26
85 86 33
84 84 23
93 95 29
86 86 30
109 107 48
112 110 44
101 101 42
104 103 44
109 108 48
109 108 44
115 114 47
117 115 46
121 118 44
116 114 41
137 133 53
127 124 56
131 127 55
122 119 45
119 115 48
129 126 55
126 124 50
136 132 61
135 131 48
135 131 57
143 139 66
149 144 64
141 136 60
142 139 62
139 134 65
137 134 52
146 140 64
148 143 57
150 144 58
146 141 62
157 150 65
154 148 70
154 148 71
151 147 62
149 145 63
159 153 64
144 139 60
151 145 65
156 150 70
148 142 61
151 146 58
151 145 60
162 156 76
157 151 67
152 146 60
153 148 62
156 151 70
160 155 68
159 153 66
156 150 61
159 152 66
165 158 79
158 152 68
159 152 69
160 154 65
160 153 73
167 160 73
161 155 63
162 155 71
160 154 60
157 152 67
159 153 65
164 158 69
159 152 71
166 160 74
159 153 67
167 160 75
163 156 75
164 158 72
163 156 74
161 155 64
166 158 73
160 153 66
165 158 73
167 160 70
163 156 77
159 153 67
161 154 71
158 152 68
163 156 69
163 156 74
157 150 73
155 148 67
158 151 72
161 154 74
158 153 65
154 147 70
162 156 70
150 143 60
158 152 69
154 147 67
155 149 59
156 149 57
156 149 66
161 154 65
165 157 75
160 153 75
161 154 75
158 151 75
156 150 72
158 152 74
155 150 69
155 149 70
155 149 63
154 148 70
159 153 69
156 149 70
157 151 63
162 154 70
152 146 70
155 150 66
147 143 58
159 152 72
158 152 69
156 150 68
157 150 68
157 151 71
153 148 67
160 153 76
149 143 65
157 151 66
153 147 75
153 147 66
141 137 58
153 146 71
151 144 75
217 233 255
217 233 255
217 233 255
217 233 255
217 233 255
217 233 255
217 233 255
218 233 255
218 233 255
218 233 255
218 233 255
218 233 255
218 233 255
218 233 255
218 234 255
218 234 255
218 234 255
218 234 255
218 234 255
218 234 255
218 234 255
218 234 255
218 234 255
218 234 255
218 234 255
218 234 255
218 234 255
218 234 255
218 234 255
218 234 255
218 234 255
218 234 255
218 234 255
218 234 255
218 234 255
218 234 255
218 234 255
218 234 255
218 234 255
218 234 255
218 234 255
218 234 255
218 234 255
218 234 255
218 234 255
218 234 255
218 234 255
218 234 255
218 234 255
218 234 255
218 234 255
218 234 255
218 234 255
218 234 255
218 234 255
218 234 255
218 234 255
218 234 255
218 234 255
218 234 255
218 234 255
218 234 255
218 234 255
218 234 255
218 234 255
218 234 255
218 234 255
218 234 255
218 234 255
218 234 255
218 234 255
218 234 255
218 234 255
218 234 255
218 234 255
218 234 255
218 234 255
218 234 255
218 234 255
218 234 255
218 234 255
218 234 255
218 234 255
218 234 255
218 234 255
218 234 255
218 234 255
218 234 255
218 234 255
218 234 255
218 234 255
218 233 255
218 234 255
218 233 255
218 233 255
218 233 255
218 233 255
217 233 255
217 233 255
217 233 255
217 233 255
217 233 255
217 233 255
217 233 255
217 233 255
217 233 255
217 233 255
217 233 255
217 233 255
217 233 255
217 233 255
217 233 255
217 233 255
217 233 255
217 233 255
217 233 255
217 233 255
217 233 255
216 233 255
216 233 255
216 233 255
216 233 255
216 233 255
216 233 255
216 233 255
216 232 255
216 232 255
216 232 255
215 232 255
215 232 255
215 232 255
215 232 255
215 232 255
215 232 255
214 232 255
214 232 255
214 231 255
214 231 255
213 231 255
213 231 255
213 231 255
212 230 255
212 230 255
211 230 255
210 229 255
209 229 255
183 205 117
174 197 0
173 197 0
172 196 0
170 194 31
73 105 143
60 94 122
60 94 131
59 93 126
60 93 121
60 94 125
58 92 118
58 92 111
59 93 125
57 91 107
57 90 102
58 92 115
58 92 117
58 92 122
60 94 126
59 92 118
57 90 110
58 92 115
59 94 122
59 92 115
59 93 117
58 92 111
60 94 125
58 91 114
59 92 120
59 93 127
59 94 125
58 92 120
58 93 110
59 93 127
58 92 120
59 93 124
57 90 110
59 93 127
59 93 125
59 93 108
58 92 121
60 94 129
57 91 117
58 92 107
57 91 115
58 92 122
57 91 114
59 92 127
60 94 139
60 95 130
58 92 117
59 93 124
60 95 129
59 93 126
59 93 124
58 91 113
59 93 129
59 94 124
58 91 117
58 91 117
57 91 113
58 92 121
59 93 125
57 91 117
59 93 127
58 91 114
58 91 111
59 93 136
58 91 113
56 89 114
56 89 108
57 89 108
56 89 112
57 91 120
58 91 121
58 91 123
58 91 114
57 90 117
57 89 117
55 86 114
55 86 110
57 89 118
56 88 113
55 88 102
55 86 104
56 87 117
58 91 120
58 91 120
57 88 107
54 84 104
55 87 113
56 88 113
54 84 105
56 87 120
54 83 104
55 86 117
50 78 96
52 80 97
49 75 80
48 74 81
47 72 85
54 75 76
164 187 25
174 198 0
174 198 0
174 197 0
168 188 22
90 87 34
84 82 33
77 76 20
61 63 17
70 71 27
69 69 14
67 70 17
69 69 15
60 64 20
57 59 19
67 69 23
70 73 26
64 67 19
82 82 21
71 75 32
72 77 30
90 89 31
95 95 34
97 95 34
94 93 40
95 95 35
100 99 36
102 101 40
102 102 31
97 98 44
115 112 51
110 108 45
123 121 46
124 122 52
118 116 48
119 117 40
117 115 48
132 129 54
130 125 60
123 121 50
129 126 53
127 124 47
130 127 50
137 133 54
129 126 47
134 130 51
135 131 51
129 126 51
135 130 54
145 140 61
144 139 61
145 141 60
143 138 61
154 149 64
144 140 58
144 139 57
144 140 46
152 147 64
145 141 54
151 146 64
150 146 62
146 140 56
155 150 59
156 149 71
159 152 72
150 145 62
159 153 66
150 144 51
147 141 61
156 151 61
155 149 64
153 147 65
155 149 65
156 148 68
159 154 64
156 151 62
159 152 69
159 152 63
160 154 72
153 147 61
162 155 73
157 151 66
162 154 65
157 151 67
161 154 69
155 150 62
162 156 68
158 152 63
163 156 65
159 153 64
162 156 67
159 153 65
168 161 73
159 153 66
160 154 64
159 153 68
157 151 65
163 156 68
165 158 74
157 150 69
159 153 68
157 151 61
163 155 71
165 158 71
160 154 73
157 151 64
157 152 63
153 146 63
160 153 70
153 148 68
158 151 65
154 149 64
159 152 72
165 158 75
155 149 66
156 150 65
162 155 74
160 153 72
158 152 68
156 150 72
158 152 66
160 153 70
155 149 65
160 153 70
161 154 67
157 151 64
160 152 72
160 154 68
156 149 65
159 153 75
159 152 67
152 148 69
158 150 73
155 149 69
158 153 65
166 159 79
162 156 75
154 147 67
156 149 72
156 149 65
160 153 68
162 155 72
156 150 67
154 147 69
152 145 67
149 143 67
158 152 73
156 150 71
156 149 66
156 150 69
151 145 68
217 233 255
217 233 255
217 233 255
217 233 255
217 233 255
217 233 255
217 233 255
217 233 255
217 233 255
217 233 255
217 233 255
217 233 255
217 233 255
217 233 255
217 233 255
217 233 255
217 233 255
217 233 255
217 233 255
217 233 255
217 233 255
217 233 255
217 233 255
217 233 255
217 233 255
217 233 255
218 233 255
218 233 255
218 233 255
218 233 255
218 233 255
218 233 255
218 233 255
218 233 255
218 233 255
218 233 255
218 233 255
218 234 255
218 234 255
218 234 255
218 234 255
218 234 255
218 234 255
218 234 255
218 234 255
218 234 255
218 234 255
218 234 255
218 234 255
218 234 255
218 234 255
218 234 255
218 234 255
218 234 255
218 234 255
218 234 255
218 234 255
218 234 255
218 234 255
218 234 255
218 234 255
218 234 255
218 234 255
218 234 255
218 234 255
218 234 255
218 234 255
218 234 255
218 234 255
218 234 255
218 234 255
218 234 255
218 234 255
218 234 255
218 234 255
218 234 255
218 234 255
218 233 255
218 233 255
218 233 255
218 233 255
218 233 255
218 233 255
218 233 255
218 233 255
217 233 255
217 233 255
217 233 255
217 233 255
217 233 255
217 233 255
217 233 255
217 233 255
217 233 255
217 233 255
217 233 255
217 233 255
217 233 255
217 233 255
217 233 255
217 233 255
217 233 255
217 233 255
217 233 255
217 233 255
217 233 255
217 233 255
217 233 255
217 233 255
217 233 255
217 233 255
217 233 255
217 233 255
216 233 255
216 233 255
216 233 255
216 233 255
216 233 255
216 233 255
216 233 255
216 233 255
216 233 255
216 232 255
216 232 255
215 232 255
215 232 255
215 232 255
215 232 255
215 232 255
215 232 255
215 232 255
214 232 255
214 232 255
214 231 255
214 231 255
214 231 255
213 231 255
213 231 255
213 231 255
212 231 255
212 230 255
211 230 255
211 230 255
210 229 255
209 229 255
201 221 223
172 196 0
174 197 0
174 198 0
175 198 0
174 198 0
107 134 129
59 93 137
58 92 118
59 92 122
59 94 129
60 94 127
59 94 122
59 93 117
58 91 121
59 93 117
59 93 122
58 91 113
61 95 134
58 93 114
59 93 113
58 92 122
61 95 130
58 92 121
60 94 126
60 94 130
60 94 118
58 92 122
59 93 118
59 92 122
57 90 117
59 92 122
59 93 122
59 93 121
60 94 135
59 93 124
57 91 117
58 91 108
60 94 117
58 92 122
58 91 114
59 93 130
57 91 114
59 94 125
60 93 130
60 94 125
58 92 115
60 94 120
59 93 126
59 93 130
59 93 126
56 89 113
58 92 108
58 91 115
59 93 125
57 90 117
59 93 129
57 90 114
56 89 108
59 94 126
58 91 110
59 93 125
58 91 124
58 92 121
57 90 111
58 92 126
59 93 130
59 92 130
58 92 115
59 92 116
58 91 120
58 90 121
59 92 123
57 91 114
58 92 111
58 91 124
57 90 117
56 88 112
57 89 110
57 89 109
56 89 108
58 91 125
57 90 116
58 91 126
56 88 105
59 91 124
57 89 110
55 86 95
55 86 113
57 89 113
54 85 89
55 86 119
54 84 104
53 83 109
55 84 98
54 85 112
55 85 112
51 79 85
51 79 91
49 77 83
50 77 88
52 79 101
48 73 80
103 122 66
171 194 0
174 197 0
174 197 0
173 197 0
174 197 0
122 130 26
90 88 33
73 71 29
74 72 23
74 72 21
67 66 23
66 68 18
58 60 17
64 66 20
68 69 13
73 74 16
66 69 17
85 84 13
77 78 31
77 79 21
79 81 29
85 87 25
93 93 35
99 97 33
87 88 27
102 101 45
108 108 44
103 102 43
103 100 41
93 92 34
104 104 32
116 113 40
106 104 41
109 108 43
109 108 40
133 129 57
121 118 49
124 121 57
133 129 45
120 118 45
127 124 50
125 122 45
135 133 53
140 136 52
134 130 56
137 133 55
131 127 52
131 129 50
137 133 61
132 131 47
142 138 51
146 142 58
145 139 56
140 136 60
147 143 62
153 148 63
148 143 54
155 149 61
144 139 59
149 145 63
154 147 64
157 152 71
151 145 62
151 146 66
156 150 62
154 148 62
151 146 60
154 148 70
157 150 68
162 156 68
162 155 73
152 146 65
157 150 56
160 154 71
157 152 64
156 150 62
158 152 63
162 156 70
156 150 63
160 154 66
165 158 71
156 150 66
157 152 60
163 156 72
164 158 69
162 156 63
160 155 59
158 152 63
164 157 73
158 151 61
162 157 64
160 153 65
157 151 74
158 152 67
166 159 75
158 152 63
154 148 60
160 154 63
160 153 72
162 156 67
156 149 64
156 150 69
163 157 69
162 155 71
158 152 61
160 154 66
156 150 58
155 150 62
165 157 77
159 154 60
157 150 63
156 149 73
159 153 68
151 146 62
159 152 65
156 150 69
158 152 71
164 157 80
151 145 63
159 153 69
154 148 64
159 153 71
159 153 73
157 151 63
146 140 49
165 158 76
156 150 65
158 152 65
153 146 67
143 138 56
156 151 62
156 150 68
153 147 62
152 146 68
157 150 74
157 150 66
155 148 70
153 146 67
154 148 69
154 147 67
149 143 60
148 142 64
157 149 69
156 150 68
153 147 74
161 153 72
153 146 69
152 146 63
154 148 62
149 142 69
149 143 63
217 233 255
217 233 255
217 233 255
217 233 255
217 233 255
217 233 255
217 233 255
217 233 255
217 233 255
217 233 255
217 233 255
217 233 255
217 233 255
217 233 255
217 233 255
217 233 255
217 233 255
217 233 255
217 233 255
217 233 255
217 233 255
217 233 255
217 233 255
217 233 255
217 233 255
217 233 255
217 233 255
217 233 255
217 233 255
217 233 255
217 233 255
217 233 255
217 233 255
217 233 255
217 233 255
217 233 255
217 233 255
217 233 255
217 233 255
217 233 255
217 233 255
217 233 255
217 233 255
217 233 255
217 233 255
217 233 255
217 233 255
217 233 255
217 233 255
217 233 255
217 233 255
217 233 255
217 233 255
217 233 255
217 233 255
217 233 255
217 233 255
217 233 255
217 233 255
217 233 255
217 233 255
217 233 255
217 233 255
217 233 255
217 233 255
217 233 255
217 233 255
217 233 255
217 233 255
217 233 255
217 233 255
217 233 255
217 233 255
217 233 255
217 233 255
217 233 255
217 233 255
217 233 255
217 233 255
217 233 255
217 233 255
217 233 255
217 233 255
217 233 255
217 233 255
217 233 255
217 233 255
217 233 255
217 233 255
217 233 255
217 233 255
217 233 255
217 233 255
217 233 255
217 233 255
217 233 255
217 233 255
217 233 255
217 233 255
217 233 255
217 233 255
217 233 255
217 233 255
217 233 255
217 233 255
217 233 255
217 233 255
217 233 255
216 233 255
216 233 255
216 233 255
216 233 255
216 233 255
216 233 255
216 233 255
216 233 255
216 233 255
216 233 255
216 232 255
216 232 255
216 232 255
215 232 255
215 232 255
215 232 255
215 232 255
215 232 255
215 232 255
215 232 255
214 232 255
214 232 255
214 232 255
214 231 255
214 231 255
213 231 255
213 231 255
213 231 255
213 231 255
212 231 255
212 230 255
212 230 255
211 230 255
210 230 255
210 229 255
209 229 255
208 228 255
185 207 133
172 196 0
173 196 0
174 197 0
175 198 0
174 197 0
144 168 78
60 95 141
60 94 129
59 93 125
59 93 124
58 92 115
59 93 115
60 94 124
57 90 110
57 91 117
59 93 122
58 91 114
58 92 121
59 92 127
59 92 121
57 90 110
58 92 120
58 92 122
58 92 117
59 93 125
61 95 131
59 93 122
57 91 121
57 90 115
59 93 125
57 90 103
59 92 115
59 93 125
59 92 122
58 92 117
57 91 108
59 92 122
60 95 127
59 93 120
58 91 114
59 93 117
57 91 118
58 91 115
58 92 122
57 90 111
56 89 97
58 91 127
60 94 131
61 95 133
58 91 114
59 93 125
57 90 105
58 92 120
56 89 114
58 92 124
58 91 125
58 92 124
59 92 125
57 90 113
58 91 133
59 92 117
58 91 121
55 87 102
59 93 125
58 92 126
57 89 121
58 91 121
59 93 118
58 91 124
55 88 114
58 91 122
57 90 121
55 88 108
58 91 120
59 92 124
58 91 121
55 87 105
56 87 112
56 87 106
57 89 113
59 92 124
56 88 117
56 88 120
56 88 101
57 89 112
56 88 108
57 89 111
57 88 103
57 89 113
55 87 107
56 88 113
54 84 109
53 82 94
53 82 102
55 85 100
54 84 109
55 85 112
54 83 103
52 80 108
47 73 84
47 73 75
47 70 70
149 171 42
172 196 0
173 197 0
174 198 0
174 197 0
173 197 0
149 168 11
91 88 31
87 85 33
88 85 25
70 70 20
83 83 17
73 73 14
70 71 21
62 64 11
58 61 16
82 82 25
75 78 22
77 78 21
76 78 26
83 82 26
83 84 9
75 77 26
91 92 33
90 90 26
88 88 27
89 90 30
98 99 38
103 101 33
100 99 35
114 111 43
104 103 40
103 102 42
105 102 41
110 108 37
118 117 47
120 117 48
112 109 40
119 116 50
130 126 52
121 117 46
127 124 53
134 131 52
130 127 45
132 128 49
143 139 61
133 128 45
138 134 53
142 139 47
138 134 52
148 143 60
136 132 51
140 136 55
147 142 56
147 142 63
147 141 59
146 142 54
149 143 57
146 141 56
149 143 60
149 143 61
147 142 59
149 144 51
155 150 64
150 146 56
151 147 49
149 143 59
143 140 49
151 145 62
155 150 68
153 147 67
155 149 59
161 155 65
161 154 71
159 154 63
158 152 65
153 148 54
158 151 62
153 148 64
158 151 65
155 149 58
162 155 72
156 149 63
158 152 66
160 153 64
158 151 63
158 153 62
158 152 62
163 156 73
153 147 58
152 147 58
153 147 61
161 155 62
153 148 58
162 155 69
160 153 66
160 154 63
155 150 61
158 151 68
153 147 57
155 148 67
162 155 69
163 156 70
158 150 64
157 150 69
161 154 74
158 152 67
155 149 67
158 151 69
157 152 61
161 154 71
161 154 69
159 154 64
155 149 65
160 154 68
160 154 71
157 151 59
158 152 64
156 151 60
156 151 58
162 154 69
151 147 67
158 151 68
148 142 57
154 147 67
162 155 75
156 149 65
158 151 64
147 142 61
155 149 65
156 150 71
153 147 66
146 140 59
152 145 68
152 146 60
151 146 64
149 143 62
153 147 60
153 147 64
151 145 65
157 150 67
149 144 65
153 146 67
152 146 63
145 138 66
154 148 72
153 145 67
146 140 67
148 142 65
150 145 56
146 140 66
149 144 66
217 233 255
217 233 255
217 233 255
217 233 255
217 233 255
217 233 255
217 233 255
217 233 255
217 233 255
217 233 255
217 233 255
217 233 255
217 233 255
217 233 255
217 233 255
217 233 255
217 233 255
217 233 255
217 233 255
217 233 255
217 233 255
217 233 255
217 233 255
217 233 255
217 233 255
217 233 255
217 233 255
217 233 255
217 233 255
217 233 255
217 233 255
217 233 255
217 233 255
217 233 255
217 233 255
217 233 255
217 233 255
217 233 255
217 233 255
217 233 255
217 233 255
217 233 255
217 233 255
217 233 255
217 233 255
217 233 255
217 233 255
217 233 255
217 233 255
217 233 255
217 233 255
217 233 255
217 233 255
217 233 255
217 233 255
217 233 255
217 233 255
217 233 255
217 233 255
217 233 255
217 233 255
217 233 255
217 233 255
217 233 255
217 233 255
217 233 255
217 233 255
217 233 255
217 233 255
217 233 255
217 233 255
217 233 255
217 233 255
217 233 255
217 233 255
217 233 255
217 233 255
217 233 255
217 233 255
217 233 255
217 233 255
217 233 255
217 233 255
217 233 255
217 233 255
217 233 255
217 233 255
217 233 255
217 233 255
217 233 255
217 233 255
217 233 255
217 233 255
217 233 255
217 233 255
217 233 255
217 233 255
217 233 255
217 233 255
217 233 255
217 233 255
217 233 255
216 233 255
216 233 255
216 233 255
216 233 255
216 233 255
216 233 255
216 233 255
216 233 255
216 233 255
216 233 255
216 233 255
216 233 255
216 232 255
216 232 255
216 232 255
215 232 255
215 232 255
215 232 255
215 232 255
215 232 255
215 232 255
215 232 255
215 232 255
214 232 255
214 232 255
214 232 255
214 232 255
214 231 255
214 231 255
213 231 255
213 231 255
213 231 255
213 231 255
212 231 255
212 230 255
212 230 255
211 230 255
211 230 255
210 229 255
210 229 255
209 229 255
208 228 255
203 224 238
174 197 25
175 198 0
173 197 0
174 197 0
173 196 0
173 196 0
174 198 0
76 106 121
58 91 113
58 92 114
59 93 120
60 94 122
57 91 113
58 92 110
59 93 122
59 93 117
58 91 113
59 93 115
58 92 111
59 94 124
59 93 127
59 92 113
59 93 127
59 92 120
59 93 120
56 89 107
59 93 120
58 92 114
58 92 114
58 92 122
58 92 114
59 93 124
58 91 117
59 94 129
59 93 120
60 94 126
58 92 118
57 91 122
58 92 122
56 89 97
59 93 117
58 92 126
58 92 117
59 92 120
59 92 126
59 93 127
58 91 117
58 91 117
57 91 108
59 92 126
58 91 126
56 89 114
58 92 121
58 91 115
58 91 120
58 92 122
58 92 124
56 89 113
58 91 120
58 92 123
58 92 125
57 90 107
57 90 107
58 91 121
57 90 115
59 92 122
54 86 99
58 92 124
57 90 115
58 91 114
59 92 129
57 90 108
57 90 124
56 89 104
58 92 121
58 91 119
58 91 124
57 90 115
54 85 95
58 91 124
58 91 121
54 86 114
57 89 108
54 86 98
57 88 115
55 86 106
55 85 99
54 85 104
57 88 115
56 87 115
54 85 99
53 82 98
54 85 101
54 83 100
52 82 95
52 81 96
53 82 97
52 81 96
51 78 99
50 77 91
43 66 73
48 74 82
64 84 72
170 193 0
172 195 0
174 196 0
173 196 0
174 197 0
171 195 0
175 198 0
99 102 23
89 87 32
73 72 21
78 77 18
76 75 18
63 63 20
62 64 13
72 72 15
67 69 9
70 72 25
73 73 10
82 82 21
81 83 23
93 92 22
76 78 26
91 93 32
95 93 35
81 82 33
95 93 33
79 80 32
83 85 27
92 93 37
101 101 37
102 101 34
97 97 32
106 106 37
110 109 40
116 113 47
105 104 35
120 118 46
120 117 47
121 118 42
108 106 39
116 114 46
128 125 45
131 126 46
125 122 45
127 124 50
137 133 57
134 129 49
143 139 63
130 126 40
138 134 60
135 132 42
151 145 63
143 138 57
137 133 46
142 138 50
140 136 48
145 142 57
143 139 49
143 139 53
150 145 58
152 145 64
151 147 57
153 148 66
148 142 54
150 145 60
151 145 57
151 145 66
151 145 53
159 151 67
149 144 61
154 149 59
155 148 65
153 148 60
157 150 63
156 151 60
155 149 57
152 147 59
157 152 64
161 155 64
150 144 62
152 147 54
152 147 52
153 147 60
158 152 56
155 150 61
156 149 62
153 148 62
152 147 48
151 145 58
156 151 60
151 145 53
160 154 62
158 152 61
152 146 53
161 155 66
157 150 66
150 145 58
159 152 75
158 152 61
162 155 75
156 150 59
146 141 64
158 153 64
158 152 69
158 152 57
162 156 69
149 143 53
166 159 73
158 151 68
159 152 68
164 156 75
155 149 65
152 145 59
160 153 63
156 150 64
158 152 64
154 148 61
155 148 64
154 149 60
156 149 66
160 154 72
146 141 57
154 148 64
159 153 72
159 153 71
153 147 68
155 148 68
157 150 68
150 144 65
147 141 64
158 151 70
163 156 74
149 143 58
156 150 68
154 148 68
159 151 74
148 144 58
150 143 63
155 149 66
156 150 67
154 147 71
151 145 62
154 148 65
153 147 63
153 148 61
154 149 68
147 142 59
143 138 63
152 145 66
142 135 60
152 146 63
151 144 68
216 233 255
216 233 255
216 233 255
216 233 255
216 233 255
216 233 255
216 233 255
216 233 255
216 233 255
217 233 255
217 233 255
217 233 255
217 233 255
217 233 255
217 233 255
217 233 255
217 233 255
217 233 255
217 233 255
217 233 255
217 233 255
217 233 255
217 233 255
217 233 255
217 233 255
217 233 255
217 233 255
217 233 255
217 233 255
217 233 255
217 233 255
217 233 255
217 233 255
217 233 255
217 233 255
217 233 255
217 233 255
217 233 255
217 233 255
217 233 255
217 233 255
217 233 255
217 233 255
217 233 255
217 233 255
217 233 255
217 233 255
217 233 255
217 233 255
217 233 255
217 233 255
217 233 255
217 233 255
217 233 255
217 233 255
217 233 255
217 233 255
217 233 255
217 233 255
217 233 255
217 233 255
217 233 255
217 233 255
217 233 255
217 233 255
217 233 255
217 233 255
217 233 255
217 233 255
217 233 255
217 233 255
217 233 255
217 233 255
217 233 255
217 233 255
217 233 255
217 233 255
217 233 255
217 233 255
217 233 255
217 233 255
217 233 255
217 233 255
217 233 255
217 233 255
217 233 255
217 233 255
217 233 255
217 233 255
217 233 255
217 233 255
217 233 255
217 233 255
217 233 255
216 233 255
216 233 255
216 233 255
216 233 255
216 233 255
216 233 255
216 233 255
216 233 255
216 233 255
216 233 255
216 233 255
216 233 255
216 233 255
216 233 255
216 233 255
216 232 255
216 232 255
216 232 255
216 232 255
215 232 255
215 232 255
215 232 255
215 232 255
215 232 255
215 232 255
215 232 255
215 232 255
215 232 255
215 232 255
214 232 255
214 232 255
214 232 255
214 231 255
214 231 255
214 231 255
213 231 255
213 231 255
213 231 255
213 231 255
212 231 255
212 230 255
212 230 255
211 230 255
211 230 255
210 229 255
210 229 255
209 229 255
209 229 255
208 228 255
207 227 255
185 207 142
172 196 0
172 196 0
175 198 0
172 196 0
171 195 0
171 195 0
172 196 0
132 158 108
59 93 125
57 90 111
59 93 115
58 92 124
59 93 117
57 91 118
58 92 103
59 93 120
58 91 113
58 92 113
58 92 113
58 93 113
59 93 115
57 91 105
58 92 117
57 91 121
58 92 114
57 90 103
60 94 124
58 92 118
59 93 124
59 92 117
59 93 124
58 92 113
58 92 117
60 94 130
58 92 124
59 93 126
59 93 125
59 93 126
56 90 105
60 94 121
59 92 127
56 89 102
57 91 117
58 91 114
58 92 120
58 92 114
60 94 129
59 92 115
58 92 122
59 92 122
57 90 114
59 94 120
58 91 121
57 90 114
57 91 115
60 94 124
57 90 113
58 92 114
56 89 113
56 88 107
59 93 131
55 88 113
58 91 115
57 90 114
58 91 115
58 91 115
59 92 122
58 91 118
59 92 120
55 87 105
57 90 111
59 93 122
58 91 117
57 89 117
56 88 103
58 92 124
56 89 115
58 91 123
58 90 117
57 90 121
56 87 110
56 89 113
56 87 109
58 90 118
57 88 106
55 85 103
56 88 107
57 89 114
56 87 105
54 84 104
53 82 104
54 84 100
57 89 126
53 83 109
54 84 106
53 82 93
54 84 98
51 78 92
51 78 89
51 79 88
47 71 83
46 70 74
127 149 46
172 194 0
174 197 0
170 193 0
170 194 0
172 194 0
174 197 0
170 194 0
148 165 19
89 87 34
87 85 23
76 75 24
78 76 20
73 73 17
70 70 13
48 52 18
70 70 12
74 73 8
82 81 12
73 75 25
88 85 13
84 84 24
89 88 26
83 83 17
87 87 24
92 93 37
89 89 32
90 90 22
86 86 27
105 104 39
107 105 29
111 108 41
105 103 35
109 107 43
104 102 43
109 107 40
113 111 38
123 120 43
127 124 42
120 117 46
127 124 48
120 118 48
122 120 41
131 128 40
133 129 48
129 125 43
141 137 49
136 131 49
126 123 42
136 133 51
136 132 55
132 128 51
139 135 59
135 131 53
136 133 53
146 141 57
151 145 57
145 140 56
142 138 53
156 149 67
150 144 55
148 143 57
148 143 58
155 148 66
138 134 49
152 147 59
152 145 56
147 143 51
149 145 59
154 148 59
147 142 51
158 152 66
154 148 59
155 148 64
153 147 58
160 152 65
149 142 57
147 142 54
152 146 61
156 150 64
150 144 51
157 151 63
161 154 66
153 147 60
161 154 66
162 156 66
149 144 49
155 149 62
154 148 56
158 151 62
154 148 60
159 154 57
154 147 63
159 153 60
155 151 54
158 152 62
157 151 54
152 146 51
157 151 58
164 157 72
151 147 60
152 147 58
157 151 64
154 148 63
161 155 66
162 155 68
152 146 62
157 151 63
156 150 63
145 139 58
157 150 67
157 149 68
157 149 63
157 151 56
154 149 57
161 154 69
161 153 67
157 150 62
161 155 71
151 145 56
151 145 60
157 150 65
158 151 68
157 149 68
158 151 64
155 149 66
157 150 65
152 146 61
159 152 64
156 149 66
155 149 65
151 145 65
154 148 59
165 158 75
154 148 69
154 148 64
154 148 72
151 145 61
149 143 67
145 139 62
153 147 64
147 141 64
152 146 66
155 148 64
154 148 68
155 149 66
155 148 67
146 140 61
151 146 64
144 138 59
151 145 70
153 146 67
155 148 71
216 233 255
216 233 255
216 233 255
216 233 255
216 233 255
216 233 255
216 233 255
216 233 255
216 233 255
216 233 255
216 233 255
216 233 255
216 233 255
216 233 255
216 233 255
216 233 255
216 233 255
216 233 255
216 233 255
216 233 255
216 233 255
216 233 255
216 233 255
216 233 255
217 233 255
217 233 255
217 233 255
217 233 255
217 233 255
217 233 255
217 233 255
217 233 255
217 233 255
217 233 255
217 233 255
217 233 255
217 233 255
217 233 255
217 233 255
217 233 255
217 233 255
217 233 255
217 233 255
217 233 255
217 233 255
217 233 255
217 233 255
217 233 255
217 233 255
217 233 255
217 233 255
217 233 255
217 233 255
217 233 255
217 233 255
217 233 255
217 233 255
217 233 255
217 233 255
217 233 255
217 233 255
217 233 255
217 233 255
217 233 255
217 233 255
217 233 255
217 233 255
217 233 255
217 233 255
217 233 255
217 233 255
217 233 255
217 233 255
217 233 255
217 233 255
217 233 255
217 233 255
217 233 255
217 233 255
217 233 255
217 233 255
217 233 255
217 233 255
217 233 255
217 233 255
216 233 255
216 233 255
216 233 255
216 233 255
216 233 255
216 233 255
216 233 255
216 233 255
216 233 255
216 233 255
216 233 255
216 233 255
216 233 255
216 233 255
216 233 255
216 233 255
216 233 255
216 233 255
216 232 255
216 232 255
216 232 255
216 232 255
216 232 255
215 232 255
215 232 255
215 232 255
215 232 255
215 232 255
215 232 255
215 232 255
215 232 255
215 232 255
215 232 255
215 232 255
214 232 255
214 232 255
214 232 255
214 232 255
214 231 255
214 231 255
214 231 255
213 231 255
213 231 255
213 231 255
213 231 255
213 231 255
212 231 255
212 230 255
212 230 255
211 230 255
211 230 255
211 230 255
210 229 255
210 229 255
209 229 255
208 228 255
208 228 255
207 227 255
202 224 240
174 197 25
173 196 0
172 195 0
173 197 0
173 197 0
174 197 0
173 196 0
173 197 0
161 184 44
60 94 117
59 93 120
61 95 127
59 93 115
57 91 113
58 91 113
59 92 111
58 91 107
59 93 127
59 93 121
59 93 125
58 91 114
59 92 121
58 91 114
56 88 105
57 91 107
59 93 118
58 91 115
58 91 111
58 91 127
58 91 117
57 90 111
60 95 134
56 89 103
58 93 120
58 91 117
58 91 113
57 91 108
59 93 117
58 92 126
58 92 111
58 92 120
57 90 100
58 91 115
58 91 125
58 92 115
58 91 118
58 92 117
59 92 126
59 93 126
56 88 99
59 93 118
59 93 124
59 92 118
59 93 118
58 92 113
58 91 122
57 90 111
57 90 111
59 92 125
58 91 115
58 91 115
58 92 122
58 92 118
58 91 124
58 92 114
58 91 120
58 91 116
58 92 118
56 88 118
56 88 118
56 89 100
57 90 113
58 92 117
59 92 124
57 89 112
57 89 115
57 89 118
57 90 108
58 91 121
56 88 117
56 88 107
56 87 104
55 87 118
56 88 111
56 89 105
55 86 110
53 84 100
55 86 112
54 84 102
55 85 110
53 84 93
54 84 104
53 83 86
55 85 107
54 83 94
54 84 103
51 80 93
54 83 100
52 81 99
51 78 85
48 74 80
47 73 80
54 77 62
163 185 25
172 196 0
172 196 0
173 195 0
173 196 0
171 194 0
171 194 0
169 193 0
172 196 11
107 109 31
90 88 35
67 65 18
72 69 7
65 66 9
67 69 14
76 75 10
76 76 15
60 61 18
71 70 20
85 87 18
70 72 18
77 76 20
78 80 17
78 79 18
85 86 28
85 86 21
96 96 21
89 89 28
94 94 35
104 103 28
107 104 32
105 105 27
107 106 36
113 110 39
114 112 45
118 115 41
111 109 36
107 105 41
127 124 38
124 118 48
120 117 42
125 123 47
124 120 49
129 126 44
134 129 48
130 126 48
131 129 46
139 135 52
144 138 57
134 129 45
142 137 53
138 134 55
131 127 47
137 133 50
144 139 56
145 141 48
149 144 55
144 139 52
151 146 58
143 137 59
145 140 51
133 130 42
145 141 52
143 137 56
146 140 57
150 145 58
151 144 58
152 147 57
148 141 62
151 146 56
153 147 58
158 152 62
149 144 54
150 144 55
156 150 61
152 146 58
148 143 58
154 147 56
152 145 63
156 151 60
157 151 53
159 152 67
154 148 60
151 146 53
153 147 60
155 149 58
154 147 53
158 153 60
145 141 42
160 153 67
156 151 58
154 147 57
155 149 60
160 154 62
159 154 57
162 156 63
160 152 62
162 155 66
160 154 66
156 149 61
159 153 62
157 151 60
159 152 69
153 147 62
155 149 61
156 149 63
154 149 61
154 149 57
156 150 61
152 146 58
152 146 54
159 152 64
157 149 62
157 151 62
160 154 69
158 151 63
155 149 60
151 145 66
161 155 68
145 141 56
154 148 66
157 150 62
159 152 65
153 148 66
152 145 64
151 145 58
152 145 62
152 146 63
160 152 73
157 151 65
159 152 70
154 147 65
157 151 68
155 149 60
145 140 51
139 133 51
151 146 62
154 148 60
151 145 58
147 142 56
150 144 61
152 147 60
158 152 75
146 141 60
149 143 62
153 147 63
151 144 66
154 147 63
158 151 68
153 146 67
151 144 67
153 146 66
150 145 61
216 232 255
216 232 255
216 233 255
216 233 255
216 233 255
216 233 255
216 233 255
216 233 255
216 233 255
216 233 255
216 233 255
216 233 255
216 233 255
216 233 255
216 233 255
216 233 255
216 233 255
216 233 255
216 233 255
216 233 255
216 233 255
216 233 255
216 233 255
216 233 255
216 233 255
216 233 255
216 233 255
216 233 255
216 233 255
216 233 255
216 233 255
216 233 255
216 233 255
216 233 255
216 233 255
216 233 255
216 233 255
216 233 255
216 233 255
216 233 255
216 233 255
216 233 255
216 233 255
216 233 255
216 233 255
216 233 255
216 233 255
216 233 255
216 233 255
216 233 255
216 233 255
216 233 255
216 233 255
217 233 255
216 233 255
217 233 255
216 233 255
217 233 255
216 233 255
217 233 255
217 233 255
216 233 255
216 233 255
216 233 255
216 233 255
216 233 255
216 233 255
216 233 255
216 233 255
216 233 255
216 233 255
216 233 255
216 233 255
216 233 255
216 233 255
216 233 255
216 233 255
216 233 255
216 233 255
216 233 255
216 233 255
216 233 255
216 233 255
216 233 255
216 233 255
216 233 255
216 233 255
216 233 255
216 233 255
216 233 255
216 233 255
216 233 255
216 233 255
216 233 255
216 233 255
216 233 255
216 233 255
216 232 255
216 232 255
216 232 255
216 232 255
216 232 255
216 232 255
215 232 255
215 232 255
215 232 255
215 232 255
215 232 255
215 232 255
215 232 255
215 232 255
215 232 255
215 232 255
215 232 255
215 232 255
215 232 255
214 232 255
214 232 255
214 232 255
214 232 255
214 231 255
214 231 255
214 231 255
213 231 255
213 231 255
213 231 255
213 231 255
213 231 255
212 231 255
212 230 255
212 230 255
212 230 255
211 230 255
211 230 255
211 230 255
210 229 255
210 229 255
209 229 255
209 229 255
208 228 255
207 228 255
206 227 255
205 227 255
185 208 153
170 194 0
174 197 0
173 197 0
172 195 0
170 193 0
172 195 0
172 196 0
171 195 0
174 197 0
118 143 97
59 93 121
59 93 122
58 92 111
58 92 118
59 93 114
57 90 113
59 93 127
56 90 102
59 93 126
57 91 114
58 92 118
57 91 115
59 93 122
58 92 120
59 93 115
59 93 117
58 91 121
57 90 105
58 92 114
57 91 108
59 93 115
58 92 117
59 93 110
57 91 113
59 93 124
58 92 114
60 94 118
58 92 113
57 90 108
57 91 107
58 91 113
58 91 118
59 93 117
59 92 126
57 90 114
57 90 113
57 90 118
58 91 115
58 91 115
58 92 115
57 91 114
56 89 110
58 91 114
57 90 110
58 91 124
58 91 115
58 92 121
59 92 118
57 90 108
58 91 121
57 89 113
59 93 123
57 90 124
57 89 110
59 93 122
57 90 113
56 88 106
57 89 111
58 91 121
57 90 113
57 89 115
58 92 122
57 90 107
57 90 114
54 86 92
57 90 113
59 93 124
56 88 108
56 88 113
56 89 115
55 86 100
56 88 114
57 89 113
56 89 108
56 87 106
56 87 101
54 85 99
57 88 112
55 87 110
56 88 112
55 86 101
55 85 105
54 83 98
54 84 104
52 81 97
50 77 92
51 79 89
51 80 90
51 78 94
49 75 79
48 75 63
45 70 75
124 145 58
174 198 0
172 195 0
173 196 0
173 195 0
175 197 0
173 196 0
171 195 0
173 196 0
173 197 0
153 167 33
77 75 28
80 78 16
88 85 30
72 74 20
86 83 24
68 69 16
67 68 16
67 67 24
75 75 12
75 76 13
62 63 12
68 69 21
89 89 24
80 80 21
82 82 21
87 88 28
101 99 34
95 92 28
96 95 26
97 97 24
104 102 34
99 97 33
110 108 31
106 105 33
112 109 32
111 109 39
103 100 35
113 110 38
117 115 34
111 107 38
117 115 40
120 115 42
119 117 45
125 123 39
122 120 45
129 125 45
124 122 48
131 128 47
129 126 39
140 136 49
130 127 45
143 137 54
126 124 45
145 141 58
137 133 51
140 136 51
148 143 57
152 146 59
148 142 58
148 142 55
145 140 51
139 134 48
154 148 57
155 149 63
151 144 60
141 138 48
145 141 51
145 140 47
147 141 54
149 143 58
154 149 53
147 142 47
148 142 56
160 154 64
160 154 64
156 150 59
154 149 60
155 149 61
154 148 56
156 148 60
151 146 57
151 146 59
156 150 63
157 150 66
151 146 60
156 150 56
151 146 54
153 148 57
152 146 59
150 144 52
148 143 49
154 147 60
158 152 60
158 151 60
155 148 62
150 144 54
156 150 61
151 145 53
153 146 58
158 151 60
150 145 48
163 156 67
157 152 65
159 152 61
160 153 65
153 147 58
157 151 60
153 148 58
154 149 63
152 146 56
154 147 61
155 149 60
154 149 65
160 154 63
158 152 61
151 146 56
149 143 56
155 147 63
157 151 70
155 149 66
152 146 63
152 146 60
159 152 71
150 144 57
153 146 58
148 142 60
153 147 58
153 147 65
145 139 57
147 141 57
155 148 60
154 147 68
155 148 63
149 143 64
151 146 65
148 142 52
151 145 62
147 141 60
156 149 65
156 149 72
150 144 62
152 145 64
156 149 69
147 141 62
155 149 68
145 139 63
147 142 59
155 148 69
150 143 60
143 138 59
149 143 60
148 143 59
153 146 58
215 232 255
215 232 255
216 232 255
216 232 255
216 232 255
216 232 255
216 232 255
216 232 255
216 232 255
216 232 255
216 232 255
216 232 255
216 232 255
216 232 255
216 232 255
216 233 255
216 233 255
216 233 255
216 233 255
216 233 255
216 233 255
216 233 255
216 233 255
216 233 255
216 233 255
216 233 255
216 233 255
216 233 255
216 233 255
216 233 255
216 233 255
216 233 255
216 233 255
216 233 255
216 233 255
216 233 255
216 233 255
216 233 255
216 233 255
216 233 255
216 233 255
216 233 255
216 233 255
216 233 255
216 233 255
216 233 255
216 233 255
216 233 255
216 233 255
216 233 255
216 233 255
216 233 255
216 233 255
216 233 255
216 233 255
216 233 255
216 233 255
216 233 255
216 233 255
216 233 255
216 233 255
216 233 255
216 233 255
216 233 255
216 233 255
216 233 255
216 233 255
216 233 255
216 233 255
216 233 255
216 233 255
216 233 255
216 233 255
216 233 255
216 233 255
216 233 255
216 233 255
216 233 255
216 233 255
216 233 255
216 233 255
216 233 255
216 233 255
216 233 255
216 233 255
216 233 255
216 233 255
216 233 255
216 233 255
216 232 255
216 232 255
216 232 255
216 232 255
216 232 255
216 232 255
216 232 255
216 232 255
215 232 255
215 232 255
215 232 255
215 232 255
215 232 255
215 232 255
215 232 255
215 232 255
215 232 255
215 232 255
215 232 255
215 232 255
215 232 255
215 232 255
215 232 255
214 232 255
214 232 255
214 232 255
214 232 255
214 231 255
214 231 255
214 231 255
214 231 255
213 231 255
213 231 255
213 231 255
213 231 255
213 231 255
213 231 255
212 231 255
212 230 255
212 230 255
212 230 255
211 230 255
211 230 255
211 230 255
210 229 255
210 229 255
209 229 255
209 229 255
208 228 255
208 228 255
207 228 255
206 227 255
205 227 255
198 220 227
171 195 0
176 199 0
173 196 0
172 196 0
174 197 0
173 196 0
173 196 0
172 196 0
172 195 0
173 196 0
161 185 47
61 94 125
58 91 111
59 93 121
58 92 121
59 92 124
58 91 117
57 90 103
59 93 113
59 92 114
58 91 115
57 90 108
57 90 114
58 91 113
58 92 111
57 91 114
57 90 105
59 93 122
58 92 107
58 92 120
57 90 111
58 91 124
57 90 103
58 91 118
58 92 114
57 91 111
60 94 127
57 90 105
57 90 113
59 92 117
58 91 111
56 90 105
56 89 105
57 90 105
58 91 117
57 90 114
57 90 105
58 91 118
56 88 108
58 91 114
57 89 117
58 92 111
56 89 102
57 90 113
56 89 113
57 89 110
59 92 117
58 92 115
56 88 102
56 89 110
57 89 115
55 87 108
60 94 126
57 90 115
54 86 99
58 90 115
57 90 111
59 93 126
57 90 108
57 90 111
56 89 116
57 90 121
55 86 96
58 92 122
57 90 118
58 91 115
58 91 123
58 90 127
57 90 112
57 89 115
56 88 103
56 87 111
56 89 113
56 88 115
55 86 101
56 87 104
56 87 106
56 88 113
56 86 116
54 84 104
55 85 105
51 79 90
56 87 103
56 86 112
52 81 98
54 84 98
52 81 86
53 83 99
51 78 89
52 79 91
49 75 88
51 77 84
52 76 79
156 176 22
173 196 0
169 192 0
170 193 0
172 194 0
172 196 0
173 195 0
172 196 0
170 193 0
172 195 0
171 195 0
122 128 33
88 86 25
88 85 28
88 84 25
78 77 20
67 68 18
75 75 18
69 68 14
76 74 13
74 75 18
78 78 11
63 64 16
80 80 14
79 78 20
82 81 25
81 81 18
92 92 30
103 102 28
101 100 29
96 95 24
95 94 30
103 102 28
103 102 32
98 97 29
110 108 37
101 100 32
107 105 36
118 116 39
117 113 42
112 111 27
122 118 39
118 115 38
121 119 33
114 111 35
124 120 41
127 124 41
129 126 54
129 124 45
130 126 42
130 128 43
133 129 44
139 133 51
137 133 48
137 132 56
144 140 45
148 143 55
141 135 51
147 142 52
137 132 51
137 132 51
145 140 57
147 140 53
146 141 45
145 140 57
145 140 53
139 133 51
148 141 57
142 136 54
150 144 57
150 144 54
149 144 49
149 144 49
137 133 47
145 140 51
149 144 54
152 145 60
152 147 53
147 143 41
156 150 58
155 148 59
156 149 57
153 148 49
152 147 54
156 150 61
154 147 57
158 151 66
150 144 58
156 149 60
150 143 58
159 152 58
157 151 60
158 150 67
156 150 65
155 148 61
152 146 60
159 154 62
156 149 60
157 149 64
156 150 59
150 145 53
155 150 62
151 145 58
149 144 54
155 150 59
147 142 48
159 153 62
155 149 59
156 150 61
156 150 59
155 149 65
150 145 57
151 146 52
155 148 58
156 149 56
146 141 54
152 147 57
159 153 67
158 151 66
159 152 65
153 148 54
159 152 70
148 143 58
156 150 68
155 149 62
154 148 63
157 150 61
157 150 63
152 145 62
149 144 62
154 146 64
151 145 57
154 147 64
157 150 70
154 148 65
153 147 65
150 144 65
144 137 57
144 138 53
149 143 56
148 142 57
146 139 62
156 149 59
144 138 61
145 140 52
154 147 60
147 142 70
153 147 70
150 144 62
149 143 62
140 134 57
145 139 63
143 137 59
143 137 58
215 232 255
215 232 255
215 232 255
215 232 255
215 232 255
215 232 255
215 232 255
215 232 255
215 232 255
215 232 255
215 232 255
215 232 255
215 232 255
216 232 255
216 232 255
216 232 255
216 232 255
216 232 255
216 232 255
216 232 255
216 232 255
216 232 255
216 232 255
216 232 255
216 232 255
216 232 255
216 232 255
216 232 255
216 232 255
216 232 255
216 233 255
216 233 255
216 233 255
216 233 255
216 233 255
216 233 255
216 233 255
216 233 255
216 233 255
216 233 255
216 233 255
216 233 255
216 233 255
216 233 255
216 233 255
216 233 255
216 233 255
216 233 255
216 233 255
216 233 255
216 233 255
216 233 255
216 233 255
216 233 255
216 233 255
216 233 255
216 233 255
216 233 255
216 233 255
216 233 255
216 233 255
216 233 255
216 233 255
216 233 255
216 233 255
216 233 255
216 233 255
216 233 255
216 233 255
216 233 255
216 233 255
216 233 255
216 233 255
216 233 255
216 233 255
216 233 255
216 233 255
216 232 255
216 232 255
216 232 255
216 232 255
216 232 255
216 232 255
216 232 255
216 232 255
216 232 255
216 232 255
216 232 255
216 232 255
216 232 255
215 232 255
215 232 255
215 232 255
215 232 255
215 232 255
215 232 255
215 232 255
215 232 255
215 232 255
215 232 255
215 232 255
215 232 255
215 232 255
215 232 255
215 232 255
215 232 255
215 232 255
215 232 255
214 232 255
214 232 255
214 232 255
214 232 255
214 232 255
214 231 255
214 231 255
214 231 255
214 231 255
213 231 255
213 231 255
213 231 255
213 231 255
213 231 255
213 231 255
212 231 255
212 231 255
212 230 255
212 230 255
212 230 255
211 230 255
211 230 255
211 230 255
210 229 255
210 229 255
210 229 255
209 229 255
209 229 255
208 228 255
207 228 255
207 228 255
206 227 255
205 226 255
203 225 253
177 200 125
171 195 0
171 195 0
173 197 0
169 193 0
173 197 0
172 195 0
173 196 0
172 196 0
173 196 0
171 194 0
169 193 0
120 144 72
58 92 110
58 92 117
59 93 121
56 89 107
58 92 111
57 89 115
59 93 117
58 91 110
57 89 114
58 92 114
58 91 115
59 92 114
57 91 110
58 92 114
58 91 111
56 88 107
55 87 102
57 91 108
56 89 103
56 88 108
58 92 124
58 92 107
58 92 115
56 89 108
56 89 103
57 90 99
59 93 121
59 94 121
59 93 120
57 90 111
58 92 115
59 93 113
60 95 133
56 90 105
57 89 113
58 91 108
57 90 114
56 90 107
58 92 121
56 89 105
57 90 110
59 94 120
57 90 110
58 92 114
56 88 110
58 92 124
56 89 108
58 92 124
58 91 114
57 90 108
57 90 125
57 91 110
55 87 102
58 92 115
58 91 124
55 87 102
58 91 116
58 91 110
57 89 110
57 89 110
57 90 113
60 93 126
54 86 110
55 87 97
57 89 118
55 86 98
56 88 110
55 87 101
57 90 114
54 86 97
57 89 111
57 89 108
55 86 104
56 87 116
55 86 111
53 83 91
54 84 103
56 88 105
55 86 107
54 84 103
55 87 110
54 85 113
51 80 102
56 87 105
53 83 100
51 80 77
52 80 93
50 77 91
49 76 82
46 73 77
99 119 56
170 192 0
170 194 0
169 192 0
172 194 0
171 193 0
172 194 0
170 193 0
171 194 0
169 192 0
172 194 0
173 196 0
162 182 0
91 90 28
89 85 28
77 76 19
85 83 19
77 76 14
80 77 12
79 79 24
78 75 14
66 68 19
81 83 18
88 86 20
89 88 14
90 89 12
81 82 19
91 90 20
84 85 12
95 94 21
100 99 24
95 94 22
102 100 25
93 94 22
99 96 23
112 110 34
105 104 24
109 107 39
116 112 36
112 109 21
115 112 36
122 119 40
115 111 38
124 122 36
114 112 30
118 115 38
124 120 46
126 124 36
124 121 37
126 122 44
146 140 56
134 131 42
132 128 50
137 133 45
132 127 39
144 140 49
127 124 41
135 132 47
138 133 48
134 130 42
146 140 57
148 143 44
145 139 53
135 131 41
149 143 56
143 138 52
149 143 58
139 134 43
147 142 53
147 142 54
143 137 47
142 138 45
147 142 51
145 140 55
145 139 57
158 152 64
153 147 56
151 145 60
155 149 54
146 140 53
156 149 54
150 144 53
150 143 49
152 146 57
151 145 59
155 150 56
151 144 47
149 144 52
154 148 54
150 145 60
156 150 62
145 140 49
159 153 60
155 149 57
150 144 58
155 149 59
157 151 59
153 147 58
156 150 57
157 150 63
151 147 53
156 150 63
157 151 60
151 145 62
150 145 58
159 151 63
153 146 60
155 148 57
150 144 49
157 151 59
149 143 58
154 148 56
154 148 61
152 146 56
151 145 53
155 148 63
160 152 68
154 147 61
150 145 57
152 147 63
152 146 61
146 140 58
156 149 64
158 150 68
157 151 61
159 152 66
153 148 60
149 144 53
155 148 60
158 151 66
153 148 60
155 149 57
144 139 52
143 137 52
145 140 59
154 148 67
151 145 61
152 146 62
156 150 62
150 144 58
149 143 62
146 140 59
149 143 57
151 145 66
147 140 61
156 149 68
149 143 58
156 149 71
152 145 61
147 141 63
138 132 51
147 140 64
148 142 64
144 137 61
147 140 59
215 232 255
215 232 255
215 232 255
215 232 255
215 232 255
215 232 255
215 232 255
215 232 255
215 232 255
215 232 255
215 232 255
215 232 255
215 232 255
215 232 255
215 232 255
215 232 255
215 232 255
215 232 255
215 232 255
215 232 255
215 232 255
215 232 255
215 232 255
215 232 255
215 232 255
215 232 255
215 232 255
215 232 255
216 232 255
216 232 255
216 232 255
216 232 255
216 232 255
216 232 255
216 232 255
216 232 255
216 232 255
216 232 255
216 232 255
216 232 255
216 232 255
216 232 255
216 232 255
216 232 255
216 232 255
216 232 255
216 232 255
216 232 255
216 232 255
216 232 255
216 232 255
216 232 255
216 232 255
216 232 255
216 232 255
216 232 255
216 232 255
216 232 255
216 232 255
216 232 255
216 232 255
216 232 255
216 232 255
216 232 255
216 232 255
216 232 255
216 232 255
216 232 255
216 232 255
216 232 255
216 232 255
216 232 255
216 232 255
216 232 255
216 232 255
216 232 255
216 232 255
216 232 255
216 232 255
215 232 255
215 232 255
215 232 255
215 232 255
215 232 255
215 232 255
215 232 255
215 232 255
215 232 255
215 232 255
215 232 255
215 232 255
215 232 255
215 232 255
215 232 255
215 232 255
215 232 255
215 232 255
215 232 255
215 232 255
215 232 255
215 232 255
215 232 255
215 232 255
214 232 255
214 232 255
214 232 255
214 232 255
214 232 255
214 232 255
214 231 255
214 231 255
214 231 255
214 231 255
214 231 255
213 231 255
213 231 255
213 231 255
213 231 255
213 231 255
213 231 255
212 231 255
212 231 255
212 230 255
212 230 255
212 230 255
211 230 255
211 230 255
211 230 255
211 230 255
210 229 255
210 229 255
210 229 255
209 229 255
209 229 255
208 228 255
208 228 255
207 228 255
206 227 255
206 227 255
205 226 255
203 226 255
191 213 198
172 196 0
174 197 0
171 194 0
174 197 0
173 196 0
173 197 0
171 195 0
174 197 0
171 195 0
172 196 0
172 196 0
170 193 0
157 180 54
65 96 117
56 89 110
57 91 103
56 89 97
58 91 100
58 92 124
57 91 105
58 92 117
57 90 113
57 90 97
56 89 107
58 93 121
56 89 99
59 92 122
58 92 118
58 92 108
58 91 108
58 92 108
57 90 108
59 93 114
59 92 120
60 93 120
58 91 105
58 92 108
56 89 102
59 93 115
59 93 120
57 91 115
60 94 124
57 91 114
58 91 114
57 91 118
58 92 121
60 95 122
55 87 90
56 89 105
59 92 124
58 92 108
56 89 105
56 89 107
56 88 100
57 90 105
56 89 115
57 90 107
56 88 110
57 89 99
59 92 111
55 88 103
57 90 114
58 91 113
57 90 103
59 93 123
58 91 122
57 90 118
58 91 113
57 90 105
57 89 108
57 91 118
57 89 111
56 88 110
58 90 114
56 88 113
55 88 114
58 92 120
54 86 101
54 85 100
57 89 118
56 88 113
55 87 99
55 87 113
56 87 111
55 86 98
57 89 107
56 87 107
57 89 116
53 83 93
56 87 120
56 87 109
55 87 105
53 83 79
54 84 98
54 84 106
54 84 95
52 81 92
51 79 87
49 75 85
49 75 82
49 75 84
50 77 82
54 78 80
156 179 21
169 192 0
170 192 0
171 193 0
170 193 0
168 191 0
170 192 0
169 193 0
171 194 0
171 192 0
171 194 0
172 195 0
171 194 0
135 145 19
96 94 34
91 87 33
80 77 12
80 78 16
72 72 12
81 79 20
87 84 0
67 68 9
76 76 16
79 79 10
81 82 6
86 84 22
79 79 18
94 94 12
86 86 25
92 91 27
102 100 25
98 95 23
92 91 18
99 97 23
95 94 25
97 95 31
113 110 36
122 119 44
112 109 25
98 97 16
110 108 29
121 119 28
112 111 36
116 114 36
125 124 41
124 121 37
123 118 44
126 122 48
126 121 47
134 130 45
127 122 44
134 130 42
126 122 40
132 127 42
136 132 41
133 129 44
130 126 35
135 131 41
147 141 49
143 138 45
145 140 48
138 134 45
140 136 44
139 134 40
142 137 51
141 135 42
148 142 53
144 139 42
144 141 45
137 132 44
146 140 54
140 136 43
148 143 46
146 140 45
150 144 56
150 145 57
148 142 54
139 135 38
147 142 45
144 139 50
148 142 55
147 143 51
153 147 53
153 146 63
152 145 56
158 152 58
152 147 54
154 148 54
156 150 57
148 143 47
151 145 60
145 140 51
153 147 60
152 146 59
153 148 57
158 150 61
145 140 44
151 144 54
151 145 58
154 148 59
156 150 64
152 146 53
154 148 61
156 150 57
156 150 67
156 150 57
150 144 59
147 141 52
150 143 60
152 144 63
156 149 60
153 148 64
157 151 61
160 153 63
153 146 68
152 146 58
152 145 65
151 145 67
154 148 54
152 146 62
154 149 56
150 144 53
155 149 60
153 147 56
154 147 61
154 148 57
152 146 54
149 141 60
154 148 59
146 141 49
150 144 63
147 143 56
144 138 54
154 147 65
154 148 62
149 143 52
147 141 56
149 145 52
156 149 59
158 150 67
151 145 58
147 141 61
149 143 60
147 140 58
158 151 71
147 141 52
147 142 56
147 143 60
142 137 52
145 139 60
152 147 62
149 143 61
150 144 64
148 141 62
136 130 48
215 232 255
215 232 255
215 232 255
215 232 255
215 232 255
215 232 255
215 232 255
215 232 255
215 232 255
215 232 255
215 232 255
215 232 255
215 232 255
215 232 255
215 232 255
215 232 255
215 232 255
215 232 255
215 232 255
215 232 255
215 232 255
215 232 255
215 232 255
215 232 255
215 232 255
215 232 255
215 232 255
215 232 255
215 232 255
215 232 255
215 232 255
215 232 255
215 232 255
215 232 255
215 232 255
215 232 255
215 232 255
215 232 255
215 232 255
215 232 255
215 232 255
215 232 255
215 232 255
215 232 255
215 232 255
215 232 255
215 232 255
215 232 255
215 232 255
215 232 255
215 232 255
215 232 255
215 232 255
215 232 255
215 232 255
215 232 255
215 232 255
215 232 255
215 232 255
215 232 255
215 232 255
215 232 255
215 232 255
215 232 255
215 232 255
215 232 255
215 232 255
215 232 255
215 232 255
215 232 255
215 232 255
215 232 255
215 232 255
215 232 255
215 232 255
215 232 255
215 232 255
215 232 255
215 232 255
215 232 255
215 232 255
215 232 255
215 232 255
215 232 255
215 232 255
215 232 255
215 232 255
215 232 255
215 232 255
215 232 255
215 232 255
215 232 255
215 232 255
215 232 255
215 232 255
215 232 255
215 232 255
214 232 255
214 232 255
214 232 255
214 232 255
214 232 255
214 232 255
214 232 255
214 232 255
214 231 255
214 231 255
214 231 255
214 231 255
214 231 255
213 231 255
213 231 255
213 231 255
213 231 255
213 231 255
213 231 255
213 231 255
213 231 255
212 231 255
212 230 255
212 230 255
212 230 255
212 230 255
211 230 255
211 230 255
211 230 255
211 230 255
210 229 255
210 229 255
210 229 255
209 229 255
209 229 255
208 228 255
208 228 255
207 228 255
207 228 255
206 227 255
205 227 255
204 226 255
203 226 255
198 221 242
172 196 57
173 196 0
172 196 0
171 195 0
170 194 0
173 196 0
174 197 0
172 196 0
172 194 0
168 192 0
172 195 0
174 197 0
171 195 0
170 194 0
112 137 84
55 88 99
57 90 110
58 92 115
57 91 114
57 90 102
57 90 111
56 88 97
57 90 108
58 92 111
57 90 108
58 92 117
57 91 110
57 91 110
59 92 121
56 89 107
58 92 103
56 89 108
57 90 111
59 92 110
57 90 105
59 93 118
56 89 103
58 92 107
56 89 108
58 92 114
58 91 110
58 92 110
57 90 117
59 92 125
58 92 115
58 92 115
58 91 115
54 87 95
58 92 117
56 88 105
58 91 102
57 90 115
58 91 118
56 89 100
58 91 121
56 89 103
57 90 113
57 90 113
56 89 111
56 89 103
55 87 114
57 90 108
57 89 105
56 89 111
58 91 118
56 88 105
55 87 100
57 90 110
57 90 115
55 87 103
58 91 115
59 93 128
58 92 117
57 90 116
56 89 107
57 89 108
56 88 103
55 87 105
57 90 116
56 88 117
56 88 111
55 87 103
56 87 109
56 88 118
55 87 99
55 87 107
56 88 105
54 85 102
54 85 103
54 85 101
56 86 109
53 83 109
55 87 98
55 86 114
51 79 83
54 84 100
52 82 87
52 81 98
51 79 91
51 78 86
48 73 74
49 77 81
44 68 75
123 141 52
169 191 0
170 193 0
168 190 0
169 192 0
172 193 0
169 193 0
169 190 0
169 191 0
169 192 0
170 192 0
171 193 0
168 191 0
167 190 0
170 192 11
102 103 31
97 93 28
87 84 23
77 76 25
86 81 16
86 83 20
91 88 14
72 71 15
83 82 4
90 89 18
78 77 12
82 82 16
89 88 21
89 88 12
87 87 12
99 97 12
99 97 23
95 93 33
99 98 20
93 92 19
81 81 11
107 105 33
98 96 26
106 105 24
119 116 22
104 101 31
115 112 42
114 111 36
117 114 36
108 107 36
128 125 32
120 117 36
121 117 35
121 118 40
119 116 33
120 116 36
139 132 44
127 123 37
132 128 42
126 122 38
133 130 37
132 129 44
127 123 37
138 134 49
133 128 36
147 141 49
136 131 46
138 134 39
136 131 42
141 136 56
148 141 51
144 139 51
138 135 43
138 135 35
145 139 54
142 137 49
142 137 49
146 142 47
144 139 48
141 136 44
141 136 43
148 142 52
156 150 52
144 139 51
146 143 38
147 140 47
145 139 47
152 147 57
155 148 59
154 148 54
155 149 53
155 149 51
152 146 52
152 146 49
144 138 49
148 143 49
159 152 63
150 144 53
151 145 49
152 146 58
150 145 56
156 148 57
156 150 54
152 144 59
153 147 58
153 146 53
155 148 56
150 145 56
153 147 54
153 147 52
153 147 56
144 139 45
155 149 53
149 144 54
153 148 54
154 147 60
155 149 56
154 148 59
150 144 60
153 148 52
149 143 52
150 145 57
152 146 60
153 148 57
151 144 58
151 144 59
152 146 64
154 147 60
149 144 54
152 147 52
154 147 53
151 145 62
162 154 73
156 149 62
156 150 57
148 143 58
153 146 58
153 147 63
152 145 58
149 142 59
145 139 56
146 140 53
157 149 66
155 149 62
155 149 63
156 149 65
153 146 63
149 142 59
146 140 54
152 146 61
148 142 59
149 142 63
147 141 58
144 138 61
153 147 65
143 137 54
144 138 60
152 146 59
142 137 58
157 149 68
149 143 57
214 232 255
214 232 255
214 232 255
214 232 255
214 232 255
214 232 255
214 232 255
214 232 255
215 232 255
215 232 255
215 232 255
215 232 255
215 232 255
215 232 255
215 232 255
215 232 255
215 232 255
215 232 255
215 232 255
215 232 255
215 232 255
215 232 255
215 232 255
215 232 255
215 232 255
215 232 255
215 232 255
215 232 255
215 232 255
215 232 255
215 232 255
215 232 255
215 232 255
215 232 255
215 232 255
215 232 255
215 232 255
215 232 255
215 232 255
215 232 255
215 232 255
215 232 255
215 232 255
215 232 255
215 232 255
215 232 255
215 232 255
215 232 255
215 232 255
215 232 255
215 232 255
215 232 255
215 232 255
215 232 255
215 232 255
215 232 255
215 232 255
215 232 255
215 232 255
215 232 255
215 232 255
215 232 255
215 232 255
215 232 255
215 232 255
215 232 255
215 232 255
215 232 255
215 232 255
215 232 255
215 232 255
215 232 255
215 232 255
215 232 255
215 232 255
215 232 255
215 232 255
215 232 255
215 232 255
215 232 255
215 232 255
215 232 255
215 232 255
215 232 255
215 232 255
215 232 255
215 232 255
215 232 255
215 232 255
215 232 255
215 232 255
214 232 255
214 232 255
214 232 255
214 232 255
214 232 255
214 232 255
214 232 255
214 232 255
214 231 255
214 231 255
214 231 255
214 231 255
214 231 255
214 231 255
214 231 255
213 231 255
213 231 255
213 231 255
213 231 255
213 231 255
213 231 255
213 231 255
213 231 255
213 231 255
212 231 255
212 230 255
212 230 255
212 230 255
212 230 255
211 230 255
211 230 255
211 230 255
211 230 255
211 230 255
210 229 255
210 229 255
210 229 255
209 229 255
209 229 255
209 228 255
208 228 255
208 228 255
207 228 255
206 227 255
206 227 255
205 227 255
204 226 255
203 225 255
201 224 254
181 205 133
169 192 0
171 194 0
173 196 0
172 195 0
172 196 0
172 195 0
169 192 0
168 192 0
172 196 0
171 194 0
171 195 0
167 191 0
172 196 0
170 193 0
165 187 25
70 99 100
56 89 107
60 94 130
55 87 94
55 88 103
57 91 105
56 88 103
58 91 113
56 88 97
57 90 117
57 90 117
57 90 115
57 90 113
57 90 113
57 90 102
56 88 103
58 92 115
56 89 110
56 89 113
55 88 103
56 88 97
56 89 99
57 89 111
57 91 110
58 92 118
58 92 113
58 91 114
57 91 105
54 86 95
58 91 110
55 88 95
57 91 108
57 90 114
56 88 110
59 92 118
58 91 118
56 89 107
58 92 111
56 89 103
56 89 114
55 87 110
57 90 107
56 89 103
56 89 108
59 93 127
58 91 113
55 87 103
57 89 107
57 89 110
56 89 107
57 90 103
54 86 103
56 89 105
58 91 110
56 88 103
53 84 105
58 91 118
56 89 102
56 88 105
56 88 105
56 88 107
52 82 96
56 88 113
55 86 108
57 89 109
54 85 92
56 88 107
55 85 96
55 87 113
56 88 103
57 90 110
52 82 97
54 85 107
54 85 110
54 84 103
54 85 101
53 83 106
55 86 104
50 79 84
52 80 90
53 81 95
53 81 98
50 77 87
48 75 79
51 79 77
50 77 76
49 75 69
65 87 68
167 189 0
166 188 0
165 185 0
167 190 0
169 193 0
163 186 0
170 192 0
168 191 0
172 193 0
169 191 0
171 194 0
169 190 0
168 190 0
171 193 0
169 192 0
152 170 0
105 101 37
97 94 33
72 70 16
80 76 22
79 77 5
82 80 14
83 80 14
88 84 16
76 74 11
101 98 8
89 90 14
82 80 8
79 80 16
83 83 9
90 89 16
88 90 21
88 86 21
96 94 25
100 97 18
95 95 14
95 94 28
107 102 24
109 108 22
101 99 29
116 113 26
115 112 26
113 111 31
110 107 31
119 116 30
117 114 31
121 117 32
118 114 32
118 116 32
125 122 36
110 109 18
124 120 32
132 127 41
133 128 47
129 125 35
126 123 29
137 132 45
130 125 45
138 133 45
131 128 38
137 131 45
139 135 40
141 136 43
134 130 42
131 126 43
136 133 43
140 134 43
138 133 51
138 133 49
140 134 40
149 144 50
142 138 44
145 141 47
142 137 41
144 139 42
144 138 41
144 139 49
151 145 49
147 142 52
149 143 49
143 139 42
141 135 52
154 148 60
142 137 47
148 143 44
158 151 62
147 141 56
148 141 53
143 137 47
155 149 53
156 151 54
155 148 63
151 144 49
148 142 51
155 148 53
154 148 51
149 144 53
153 146 61
154 149 53
153 146 56
148 142 44
143 138 51
150 144 51
156 150 57
142 137 47
147 141 51
155 148 59
148 142 54
157 151 51
161 153 68
156 149 61
159 153 66
156 148 56
153 147 57
154 147 62
156 150 59
154 148 61
157 150 60
154 149 53
147 140 57
150 144 56
150 144 59
148 144 48
154 148 64
147 141 60
146 139 61
155 148 60
151 145 57
155 147 66
147 142 48
146 139 62
152 144 57
157 150 63
148 142 51
162 154 71
152 145 59
150 144 62
146 141 52
144 138 58
143 137 42
148 141 58
142 136 57
146 139 57
142 135 60
155 148 63
139 134 56
153 148 60
149 144 60
147 142 54
147 141 59
150 144 60
145 139 59
137 133 51
145 139 57
141 136 57
139 133 53
214 231 255
214 231 255
214 231 255
214 232 255
214 232 255
214 232 255
214 232 255
214 232 255
214 232 255
214 232 255
214 232 255
214 232 255
214 232 255
214 232 255
214 232 255
214 232 255
214 232 255
214 232 255
214 232 255
214 232 255
215 232 255
215 232 255
215 232 255
215 232 255
215 232 255
215 232 255
215 232 255
215 232 255
215 232 255
215 232 255
215 232 255
215 232 255
215 232 255
215 232 255
215 232 255
215 232 255
215 232 255
215 232 255
215 232 255
215 232 255
215 232 255
215 232 255
215 232 255
215 232 255
215 232 255
215 232 255
215 232 255
215 232 255
215 232 255
215 232 255
215 232 255
215 232 255
215 232 255
215 232 255
215 232 255
215 232 255
215 232 255
215 232 255
215 232 255
215 232 255
215 232 255
215 232 255
215 232 255
215 232 255
215 232 255
215 232 255
215 232 255
215 232 255
215 232 255
215 232 255
215 232 255
215 232 255
215 232 255
215 232 255
215 232 255
215 232 255
215 232 255
215 232 255
215 232 255
215 232 255
215 232 255
215 232 255
214 232 255
214 232 255
214 232 255
214 232 255
214 232 255
214 232 255
214 232 255
214 232 255
214 232 255
214 232 255
214 232 255
214 232 255
214 231 255
214 231 255
214 231 255
214 231 255
214 231 255
214 231 255
214 231 255
213 231 255
213 231 255
213 231 255
213 231 255
213 231 255
213 231 255
213 231 255
213 231 255
213 231 255
213 231 255
212 231 255
212 231 255
212 230 255
212 230 255
212 230 255
212 230 255
211 230 255
211 230 255
211 230 255
211 230 255
211 230 255
210 230 255
210 229 255
210 229 255
210 229 255
209 229 255
209 229 255
209 228 255
208 228 255
208 228 255
207 228 255
207 227 255
206 227 255
205 227 255
205 226 255
204 226 255
203 225 255
201 225 255
185 209 193
170 193 0
172 196 0
170 193 0
169 192 0
166 191 0
167 191 0
167 191 0
169 193 0
171 193 0
170 193 0
170 193 0
170 194 0
170 194 0
171 194 0
171 195 0
171 194 0
144 167 60
57 90 95
52 83 78
57 89 105
57 90 102
58 91 107
58 91 107
58 91 103
59 92 115
57 91 114
58 91 118
58 91 108
53 85 90
56 88 108
57 90 105
57 90 108
56 89 113
59 92 115
56 88 107
59 93 118
55 87 95
55 88 95
58 91 115
57 90 115
57 90 102
56 88 92
57 89 111
57 91 114
58 92 114
59 92 114
58 91 118
56 89 103
57 90 102
56 88 102
58 92 124
54 86 99
59 93 120
56 89 99
57 90 111
59 92 120
57 90 114
56 89 101
57 90 110
56 88 110
57 91 107
56 89 108
58 92 115
56 88 113
54 85 104
56 88 111
56 89 99
57 90 103
57 89 107
57 89 113
57 89 111
55 87 105
56 88 102
56 88 104
58 91 123
56 88 95
56 88 113
56 88 117
56 87 99
56 87 115
56 88 107
56 88 108
55 87 104
52 82 81
53 83 87
54 84 99
55 86 107
53 83 95
55 87 101
50 78 83
54 85 105
53 82 93
53 84 85
52 80 88
51 81 89
52 81 86
52 83 94
52 80 101
54 84 97
52 80 82
51 78 83
46 72 66
46 71 63
147 168 26
167 190 0
163 185 0
167 187 0
166 188 0
169 191 0
163 185 0
167 190 0
164 184 0
170 194 0
166 188 0
169 191 0
166 188 0
169 191 0
168 190 0
161 181 0
168 189 0
143 159 26
91 88 29
82 80 22
86 84 24
79 76 12
80 78 11
87 85 20
86 84 22
84 82 9
89 89 16
72 72 12
82 80 14
78 77 16
85 83 18
93 90 8
91 88 16
99 96 29
88 88 22
105 101 24
98 96 26
105 102 0
103 102 20
103 101 21
117 113 28
111 107 28
111 109 20
119 116 38
107 105 27
113 111 28
116 113 34
125 121 36
106 103 30
116 114 31
124 120 33
132 128 40
126 122 38
134 129 37
124 120 34
127 123 33
126 122 37
129 126 34
133 129 42
129 125 38
136 131 42
134 129 40
134 130 34
138 133 43
140 135 54
132 129 34
144 137 53
138 133 37
133 129 37
148 141 41
142 138 41
133 128 35
135 131 42
143 137 47
140 136 42
148 142 52
141 136 36
141 136 36
152 146 46
149 143 44
143 137 42
148 141 53
146 140 51
153 147 53
139 134 50
146 141 53
143 137 42
145 140 44
145 139 52
147 141 47
147 142 44
146 140 42
144 139 44
151 145 58
151 145 52
144 138 45
148 143 53
149 143 47
153 148 51
157 151 60
153 146 52
156 149 53
151 144 53
149 144 51
153 147 52
150 144 51
148 142 57
144 139 57
157 150 60
155 149 54
156 149 59
145 140 51
151 144 52
160 153 63
154 149 59
149 144 48
150 143 51
153 146 60
151 146 51
149 144 44
152 146 48
144 138 57
149 143 53
150 145 56
146 140 49
143 137 53
141 135 53
148 142 54
149 143 57
151 146 54
150 143 57
150 145 51
145 138 52
153 145 62
140 136 53
148 141 61
148 143 52
150 144 60
148 142 57
145 139 56
147 142 53
148 142 49
143 137 48
145 138 65
148 143 59
146 140 54
142 135 59
149 141 59
145 139 54
146 141 58
147 141 56
145 139 65
151 144 66
150 144 59
145 139 44
145 139 54
148 141 60
214 231 255
214 231 255
214 231 255
214 231 255
214 231 255
214 231 255
214 231 255
214 231 255
214 231 255
214 231 255
214 231 255
214 231 255
214 232 255
214 232 255
214 232 255
214 232 255
214 232 255
214 232 255
214 232 255
214 232 255
214 232 255
214 232 255
214 232 255
214 232 255
214 232 255
214 232 255
214 232 255
214 232 255
214 232 255
214 232 255
214 232 255
214 232 255
214 232 255
214 232 255
214 232 255
214 232 255
215 232 255
215 232 255
215 232 255
215 232 255
215 232 255
215 232 255
215 232 255
215 232 255
215 232 255
215 232 255
215 232 255
215 232 255
215 232 255
215 232 255
215 232 255
215 232 255
215 232 255
215 232 255
215 232 255
215 232 255
215 232 255
215 232 255
215 232 255
215 232 255
215 232 255
215 232 255
215 232 255
215 232 255
215 232 255
215 232 255
215 232 255
215 232 255
215 232 255
214 232 255
214 232 255
214 232 255
214 232 255
214 232 255
214 232 255
214 232 255
214 232 255
214 232 255
214 232 255
214 232 255
214 232 255
214 232 255
214 232 255
214 232 255
214 232 255
214 232 255
214 231 255
214 231 255
214 231 255
214 231 255
214 231 255
214 231 255
214 231 255
214 231 255
214 231 255
214 231 255
213 231 255
213 231 255
213 231 255
213 231 255
213 231 255
213 231 255
213 231 255
213 231 255
213 231 255
213 231 255
213 231 255
212 231 255
212 231 255
212 231 255
212 230 255
212 230 255
212 230 255
212 230 255
211 230 255
211 230 255
211 230 255
211 230 255
211 230 255
211 230 255
210 229 255
210 229 255
210 229 255
210 229 255
209 229 255
209 229 255
209 228 255
208 228 255
208 228 255
207 228 255
207 228 255
206 227 255
206 227 255
205 227 255
204 226 255
203 226 255
202 225 255
201 224 255
194 218 224
172 195 25
173 195 0
171 195 0
173 196 0
169 193 0
170 194 0
172 195 0
172 195 0
168 191 0
173 196 0
171 195 0
170 193 0
170 193 0
168 191 0
167 191 0
173 195 0
167 190 0
171 194 0
121 145 94
56 89 95
57 90 105
56 89 102
57 90 110
54 87 95
56 89 100
56 90 105
56 89 108
55 88 99
58 91 110
56 89 94
56 88 107
58 91 107
56 89 99
57 91 113
57 91 107
57 90 107
53 85 88
59 93 124
57 90 102
56 89 100
55 88 94
56 88 115
56 89 103
56 89 103
55 87 100
59 92 113
57 91 105
58 91 113
56 89 103
58 91 111
59 92 115
57 91 107
56 89 110
58 91 107
56 90 108
56 89 107
56 89 111
57 91 107
59 92 122
56 88 113
55 87 105
57 89 110
57 89 107
57 89 107
55 88 102
56 87 107
56 90 108
58 91 120
58 91 115
55 87 102
56 89 113
56 89 108
56 88 115
56 89 107
55 87 105
55 87 97
57 89 110
55 86 96
53 84 95
56 88 108
55 86 99
55 85 102
56 88 108
52 81 99
56 87 110
54 86 99
53 84 92
53 83 92
53 83 99
52 81 92
53 84 108
54 85 95
52 81 94
53 83 96
53 84 94
51 81 81
53 82 99
52 82 90
51 79 75
50 77 77
49 75 82
48 75 84
48 75 68
96 115 46
163 185 0
168 190 0
167 189 0
162 184 0
167 190 0
166 187 0
160 181 0
164 185 0
169 190 0
164 186 0
162 183 0
170 192 0
164 184 0
167 187 0
165 185 0
164 187 0
162 183 0
168 189 0
113 118 25
87 85 27
83 79 18
91 88 22
77 75 16
77 75 14
91 88 18
86 83 16
81 79 3
82 81 20
85 84 16
89 88 16
88 87 18
90 87 8
79 78 3
84 83 14
101 98 30
102 100 14
98 95 16
107 104 14
104 102 28
106 105 21
118 114 29
110 107 24
112 108 31
113 110 25
117 114 25
105 102 33
124 120 34
115 111 29
126 122 38
113 111 18
124 120 26
124 120 37
116 113 34
124 121 34
122 118 32
127 124 37
128 123 34
127 123 28
123 119 32
140 134 42
135 130 46
139 134 49
132 127 48
133 130 37
141 135 47
134 130 42
139 134 45
129 123 42
145 139 49
135 129 36
136 131 34
150 144 51
138 131 32
149 142 52
146 141 47
141 136 48
147 141 51
142 137 49
146 140 42
145 140 45
147 141 39
145 139 45
151 145 51
142 137 34
149 143 58
146 140 34
158 151 58
144 139 49
151 147 49
150 143 53
145 139 51
151 146 42
145 139 54
153 146 42
152 145 58
154 148 57
150 144 51
144 137 44
148 142 49
146 139 49
155 147 58
147 142 44
151 145 51
155 149 54
154 149 53
153 147 53
147 141 49
153 147 52
152 146 54
147 142 47
153 146 57
156 149 58
149 143 58
147 141 54
152 147 54
153 148 51
151 145 51
150 143 54
149 142 51
154 148 53
146 140 45
150 143 56
144 139 45
147 140 53
149 142 54
147 142 53
151 144 53
149 143 53
150 144 52
156 149 64
154 148 52
145 139 56
153 147 61
155 148 65
152 146 58
142 137 53
147 142 51
148 141 57
150 143 62
150 143 59
139 132 49
151 145 57
148 142 52
145 139 54
149 142 60
150 142 62
143 137 57
147 141 54
141 135 56
132 128 51
137 131 49
133 128 53
145 139 61
150 144 57
148 141 53
141 135 54
147 142 49
213 231 255
213 231 255
213 231 255
213 231 255
213 231 255
213 231 255
214 231 255
214 231 255
214 231 255
214 231 255
214 231 255
214 231 255
214 231 255
214 231 255
214 231 255
214 231 255
214 231 255
214 231 255
214 231 255
214 231 255
214 231 255
214 231 255
214 231 255
214 231 255
214 231 255
214 231 255
214 232 255
214 232 255
214 232 255
214 232 255
214 232 255
214 232 255
214 232 255
214 232 255
214 232 255
214 232 255
214 232 255
214 232 255
214 232 255
214 232 255
214 232 255
214 232 255
214 232 255
214 232 255
214 232 255
214 232 255
214 232 255
214 232 255
214 232 255
214 232 255
214 232 255
214 232 255
214 232 255
214 232 255
214 232 255
214 232 255
214 232 255
214 232 255
214 232 255
214 232 255
214 232 255
214 232 255
214 232 255
214 232 255
214 232 255
214 232 255
214 232 255
214 232 255
214 232 255
214 232 255
214 232 255
214 232 255
214 232 255
214 232 255
214 232 255
214 232 255
214 231 255
214 231 255
214 231 255
214 231 255
214 231 255
214 231 255
214 231 255
214 231 255
214 231 255
214 231 255
214 231 255
214 231 255
214 231 255
214 231 255
213 231 255
213 231 255
213 231 255
213 231 255
213 231 255
213 231 255
213 231 255
213 231 255
213 231 255
213 231 255
213 231 255
213 231 255
213 231 255
212 231 255
212 231 255
212 231 255
212 230 255
212 230 255
212 230 255
212 230 255
212 230 255
211 230 255
211 230 255
211 230 255
211 230 255
211 230 255
211 230 255
210 229 255
210 229 255
210 229 255
210 229 255
209 229 255
209 229 255
209 229 255
208 228 255
208 228 255
208 228 255
207 228 255
207 228 255
206 227 255
206 227 255
205 227 255
205 226 255
204 226 255
203 225 255
202 225 255
201 224 255
196 220 237
177 200 76
168 190 0
171 194 0
170 194 0
173 197 0
173 196 0
167 190 0
173 196 0
165 189 0
171 194 0
172 194 0
169 192 0
170 193 0
169 192 0
167 191 0
168 191 0
171 194 0
169 192 0
166 189 0
162 185 0
72 101 97
57 90 107
55 88 107
56 89 103
55 88 105
56 89 99
58 91 121
55 88 88
56 89 103
57 90 105
58 91 115
57 90 115
58 92 108
58 91 103
56 89 103
57 90 99
55 87 110
56 88 113
56 88 97
55 87 110
58 91 114
55 88 95
54 87 92
58 91 108
56 89 111
56 89 108
56 89 111
57 90 114
57 90 105
58 91 117
58 91 117
57 90 108
54 86 107
57 89 113
57 91 111
55 88 114
54 86 102
55 87 100
56 88 110
56 89 102
56 89 107
55 88 103
57 90 110
59 92 110
56 88 105
56 88 107
56 89 99
56 88 110
58 91 117
57 90 113
56 88 102
55 86 99
55 86 110
55 86 108
56 88 101
56 88 105
55 86 90
57 89 113
55 86 108
56 89 99
53 84 103
52 83 94
53 84 90
54 86 95
55 86 94
53 84 92
54 86 111
54 84 107
56 87 107
55 87 103
56 88 102
54 83 84
54 84 99
53 83 87
55 86 110
51 81 90
53 82 77
53 83 94
49 78 86
56 87 103
50 78 89
48 74 75
47 73 75
75 96 55
155 176 25
160 181 0
161 183 0
164 186 0
162 182 0
158 178 0
167 188 0
159 180 0
163 184 0
165 186 0
165 186 0
168 189 0
165 186 0
161 182 0
167 189 0
167 188 0
165 186 0
166 187 0
157 179 0
161 179 16
98 97 31
92 87 32
92 86 25
85 81 21
81 78 0
77 74 21
89 85 11
86 81 21
85 82 18
88 85 18
101 96 16
87 87 8
91 90 8
92 90 16
86 83 8
92 89 21
93 91 11
98 96 19
101 98 16
94 90 11
106 104 25
116 111 18
109 108 23
103 101 22
105 102 19
103 99 18
109 105 18
110 107 26
119 116 28
119 116 32
127 123 37
124 120 23
119 116 25
125 121 37
123 118 33
124 120 31
122 119 32
124 120 28
135 130 47
122 118 31
124 120 39
136 130 41
135 131 49
132 128 26
128 124 33
143 138 51
138 133 35
136 132 47
129 124 34
139 135 38
139 134 44
142 135 47
141 135 49
144 138 48
138 133 42
145 138 48
140 134 44
142 135 43
148 142 44
142 137 42
142 137 44
148 142 48
141 136 41
143 138 42
144 137 39
144 138 51
143 137 45
148 143 47
145 139 45
144 137 42
148 143 41
148 141 51
153 147 52
151 145 51
135 131 34
152 147 48
150 144 53
149 143 48
148 143 41
152 146 52
147 142 44
153 147 58
150 145 45
145 140 47
147 141 49
155 148 58
145 138 44
154 148 52
150 144 52
149 143 49
146 140 53
146 140 52
154 146 63
149 143 58
145 140 48
148 141 52
161 155 58
151 145 48
144 139 44
148 141 54
146 139 49
152 145 54
156 150 57
148 142 52
147 142 42
148 142 56
147 143 36
148 143 60
151 146 54
144 138 48
146 140 54
146 141 53
150 142 59
146 140 49
143 137 54
150 142 56
145 139 57
146 140 49
147 142 54
148 143 53
152 146 61
150 143 58
151 144 58
146 139 52
144 139 54
146 139 52
145 138 53
141 136 53
144 137 56
147 141 56
141 136 57
144 138 49
141 135 53
149 141 70
149 143 58
134 128 51
144 137 58
141 135 54
213 231 255
213 231 255
213 231 255
213 231 255
213 231 255
213 231 255
213 231 255
213 231 255
213 231 255
213 231 255
213 231 255
213 231 255
213 231 255
213 231 255
213 231 255
213 231 255
213 231 255
214 231 255
214 231 255
214 231 255
214 231 255
214 231 255
214 231 255
214 231 255
214 231 255
214 231 255
214 231 255
214 231 255
214 231 255
214 231 255
214 231 255
214 231 255
214 231 255
214 231 255
214 231 255
214 231 255
214 231 255
214 231 255
214 231 255
214 231 255
214 231 255
214 231 255
214 231 255
214 231 255
214 231 255
214 231 255
214 231 255
214 231 255
214 231 255
214 231 255
214 231 255
214 231 255
214 231 255
214 231 255
214 231 255
214 231 255
214 231 255
214 231 255
214 231 255
214 231 255
214 231 255
214 231 255
214 231 255
214 231 255
214 231 255
214 231 255
214 231 255
214 231 255
214 231 255
214 231 255
214 231 255
214 231 255
214 231 255
214 231 255
214 231 255
214 231 255
214 231 255
214 231 255
214 231 255
214 231 255
214 231 255
214 231 255
213 231 255
213 231 255
213 231 255
213 231 255
213 231 255
213 231 255
213 231 255
213 231 255
213 231 255
213 231 255
213 231 255
213 231 255
213 231 255
213 231 255
213 231 255
213 231 255
213 231 255
212 231 255
212 231 255
212 231 255
212 230 255
212 230 255
212 230 255
212 230 255
212 230 255
212 230 255
211 230 255
211 230 255
211 230 255
211 230 255
211 230 255
211 230 255
210 230 255
210 229 255
210 229 255
210 229 255
210 229 255
209 229 255
209 229 255
209 229 255
208 228 255
208 228 255
208 228 255
207 228 255
207 228 255
206 227 255
206 227 255
205 227 255
205 226 255
204 226 255
203 226 255
202 225 255
202 225 255
200 224 255
198 223 253
178 201 133
169 192 0
169 193 0
176 198 0
170 193 0
165 188 0
173 196 0
171 194 0
170 193 0
169 192 0
170 194 0
171 192 0
170 193 0
165 189 0
170 193 0
165 188 0
167 191 0
169 192 0
169 192 0
167 191 0
165 189 0
151 173 57
60 92 102
55 88 102
55 88 99
55 86 102
53 84 82
54 86 90
55 87 92
57 90 100
55 88 90
55 87 92
57 90 97
56 88 92
55 88 103
57 89 111
57 89 108
56 89 103
57 90 113
57 91 113
57 89 94
57 89 105
54 86 95
57 90 105
56 89 121
56 90 95
57 91 110
58 91 102
56 89 105
55 88 108
57 91 115
57 90 107
56 88 92
55 87 100
57 89 100
56 89 103
56 88 100
58 91 121
54 86 92
57 90 108
55 87 95
58 91 111
59 92 121
54 85 100
57 89 103
55 87 95
56 88 99
58 91 111
57 90 105
57 89 107
55 87 102
56 89 100
56 89 103
56 88 103
55 87 96
56 88 94
56 89 97
55 87 104
57 89 102
54 86 85
54 85 97
56 88 110
55 88 103
55 86 103
55 86 101
55 86 107
55 87 113
56 88 108
54 84 94
53 84 92
53 84 99
56 86 110
52 81 101
53 83 94
54 84 98
52 80 82
53 83 94
47 72 80
50 77 81
50 78 89
48 75 75
45 70 66
48 74 68
50 75 61
146 167 44
158 180 0
163 184 0
163 184 0
163 184 0
160 181 0
159 180 0
158 181 0
160 182 0
157 178 0
164 184 0
166 187 0
164 185 0
161 182 0
166 187 0
166 188 0
158 177 0
163 184 0
163 184 0
166 187 0
169 191 0
155 173 19
93 90 25
89 85 28
84 82 19
95 94 19
74 71 18
73 70 11
85 84 16
83 80 16
89 86 14
108 104 8
81 80 16
84 83 12
90 89 14
86 83 8
94 93 14
92 91 8
102 98 23
97 94 16
96 92 14
103 100 14
105 102 25
107 104 18
106 102 22
112 109 29
122 119 28
108 105 24
112 108 22
114 110 30
113 110 29
119 115 28
119 115 28
117 112 25
111 109 29
123 119 25
127 122 34
117 113 30
125 121 29
126 123 29
124 120 32
130 124 32
129 125 32
134 130 33
132 127 35
128 124 29
130 127 26
133 129 38
135 130 33
139 134 36
143 138 30
132 127 35
135 131 32
138 133 43
145 141 36
139 134 39
131 126 33
144 139 41
148 142 48
145 139 49
142 135 47
138 134 36
139 135 39
142 136 43
145 140 47
146 140 51
142 137 49
140 136 42
143 138 51
147 141 44
144 138 48
148 142 44
140 135 30
152 144 53
141 136 37
155 149 54
141 136 42
147 141 45
149 143 48
147 142 42
151 144 54
148 143 45
149 142 49
142 138 45
150 144 41
147 139 45
143 138 47
150 143 48
146 140 54
150 144 54
145 139 47
152 146 57
148 142 51
143 137 51
149 142 54
145 139 49
153 146 52
151 146 48
145 138 48
147 142 48
147 141 53
153 146 52
148 142 47
149 143 53
145 139 53
147 141 49
153 145 57
146 140 47
153 146 59
141 135 56
147 142 53
148 141 51
143 137 53
150 143 60
156 148 62
143 137 47
147 141 52
144 138 39
138 132 52
146 141 48
153 146 57
143 137 58
144 138 56
148 143 53
153 146 62
139 133 52
151 145 59
143 138 42
150 145 59
146 140 56
143 137 51
150 144 63
136 131 42
142 135 51
149 141 54
146 140 59
150 143 59
141 135 52
145 139 58
213 231 255
213 231 255
213 231 255
213 231 255
213 231 255
213 231 255
213 231 255
213 231 255
213 231 255
213 231 255
213 231 255
213 231 255
213 231 255
213 231 255
213 231 255
213 231 255
213 231 255
213 231 255
213 231 255
213 231 255
213 231 255
213 231 255
213 231 255
213 231 255
213 231 255
213 231 255
213 231 255
213 231 255
213 231 255
213 231 255
213 231 255
213 231 255
214 231 255
214 231 255
214 231 255
214 231 255
214 231 255
214 231 255
214 231 255
214 231 255
214 231 255
214 231 255
214 231 255
214 231 255
214 231 255
214 231 255
214 231 255
214 231 255
214 231 255
214 231 255
214 231 255
214 231 255
214 231 255
214 231 255
214 231 255
214 231 255
214 231 255
214 231 255
214 231 255
214 231 255
214 231 255
214 231 255
214 231 255
214 231 255
214 231 255
214 231 255
214 231 255
214 231 255
214 231 255
214 231 255
214 231 255
213 231 255
213 231 255
213 231 255
213 231 255
213 231 255
213 231 255
213 231 255
213 231 255
213 231 255
213 231 255
213 231 255
213 231 255
213 231 255
213 231 255
213 231 255
213 231 255
213 231 255
213 231 255
213 231 255
213 231 255
213 231 255
213 231 255
212 231 255
212 231 255
212 231 255
212 231 255
212 230 255
212 230 255
212 230 255
212 230 255
212 230 255
212 230 255
212 230 255
211 230 255
211 230 255
211 230 255
211 230 255
211 230 255
211 230 255
211 230 255
210 230 255
210 229 255
210 229 255
210 229 255
210 229 255
209 229 255
209 229 255
209 229 255
209 229 255
208 228 255
208 228 255
208 228 255
207 228 255
207 228 255
206 227 255
206 227 255
206 227 255
205 227 255
204 226 255
204 226 255
203 225 255
202 225 255
201 224 255
200 224 255
198 223 254
179 203 142
169 192 0
169 193 0
174 197 0
171 195 0
166 189 0
171 194 0
169 192 0
171 194 0
169 193 0
167 190 0
166 189 0
169 192 0
167 191 0
164 187 0
168 191 0
166 189 0
161 184 0
167 189 0
168 191 0
167 189 0
166 190 0
163 186 0
125 149 62
56 89 105
59 93 117
54 86 92
55 87 95
55 87 92
56 89 103
55 87 103
55 88 84
56 89 102
56 89 103
56 89 90
55 87 100
57 90 102
57 91 115
55 88 95
57 89 111
57 90 99
56 88 102
56 89 105
58 91 108
55 88 84
57 90 108
56 89 111
58 91 113
56 88 102
56 89 105
56 89 103
56 89 100
55 87 99
55 87 110
55 87 102
56 89 105
54 86 100
55 88 105
56 88 97
56 89 108
56 89 107
55 88 94
56 89 102
57 91 111
57 90 107
56 88 99
54 85 103
55 87 99
58 92 115
56 89 118
56 88 105
55 87 113
57 89 113
55 87 100
55 87 103
55 87 94
55 86 99
55 87 97
57 89 113
56 88 97
55 87 105
55 86 105
56 88 111
53 84 105
54 86 103
53 83 99
56 89 117
53 83 90
54 85 96
51 79 92
54 84 99
52 82 93
54 85 90
51 80 83
54 84 97
53 83 96
51 81 86
53 82 97
51 79 93
48 75 84
51 80 76
49 76 80
47 73 71
48 74 66
129 149 48
160 180 0
149 170 0
157 178 0
162 182 0
160 180 0
156 177 0
154 173 0
162 184 0
159 180 0
162 182 0
159 180 0
162 181 0
165 187 0
158 178 0
164 184 0
164 186 0
161 180 0
165 185 0
162 181 0
166 188 0
166 185 0
157 178 0
150 164 30
95 92 34
101 96 35
82 78 24
94 90 21
71 71 11
83 82 11
74 74 14
79 78 8
84 82 16
82 79 14
93 91 0
101 98 18
94 91 11
87 84 18
87 84 8
101 97 16
106 102 16
95 94 8
97 93 16
97 94 24
104 101 21
105 101 14
106 104 18
113 109 16
117 113 31
118 113 30
120 115 34
123 119 27
110 107 16
121 117 24
112 108 12
117 114 19
121 116 26
125 118 25
123 120 28
119 115 29
123 118 33
128 123 36
134 131 38
133 129 42
135 130 42
135 130 42
135 129 41
134 129 36
134 128 38
140 135 36
146 141 48
136 131 34
131 126 34
144 138 45
144 138 45
133 128 38
135 131 41
140 134 41
134 129 37
136 132 37
141 136 38
139 133 47
142 136 37
143 139 39
134 128 32
137 131 39
144 138 47
147 141 44
142 136 34
143 138 41
142 137 44
146 141 49
141 136 45
141 135 39
153 147 48
142 137 42
150 143 51
146 140 45
152 146 48
141 136 52
142 136 34
142 136 48
146 139 45
143 138 47
147 141 47
147 141 39
149 143 56
153 147 53
147 140 48
146 141 49
148 141 52
150 143 51
152 144 58
146 141 47
148 142 44
136 130 44
146 141 52
144 139 44
153 147 56
147 142 45
151 145 52
149 143 47
150 144 45
153 146 56
142 137 48
152 145 48
143 136 51
148 143 51
148 142 47
146 140 54
150 144 52
147 139 54
150 143 53
140 135 51
135 129 39
149 143 53
138 133 52
141 137 48
152 146 61
138 132 51
133 127 45
147 140 54
144 137 51
138 132 57
148 142 54
140 134 56
139 135 37
139 132 48
140 134 58
141 134 47
150 144 58
147 140 57
146 140 58
149 144 53
140 134 52
143 138 51
149 142 60
148 142 57
143 137 53
142 136 53
212 231 255
212 231 255
212 231 255
212 231 255
212 231 255
212 231 255
212 231 255
213 231 255
213 231 255
213 231 255
213 231 255
213 231 255
213 231 255
213 231 255
213 231 255
213 231 255
213 231 255
213 231 255
213 231 255
213 231 255
213 231 255
213 231 255
213 231 255
213 231 255
213 231 255
213 231 255
213 231 255
213 231 255
213 231 255
213 231 255
213 231 255
213 231 255
213 231 255
213 231 255
213 231 255
213 231 255
213 231 255
213 231 255
213 231 255
213 231 255
213 231 255
213 231 255
213 231 255
213 231 255
213 231 255
213 231 255
213 231 255
213 231 255
213 231 255
213 231 255
213 231 255
213 231 255
213 231 255
213 231 255
213 231 255
213 231 255
213 231 255
213 231 255
213 231 255
213 231 255
213 231 255
213 231 255
213 231 255
213 231 255
213 231 255
213 231 255
213 231 255
213 231 255
213 231 255
213 231 255
213 231 255
213 231 255
213 231 255
213 231 255
213 231 255
213 231 255
213 231 255
213 231 255
213 231 255
213 231 255
213 231 255
213 231 255
213 231 255
213 231 255
213 231 255
213 231 255
213 231 255
212 231 255
212 231 255
212 231 255
212 231 255
212 231 255
212 230 255
212 230 255
212 230 255
212 230 255
212 230 255
212 230 255
212 230 255
212 230 255
211 230 255
211 230 255
211 230 255
211 230 255
211 230 255
211 230 255
211 230 255
211 230 255
210 229 255
210 229 255
210 229 255
210 229 255
210 229 255
209 229 255
209 229 255
209 229 255
209 229 255
208 228 255
208 228 255
208 228 255
208 228 255
207 228 255
207 228 255
207 227 255
206 227 255
206 227 255
205 227 255
204 226 255
204 226 255
203 226 255
202 225 255
202 225 255
201 224 255
199 223 255
198 223 255
184 208 175
172 195 0
166 189 0
172 195 0
168 191 0
165 188 0
170 192 0
169 192 0
167 190 0
167 191 0
165 188 0
171 195 0
163 186 0
169 192 0
167 190 0
166 189 0
170 193 0
165 189 0
168 191 0
165 188 0
168 192 0
164 187 0
162 186 0
161 184 0
160 182 0
117 141 76
56 89 102
56 89 102
54 85 82
56 89 110
56 89 100
57 90 107
55 87 99
54 86 90
55 87 92
56 88 99
56 89 100
55 88 92
56 89 100
55 88 103
56 89 103
56 89 99
55 87 86
55 87 92
55 87 100
57 90 107
56 89 108
55 87 99
55 87 94
57 90 105
57 90 114
55 87 95
56 89 100
56 89 100
59 93 115
54 86 95
56 88 102
54 85 103
57 91 111
55 87 99
58 91 108
55 87 99
58 91 111
56 89 99
57 89 105
57 90 107
54 85 88
55 87 107
56 88 113
56 88 100
54 86 94
55 87 100
55 87 87
57 90 111
56 88 107
54 85 105
54 85 92
56 88 108
56 87 108
53 84 92
54 85 97
55 87 100
55 87 105
56 88 106
55 87 107
57 89 107
53 83 85
54 86 97
54 85 94
55 86 96
54 83 93
51 80 101
55 86 94
51 80 94
52 81 90
52 80 86
53 82 84
52 80 92
51 80 88
48 74 77
48 74 82
50 78 73
48 76 72
48 74 75
104 123 42
149 168 0
158 177 0
159 178 0
159 179 0
150 168 0
154 175 0
153 174 0
159 179 0
154 173 0
146 165 0
154 173 0
159 181 0
158 178 0
153 172 0
156 176 0
155 172 0
164 184 0
161 181 0
164 183 0
164 185 0
159 176 0
156 176 0
159 179 0
158 178 0
136 152 8
96 90 40
81 79 16
90 85 18
94 90 25
93 89 16
93 89 3
91 88 16
84 80 0
91 89 14
88 86 14
79 75 0
90 86 11
104 100 11
88 87 22
98 94 16
92 89 8
106 101 19
111 107 26
94 91 18
109 105 11
93 91 18
108 104 28
110 107 16
102 100 16
118 112 28
116 113 22
112 110 23
119 113 12
119 115 28
118 113 34
115 112 24
111 108 14
116 111 22
126 120 28
128 123 29
115 111 25
122 118 32
129 126 36
130 126 37
130 125 31
134 129 28
133 128 36
119 116 19
134 130 35
134 128 36
129 124 36
137 133 36
137 131 37
128 124 37
130 125 37
125 120 34
139 135 42
137 131 25
132 128 37
147 141 41
139 134 36
143 138 48
137 132 37
139 135 32
142 136 42
143 137 45
146 140 44
151 145 49
136 131 39
145 140 45
137 132 37
144 140 32
147 141 45
146 139 36
149 143 44
146 140 39
144 137 48
146 140 41
147 141 44
138 133 37
146 139 42
139 134 41
153 145 53
141 136 37
147 143 41
145 140 48
146 140 52
149 144 39
144 137 42
148 141 49
142 137 41
149 142 44
147 141 49
140 135 39
141 137 34
146 140 45
149 142 44
148 142 51
141 137 37
149 142 52
149 143 49
144 138 48
151 145 47
143 137 41
143 138 56
148 141 49
142 137 48
141 135 42
142 137 39
152 146 59
146 140 53
153 146 52
145 140 53
148 142 45
137 132 41
144 137 52
146 140 48
144 138 54
143 138 54
148 143 48
145 139 56
156 148 61
144 138 51
145 140 49
141 135 48
147 141 54
142 136 58
139 133 51
142 136 52
150 143 49
142 136 62
145 139 53
140 134 54
140 133 49
141 136 51
145 140 58
145 139 59
143 138 53
138 131 48
151 144 51
212 230 255
212 230 255
212 230 255
212 230 255
212 230 255
212 230 255
212 230 255
212 230 255
212 230 255
212 231 255
212 231 255
212 231 255
212 231 255
212 231 255
212 231 255
212 231 255
212 231 255
213 231 255
213 231 255
213 231 255
213 231 255
213 231 255
213 231 255
213 231 255
213 231 255
213 231 255
213 231 255
213 231 255
213 231 255
213 231 255
213 231 255
213 231 255
213 231 255
213 231 255
213 231 255
213 231 255
213 231 255
213 231 255
213 231 255
213 231 255
213 231 255
213 231 255
213 231 255
213 231 255
213 231 255
213 231 255
213 231 255
213 231 255
213 231 255
213 231 255
213 231 255
213 231 255
213 231 255
213 231 255
213 231 255
213 231 255
213 231 255
213 231 255
213 231 255
213 231 255
213 231 255
213 231 255
213 231 255
213 231 255
213 231 255
213 231 255
213 231 255
213 231 255
213 231 255
213 231 255
213 231 255
213 231 255
213 231 255
213 231 255
213 231 255
213 231 255
213 231 255
213 231 255
213 231 255
212 231 255
212 231 255
212 231 255
212 231 255
212 231 255
212 231 255
212 230 255
212 230 255
212 230 255
212 230 255
212 230 255
212 230 255
212 230 255
212 230 255
212 230 255
212 230 255
211 230 255
211 230 255
211 230 255
211 230 255
211 230 255
211 230 255
211 230 255
211 230 255
211 230 255
210 230 255
210 229 255
210 229 255
210 229 255
210 229 255
210 229 255
209 229 255
209 229 255
209 229 255
209 229 255
209 229 255
208 228 255
208 228 255
208 228 255
207 228 255
207 228 255
207 228 255
206 227 255
206 227 255
206 227 255
205 227 255
205 226 255
204 226 255
204 226 255
203 225 255
202 225 255
201 224 255
200 224 255
199 223 255
197 222 255
184 207 177
169 192 0
165 188 0
165 188 0
167 190 0
170 193 0
164 188 0
168 190 0
168 191 0
172 194 0
168 191 0
167 190 0
165 187 0
169 192 0
165 188 0
170 193 0
168 192 0
161 184 0
169 192 0
167 189 0
160 183 0
159 181 0
163 185 0
164 187 0
160 183 0
164 187 0
164 186 18
86 112 80
53 84 95
55 88 99
53 85 84
52 83 74
55 88 107
54 87 94
55 88 99
56 88 94
55 87 92
55 88 95
54 86 107
55 88 100
54 86 99
56 89 102
53 85 84
54 85 95
55 87 102
55 87 95
56 88 103
56 88 97
57 90 113
57 90 107
55 88 102
55 87 97
56 88 99
54 86 92
55 87 108
53 85 97
55 88 108
56 88 103
53 84 100
57 90 108
55 88 102
54 86 102
56 89 102
57 90 100
55 87 94
55 88 97
56 88 111
55 87 102
54 85 94
56 88 103
54 86 90
53 85 88
55 87 103
54 86 94
54 86 92
54 85 99
56 88 101
58 91 108
56 88 103
54 85 94
54 86 96
55 87 97
52 82 89
57 89 103
56 88 104
53 83 99
55 87 104
54 84 107
52 83 99
54 85 94
52 82 91
53 84 96
52 83 94
53 84 92
53 82 89
52 81 96
52 81 100
50 79 87
50 77 81
49 77 72
50 77 81
50 79 84
47 72 78
49 77 72
91 111 70
154 172 0
151 170 0
153 175 0
152 171 0
154 172 0
157 179 0
150 170 0
151 171 0
146 165 0
153 172 0
157 175 0
150 170 0
156 174 0
154 173 0
154 171 0
157 173 0
155 174 0
160 177 0
156 176 0
164 184 0
156 173 0
158 177 0
157 177 0
159 178 0
159 178 0
158 176 0
130 142 16
86 82 23
82 79 11
84 81 11
88 86 28
83 79 21
87 83 8
92 88 18
79 77 0
87 84 0
86 84 11
97 95 8
89 87 8
98 94 0
90 88 16
114 111 16
97 94 11
103 100 16
100 98 14
107 102 18
112 107 16
114 110 26
96 96 9
106 104 14
108 103 16
110 107 27
112 107 16
112 110 26
114 111 21
113 109 22
123 119 24
127 121 34
117 113 22
115 112 26
112 108 30
126 120 30
125 120 22
129 124 26
128 123 32
124 121 22
136 131 38
122 118 29
129 122 32
130 125 33
138 132 37
135 131 37
134 128 34
132 128 34
131 127 37
137 131 39
139 133 37
132 126 26
136 131 39
143 137 44
136 130 32
136 130 34
141 136 32
143 136 39
138 133 32
137 133 41
142 136 41
134 129 34
139 131 52
145 139 36
140 133 37
143 136 45
138 133 45
141 135 36
140 134 44
135 129 37
141 136 39
139 133 42
150 144 48
145 140 39
150 144 48
145 139 45
141 136 42
145 139 47
146 142 52
144 139 44
147 142 47
150 144 52
152 146 44
144 137 44
151 145 47
144 137 51
139 135 36
148 142 47
146 140 45
142 135 44
144 137 48
150 145 47
148 143 54
141 135 44
149 143 48
150 143 52
146 140 51
141 136 47
150 144 56
149 142 47
138 132 49
150 143 58
144 136 49
138 132 42
144 139 48
145 138 53
151 144 59
141 134 45
146 139 49
149 143 54
145 138 53
143 139 42
151 144 52
142 136 48
150 144 56
133 127 45
150 143 52
144 139 48
151 145 56
130 125 36
145 140 57
148 141 62
152 145 57
152 145 60
149 141 60
137 131 47
139 134 47
135 131 51
148 142 58
144 138 53
143 136 53
147 141 60
140 134 54
142 137 52
137 131 52
211 230 255
212 230 255
212 230 255
212 230 255
212 230 255
212 230 255
212 230 255
212 230 255
212 230 255
212 230 255
212 230 255
212 230 255
212 230 255
212 230 255
212 230 255
212 230 255
212 230 255
212 230 255
212 230 255
212 231 255
212 231 255
212 231 255
212 231 255
212 231 255
212 231 255
212 231 255
212 231 255
212 231 255
212 231 255
212 231 255
212 231 255
212 231 255
213 231 255
213 231 255
213 231 255
213 231 255
213 231 255
213 231 255
213 231 255
213 231 255
213 231 255
213 231 255
213 231 255
213 231 255
213 231 255
213 231 255
213 231 255
213 231 255
213 231 255
213 231 255
213 231 255
213 231 255
213 231 255
213 231 255
213 231 255
213 231 255
213 231 255
213 231 255
213 231 255
213 231 255
213 231 255
213 231 255
213 231 255
213 231 255
213 231 255
213 231 255
213 231 255
212 231 255
212 231 255
212 231 255
212 231 255
212 231 255
212 231 255
212 231 255
212 231 255
212 231 255
212 231 255
212 230 255
212 230 255
212 230 255
212 230 255
212 230 255
212 230 255
212 230 255
212 230 255
212 230 255
212 230 255
212 230 255
212 230 255
212 230 255
211 230 255
211 230 255
211 230 255
211 230 255
211 230 255
211 230 255
211 230 255
211 230 255
211 230 255
211 230 255
210 230 255
210 229 255
210 229 255
210 229 255
210 229 255
210 229 255
210 229 255
209 229 255
209 229 255
209 229 255
209 229 255
209 229 255
208 228 255
208 228 255
208 228 255
208 228 255
207 228 255
207 228 255
207 227 255
206 227 255
206 227 255
206 227 255
205 227 255
205 226 255
204 226 255
204 226 255
203 225 255
202 225 255
201 225 255
201 224 255
200 224 255
198 223 255
197 222 255
187 212 204
170 194 0
167 190 0
169 191 0
169 191 0
171 193 0
168 191 0
165 188 0
170 193 0
162 185 0
166 188 0
166 189 0
167 190 0
166 188 0
168 191 0
164 187 0
165 188 0
167 190 0
159 182 0
164 185 0
164 187 0
163 186 0
161 184 0
159 182 0
164 187 0
166 188 0
165 187 0
163 186 0
155 177 31
90 116 97
54 86 88
54 86 97
54 86 94
56 88 105
55 88 99
55 88 110
57 90 100
55 87 97
52 84 78
55 88 92
56 89 99
55 87 99
55 86 90
57 90 105
55 88 95
56 88 103
56 89 102
56 88 95
56 89 102
56 88 95
54 86 99
54 86 99
53 86 76
56 88 107
54 87 95
56 88 102
54 85 88
55 87 100
55 87 107
55 87 100
53 85 84
56 89 102
54 85 105
56 89 95
55 87 99
56 88 103
54 86 94
54 85 103
55 86 82
55 87 107
58 90 112
56 88 100
55 87 107
52 82 88
55 86 108
56 88 100
54 85 94
53 84 88
54 86 90
54 85 102
56 88 105
55 88 99
52 83 94
55 87 108
53 84 94
54 85 85
53 84 91
54 85 85
54 86 102
54 84 92
53 82 77
53 83 87
51 82 90
55 86 98
53 83 90
53 83 100
50 79 77
52 81 77
51 79 94
50 78 85
52 81 90
50 77 87
50 78 85
46 72 70
78 98 64
146 164 18
151 170 0
151 171 0
149 170 0
152 172 0
147 165 0
150 169 0
150 168 0
152 170 0
149 170 0
155 173 0
148 165 0
158 176 0
155 175 0
156 175 0
146 162 0
150 169 0
152 171 0
156 173 0
152 172 0
151 168 0
149 165 0
147 164 0
155 175 0
161 179 0
153 171 0
155 172 0
156 175 0
126 135 16
94 88 19
91 87 19
79 76 24
75 73 16
90 87 18
85 83 18
82 80 14
88 85 0
90 87 14
84 81 3
95 91 8
84 81 0
94 91 12
97 94 11
94 91 21
81 79 8
105 100 11
104 100 19
94 90 8
95 93 8
106 102 11
109 105 16
102 100 0
112 106 22
110 108 19
112 106 22
115 109 14
111 107 20
109 106 14
110 106 26
121 117 24
126 121 16
119 113 20
121 118 21
129 124 30
116 111 25
122 117 22
129 124 25
123 119 24
124 119 26
125 119 36
127 123 30
122 118 22
133 129 30
135 130 25
131 126 36
131 125 32
135 131 32
140 135 39
125 119 34
143 138 45
135 129 32
127 123 30
131 126 25
134 130 25
139 134 34
134 128 37
138 132 32
132 125 37
140 134 41
137 131 19
142 134 45
134 129 36
143 137 36
146 140 36
142 137 30
144 138 42
143 137 47
137 132 37
134 128 34
145 139 42
140 136 39
144 140 36
144 137 39
148 142 49
140 135 36
146 140 44
141 135 41
139 134 41
149 142 49
149 143 42
147 140 52
143 137 47
142 137 41
147 140 45
144 137 44
152 147 45
144 138 51
145 140 48
144 140 45
138 133 44
136 131 37
143 137 39
144 139 48
149 142 49
147 140 54
149 143 51
141 135 39
141 135 48
142 136 45
143 138 49
150 143 47
146 140 49
148 142 53
142 136 47
147 140 49
147 141 52
151 145 49
146 140 45
145 138 53
145 139 57
147 140 53
147 142 49
145 141 48
152 145 56
145 137 49
138 132 39
141 134 51
146 140 53
145 139 48
149 142 53
144 137 47
143 137 53
145 140 51
143 137 53
138 132 47
148 142 53
145 139 61
135 130 44
136 131 49
140 134 47
138 131 45
144 137 54
211 230 255
211 230 255
211 230 255
211 230 255
211 230 255
211 230 255
211 230 255
211 230 255
211 230 255
211 230 255
212 230 255
212 230 255
212 230 255
212 230 255
212 230 255
212 230 255
212 230 255
212 230 255
212 230 255
212 230 255
212 230 255
212 230 255
212 230 255
212 230 255
212 230 255
212 230 255
212 230 255
212 230 255
212 230 255
212 230 255
212 230 255
212 230 255
212 230 255
212 230 255
212 230 255
212 231 255
212 231 255
212 231 255
212 231 255
212 231 255
212 231 255
212 231 255
212 231 255
212 231 255
212 231 255
212 231 255
212 231 255
212 231 255
212 231 255
212 231 255
212 231 255
212 231 255
212 231 255
212 231 255
212 231 255
212 231 255
212 231 255
212 231 255
212 231 255
212 231 255
212 231 255
212 231 255
212 231 255
212 231 255
212 230 255
212 230 255
212 230 255
212 230 255
212 230 255
212 230 255
212 230 255
212 230 255
212 230 255
212 230 255
212 230 255
212 230 255
212 230 255
212 230 255
212 230 255
212 230 255
212 230 255
212 230 255
212 230 255
211 230 255
211 230 255
211 230 255
211 230 255
211 230 255
211 230 255
211 230 255
211 230 255
211 230 255
211 230 255
211 230 255
211 230 255
210 230 255
210 229 255
210 229 255
210 229 255
210 229 255
210 229 255
210 229 255
210 229 255
209 229 255
209 229 255
209 229 255
209 229 255
209 229 255
209 229 255
208 228 255
208 228 255
208 228 255
208 228 255
207 228 255
207 228 255
207 228 255
207 227 255
206 227 255
206 227 255
206 227 255
205 227 255
205 226 255
204 226 255
204 226 255
203 225 255
202 225 255
202 225 255
201 224 255
200 224 255
199 223 255
198 223 255
196 222 255
184 209 193
167 191 0
167 189 0
165 189 0
160 181 0
170 193 0
169 192 0
169 192 0
162 185 0
164 187 0
168 191 0
163 186 0
169 191 0
165 188 0
160 182 0
166 188 0
164 186 0
163 185 0
159 181 0
158 182 0
162 184 0
165 187 0
157 179 0
161 184 0
159 181 0
163 186 0
156 178 0
157 180 0
156 178 0
161 183 0
152 175 31
80 106 92
54 86 80
53 83 78
55 87 97
52 84 82
55 87 88
54 85 88
53 84 97
55 87 82
55 88 88
56 89 108
56 88 97
55 87 100
53 85 94
55 87 95
56 88 105
53 85 92
53 86 92
54 86 97
57 89 100
55 86 102
55 87 103
54 86 99
57 90 103
56 88 105
53 85 86
55 87 100
55 87 100
54 85 90
55 87 97
56 88 103
56 88 113
54 85 97
53 84 95
56 88 105
55 86 99
54 86 95
56 88 97
55 86 102
53 84 90
55 88 90
52 83 86
55 88 92
54 85 82
57 89 115
55 87 103
54 86 95
53 84 92
55 86 100
52 83 86
55 86 105
53 83 99
55 86 97
56 87 108
51 81 76
54 85 91
51 80 83
51 80 86
51 80 82
53 84 86
52 82 89
54 84 90
53 82 96
50 78 87
52 81 106
52 82 99
51 80 89
49 76 80
49 78 87
47 74 68
50 79 89
46 72 65
45 70 63
76 96 54
144 164 0
139 158 0
148 167 0
144 165 0
150 169 0
148 166 0
157 177 0
146 165 0
143 161 0
139 157 0
146 164 0
145 163 0
157 176 0
146 164 0
156 175 0
147 167 0
149 166 0
146 164 0
150 167 0
152 169 0
152 171 0
155 174 0
150 166 0
146 162 0
156 171 0
154 168 0
154 170 0
155 172 0
151 168 0
156 172 0
125 135 11
102 95 28
84 80 18
81 76 16
95 93 16
77 73 16
88 85 20
78 77 14
84 80 3
93 85 5
103 100 14
102 98 0
92 88 11
87 84 0
103 96 11
96 92 0
103 98 18
94 93 11
92 88 18
98 94 11
101 98 8
102 97 11
107 101 16
107 103 16
108 104 0
113 110 18
113 108 16
103 99 22
115 113 25
113 109 14
107 105 8
129 124 32
114 112 8
118 113 18
114 109 18
131 127 34
122 118 19
123 120 25
127 121 22
120 115 22
128 123 24
126 121 19
131 126 40
134 128 31
131 126 30
137 132 35
132 127 30
140 134 34
139 133 30
128 124 25
141 136 34
133 127 25
140 134 36
127 123 28
131 126 28
138 132 32
136 132 29
131 125 34
137 132 16
145 137 40
139 135 35
141 135 37
139 134 39
142 137 32
144 138 39
141 135 41
144 139 37
140 134 37
141 136 34
144 138 44
145 139 44
140 135 36
141 135 41
137 131 32
143 137 45
144 139 37
146 140 52
133 129 41
138 132 41
144 139 34
145 139 48
146 140 42
145 139 47
151 143 51
144 138 44
136 129 34
142 136 48
139 135 45
146 140 41
142 138 39
144 139 39
144 138 47
144 137 44
146 140 47
144 139 37
146 141 51
146 140 45
146 138 45
143 138 48
139 134 44
142 136 53
139 132 42
137 132 39
139 133 44
143 136 48
143 137 45
139 134 48
138 132 44
143 136 49
151 144 52
147 140 51
143 138 49
140 135 45
149 142 56
143 139 47
146 139 58
142 136 48
145 138 49
137 132 45
140 134 47
146 140 42
132 125 51
137 131 49
143 136 49
135 129 39
142 135 54
125 120 44
137 132 44
149 143 57
149 142 58
141 135 58
141 135 48
128 122 47
211 230 255
211 230 255
211 230 255
211 230 255
211 230 255
211 230 255
211 230 255
211 230 255
211 230 255
211 230 255
211 230 255
211 230 255
211 230 255
211 230 255
211 230 255
211 230 255
211 230 255
211 230 255
211 230 255
211 230 255
212 230 255
212 230 255
212 230 255
212 230 255
212 230 255
212 230 255
212 230 255
212 230 255
212 230 255
212 230 255
212 230 255
212 230 255
212 230 255
212 230 255
212 230 255
212 230 255
212 230 255
212 230 255
212 230 255
212 230 255
212 230 255
212 230 255
212 230 255
212 230 255
212 230 255
212 230 255
212 230 255
212 230 255
212 230 255
212 230 255
212 230 255
212 230 255
212 230 255
212 230 255
212 230 255
212 230 255
212 230 255
212 230 255
212 230 255
212 230 255
212 230 255
212 230 255
212 230 255
212 230 255
212 230 255
212 230 255
212 230 255
212 230 255
212 230 255
212 230 255
212 230 255
212 230 255
212 230 255
212 230 255
212 230 255
211 230 255
211 230 255
211 230 255
211 230 255
211 230 255
211 230 255
211 230 255
211 230 255
211 230 255
211 230 255
211 230 255
211 230 255
211 230 255
211 230 255
211 230 255
211 230 255
210 230 255
210 229 255
210 229 255
210 229 255
210 229 255
210 229 255
210 229 255
210 229 255
210 229 255
209 229 255
209 229 255
209 229 255
209 229 255
209 229 255
209 228 255
208 228 255
208 228 255
208 228 255
208 228 255
207 228 255
207 228 255
207 228 255
207 227 255
206 227 255
206 227 255
206 227 255
205 227 255
205 227 255
205 226 255
204 226 255
203 226 255
203 226 255
202 225 255
202 225 255
201 224 255
200 224 255
199 224 255
198 223 255
197 222 255
195 221 255
182 207 181
169 192 0
169 192 0
162 186 0
165 187 0
169 191 0
167 189 0
168 190 0
166 188 0
158 180 0
163 186 0
162 185 0
164 186 0
169 191 0
157 181 0
169 191 0
160 183 0
166 188 0
160 182 0
167 189 0
164 187 0
162 184 0
162 185 0
167 189 0
159 182 0
158 180 0
156 178 0
151 174 0
153 175 0
158 180 0
152 174 0
156 178 0
154 176 18
81 107 80
54 85 99
50 81 94
54 85 76
53 85 82
54 86 92
55 87 86
50 80 76
55 88 105
52 83 82
54 86 90
52 84 84
54 87 86
54 86 92
54 85 92
55 87 90
52 83 82
55 87 92
53 84 90
56 89 107
54 86 88
53 84 92
54 86 78
55 87 92
54 86 99
54 85 97
54 86 90
53 84 88
56 88 94
55 87 97
57 90 102
52 83 90
54 86 84
57 89 108
57 89 110
56 88 103
54 85 94
53 84 90
55 86 99
54 85 95
55 87 107
54 85 97
54 86 92
56 88 111
54 85 95
53 83 92
54 86 102
54 85 92
54 85 96
52 83 86
52 83 89
54 85 90
54 85 100
54 85 87
54 85 101
55 86 101
51 80 90
53 83 94
53 83 97
53 83 76
51 80 73
49 78 77
50 79 94
52 82 97
49 78 79
53 83 94
52 81 90
50 79 73
47 73 72
48 75 77
46 72 61
74 96 65
137 154 19
145 161 0
140 157 0
144 161 0
139 156 0
151 171 0
150 169 0
147 164 0
140 158 0
149 164 0
148 166 0
144 161 0
147 165 0
147 166 0
146 163 0
146 163 0
146 162 0
152 171 0
153 170 0
147 165 0
153 171 0
148 164 0
145 162 0
150 167 0
156 173 0
151 167 0
146 161 0
147 163 0
157 174 0
152 167 0
156 172 0
156 171 0
128 130 25
90 86 25
71 68 11
90 85 16
80 77 18
90 87 8
78 76 14
93 89 0
96 90 0
90 86 8
93 90 8
92 89 8
90 87 12
102 98 11
92 87 12
90 87 12
104 100 18
104 102 3
100 97 8
89 85 14
104 97 18
101 99 14
108 103 8
100 97 14
104 100 14
114 109 16
105 102 21
114 109 21
108 104 14
118 113 19
114 111 16
120 115 16
114 110 24
121 116 24
124 117 24
128 123 28
113 110 11
126 121 30
123 119 33
118 114 11
134 127 31
130 125 25
133 128 28
133 129 30
131 125 25
132 125 31
136 131 28
129 125 28
133 129 28
128 121 32
137 132 29
130 124 30
137 132 36
135 131 34
135 128 36
137 134 28
141 136 41
139 133 25
139 132 32
143 136 34
143 138 41
145 138 45
145 139 42
141 136 44
146 139 41
145 139 39
136 132 32
140 135 36
135 129 37
147 139 42
144 139 28
141 135 44
136 130 30
141 136 45
136 131 39
141 136 44
134 129 32
147 141 41
142 136 41
144 139 37
143 136 44
140 133 41
142 135 45
141 136 39
141 136 37
144 138 42
141 134 44
146 140 41
139 133 37
142 135 45
141 135 42
137 132 34
143 136 42
136 130 37
141 134 51
147 140 45
149 142 49
143 135 45
143 136 53
148 143 45
150 144 41
145 137 49
143 137 52
140 133 41
144 138 44
143 137 42
142 137 44
142 136 47
143 137 47
141 136 42
137 132 44
145 138 53
136 130 49
140 133 48
141 135 51
141 135 48
147 140 57
144 136 54
143 136 44
141 135 52
148 142 49
136 131 41
135 130 51
137 132 47
132 126 41
134 129 54
134 130 44
142 135 49
140 134 45
146 140 57
138 131 53
138 132 56
210 229 255
210 229 255
210 229 255
210 230 255
210 230 255
211 230 255
211 230 255
211 230 255
211 230 255
211 230 255
211 230 255
211 230 255
211 230 255
211 230 255
211 230 255
211 230 255
211 230 255
211 230 255
211 230 255
211 230 255
211 230 255
211 230 255
211 230 255
211 230 255
211 230 255
211 230 255
211 230 255
211 230 255
211 230 255
211 230 255
211 230 255
211 230 255
211 230 255
211 230 255
211 230 255
211 230 255
211 230 255
212 230 255
211 230 255
212 230 255
212 230 255
212 230 255
212 230 255
212 230 255
212 230 255
212 230 255
212 230 255
212 230 255
212 230 255
212 230 255
212 230 255
212 230 255
212 230 255
212 230 255
212 230 255
212 230 255
212 230 255
212 230 255
212 230 255
211 230 255
211 230 255
211 230 255
211 230 255
211 230 255
211 230 255
211 230 255
211 230 255
211 230 255
211 230 255
211 230 255
211 230 255
211 230 255
211 230 255
211 230 255
211 230 255
211 230 255
211 230 255
211 230 255
211 230 255
211 230 255
211 230 255
211 230 255
211 230 255
211 230 255
211 230 255
210 230 255
210 229 255
210 229 255
210 229 255
210 229 255
210 229 255
210 229 255
210 229 255
210 229 255
210 229 255
209 229 255
209 229 255
209 229 255
209 229 255
209 229 255
209 229 255
209 229 255
208 228 255
208 228 255
208 228 255
208 228 255
208 228 255
207 228 255
207 228 255
207 228 255
207 228 255
206 227 255
206 227 255
206 227 255
205 227 255
205 227 255
205 226 255
204 226 255
204 226 255
203 226 255
203 225 255
202 225 255
202 225 255
201 225 255
201 224 255
200 224 255
199 223 255
198 223 255
196 222 255
195 221 255
182 207 181
165 187 0
167 190 0
170 192 0
166 189 0
167 189 0
167 190 0
170 193 0
163 185 0
170 193 0
166 189 0
160 183 0
166 190 0
158 182 0
164 187 0
159 182 0
161 184 0
157 180 0
162 185 0
160 183 0
163 185 0
163 185 0
155 178 0
162 184 0
157 180 0
157 179 0
162 184 0
155 177 0
156 178 0
151 172 0
153 175 0
143 165 0
156 177 0
149 170 0
134 156 40
88 111 62
50 80 80
53 85 90
55 87 88
56 89 100
56 88 100
53 85 80
51 81 82
53 85 97
54 86 105
52 84 80
53 85 84
54 86 97
54 86 86
56 89 100
56 88 99
54 86 90
53 85 99
56 88 95
54 85 92
55 87 100
55 87 102
54 86 102
55 86 100
54 86 97
55 87 105
55 86 92
55 87 97
53 85 97
53 84 97
53 84 86
53 84 88
55 87 108
54 85 86
53 84 99
54 86 97
53 84 92
55 87 108
53 85 92
55 86 101
54 86 107
54 85 92
54 85 95
51 81 82
54 85 94
54 85 94
52 83 97
50 80 87
52 81 81
51 81 87
53 84 92
54 86 105
51 81 86
49 78 85
52 83 80
50 78 90
52 83 91
51 80 78
50 80 90
52 82 79
48 75 70
51 80 80
50 79 89
50 77 73
46 73 60
49 77 85
49 76 72
50 77 79
45 70 57
79 98 51
138 155 0
146 164 0
139 155 0
137 154 0
138 153 0
137 153 0
141 158 0
139 157 0
147 165 0
144 161 0
142 160 0
148 165 0
149 168 0
143 158 0
144 160 0
141 158 0
135 151 0
145 160 0
140 157 0
144 161 0
143 158 0
147 163 0
148 163 0
152 170 0
149 164 0
147 164 0
150 165 0
147 161 0
148 163 0
139 154 0
150 167 0
154 168 0
151 167 0
157 172 0
132 141 22
83 79 16
84 80 11
106 98 18
77 75 11
89 86 16
92 89 8
79 74 11
94 89 16
86 82 3
92 87 8
104 99 14
79 75 12
89 84 0
91 87 12
110 105 14
96 93 14
109 106 14
88 85 8
105 101 0
106 103 8
115 110 11
115 110 11
116 112 11
106 102 8
100 98 8
111 107 8
118 113 11
113 108 11
112 108 21
123 117 25
115 112 11
121 117 28
129 124 25
115 111 22
129 125 24
122 118 18
126 121 18
124 118 18
117 112 25
124 118 16
126 122 28
137 130 30
124 120 19
137 132 42
126 122 24
120 116 18
132 128 32
135 130 25
127 122 22
132 128 30
137 132 30
134 130 19
135 129 34
134 129 36
131 125 36
139 132 30
129 123 25
142 137 41
138 132 34
146 140 37
141 134 32
132 126 22
134 129 36
137 130 30
136 131 36
138 132 30
143 137 44
137 131 34
134 128 36
139 133 32
139 133 36
147 141 36
153 145 53
149 144 47
143 137 34
140 134 36
140 133 39
136 131 36
141 137 37
143 137 44
140 134 42
141 134 41
129 123 41
143 135 45
138 132 36
138 133 36
144 139 47
146 139 47
145 140 44
149 142 48
138 132 39
151 145 42
133 129 30
139 133 45
141 135 41
141 136 45
148 142 45
147 140 48
142 135 45
144 138 44
144 138 47
141 134 45
133 128 28
145 139 51
139 134 42
143 137 47
147 141 45
138 133 42
142 135 48
135 129 45
144 137 48
145 138 49
137 130 47
147 139 58
138 132 41
137 132 39
141 135 45
146 138 56
135 129 48
143 136 49
134 126 49
137 131 45
137 132 41
138 132 47
141 135 47
143 136 51
139 133 49
136 130 47
130 126 41
137 130 53
210 229 255
210 229 255
210 229 255
210 229 255
210 229 255
210 229 255
210 229 255
210 229 255
210 229 255
210 229 255
210 229 255
210 229 255
210 230 255
210 230 255
211 230 255
211 230 255
211 230 255
211 230 255
211 230 255
211 230 255
211 230 255
211 230 255
211 230 255
211 230 255
211 230 255
211 230 255
211 230 255
211 230 255
211 230 255
211 230 255
211 230 255
211 230 255
211 230 255
211 230 255
211 230 255
211 230 255
211 230 255
211 230 255
211 230 255
211 230 255
211 230 255
211 230 255
211 230 255
211 230 255
211 230 255
211 230 255
211 230 255
211 230 255
211 230 255
211 230 255
211 230 255
211 230 255
211 230 255
211 230 255
211 230 255
211 230 255
211 230 255
211 230 255
211 230 255
211 230 255
211 230 255
211 230 255
211 230 255
211 230 255
211 230 255
211 230 255
211 230 255
211 230 255
211 230 255
211 230 255
211 230 255
211 230 255
211 230 255
211 230 255
211 230 255
211 230 255
211 230 255
211 230 255
210 230 255
210 229 255
210 229 255
210 229 255
210 229 255
210 229 255
210 229 255
210 229 255
210 229 255
210 229 255
210 229 255
210 229 255
210 229 255
209 229 255
209 229 255
209 229 255
209 229 255
209 229 255
209 229 255
209 229 255
208 228 255
208 228 255
208 228 255
208 228 255
208 228 255
208 228 255
207 228 255
207 228 255
207 228 255
207 228 255
206 227 255
206 227 255
206 227 255
206 227 255
205 227 255
205 227 255
205 226 255
204 226 255
204 226 255
203 226 255
203 225 255
202 225 255
202 225 255
201 225 255
201 224 255
200 224 255
199 223 255
198 223 255
197 222 255
195 221 255
193 220 249
178 203 157
170 193 0
170 193 0
165 188 0
165 187 0
165 188 0
168 191 0
168 191 0
166 189 0
164 188 0
167 189 0
159 182 0
160 183 0
160 183 0
165 189 0
162 184 0
158 181 0
159 182 0
159 182 0
156 178 0
159 181 0
164 185 0
153 176 0
165 188 0
153 175 0
155 177 0
156 179 0
154 176 0
152 174 0
155 177 0
157 178 0
152 174 0
151 173 0
145 167 0
148 169 0
147 168 0
142 163 18
87 110 60
48 77 67
56 88 102
52 83 86
52 82 74
52 83 86
56 88 103
57 89 105
54 85 95
55 87 97
53 85 80
54 86 82
56 88 99
54 85 95
53 84 94
54 86 97
55 87 94
53 85 82
55 87 97
55 87 103
55 87 100
54 86 92
55 87 97
55 87 88
55 87 105
53 84 88
54 86 97
56 88 95
54 86 107
54 86 90
53 85 102
55 86 103
55 87 99
54 85 88
51 81 77
54 86 86
54 86 88
53 84 80
53 84 92
54 86 90
55 86 94
53 84 82
55 86 92
53 85 94
55 86 94
54 85 88
53 84 86
52 83 92
52 83 99
53 85 84
51 80 82
54 85 103
53 83 78
52 81 82
52 82 92
50 79 83
51 81 90
52 83 87
51 79 80
51 80 83
50 78 63
50 79 76
48 76 74
50 77 87
48 76 75
51 79 94
45 70 64
82 101 57
134 151 0
125 141 0
126 143 0
131 147 0
131 148 0
138 154 0
140 158 0
132 147 0
140 154 0
139 156 0
128 143 0
147 166 0
139 152 0
133 149 0
136 150 0
140 157 0
143 160 0
145 161 0
139 155 0
146 161 0
142 159 0
138 154 0
139 153 0
139 154 0
141 156 0
151 167 0
143 157 0
147 160 0
153 168 0
144 157 0
150 164 0
146 160 0
152 168 0
144 158 0
148 160 0
146 159 0
141 150 19
82 79 28
89 85 21
94 88 31
88 84 24
77 74 11
81 78 1
89 87 14
84 79 19
83 78 8
85 82 8
100 95 0
82 80 0
97 94 0
94 88 0
102 97 11
97 92 11
105 101 14
109 101 12
97 91 8
108 103 0
103 98 0
118 114 11
111 106 0
112 107 0
109 105 14
112 106 3
125 121 19
107 103 21
116 113 19
116 113 16
119 114 11
119 113 21
119 115 26
118 111 11
123 117 16
128 124 22
106 104 11
110 108 18
125 120 25
126 121 21
116 111 11
132 127 22
125 120 16
118 113 19
125 120 33
135 129 25
135 129 25
133 128 22
132 128 30
132 126 36
130 125 25
126 121 16
130 123 36
122 117 28
139 134 34
134 129 25
130 125 25
140 134 30
131 126 30
144 137 34
137 131 32
147 140 36
127 121 25
138 131 41
143 137 36
139 133 41
136 130 32
141 136 25
127 123 22
146 141 37
137 131 41
146 140 41
143 137 47
132 126 28
135 130 28
136 129 39
145 139 44
143 135 42
137 131 39
148 140 45
141 135 42
132 125 37
136 130 37
142 135 45
139 133 41
139 133 45
148 140 47
138 134 36
150 144 49
145 139 47
140 133 45
144 138 37
136 132 34
137 131 42
133 128 37
146 139 52
137 133 44
147 141 52
145 139 52
146 139 49
141 135 49
135 130 42
138 132 37
131 124 36
127 120 37
135 128 39
143 136 44
145 138 53
146 140 48
141 135 47
137 129 47
139 133 47
135 128 52
133 127 42
142 136 51
140 135 45
143 137 49
136 129 44
137 131 45
148 141 62
146 139 58
141 134 44
139 133 47
147 140 51
144 138 47
134 129 42
128 122 47
133 127 44
124 119 36
209 229 255
209 229 255
209 229 255
209 229 255
210 229 255
210 229 255
210 229 255
210 229 255
210 229 255
210 229 255
210 229 255
210 229 255
210 229 255
210 229 255
210 229 255
210 229 255
210 229 255
210 229 255
210 229 255
210 229 255
210 229 255
210 229 255
210 229 255
210 230 255
210 230 255
210 230 255
210 230 255
211 230 255
211 230 255
211 230 255
211 230 255
211 230 255
211 230 255
211 230 255
211 230 255
211 230 255
211 230 255
211 230 255
211 230 255
211 230 255
211 230 255
211 230 255
211 230 255
211 230 255
211 230 255
211 230 255
211 230 255
211 230 255
211 230 255
211 230 255
211 230 255
211 230 255
211 230 255
211 230 255
211 230 255
211 230 255
211 230 255
211 230 255
211 230 255
211 230 255
211 230 255
211 230 255
211 230 255
211 230 255
211 230 255
211 230 255
210 230 255
210 230 255
210 230 255
210 230 255
210 229 255
210 229 255
210 229 255
210 229 255
210 229 255
210 229 255
210 229 255
210 229 255
210 229 255
210 229 255
210 229 255
210 229 255
210 229 255
210 229 255
210 229 255
209 229 255
209 229 255
209 229 255
209 229 255
209 229 255
209 229 255
209 229 255
209 229 255
209 229 255
208 228 255
208 228 255
208 228 255
208 228 255
208 228 255
208 228 255
208 228 255
207 228 255
207 228 255
207 228 255
207 227 255
206 227 255
206 227 255
206 227 255
206 227 255
205 227 255
205 227 255
205 226 255
204 226 255
204 226 255
204 226 255
203 226 255
203 225 255
202 225 255
202 225 255
201 225 255
201 224 255
200 224 255
199 223 255
198 223 255
197 222 255
196 222 255
195 221 255
191 217 244
172 196 117
159 182 0
166 189 0
162 186 0
163 186 0
163 186 0
163 186 0
161 184 0
168 191 0
163 186 0
160 183 0
167 190 0
161 183 0
161 184 0
162 184 0
162 185 0
165 188 0
156 178 0
151 172 0
155 179 0
167 189 0
161 183 0
155 178 0
161 183 0
161 183 0
152 175 0
162 184 0
157 179 0
147 169 0
156 178 0
146 168 0
147 168 0
156 177 0
147 169 0
143 164 0
152 172 0
145 167 0
149 170 0
141 161 0
103 126 54
48 77 70
53 84 80
53 84 92
52 84 84
52 83 82
55 87 97
52 83 78
53 84 82
52 83 84
55 87 97
53 85 78
55 88 95
54 86 88
53 84 80
54 86 92
52 83 78
54 86 86
55 87 97
54 85 92
53 84 82
53 85 84
54 87 84
53 84 94
55 87 94
53 84 86
55 88 90
53 84 80
52 83 78
52 83 78
53 84 90
54 86 94
52 83 86
54 85 86
52 83 92
51 82 86
53 83 90
53 84 94
55 86 82
54 86 88
55 87 102
50 80 84
53 84 90
49 79 77
53 84 94
54 85 107
53 85 84
53 83 99
53 83 84
51 80 88
53 83 92
53 84 80
51 80 90
50 79 89
52 82 89
53 84 86
51 79 72
51 80 92
47 75 75
52 81 97
51 79 91
47 73 63
47 74 54
46 72 72
49 76 77
87 105 31
122 137 0
118 132 0
137 153 0
121 135 0
129 144 0
140 157 0
128 144 0
124 141 0
132 148 0
133 148 0
140 157 0
128 142 0
134 148 0
132 147 0
141 156 0
139 154 0
127 142 0
136 151 0
140 156 0
131 147 0
145 158 0
142 159 0
148 165 0
142 157 0
148 162 0
133 148 0
135 148 0
139 152 0
131 144 0
144 160 0
150 163 0
138 149 0
143 154 0
145 156 0
148 163 0
148 161 0
142 153 0
146 160 0
130 141 11
105 101 19
76 72 19
87 81 11
95 90 16
99 95 28
78 74 12
96 91 11
81 79 0
83 78 11
95 90 8
93 88 0
103 98 14
99 94 0
83 78 11
96 91 14
103 98 0
101 97 0
99 95 14
91 85 0
102 98 0
114 110 0
115 109 14
104 100 0
108 103 14
110 104 16
112 108 21
112 107 18
110 106 11
110 106 0
112 107 8
116 111 16
126 119 19
118 114 22
122 119 16
115 110 21
120 115 16
123 119 19
121 118 22
124 119 18
121 117 19
125 119 22
130 124 26
121 117 14
131 126 19
130 123 28
130 124 26
127 122 28
133 127 28
122 117 25
131 125 28
126 122 28
135 129 25
126 120 30
132 126 28
130 122 30
129 123 32
136 130 37
136 128 28
131 126 32
133 128 25
137 131 36
135 132 30
142 136 34
132 126 34
139 132 39
142 137 30
144 138 39
132 126 25
137 130 32
143 136 47
136 130 36
136 131 34
140 133 37
133 127 36
138 131 41
136 130 36
145 140 37
133 128 34
139 133 36
132 128 37
141 135 42
131 124 30
130 125 28
134 127 34
131 126 34
139 133 32
136 130 30
144 137 47
142 136 45
140 134 44
140 134 44
135 129 37
144 137 48
132 127 44
143 136 49
147 140 45
134 130 37
142 136 48
135 129 34
139 132 45
139 133 44
136 131 44
132 125 39
136 131 36
141 133 37
146 140 51
144 138 48
142 136 41
139 134 47
142 136 44
136 129 42
139 133 41
147 140 49
141 135 48
138 132 45
140 135 41
136 129 44
140 133 48
148 140 56
144 137 54
147 140 57
144 138 54
132 126 41
142 135 56
129 124 45
140 133 51
132 127 42
132 127 57
209 229 255
209 229 255
209 229 255
209 229 255
209 229 255
209 229 255
209 229 255
209 229 255
209 229 255
209 229 255
209 229 255
210 229 255
210 229 255
210 229 255
210 229 255
210 229 255
210 229 255
210 229 255
210 229 255
210 229 255
210 229 255
210 229 255
210 229 255
210 229 255
210 229 255
210 229 255
210 229 255
210 229 255
210 229 255
210 229 255
210 229 255
210 229 255
210 229 255
210 229 255
210 229 255
210 229 255
210 229 255
210 229 255
210 229 255
210 229 255
210 229 255
210 229 255
210 229 255
210 229 255
210 229 255
210 229 255
210 229 255
210 229 255
210 229 255
210 229 255
210 229 255
210 229 255
210 229 255
210 229 255
210 229 255
210 229 255
210 229 255
210 229 255
210 229 255
210 229 255
210 229 255
210 229 255
210 229 255
210 229 255
210 229 255
210 229 255
210 229 255
210 229 255
210 229 255
210 229 255
210 229 255
210 229 255
210 229 255
210 229 255
210 229 255
210 229 255
210 229 255
210 229 255
209 229 255
209 229 255
209 229 255
209 229 255
209 229 255
209 229 255
209 229 255
209 229 255
209 229 255
209 229 255
209 229 255
208 228 255
208 228 255
208 228 255
208 228 255
208 228 255
208 228 255
208 228 255
208 228 255
207 228 255
207 228 255
207 228 255
207 228 255
207 227 255
206 227 255
206 227 255
206 227 255
206 227 255
205 227 255
205 227 255
205 226 255
205 226 255
204 226 255
204 226 255
203 226 255
203 225 255
203 225 255
202 225 255
202 225 255
201 224 255
201 224 255
200 224 255
199 223 255
198 223 255
197 222 255
196 222 255
195 221 255
194 220 255
188 215 234
169 194 92
164 188 0
169 192 0
165 188 0
162 185 0
168 192 0
165 188 0
162 185 0
160 183 0
166 189 0
164 187 0
163 186 0
164 187 0
157 180 0
163 185 0
162 185 0
161 183 0
159 181 0
159 182 0
154 176 0
158 182 0
163 185 0
162 184 0
154 176 0
153 175 0
149 171 0
150 172 0
150 172 0
153 175 0
148 169 0
139 160 0
142 164 0
141 163 0
152 174 0
151 172 0
142 164 0
143 164 0
136 157 0
144 165 0
141 161 0
140 160 0
118 139 54
51 80 84
52 83 74
54 85 84
52 83 94
52 82 74
48 78 74
52 82 90
52 83 95
52 82 78
54 86 88
52 83 76
52 82 78
54 85 94
54 86 95
53 85 82
51 82 82
54 85 95
54 85 90
55 86 103
53 84 88
54 85 90
55 87 99
51 81 80
55 87 100
55 87 95
53 84 88
51 82 76
51 81 75
53 84 100
55 87 95
52 82 82
54 85 94
51 82 82
52 83 90
56 88 100
54 86 94
52 83 82
54 85 92
52 83 82
52 83 86
55 87 105
53 83 90
53 84 84
52 82 81
53 83 86
51 80 90
52 81 89
52 82 81
53 83 88
52 82 79
50 79 77
51 80 78
52 82 77
49 78 76
50 79 78
46 72 63
49 77 77
49 78 75
45 71 70
47 73 75
44 70 54
47 71 54
95 110 36
119 134 0
120 132 0
115 131 0
128 143 0
125 139 0
127 143 0
135 151 0
124 138 0
132 147 0
125 139 0
130 147 0
131 146 0
134 151 0
135 150 0
142 159 0
132 148 0
139 155 0
127 141 0
132 148 0
130 144 0
135 149 0
136 150 0
139 152 0
141 155 0
137 151 0
130 142 0
141 155 0
137 150 0
132 144 0
141 155 0
134 148 0
143 158 0
136 145 0
139 150 0
138 150 0
132 142 0
141 155 0
140 150 0
145 154 0
137 147 0
136 146 0
96 95 25
72 69 16
82 76 20
79 75 0
86 80 21
84 81 11
87 82 11
91 83 0
87 84 0
86 82 0
106 100 11
85 82 0
104 97 14
94 88 8
101 95 0
97 92 8
95 91 8
96 93 12
98 94 11
98 93 0
110 103 0
99 93 16
107 102 8
116 112 0
110 107 11
113 108 11
109 106 8
117 112 11
115 109 18
109 105 11
111 107 19
113 107 25
118 113 11
121 116 21
119 113 16
115 111 14
125 119 19
117 113 8
119 114 16
127 121 22
127 121 11
125 121 16
130 124 0
125 121 19
128 123 19
128 123 16
134 127 19
126 120 21
118 113 22
132 126 22
128 124 11
119 113 26
132 128 25
131 126 34
128 123 28
129 124 30
139 132 34
143 136 34
127 121 25
127 121 19
134 128 19
127 122 22
133 126 36
134 129 39
138 132 32
139 133 37
145 138 36
135 130 25
129 125 11
139 132 30
144 138 39
134 129 19
139 134 30
142 136 41
138 132 36
134 129 32
128 122 37
136 131 32
138 132 37
135 131 34
138 134 34
131 126 32
133 127 34
133 127 37
138 132 34
142 135 47
139 133 47
129 124 36
137 132 34
140 134 44
134 129 34
141 135 37
142 137 42
136 131 44
138 131 37
140 135 41
140 134 48
141 135 53
138 131 42
132 127 34
139 132 42
136 131 45
134 129 41
133 128 39
142 137 48
141 133 44
133 126 36
142 136 49
142 137 48
141 135 48
148 141 53
130 123 44
133 126 39
135 128 42
136 130 47
135 129 47
143 136 57
136 131 41
141 133 51
140 133 49
132 127 47
143 136 54
137 130 47
136 130 45
140 133 56
137 131 51
128 123 49
208 228 255
208 228 255
209 228 255
209 229 255
209 229 255
209 229 255
209 229 255
209 229 255
209 229 255
209 229 255
209 229 255
209 229 255
209 229 255
209 229 255
209 229 255
209 229 255
209 229 255
209 229 255
209 229 255
209 229 255
209 229 255
209 229 255
209 229 255
210 229 255
210 229 255
210 229 255
210 229 255
210 229 255
210 229 255
210 229 255
210 229 255
210 229 255
210 229 255
210 229 255
210 229 255
210 229 255
210 229 255
210 229 255
210 229 255
210 229 255
210 229 255
210 229 255
210 229 255
210 229 255
210 229 255
210 229 255
210 229 255
210 229 255
210 229 255
210 229 255
210 229 255
210 229 255
210 229 255
210 229 255
210 229 255
210 229 255
210 229 255
210 229 255
210 229 255
210 229 255
210 229 255
210 229 255
210 229 255
210 229 255
210 229 255
210 229 255
210 229 255
210 229 255
209 229 255
209 229 255
209 229 255
209 229 255
209 229 255
209 229 255
209 229 255
209 229 255
209 229 255
209 229 255
209 229 255
209 229 255
209 229 255
209 229 255
209 229 255
209 228 255
208 228 255
208 228 255
208 228 255
208 228 255
208 228 255
208 228 255
208 228 255
208 228 255
207 228 255
207 228 255
207 228 255
207 228 255
207 228 255
207 227 255
207 227 255
206 227 255
206 227 255
206 227 255
206 227 255
205 227 255
205 227 255
205 226 255
205 226 255
204 226 255
204 226 255
204 226 255
203 226 255
203 225 255
202 225 255
202 225 255
202 225 255
201 224 255
200 224 255
200 224 255
199 223 255
198 223 255
198 223 255
197 222 255
195 221 255
194 221 255
193 220 255
180 207 201
164 188 36
163 187 0
168 191 0
168 192 0
168 192 0
165 188 0
164 186 0
163 186 0
162 186 0
165 188 0
165 188 0
161 183 0
166 189 0
164 187 0
157 179 0
163 187 0
161 183 0
158 181 0
151 174 0
157 178 0
153 176 0
154 176 0
163 184 0
154 176 0
148 169 0
153 174 0
153 175 0
151 172 0
151 172 0
147 169 0
152 173 0
144 165 0
151 173 0
141 162 0
146 168 0
143 164 0
148 169 0
138 159 0
136 157 0
145 166 0
147 167 0
131 150 0
129 149 0
122 142 44
79 102 60
49 78 74
50 80 72
53 84 80
50 80 70
54 86 84
52 83 80
52 83 78
51 81 70
54 85 94
56 88 99
52 83 80
54 85 82
52 82 84
52 82 76
52 83 78
54 85 95
53 83 84
52 83 99
50 79 76
52 83 76
55 87 95
53 84 92
53 83 92
49 78 67
53 83 92
52 82 84
53 84 95
53 84 82
53 85 92
51 80 80
53 84 92
54 85 92
56 87 105
51 81 82
50 80 82
55 87 99
52 83 84
53 83 84
53 84 83
51 81 86
52 82 84
50 80 78
49 78 77
51 81 67
51 81 80
49 78 86
50 79 80
52 81 89
49 78 80
50 78 82
49 78 65
50 78 84
49 77 79
51 80 83
49 76 70
46 71 65
46 73 76
48 73 64
74 94 51
114 130 25
110 124 0
117 132 0
119 133 0
125 140 0
118 131 0
120 134 0
128 145 0
117 132 0
124 137 0
112 127 0
123 137 0
129 144 0
128 141 0
119 133 0
135 151 0
129 143 0
130 144 0
122 139 0
129 144 0
138 152 0
129 143 0
132 145 0
134 147 0
126 139 0
128 142 0
138 150 0
134 146 0
136 148 0
131 142 0
136 147 0
137 147 0
130 141 0
142 152 0
130 141 0
126 136 0
129 138 0
134 146 0
135 146 0
145 157 0
132 140 0
137 146 0
130 140 0
135 145 0
97 100 11
88 79 16
90 85 18
70 65 8
89 84 22
94 88 0
95 89 11
94 90 0
93 89 16
87 82 0
87 82 0
91 84 3
96 90 0
91 86 0
92 87 8
99 94 8
107 103 0
100 94 8
113 106 11
107 103 11
104 101 11
103 99 0
96 91 11
117 111 11
110 106 11
116 111 18
107 102 11
110 106 0
114 108 19
112 107 14
125 120 11
110 106 18
121 116 16
113 109 16
121 115 22
119 115 16
122 117 16
126 121 11
128 123 11
121 115 16
131 124 16
119 114 0
125 120 11
129 123 32
129 124 16
129 123 16
119 115 16
128 121 19
132 126 28
119 114 19
131 124 30
126 121 25
125 118 19
130 124 28
137 130 37
129 123 25
129 125 25
134 127 30
131 127 25
130 124 25
134 127 32
129 123 28
136 131 25
138 132 32
137 130 36
141 135 34
133 128 32
137 132 32
140 133 30
131 125 22
133 127 36
131 124 32
132 126 39
134 128 37
139 133 30
131 126 30
134 127 42
138 132 37
135 129 34
134 128 32
147 141 39
146 140 36
132 126 32
140 134 36
129 125 30
132 127 34
132 126 39
141 134 37
139 133 42
136 131 37
139 134 39
137 131 49
138 131 36
145 139 42
138 133 39
139 133 41
140 134 45
139 134 41
132 125 44
140 136 30
135 128 36
135 129 41
142 136 44
139 132 48
140 133 37
145 136 49
134 128 45
138 132 48
137 131 36
131 125 44
135 130 39
136 129 44
141 135 49
130 124 42
138 132 39
126 120 32
139 134 44
129 124 42
131 124 48
141 134 54
138 132 45
130 122 42
133 126 42
123 118 41
129 124 39
132 126 49
208 228 255
208 228 255
208 228 255
208 228 255
208 228 255
208 228 255
208 228 255
208 228 255
208 228 255
208 228 255
208 228 255
209 228 255
209 229 255
209 229 255
209 229 255
209 229 255
209 229 255
209 229 255
209 229 255
209 229 255
209 229 255
209 229 255
209 229 255
209 229 255
209 229 255
209 229 255
209 229 255
209 229 255
209 229 255
209 229 255
209 229 255
209 229 255
209 229 255
209 229 255
209 229 255
209 229 255
209 229 255
209 229 255
209 229 255
209 229 255
209 229 255
209 229 255
209 229 255
209 229 255
209 229 255
209 229 255
209 229 255
209 229 255
209 229 255
209 229 255
209 229 255
209 229 255
209 229 255
209 229 255
209 229 255
209 229 255
209 229 255
209 229 255
209 229 255
209 229 255
209 229 255
209 229 255
209 229 255
209 229 255
209 229 255
209 229 255
209 229 255
209 229 255
209 229 255
209 229 255
209 229 255
209 229 255
209 229 255
209 229 255
209 229 255
209 229 255
209 228 255
208 228 255
208 228 255
208 228 255
208 228 255
208 228 255
208 228 255
208 228 255
208 228 255
208 228 255
208 228 255
208 228 255
207 228 255
207 228 255
207 228 255
207 228 255
207 228 255
207 227 255
207 227 255
206 227 255
206 227 255
206 227 255
206 227 255
206 227 255
205 227 255
205 227 255
205 226 255
205 226 255
204 226 255
204 226 255
204 226 255
203 226 255
203 225 255
203 225 255
202 225 255
202 225 255
201 225 255
201 224 255
200 224 255
200 224 255
199 223 255
198 223 255
197 222 255
197 222 255
196 222 255
195 221 255
193 220 255
190 218 250
181 208 184
164 188 0
165 189 0
166 190 0
167 192 0
166 190 0
167 190 0
165 188 0
161 185 0
153 177 0
162 185 0
168 191 0
163 186 0
160 183 0
156 179 0
163 185 0
159 182 0
158 181 0
156 178 0
159 182 0
157 180 0
157 180 0
158 180 0
157 178 0
157 179 0
151 174 0
160 182 0
152 173 0
155 178 0
155 176 0
137 159 0
160 181 0
150 171 0
148 169 0
149 170 0
149 170 0
144 166 0
140 161 0
137 157 0
135 155 0
137 157 0
136 156 0
125 145 0
133 151 0
136 156 0
135 154 0
129 148 0
110 131 40
56 85 67
50 80 74
51 81 84
51 81 84
50 80 78
53 84 82
51 82 78
52 83 80
49 79 74
53 85 92
51 81 88
53 85 94
52 82 82
51 80 76
53 83 92
53 84 88
49 78 70
52 82 70
51 82 78
52 83 82
55 87 94
54 85 84
53 84 86
51 81 76
53 84 97
51 81 90
53 84 97
49 79 72
50 80 65
51 82 80
51 82 90
54 85 95
51 81 75
49 77 84
51 81 76
51 81 78
51 82 80
52 82 72
49 77 78
49 78 80
52 82 88
53 83 80
50 79 78
51 81 80
50 80 88
49 79 67
50 79 72
47 74 79
48 76 74
49 77 65
47 74 65
48 76 62
48 77 80
48 75 76
42 67 60
48 75 80
87 103 32
105 116 0
106 118 0
121 136 0
121 134 0
121 136 0
115 129 0
121 136 0
120 135 0
122 138 0
125 139 0
126 142 0
129 145 0
127 142 0
134 150 0
127 143 0
132 147 0
134 147 0
133 148 0
130 145 0
129 141 0
133 148 0
132 147 0
127 140 0
126 142 0
122 134 0
122 133 0
126 138 0
132 146 0
133 147 0
129 142 0
129 140 0
131 141 0
133 142 0
127 138 0
133 145 0
131 140 0
130 140 0
134 143 0
133 142 0
127 136 0
130 137 0
140 150 0
135 145 0
131 139 0
129 139 0
129 138 0
123 128 11
84 78 19
72 66 0
97 91 16
71 66 11
85 82 11
94 86 19
96 91 11
92 87 14
89 86 0
105 97 18
95 88 11
101 94 8
102 96 11
95 88 0
95 89 0
94 90 0
108 102 0
99 95 0
97 93 0
105 98 0
98 92 0
111 106 11
112 105 0
112 104 0
115 107 11
113 108 0
114 108 0
122 116 19
121 117 19
114 110 0
113 106 0
115 110 11
117 113 11
115 110 8
116 107 11
114 109 11
117 113 11
128 123 22
112 107 16
127 122 22
113 109 11
123 117 11
131 125 19
123 117 22
126 120 25
121 116 11
132 128 22
127 122 29
123 118 16
129 123 22
132 127 25
132 125 25
126 120 19
135 129 28
129 124 25
133 127 25
130 124 19
132 126 30
127 121 28
135 128 34
129 122 28
126 121 28
137 132 25
140 134 36
128 121 34
130 125 25
136 130 28
139 133 39
137 131 36
129 124 22
131 126 25
134 126 32
137 131 39
132 127 36
140 134 39
137 130 41
140 134 36
137 131 32
121 116 19
133 126 28
140 134 34
133 127 32
135 128 41
136 130 41
132 125 39
132 125 36
135 128 32
142 137 47
138 132 34
130 125 37
139 134 42
137 131 37
133 128 39
143 137 44
130 125 34
138 132 37
133 127 42
134 130 37
140 135 41
140 135 42
136 130 39
141 135 45
130 124 34
136 129 48
130 125 41
129 124 36
128 122 41
137 131 36
141 134 56
136 129 30
137 131 53
140 134 49
128 121 37
132 127 41
137 131 42
133 127 47
143 137 51
133 127 42
141 135 49
138 131 48
135 129 37
134 128 51
135 129 51
128 123 41
207 228 255
207 228 255
207 228 255
208 228 255
208 228 255
208 228 255
208 228 255
208 228 255
208 228 255
208 228 255
208 228 255
208 228 255
208 228 255
208 228 255
208 228 255
208 228 255
208 228 255
208 228 255
208 228 255
208 228 255
208 228 255
209 228 255
209 228 255
209 229 255
209 229 255
209 229 255
209 229 255
209 229 255
209 229 255
209 229 255
209 229 255
209 229 255
209 229 255
209 229 255
209 229 255
209 229 255
209 229 255
209 229 255
209 229 255
209 229 255
209 229 255
209 229 255
209 229 255
209 229 255
209 229 255
209 229 255
209 229 255
209 229 255
209 229 255
209 229 255
209 229 255
209 229 255
209 229 255
209 229 255
209 229 255
209 229 255
209 229 255
209 229 255
209 229 255
209 229 255
209 229 255
209 229 255
209 229 255
209 229 255
209 229 255
209 229 255
209 228 255
209 228 255
208 228 255
208 228 255
208 228 255
208 228 255
208 228 255
208 228 255
208 228 255
208 228 255
208 228 255
208 228 255
208 228 255
208 228 255
208 228 255
208 228 255
207 228 255
207 228 255
207 228 255
207 228 255
207 228 255
207 228 255
207 227 255
207 227 255
206 227 255
206 227 255
206 227 255
206 227 255
206 227 255
206 227 255
205 227 255
205 227 255
205 227 255
205 226 255
204 226 255
204 226 255
204 226 255
204 226 255
203 226 255
203 226 255
203 225 255
202 225 255
202 225 255
202 225 255
201 224 255
201 224 255
200 224 255
200 224 255
199 223 255
198 223 255
198 223 255
197 222 255
196 222 255
195 221 255
193 220 255
192 219 255
186 215 236
171 196 111
163 187 0
161 185 0
169 193 0
161 185 0
156 179 0
167 191 0
164 188 0
164 188 0
157 180 0
160 184 0
164 187 0
154 178 0
159 183 0
163 186 0
157 180 0
157 179 0
163 186 0
158 181 0
156 179 0
162 184 0
154 176 0
151 173 0
156 179 0
150 173 0
157 179 0
152 174 0
149 171 0
145 166 0
148 169 0
141 162 0
149 171 0
145 166 0
151 173 0
134 155 0
139 159 0
141 162 0
146 167 0
144 163 0
132 152 0
141 161 0
141 162 0
121 141 0
138 158 0
128 148 0
134 154 0
127 145 0
129 148 0
115 133 0
118 136 25
86 108 54
48 77 70
50 80 78
50 80 88
51 81 86
51 81 78
50 80 78
52 83 84
48 77 74
54 85 94
50 80 78
49 79 78
53 84 88
48 77 74
51 80 80
51 81 76
54 84 92
53 85 90
52 83 86
53 85 80
51 82 76
53 84 86
52 82 84
49 78 75
52 83 74
52 83 80
51 81 86
51 81 79
53 84 88
52 81 92
50 79 81
53 85 82
50 80 84
53 84 84
51 81 80
49 78 82
49 79 70
49 77 63
53 83 88
48 76 79
51 80 80
51 80 94
49 77 65
46 73 60
45 71 74
45 71 74
47 74 75
48 76 70
49 78 78
47 74 67
44 70 62
45 71 67
45 72 75
71 88 44
100 115 25
110 123 0
105 116 0
113 125 0
113 127 0
121 136 0
113 128 0
110 124 0
118 134 0
118 131 0
118 133 0
115 128 0
115 128 0
127 142 0
117 131 0
119 134 0
126 139 0
128 141 0
120 135 0
125 139 0
124 138 0
114 127 0
123 136 0
122 134 0
118 131 0
127 140 0
127 139 0
124 137 0
127 140 0
129 142 0
128 142 0
133 147 0
127 138 0
127 139 0
127 141 0
127 139 0
128 139 0
130 141 0
129 137 0
124 134 0
131 139 0
129 139 0
130 142 0
121 130 0
126 133 0
129 139 0
135 144 0
132 141 0
128 134 0
124 128 11
97 93 16
87 81 25
100 93 19
72 67 0
87 81 0
88 82 14
89 84 11
93 88 0
89 84 0
91 86 0
94 88 0
96 91 0
96 89 8
104 98 3
100 96 0
105 100 8
99 94 0
101 95 0
106 101 0
95 90 0
103 97 0
106 100 11
107 101 0
105 98 0
111 104 16
109 103 11
114 108 0
99 95 0
109 104 14
122 116 19
117 112 11
113 109 16
120 111 0
109 104 0
116 112 11
112 107 0
120 116 16
119 112 11
121 115 16
122 116 11
122 118 11
122 117 16
127 121 16
127 120 16
122 117 19
116 111 11
126 119 22
122 116 22
128 122 28
125 119 19
126 119 28
131 126 30
123 119 16
122 117 11
123 117 16
131 126 16
136 131 28
125 118 28
132 126 28
140 135 36
124 120 19
136 131 28
131 127 28
138 130 30
135 129 30
133 128 25
130 124 30
139 133 36
124 118 28
131 126 25
137 132 32
132 126 30
136 128 32
142 136 36
133 129 25
132 126 28
139 132 32
133 127 34
140 134 34
138 130 34
133 129 28
138 131 36
134 128 30
137 131 39
135 128 45
135 127 34
136 130 25
131 125 32
132 127 39
134 128 32
133 125 32
128 124 25
139 133 41
137 131 37
134 127 34
139 134 44
142 136 41
139 132 45
135 129 34
131 125 37
144 136 42
134 128 30
137 131 34
141 134 48
138 130 48
136 129 36
132 127 42
127 122 42
133 126 39
133 126 36
130 124 39
131 125 48
136 131 42
139 131 34
132 127 48
120 115 37
136 129 47
131 125 37
134 128 36
136 130 41
130 124 45
124 118 42
134 126 48
207 227 255
207 228 255
207 228 255
207 228 255
207 228 255
207 228 255
207 228 255
207 228 255
207 228 255
207 228 255
207 228 255
208 228 255
208 228 255
208 228 255
208 228 255
208 228 255
208 228 255
208 228 255
208 228 255
208 228 255
208 228 255
208 228 255
208 228 255
208 228 255
208 228 255
208 228 255
208 228 255
208 228 255
208 228 255
208 228 255
208 228 255
208 228 255
208 228 255
208 228 255
208 228 255
208 228 255
208 228 255
208 228 255
208 228 255
208 228 255
208 228 255
208 228 255
208 228 255
208 228 255
208 228 255
208 228 255
208 228 255
208 228 255
208 228 255
208 228 255
208 228 255
208 228 255
208 228 255
208 228 255
208 228 255
208 228 255
208 228 255
208 228 255
208 228 255
208 228 255
208 228 255
208 228 255
208 228 255
208 228 255
208 228 255
208 228 255
208 228 255
208 228 255
208 228 255
208 228 255
208 228 255
208 228 255
208 228 255
208 228 255
208 228 255
207 228 255
207 228 255
207 228 255
207 228 255
207 228 255
207 228 255
207 228 255
207 228 255
207 227 255
207 227 255
206 227 255
206 227 255
206 227 255
206 227 255
206 227 255
206 227 255
206 227 255
205 227 255
205 227 255
205 227 255
205 226 255
205 226 255
204 226 255
204 226 255
204 226 255
204 226 255
203 226 255
203 225 255
203 225 255
202 225 255
202 225 255
202 225 255
201 225 255
201 224 255
200 224 255
200 224 255
199 224 255
199 223 255
198 223 255
197 222 255
197 222 255
196 222 255
195 221 255
194 220 255
192 220 255
190 219 254
179 207 196
167 192 36
167 192 0
162 186 0
162 186 0
159 184 0
162 187 0
163 187 0
165 189 0
162 186 0
167 191 0
165 189 0
165 187 0
162 186 0
160 183 0
157 179 0
154 177 0
157 180 0
155 177 0
160 183 0
160 183 0
152 174 0
159 183 0
151 174 0
151 174 0
152 174 0
149 172 0
148 169 0
155 177 0
155 177 0
143 165 0
157 179 0
145 166 0
147 168 0
142 163 0
144 165 0
147 167 0
139 160 0
149 168 0
136 156 0
145 164 0
139 159 0
132 151 0
129 150 0
128 146 0
121 141 0
127 147 0
130 150 0
120 138 0
120 137 0
129 146 0
118 136 0
109 127 0
103 123 31
57 81 60
45 72 54
49 79 80
47 76 72
50 79 78
49 78 62
51 82 74
50 80 76
52 83 92
53 83 92
51 81 74
52 82 82
49 78 78
50 80 70
51 81 80
49 79 78
50 79 80
52 84 88
52 83 70
52 82 88
51 81 84
49 78 67
51 81 84
48 77 78
53 84 86
48 77 76
49 78 76
48 76 72
49 79 76
49 78 84
51 80 84
50 80 70
49 78 70
48 76 65
49 79 82
50 79 82
52 82 78
49 78 72
48 77 86
49 77 76
49 78 84
46 73 72
50 78 80
50 79 77
47 74 76
48 77 75
48 76 68
43 68 65
46 72 65
46 67 57
99 113 18
93 103 0
99 110 0
97 109 0
100 114 0
103 116 0
93 107 0
101 113 0
102 114 0
90 105 0
107 119 0
116 130 0
124 138 0
117 131 0
103 113 0
122 136 0
114 126 0
114 127 0
121 134 0
115 131 0
120 134 0
122 135 0
125 140 0
126 139 0
123 137 0
120 134 0
121 134 0
111 122 0
127 138 0
133 144 0
130 144 0
121 135 0
123 136 0
127 137 0
123 134 0
120 130 0
128 138 0
129 138 0
136 151 0
132 142 0
128 138 0
133 142 0
135 143 0
130 138 0
128 138 0
129 139 0
118 122 0
135 140 0
126 131 0
128 134 0
128 135 0
126 133 0
120 123 11
112 111 11
81 75 25
79 74 11
87 80 0
91 84 14
89 84 11
86 81 0
79 72 11
90 82 0
83 78 8
88 83 0
91 85 3
87 81 0
86 81 8
97 89 0
102 96 0
100 95 0
102 97 0
101 96 0
98 93 0
111 105 0
109 103 11
109 102 3
99 93 0
104 100 14
94 90 0
104 98 0
107 102 0
107 102 0
109 103 0
115 110 11
114 110 0
121 115 0
114 110 0
114 108 0
118 110 0
115 108 11
119 112 0
121 114 19
118 112 16
124 121 22
126 121 16
115 108 11
119 113 22
125 117 11
123 118 11
127 120 11
121 118 0
124 118 0
133 126 16
133 127 16
126 119 19
125 121 11
136 129 30
129 123 28
133 125 28
127 120 11
131 126 34
130 123 19
130 124 25
131 126 19
133 128 32
136 130 32
130 124 25
125 120 30
130 123 28
132 125 39
130 125 25
121 116 25
135 128 32
121 115 30
139 133 36
126 120 34
128 123 16
132 126 19
133 127 34
136 129 36
137 132 32
131 124 28
134 128 22
121 116 30
136 130 30
141 135 42
136 131 36
132 126 34
135 128 32
123 117 30
123 116 25
135 130 32
132 124 41
126 119 32
139 133 37
135 127 36
135 129 34
131 125 36
129 124 25
127 122 34
131 125 36
139 134 36
138 133 45
132 125 41
132 126 45
126 122 39
131 126 39
140 133 41
142 134 48
130 123 47
130 122 41
141 136 44
131 126 41
129 120 39
124 118 37
131 125 47
124 117 39
128 122 41
138 132 42
131 124 44
139 132 42
130 124 45
135 129 47
133 126 41
131 125 37
206 227 255
206 227 255
206 227 255
206 227 255
207 227 255
207 227 255
207 227 255
207 227 255
207 228 255
207 228 255
207 228 255
207 228 255
207 228 255
207 228 255
207 228 255
207 228 255
207 228 255
207 228 255
207 228 255
207 228 255
207 228 255
207 228 255
208 228 255
208 228 255
208 228 255
208 228 255
208 228 255
208 228 255
208 228 255
208 228 255
208 228 255
208 228 255
208 228 255
208 228 255
208 228 255
208 228 255
208 228 255
208 228 255
208 228 255
208 228 255
208 228 255
208 228 255
208 228 255
208 228 255
208 228 255
208 228 255
208 228 255
208 228 255
208 228 255
208 228 255
208 228 255
208 228 255
208 228 255
208 228 255
208 228 255
208 228 255
208 228 255
208 228 255
208 228 255
208 228 255
208 228 255
208 228 255
208 228 255
208 228 255
208 228 255
208 228 255
207 228 255
207 228 255
207 228 255
207 228 255
207 228 255
207 228 255
207 228 255
207 228 255
207 228 255
207 228 255
207 228 255
207 227 255
207 227 255
206 227 255
206 227 255
206 227 255
206 227 255
206 227 255
206 227 255
206 227 255
206 227 255
205 227 255
205 227 255
205 227 255
205 227 255
205 226 255
205 226 255
204 226 255
204 226 255
204 226 255
204 226 255
203 226 255
203 226 255
203 225 255
203 225 255
202 225 255
202 225 255
202 225 255
201 225 255
201 224 255
201 224 255
200 224 255
200 224 255
199 223 255
199 223 255
198 223 255
197 222 255
196 222 255
196 222 255
195 221 255
194 220 255
192 220 255
191 219 255
184 213 230
169 196 135
160 185 0
160 185 0
167 191 0
162 187 0
157 181 0
161 186 0
163 186 0
162 186 0
161 185 0
161 185 0
162 185 0
164 189 0
159 184 0
155 179 0
163 186 0
159 183 0
159 183 0
150 173 0
155 177 0
159 183 0
157 179 0
153 175 0
153 176 0
147 170 0
152 174 0
153 174 0
155 177 0
148 170 0
152 174 0
146 168 0
148 169 0
146 166 0
150 171 0
144 166 0
146 167 0
143 163 0
146 166 0
143 164 0
143 164 0
134 154 0
141 161 0
130 150 0
132 151 0
120 139 0
127 146 0
130 149 0
126 145 0
125 144 0
132 150 0
110 127 0
107 125 0
108 125 0
116 134 0
104 120 0
112 127 0
87 107 25
61 85 62
50 79 90
50 80 67
49 78 74
48 77 62
49 79 76
47 76 60
49 78 88
51 81 74
50 80 82
48 77 76
49 78 76
51 81 74
49 79 80
50 80 76
49 77 74
51 81 78
51 80 72
49 78 70
51 80 76
50 79 62
50 80 72
49 78 80
48 77 67
50 79 76
49 78 54
48 76 62
50 80 76
47 74 67
49 78 72
50 80 74
47 76 72
48 77 74
51 80 78
50 79 74
46 74 51
48 76 72
46 74 65
50 78 78
48 76 77
48 76 76
42 68 51
47 74 65
43 68 65
43 67 54
57 79 37
79 92 31
85 97 0
90 101 0
87 99 0
105 116 0
94 106 0
85 98 0
90 102 0
107 120 0
110 123 0
106 117 0
115 130 0
105 118 0
111 126 0
111 123 0
113 127 0
105 118 0
116 130 0
112 127 0
114 127 0
120 134 0
116 129 0
110 125 0
117 129 0
127 142 0
128 142 0
120 132 0
109 120 0
123 137 0
126 140 0
110 120 0
130 143 0
117 128 0
122 133 0
123 136 0
118 130 0
113 122 0
118 125 0
130 142 0
128 138 0
118 128 0
130 138 0
121 129 0
126 135 0
116 125 0
125 133 0
128 132 0
121 127 0
125 132 0
129 136 0
120 129 0
125 133 0
114 119 0
117 123 0
129 135 0
127 130 0
114 114 0
90 87 0
79 71 16
79 76 0
93 86 0
79 72 0
86 81 11
91 85 11
88 83 0
82 79 0
87 80 0
94 89 0
99 93 0
87 79 0
100 93 0
96 91 0
99 93 0
108 101 8
101 94 8
105 98 0
100 93 0
104 99 0
100 94 0
107 100 0
112 107 0
105 100 0
109 103 0
116 110 0
117 110 0
115 110 0
119 112 0
118 111 11
111 105 11
112 107 0
119 112 0
119 115 11
114 108 11
118 112 16
125 118 0
116 112 11
118 114 0
121 116 0
121 115 19
129 124 11
121 115 0
125 119 16
131 124 16
125 120 22
123 117 19
118 113 22
118 113 11
126 121 19
124 117 22
127 121 19
124 118 16
130 125 25
129 122 22
133 128 32
130 125 25
131 125 22
129 123 30
123 118 16
127 122 22
133 127 30
129 123 28
131 124 22
131 124 19
127 122 25
129 124 32
135 130 30
126 122 25
134 128 30
137 132 32
127 120 32
131 123 39
129 122 36
137 130 32
135 128 30
132 125 37
137 132 41
134 127 37
128 122 32
138 131 37
137 130 34
137 131 30
131 126 32
132 127 37
133 128 32
145 138 37
135 128 41
143 137 34
132 125 36
135 129 41
135 128 42
143 136 45
139 133 37
132 128 22
130 122 36
125 120 34
138 131 42
136 128 53
138 131 41
129 123 37
134 128 45
127 121 28
133 128 41
118 112 36
131 126 39
135 129 41
137 131 39
136 130 44
130 124 34
126 121 37
128 122 36
136 130 44
132 124 48
133 126 45
131 125 45
131 125 44
136 130 41
134 126 47
206 227 255
206 227 255
206 227 255
206 227 255
206 227 255
206 227 255
206 227 255
206 227 255
206 227 255
206 227 255
206 227 255
206 227 255
206 227 255
207 227 255
207 227 255
207 227 255
207 227 255
207 228 255
207 228 255
207 228 255
207 228 255
207 228 255
207 228 255
207 228 255
207 228 255
207 228 255
207 228 255
207 228 255
207 228 255
207 228 255
207 228 255
207 228 255
207 228 255
207 228 255
207 228 255
207 228 255
207 228 255
207 228 255
207 228 255
207 228 255
207 228 255
207 228 255
207 228 255
207 228 255
207 228 255
207 228 255
207 228 255
207 228 255
207 228 255
207 228 255
207 228 255
207 228 255
207 228 255
207 228 255
207 228 255
207 228 255
207 228 255
207 228 255
207 228 255
207 228 255
207 228 255
207 228 255
207 228 255
207 228 255
207 228 255
207 228 255
207 228 255
207 228 255
207 227 255
207 227 255
207 227 255
206 227 255
206 227 255
206 227 255
206 227 255
206 227 255
206 227 255
206 227 255
206 227 255
206 227 255
206 227 255
206 227 255
205 227 255
205 227 255
205 227 255
205 227 255
205 226 255
205 226 255
204 226 255
204 226 255
204 226 255
204 226 255
204 226 255
204 226 255
203 226 255
203 226 255
203 225 255
203 225 255
202 225 255
202 225 255
202 225 255
201 225 255
201 224 255
200 224 255
200 224 255
200 224 255
199 223 255
199 223 255
198 223 255
198 223 255
197 222 255
196 222 255
195 221 255
195 221 255
194 220 255
192 220 255
191 219 255
188 217 248
174 201 186
165 191 51
162 188 0
165 190 0
168 192 0
162 186 0
164 189 0
165 189 0
162 186 0
161 186 0
155 180 0
162 187 0
164 188 0
153 176 0
163 187 0
158 182 0
166 190 0
161 184 0
160 183 0
158 180 0
158 180 0
156 178 0
153 176 0
150 173 0
154 177 0
150 172 0
155 178 0
148 170 0
149 171 0
150 171 0
151 172 0
143 164 0
144 166 0
153 174 0
147 169 0
147 169 0
146 167 0
143 163 0
140 161 0
133 154 0
141 161 0
135 156 0
136 155 0
138 157 0
124 143 0
137 156 0
131 149 0
123 143 0
127 146 0
122 141 0
125 144 0
108 126 0
115 133 0
105 122 0
117 134 0
122 139 0
100 117 0
100 116 0
97 112 0
111 127 0
78 97 40
48 75 54
48 78 72
46 74 47
46 74 67
48 76 70
46 74 67
48 76 60
49 79 72
49 78 74
50 79 72
46 74 67
49 79 72
49 79 74
48 77 65
47 76 62
48 77 84
48 77 74
49 79 72
48 77 72
51 81 82
51 80 78
49 78 74
52 82 80
52 83 76
49 78 78
47 75 65
50 79 80
48 77 76
49 78 75
51 79 86
47 75 72
50 79 84
46 73 51
47 75 62
50 78 88
46 74 76
46 72 62
46 73 74
46 73 76
44 71 62
47 74 72
45 62 41
74 87 31
95 106 0
92 102 0
84 94 0
87 99 0
111 124 0
86 99 0
93 104 0
102 115 0
92 105 0
95 108 0
116 127 0
102 115 0
93 108 0
112 125 0
104 116 0
114 127 0
113 127 0
121 133 0
115 129 0
118 132 0
126 142 0
106 117 0
123 136 0
117 130 0
134 148 0
115 128 0
120 131 0
116 127 0
117 130 0
107 118 0
126 139 0
127 138 0
127 139 0
118 132 0
121 133 0
117 129 0
131 143 0
124 133 0
122 131 0
123 133 0
125 134 0
125 134 0
115 123 0
136 146 0
114 121 0
122 128 0
125 131 0
114 120 0
118 125 0
113 117 0
115 120 0
118 124 0
116 123 0
129 134 0
132 135 0
119 121 0
112 115 0
109 113 0
126 128 0
111 110 11
88 80 0
82 77 0
84 78 16
70 64 0
85 78 0
92 85 11
96 89 0
82 76 0
101 94 11
89 83 11
88 82 0
96 90 0
97 92 8
99 92 8
92 89 0
94 88 0
100 95 0
108 102 0
108 100 0
99 95 0
110 104 11
107 102 0
112 107 0
110 105 0
114 107 0
113 107 0
108 103 0
109 103 11
119 115 0
117 110 0
119 112 0
107 100 0
117 112 0
117 111 11
115 107 0
123 117 0
117 112 11
118 111 19
124 118 19
127 121 16
129 122 11
120 113 22
121 114 11
125 119 0
125 119 0
121 116 11
126 120 22
129 122 28
126 120 16
129 123 16
118 112 11
125 121 16
128 122 19
115 110 16
125 119 11
132 125 34
130 124 19
125 119 30
122 115 16
125 120 32
134 127 34
120 114 19
131 125 28
131 127 25
125 119 25
135 129 22
120 115 19
128 122 34
133 125 37
131 125 28
131 126 22
135 128 16
137 131 34
132 127 34
134 128 25
138 133 34
126 122 25
132 125 28
129 122 37
129 123 39
133 127 32
136 130 44
130 124 32
131 126 28
128 122 30
120 115 25
127 123 32
132 125 34
130 124 34
135 129 37
131 124 41
131 126 36
134 128 30
132 127 37
141 134 44
133 126 32
132 125 28
119 113 32
128 123 37
127 122 25
135 130 49
130 124 25
128 122 39
123 119 28
133 126 39
128 123 39
135 128 37
137 130 51
137 131 47
136 129 39
137 130 42
129 123 36
127 122 37
136 131 42
136 128 44
132 126 51
128 122 37
128 123 37
205 226 255
205 227 255
205 227 255
205 227 255
205 227 255
205 227 255
205 227 255
206 227 255
206 227 255
206 227 255
206 227 255
206 227 255
206 227 255
206 227 255
206 227 255
206 227 255
206 227 255
206 227 255
206 227 255
206 227 255
206 227 255
206 227 255
206 227 255
206 227 255
207 227 255
207 227 255
207 227 255
207 227 255
207 227 255
207 227 255
207 227 255
207 227 255
207 228 255
207 228 255
207 228 255
207 228 255
207 228 255
207 228 255
207 228 255
207 228 255
207 228 255
207 228 255
207 228 255
207 228 255
207 228 255
207 228 255
207 228 255
207 228 255
207 228 255
207 228 255
207 228 255
207 228 255
207 228 255
207 228 255
207 227 255
207 227 255
207 227 255
207 227 255
207 227 255
207 227 255
207 227 255
206 227 255
206 227 255
206 227 255
206 227 255
206 227 255
206 227 255
206 227 255
206 227 255
206 227 255
206 227 255
206 227 255
206 227 255
206 227 255
206 227 255
206 227 255
205 227 255
205 227 255
205 227 255
205 227 255
205 227 255
205 226 255
205 226 255
205 226 255
204 226 255
204 226 255
204 226 255
204 226 255
204 226 255
204 226 255
203 226 255
203 225 255
203 225 255
203 225 255
202 225 255
202 225 255
202 225 255
201 225 255
201 224 255
201 224 255
200 224 255
200 224 255
200 224 255
199 223 255
199 223 255
198 223 255
198 223 255
197 222 255
196 222 255
196 222 255
195 221 255
194 221 255
193 220 255
192 220 255
191 219 255
190 218 255
180 209 215
166 193 92
160 187 0
165 190 0
163 188 0
164 189 0
158 183 0
158 183 0
161 185 0
157 182 0
160 184 0
158 182 0
159 183 0
158 182 0
161 185 0
160 183 0
158 182 0
159 182 0
157 181 0
158 181 0
157 180 0
150 173 0
149 171 0
153 175 0
151 173 0
150 173 0
145 168 0
145 168 0
152 175 0
143 165 0
147 169 0
143 165 0
149 170 0
151 173 0
142 164 0
147 168 0
152 173 0
146 167 0
137 157 0
133 153 0
142 163 0
147 168 0
140 160 0
140 159 0
135 155 0
135 155 0
137 156 0
138 159 0
135 154 0
136 154 0
129 148 0
126 143 0
117 135 0
124 142 0
124 142 0
105 123 0
111 128 0
111 127 0
109 125 0
101 118 0
105 120 0
109 124 0
97 111 0
88 102 0
94 110 18
66 85 47
43 68 40
45 72 54
48 76 70
50 79 76
49 77 65
48 76 70
46 74 70
45 72 54
48 76 74
46 74 70
50 80 76
48 77 72
49 79 74
52 82 82
49 77 80
48 76 80
47 75 65
50 78 88
48 77 62
48 76 78
47 76 70
45 73 60
48 76 76
46 74 74
46 73 72
44 71 57
45 73 62
46 72 65
44 70 57
47 75 70
49 75 80
47 75 74
42 68 63
42 67 47
42 67 57
47 69 57
51 69 54
62 74 31
86 96 0
80 89 0
88 99 0
90 101 0
91 102 0
80 91 0
108 121 0
84 95 0
109 120 0
90 101 0
104 118 0
100 111 0
105 118 0
89 103 0
98 110 0
100 113 0
118 130 0
112 126 0
113 126 0
104 116 0
122 135 0
115 127 0
114 127 0
113 125 0
108 120 0
113 126 0
108 122 0
110 124 0
114 126 0
125 139 0
116 129 0
120 133 0
129 142 0
109 121 0
116 127 0
122 133 0
116 128 0
121 134 0
118 126 0
123 132 0
125 136 0
120 131 0
114 123 0
114 122 0
129 140 0
124 131 0
115 121 0
110 116 0
119 126 0
121 126 0
109 112 0
109 114 0
116 120 0
117 121 0
121 123 0
122 129 0
121 127 0
115 120 0
116 121 0
117 121 0
104 106 0
108 109 0
106 107 0
86 83 11
71 66 11
82 76 11
87 78 0
78 70 0
90 85 16
79 72 0
82 74 0
96 87 11
87 81 0
92 86 0
93 87 0
92 85 0
105 97 0
96 88 0
103 95 0
98 93 0
107 101 0
89 84 0
106 99 0
104 95 0
108 101 0
106 100 0
100 95 3
119 112 0
114 108 0
111 105 0
105 100 0
113 107 0
101 95 11
110 104 8
123 116 0
110 102 0
117 111 8
114 110 0
114 108 16
125 118 19
123 116 11
122 117 19
106 101 11
126 119 11
116 110 11
124 118 22
123 117 16
123 117 0
125 118 0
119 115 0
124 118 22
120 114 11
112 107 16
121 115 0
131 125 19
123 116 19
123 115 11
126 120 28
122 117 25
123 117 11
130 124 32
125 119 30
127 120 19
129 122 30
118 111 22
134 128 32
126 119 22
134 128 28
125 118 34
136 130 30
132 127 22
128 124 25
131 123 32
131 124 25
129 123 25
128 123 30
131 123 32
124 118 36
132 126 34
132 125 34
137 130 36
129 123 19
124 118 25
128 121 34
126 119 19
132 124 32
132 125 32
130 125 41
134 129 32
128 121 32
129 121 42
125 119 36
136 130 45
138 132 36
136 129 42
138 132 42
133 124 37
135 129 42
128 121 28
132 126 37
127 121 28
135 129 42
126 119 34
120 116 30
121 116 32
131 125 39
124 119 32
128 123 37
130 125 41
133 126 39
129 124 41
135 126 39
142 136 48
135 129 41
125 120 37
125 118 37
127 122 39
129 125 37
130 122 44
131 124 44
204 226 255
204 226 255
204 226 255
205 226 255
205 226 255
205 226 255
205 226 255
205 226 255
205 227 255
205 227 255
205 227 255
205 227 255
205 227 255
205 227 255
205 227 255
205 227 255
206 227 255
206 227 255
206 227 255
206 227 255
206 227 255
206 227 255
206 227 255
206 227 255
206 227 255
206 227 255
206 227 255
206 227 255
206 227 255
206 227 255
206 227 255
206 227 255
206 227 255
206 227 255
206 227 255
206 227 255
206 227 255
206 227 255
206 227 255
206 227 255
206 227 255
206 227 255
206 227 255
206 227 255
206 227 255
206 227 255
206 227 255
206 227 255
206 227 255
206 227 255
206 227 255
206 227 255
206 227 255
206 227 255
206 227 255
206 227 255
206 227 255
206 227 255
206 227 255
206 227 255
206 227 255
206 227 255
206 227 255
206 227 255
206 227 255
206 227 255
206 227 255
205 227 255
205 227 255
205 227 255
205 227 255
205 227 255
205 227 255
205 227 255
205 227 255
205 226 255
205 226 255
205 226 255
204 226 255
204 226 255
204 226 255
204 226 255
204 226 255
204 226 255
204 226 255
203 226 255
203 226 255
203 225 255
203 225 255
203 225 255
202 225 255
202 225 255
202 225 255
202 225 255
201 225 255
201 224 255
201 224 255
200 224 255
200 224 255
200 224 255
199 223 255
199 223 255
198 223 255
198 223 255
198 223 255
197 222 255
196 222 255
196 222 255
195 221 255
194 221 255
193 220 255
192 220 255
191 219 255
190 218 255
184 213 240
169 197 137
163 188 0
166 192 0
159 184 0
161 188 0
164 190 0
161 186 0
162 187 0
164 189 0
162 186 0
157 182 0
152 177 0
150 174 0
157 182 0
157 181 0
162 186 0
155 178 0
163 187 0
151 174 0
151 175 0
154 177 0
158 180 0
160 183 0
152 175 0
150 173 0
159 181 0
152 175 0
149 172 0
149 171 0
154 175 0
145 167 0
149 170 0
147 168 0
143 165 0
143 164 0
150 172 0
146 167 0
134 156 0
144 165 0
145 166 0
137 158 0
145 166 0
136 156 0
126 146 0
144 164 0
129 149 0
138 157 0
140 160 0
138 157 0
131 150 0
125 144 0
126 145 0
121 139 0
107 126 0
117 134 0
121 138 0
112 130 0
123 140 0
109 126 0
111 126 0
104 121 0
86 102 0
80 95 0
92 106 0
88 104 0
84 98 0
88 101 0
84 98 0
65 84 44
50 73 47
43 66 54
41 66 60
44 71 54
44 71 62
45 72 74
49 77 76
51 81 62
47 75 72
46 74 65
48 77 67
43 69 54
44 70 57
47 74 62
48 76 80
48 76 78
46 73 54
48 77 72
45 71 60
48 77 65
46 73 70
46 74 76
48 75 74
42 67 67
46 73 74
47 74 62
45 72 70
48 76 79
42 67 40
41 65 54
47 69 57
56 74 57
62 75 25
53 63 0
73 83 0
91 101 0
75 86 0
97 108 0
80 90 0
79 90 0
86 95 0
85 95 0
85 96 0
88 99 0
84 97 0
104 115 0
103 116 0
89 101 0
104 116 0
109 122 0
91 104 0
108 118 0
108 120 0
113 124 0
106 117 0
115 127 0
112 123 0
107 118 0
114 128 0
118 132 0
105 118 0
122 137 0
106 118 0
111 123 0
118 130 0
117 128 0
124 138 0
113 126 0
122 135 0
118 130 0
111 121 0
127 135 0
114 125 0
118 130 0
114 125 0
105 116 0
111 123 0
131 141 0
124 134 0
112 122 0
120 129 0
112 119 0
100 109 0
114 122 0
123 130 0
114 120 0
111 118 0
122 129 0
122 128 0
113 119 0
116 124 0
105 110 0
122 126 0
128 134 0
114 115 0
108 110 0
112 113 0
103 101 0
117 117 0
117 118 0
112 113 0
81 76 16
80 75 16
80 73 0
85 77 0
95 88 11
93 86 0
82 75 0
77 71 0
90 84 0
88 81 11
103 95 0
90 81 0
97 89 3
94 88 0
87 83 0
95 87 0
102 94 0
106 98 0
93 87 0
105 99 0
107 98 0
104 98 0
110 104 0
108 103 0
106 100 0
113 108 0
116 108 0
109 103 0
106 101 8
115 108 0
114 106 0
113 105 11
123 116 0
116 109 0
112 106 0
116 111 0
123 115 0
122 116 11
118 111 0
121 116 16
120 113 11
119 113 0
126 118 11
120 116 22
125 119 22
114 109 11
121 114 16
125 118 16
125 117 19
127 121 11
121 115 11
129 121 19
120 116 25
127 121 16
128 121 19
128 121 22
136 129 30
131 125 22
128 123 19
127 119 28
138 131 22
126 119 25
125 119 22
125 119 22
125 119 25
124 118 22
122 118 19
124 117 32
124 119 32
128 121 25
118 111 19
119 111 22
129 123 28
128 123 32
134 128 19
138 130 37
122 116 28
125 118 22
135 127 32
129 124 28
134 128 41
122 114 30
130 124 36
137 131 36
134 128 25
131 125 42
127 122 25
133 125 42
130 124 32
125 119 36
127 120 37
133 127 37
133 126 39
128 122 30
132 126 36
129 123 39
137 131 42
131 124 42
129 124 32
133 127 39
137 130 51
127 121 34
132 126 36
127 119 47
128 120 39
124 117 36
129 122 42
132 125 45
131 125 42
134 127 45
114 109 37
112 107 32
134 127 44
125 119 36
121 115 36
203 226 255
204 226 255
204 226 255
204 226 255
204 226 255
204 226 255
204 226 255
204 226 255
204 226 255
204 226 255
204 226 255
205 226 255
205 226 255
205 226 255
205 226 255
205 226 255
205 226 255
205 227 255
205 227 255
205 227 255
205 227 255
205 227 255
205 227 255
205 227 255
205 227 255
205 227 255
205 227 255
205 227 255
205 227 255
205 227 255
206 227 255
206 227 255
206 227 255
206 227 255
206 227 255
206 227 255
206 227 255
206 227 255
206 227 255
206 227 255
206 227 255
206 227 255
206 227 255
206 227 255
206 227 255
206 227 255
206 227 255
206 227 255
206 227 255
206 227 255
206 227 255
206 227 255
206 227 255
205 227 255
205 227 255
205 227 255
205 227 255
205 227 255
205 227 255
205 227 255
205 227 255
205 227 255
205 227 255
205 227 255
205 227 255
205 227 255
205 226 255
205 226 255
205 226 255
205 226 255
205 226 255
204 226 255
204 226 255
204 226 255
204 226 255
204 226 255
204 226 255
204 226 255
204 226 255
204 226 255
203 226 255
203 226 255
203 225 255
203 225 255
203 225 255
202 225 255
202 225 255
202 225 255
202 225 255
202 225 255
201 225 255
201 224 255
201 224 255
201 224 255
200 224 255
200 224 255
200 224 255
199 223 255
199 223 255
198 223 255
198 223 255
198 223 255
197 222 255
196 222 255
196 222 255
195 221 255
194 221 255
194 220 255
193 220 255
192 219 255
191 219 255
189 218 255
186 215 244
172 201 169
165 191 36
165 191 0
162 188 0
163 188 0
160 186 0
163 188 0
162 187 0
161 186 0
158 183 0
160 185 0
158 183 0
153 177 0
161 185 0
156 180 0
160 184 0
153 178 0
155 179 0
157 180 0
158 182 0
156 179 0
149 172 0
154 177 0
149 172 0
158 181 0
147 170 0
159 182 0
154 177 0
154 177 0
153 176 0
146 168 0
150 172 0
154 176 0
146 168 0
151 173 0
149 171 0
152 174 0
152 173 0
141 161 0
151 173 0
128 149 0
133 154 0
143 163 0
136 157 0
133 154 0
130 149 0
127 147 0
137 158 0
132 151 0
133 153 0
141 160 0
129 148 0
126 145 0
114 132 0
133 151 0
126 143 0
128 146 0
121 139 0
107 125 0
106 124 0
118 134 0
113 130 0
103 119 0
105 121 0
104 118 0
92 107 0
105 119 0
84 99 0
78 93 0
91 106 0
81 94 0
72 84 0
65 78 0
67 80 25
61 78 36
49 71 31
42 67 57
42 68 40
50 80 82
45 72 70
46 73 67
42 68 62
44 70 47
48 77 72
47 75 74
44 71 54
45 72 60
42 68 54
42 67 60
41 66 54
44 71 67
45 72 67
45 71 74
40 65 62
42 68 47
42 66 54
39 63 51
36 58 44
48 68 51
57 72 40
67 78 31
60 68 0
64 74 0
81 91 0
74 82 0
85 96 0
84 95 0
73 83 0
83 93 0
92 103 0
103 117 0
84 96 0
93 106 0
94 106 0
97 108 0
104 115 0
87 99 0
99 110 0
109 121 0
98 108 0
101 113 0
104 116 0
102 114 0
110 121 0
113 125 0
100 111 0
114 127 0
112 125 0
117 130 0
103 116 0
122 135 0
113 124 0
125 138 0
104 116 0
101 111 0
123 137 0
113 123 0
119 131 0
124 137 0
120 131 0
119 130 0
121 132 0
125 135 0
127 140 0
118 127 0
110 120 0
126 136 0
115 125 0
111 120 0
118 126 0
127 136 0
115 121 0
115 122 0
108 118 0
119 125 0
112 116 0
116 123 0
116 123 0
115 119 0
113 118 0
120 125 0
109 112 0
107 108 0
119 121 0
110 113 0
100 104 0
119 123 0
117 119 0
112 115 0
103 105 0
104 102 0
104 101 0
99 97 0
94 87 16
85 78 0
69 60 0
86 79 11
90 83 0
91 82 0
92 81 11
86 79 8
98 92 8
91 84 0
88 83 0
87 80 0
105 97 0
102 94 0
93 87 0
100 93 0
101 94 0
102 94 0
93 87 0
103 95 8
102 94 0
108 103 0
109 100 0
111 105 0
105 98 0
102 96 0
108 101 0
108 101 0
117 109 0
111 105 0
104 97 0
112 107 11
108 103 0
115 108 0
112 107 0
103 98 11
119 113 0
116 108 0
117 110 0
115 108 11
115 108 16
121 115 0
121 114 11
121 113 0
130 125 16
115 108 16
126 118 11
118 110 19
120 115 11
116 109 11
125 118 0
117 110 16
120 113 16
126 120 11
128 123 11
131 126 19
125 120 16
120 113 28
126 119 19
129 125 11
131 123 22
123 117 22
127 119 19
126 119 22
131 123 36
130 124 36
131 123 30
135 128 28
128 122 19
135 129 32
138 131 36
128 121 36
127 121 32
126 119 32
120 114 28
131 124 30
123 118 19
135 129 34
127 123 30
130 123 22
130 123 32
130 125 22
137 129 39
127 121 36
131 124 32
122 117 25
133 127 41
134 127 42
131 124 34
117 111 28
129 125 28
125 120 34
138 131 34
134 129 36
125 119 30
122 117 37
130 124 34
129 122 34
126 119 37
121 115 30
128 122 36
132 126 39
120 114 22
131 124 39
134 128 36
126 121 34
131 123 36
132 126 44
127 121 44
127 121 37
122 115 39
121 115 36
127 122 36
121 116 22
203 225 255
203 225 255
203 225 255
203 225 255
203 226 255
203 226 255
203 226 255
203 226 255
204 226 255
204 226 255
204 226 255
204 226 255
204 226 255
204 226 255
204 226 255
204 226 255
204 226 255
204 226 255
204 226 255
204 226 255
204 226 255
204 226 255
205 226 255
205 226 255
205 226 255
205 226 255
205 226 255
205 226 255
205 226 255
205 226 255
205 226 255
205 226 255
205 226 255
205 227 255
205 227 255
205 227 255
205 227 255
205 227 255
205 227 255
205 227 255
205 227 255
205 227 255
205 227 255
205 227 255
205 227 255
205 227 255
205 227 255
205 227 255
205 227 255
205 227 255
205 227 255
205 226 255
205 226 255
205 226 255
205 226 255
205 226 255
205 226 255
205 226 255
205 226 255
205 226 255
205 226 255
204 226 255
204 226 255
204 226 255
204 226 255
204 226 255
204 226 255
204 226 255
204 226 255
204 226 255
204 226 255
204 226 255
204 226 255
203 226 255
203 226 255
203 226 255
203 226 255
203 225 255
203 225 255
203 225 255
202 225 255
202 225 255
202 225 255
202 225 255
202 225 255
202 225 255
201 225 255
201 224 255
201 224 255
201 224 255
200 224 255
200 224 255
200 224 255
199 224 255
199 223 255
199 223 255
198 223 255
198 223 255
197 222 255
197 222 255
196 222 255
196 222 255
195 221 255
195 221 255
194 221 255
193 220 255
192 220 255
191 219 255
190 219 255
189 218 255
186 216 245
173 202 171
164 191 57
164 191 0
161 187 0
162 189 0
163 190 0
159 186 0
163 189 0
158 184 0
164 190 0
158 183 0
158 184 0
161 186 0
158 184 0
157 181 0
163 187 0
155 178 0
161 185 0
160 184 0
146 169 0
152 176 0
148 172 0
161 184 0
154 177 0
155 179 0
153 177 0
155 178 0
159 182 0
154 177 0
151 173 0
156 179 0
149 172 0
157 179 0
142 165 0
147 169 0
145 167 0
147 168 0
149 170 0
142 163 0
142 163 0
150 171 0
138 159 0
138 159 0
136 157 0
145 165 0
144 165 0
144 165 0
147 167 0
139 159 0
124 144 0
126 146 0
135 154 0
123 142 0
122 141 0
120 138 0
124 143 0
132 151 0
116 134 0
112 130 0
106 124 0
108 125 0
116 134 0
112 128 0
105 122 0
101 119 0
111 127 0
97 112 0
98 113 0
97 112 0
85 100 0
78 89 0
82 96 0
81 93 0
84 96 0
75 88 0
73 85 0
78 91 0
67 79 0
63 74 0
66 78 25
51 68 36
60 76 54
43 62 40
46 68 44
44 71 65
42 67 40
38 61 54
39 63 54
41 66 54
41 66 47
39 63 60
39 64 36
43 64 40
46 70 67
38 61 47
56 73 44
52 66 31
32 46 25
55 65 18
53 62 0
63 70 0
62 72 0
67 75 0
75 85 0
64 72 0
68 77 0
70 81 0
68 79 0
74 82 0
79 89 0
84 97 0
73 83 0
93 102 0
88 101 0
86 96 0
89 101 0
99 110 0
97 108 0
94 107 0
95 108 0
92 104 0
107 119 0
97 109 0
112 125 0
103 116 0
109 122 0
92 105 0
99 113 0
111 124 0
114 128 0
97 109 0
103 114 0
104 117 0
117 129 0
117 131 0
114 128 0
109 121 0
119 132 0
120 133 0
118 132 0
119 131 0
123 135 0
126 138 0
117 127 0
125 135 0
119 129 0
98 107 0
110 123 0
118 130 0
121 133 0
112 122 0
118 124 0
115 123 0
120 129 0
110 121 0
109 117 0
114 123 0
111 117 0
124 131 0
118 123 0
107 112 0
110 114 0
112 115 0
107 113 0
115 122 0
99 101 0
116 120 0
118 123 0
113 116 0
107 110 0
114 116 0
105 106 0
101 101 0
109 110 0
98 95 0
109 111 0
107 107 0
93 90 11
78 69 11
70 62 11
83 75 11
83 76 0
81 73 0
92 82 0
95 88 0
94 86 0
94 86 0
95 87 0
93 85 0
91 84 0
86 79 0
95 86 0
105 98 0
108 100 0
103 98 0
109 100 0
102 95 0
106 98 0
102 94 0
103 96 0
111 106 0
108 100 0
112 106 0
109 103 0
110 104 0
114 107 0
117 111 0
105 99 0
110 103 0
112 103 0
118 109 0
108 100 11
115 108 0
113 106 0
117 110 0
115 108 0
119 113 0
118 111 11
116 110 11
124 116 11
120 114 0
126 118 16
131 124 11
123 114 19
111 106 22
119 115 16
125 117 11
122 116 16
120 113 16
127 120 11
121 116 11
130 123 28
126 119 16
123 116 16
119 111 16
124 117 22
129 123 11
130 122 22
128 123 16
122 116 19
131 123 28
130 123 25
125 119 25
126 119 28
129 122 28
122 117 19
129 122 32
127 120 32
120 113 22
120 113 25
131 125 25
124 118 30
123 117 32
124 118 22
128 122 22
123 116 30
123 116 25
127 121 34
128 120 37
129 123 28
131 124 41
122 114 28
129 123 30
123 118 34
134 127 45
128 121 41
127 120 39
127 122 30
133 127 39
130 122 34
129 121 36
134 127 44
127 121 30
129 123 36
131 125 41
116 110 36
128 121 39
126 118 39
129 122 45
131 125 32
126 121 37
128 121 42
133 126 42
125 118 34
115 110 30
125 117 44
117 111 30
112 107 36
123 118 45
202 225 255
202 225 255
202 225 255
202 225 255
202 225 255
202 225 255
203 225 255
203 225 255
203 225 255
203 225 255
203 225 255
203 226 255
203 226 255
203 226 255
203 226 255
203 226 255
203 226 255
204 226 255
204 226 255
204 226 255
204 226 255
204 226 255
204 226 255
204 226 255
204 226 255
204 226 255
204 226 255
204 226 255
204 226 255
204 226 255
204 226 255
204 226 255
204 226 255
204 226 255
204 226 255
204 226 255
204 226 255
204 226 255
204 226 255
204 226 255
204 226 255
204 226 255
204 226 255
204 226 255
204 226 255
204 226 255
204 226 255
204 226 255
204 226 255
204 226 255
204 226 255
204 226 255
204 226 255
204 226 255
204 226 255
204 226 255
204 226 255
204 226 255
204 226 255
204 226 255
204 226 255
204 226 255
204 226 255
204 226 255
203 226 255
203 226 255
203 226 255
203 226 255
203 226 255
203 225 255
203 225 255
203 225 255
203 225 255
203 225 255
202 225 255
202 225 255
202 225 255
202 225 255
202 225 255
202 225 255
201 225 255
201 225 255
201 224 255
201 224 255
201 224 255
200 224 255
200 224 255
200 224 255
200 224 255
199 224 255
199 223 255
199 223 255
198 223 255
198 223 255
198 223 255
197 222 255
197 222 255
196 222 255
196 222 255
195 221 255
195 221 255
194 221 255
193 220 255
193 220 255
192 220 255
191 219 255
190 218 255
189 218 255
186 216 250
174 204 182
163 191 72
161 188 0
160 187 0
165 192 0
160 187 0
157 184 0
160 186 0
160 185 0
166 192 0
161 187 0
161 186 0
159 184 0
158 184 0
160 184 0
160 185 0
148 172 0
158 183 0
157 181 0
154 178 0
156 179 0
157 180 0
163 187 0
162 186 0
156 179 0
160 182 0
152 176 0
152 175 0
152 175 0
147 170 0
149 172 0
152 175 0
152 174 0
148 170 0
151 173 0
147 169 0
146 167 0
151 173 0
145 166 0
138 160 0
141 163 0
147 168 0
142 163 0
141 162 0
134 155 0
137 158 0
126 147 0
142 163 0
142 163 0
134 153 0
138 158 0
130 148 0
131 149 0
130 150 0
136 155 0
114 132 0
123 142 0
112 130 0
119 137 0
106 124 0
117 136 0
120 138 0
121 139 0
114 130 0
108 125 0
101 118 0
103 120 0
98 115 0
86 102 0
97 113 0
92 107 0
85 99 0
89 104 0
88 101 0
77 89 0
82 95 0
70 82 0
76 89 0
72 83 0
49 61 0
72 84 0
66 79 0
69 81 0
62 73 0
65 75 0
55 65 0
55 65 0
59 69 0
55 64 0
65 76 0
65 74 18
65 73 18
47 56 18
50 60 0
52 60 0
73 82 0
51 59 0
69 77 0
64 74 0
64 74 0
55 64 0
71 78 0
66 75 0
73 85 0
72 83 0
53 65 0
79 90 0
78 86 0
77 87 0
87 98 0
84 97 0
74 85 0
89 100 0
89 101 0
95 106 0
86 96 0
100 113 0
89 98 0
104 116 0
92 105 0
99 111 0
106 120 0
103 115 0
111 123 0
91 101 0
107 117 0
105 117 0
108 119 0
106 118 0
113 127 0
104 116 0
105 117 0
114 126 0
120 131 0
116 130 0
112 125 0
106 116 0
114 128 0
112 123 0
106 118 0
126 140 0
123 136 0
113 125 0
126 138 0
119 130 0
112 123 0
111 122 0
117 129 0
122 134 0
126 138 0
122 133 0
114 124 0
110 118 0
123 135 0
115 125 0
109 119 0
116 124 0
113 121 0
118 126 0
116 125 0
116 124 0
112 116 0
108 109 0
104 108 0
111 118 0
105 111 0
119 124 0
112 114 0
105 107 0
110 114 0
111 111 0
120 126 0
93 92 0
99 100 0
100 102 0
102 100 0
102 102 0
94 95 0
102 102 0
97 93 0
93 92 0
67 61 0
77 69 11
76 67 0
68 60 0
83 76 8
86 79 0
89 80 0
91 83 0
89 82 0
89 81 0
96 86 0
97 89 0
96 89 0
101 92 0
100 93 0
96 91 0
104 97 0
101 92 0
96 90 0
106 99 0
97 88 0
108 99 0
102 95 0
93 87 0
112 106 0
113 106 0
102 95 0
106 99 0
109 101 0
114 107 0
111 105 0
102 96 0
115 108 0
115 110 11
112 105 11
116 108 0
111 104 11
117 110 0
129 122 16
114 108 0
116 110 11
128 121 19
111 104 19
127 121 11
124 117 0
118 112 19
115 108 19
119 111 22
117 111 16
119 112 22
122 115 0
121 115 16
124 118 11
126 118 25
116 112 19
106 99 16
124 116 19
124 118 22
119 111 16
130 124 30
113 106 11
116 111 19
130 122 28
118 112 19
122 115 25
129 122 28
130 121 28
121 116 28
131 124 28
118 111 16
116 112 25
123 118 25
119 113 25
116 111 34
129 122 25
122 114 28
132 125 30
133 127 34
115 109 16
120 115 32
134 127 36
124 116 28
130 124 30
127 121 34
125 118 30
129 122 32
124 118 28
126 118 36
125 119 32
129 121 32
128 123 30
134 127 37
133 126 34
127 120 36
129 122 39
119 113 37
121 114 34
120 115 36
128 122 37
129 123 32
123 116 37
117 111 32
116 110 34
124 118 37
126 119 39
131 124 47
117 109 37
118 113 28
121 116 30
112 107 30
201 224 255
201 224 255
201 224 255
201 225 255
201 225 255
202 225 255
202 225 255
202 225 255
202 225 255
202 225 255
202 225 255
202 225 255
202 225 255
202 225 255
203 225 255
203 225 255
203 225 255
203 225 255
203 225 255
203 225 255
203 225 255
203 225 255
203 226 255
203 226 255
203 226 255
203 226 255
203 226 255
203 226 255
203 226 255
203 226 255
203 226 255
203 226 255
203 226 255
204 226 255
204 226 255
204 226 255
204 226 255
204 226 255
204 226 255
204 226 255
204 226 255
204 226 255
204 226 255
204 226 255
204 226 255
204 226 255
204 226 255
204 226 255
204 226 255
203 226 255
203 226 255
203 226 255
203 226 255
203 226 255
203 226 255
203 226 255
203 226 255
203 226 255
203 226 255
203 226 255
203 225 255
203 225 255
203 225 255
203 225 255
203 225 255
203 225 255
202 225 255
202 225 255
202 225 255
202 225 255
202 225 255
202 225 255
202 225 255
202 225 255
202 225 255
201 225 255
201 224 255
201 224 255
201 224 255
201 224 255
201 224 255
200 224 255
200 224 255
200 224 255
200 224 255
199 223 255
199 223 255
199 223 255
198 223 255
198 223 255
198 223 255
197 223 255
197 222 255
197 222 255
196 222 255
196 222 255
195 221 255
195 221 255
194 221 255
194 220 255
193 220 255
192 220 255
191 219 255
190 219 255
189 218 255
188 218 255
184 214 240
174 203 181
161 189 57
162 189 0
164 191 0
163 191 0
159 186 0
162 190 0
161 188 0
160 187 0
158 184 0
161 187 0
165 190 0
159 185 0
153 178 0
160 185 0
163 188 0
159 184 0
160 184 0
155 179 0
157 181 0
161 184 0
152 175 0
154 178 0
160 183 0
161 185 0
157 180 0
160 182 0
151 175 0
150 172 0
152 176 0
146 169 0
149 172 0
151 173 0
152 174 0
155 178 0
143 165 0
153 175 0
142 164 0
139 161 0
148 170 0
142 164 0
142 163 0
136 157 0
136 157 0
149 170 0
144 166 0
139 160 0
142 163 0
136 157 0
139 159 0
133 152 0
131 150 0
135 154 0
132 152 0
137 158 0
128 148 0
127 147 0
125 144 0
123 142 0
131 149 0
125 143 0
130 149 0
128 146 0
118 136 0
122 140 0
105 122 0
116 134 0
112 129 0
121 138 0
99 116 0
100 116 0
112 128 0
103 118 0
89 104 0
89 104 0
92 107 0
79 93 0
74 88 0
81 95 0
73 87 0
84 98 0
81 94 0
78 90 0
65 77 0
78 91 0
83 96 0
55 65 0
68 78 0
65 77 0
73 83 0
62 73 0
71 82 0
54 65 0
72 82 0
62 70 0
63 73 0
56 65 0
52 61 0
69 79 0
57 65 0
60 70 0
65 75 0
66 74 0
58 69 0
82 93 0
71 82 0
80 93 0
78 88 0
84 95 0
72 82 0
75 84 0
73 83 0
90 101 0
95 107 0
100 112 0
78 90 0
75 89 0
84 97 0
96 107 0
93 106 0
96 109 0
89 102 0
91 102 0
98 111 0
94 106 0
94 106 0
109 122 0
104 116 0
107 120 0
112 126 0
109 123 0
108 122 0
112 122 0
108 121 0
116 128 0
107 118 0
116 129 0
111 123 0
114 127 0
107 118 0
119 134 0
101 110 0
115 129 0
128 142 0
115 125 0
126 140 0
124 133 0
119 130 0
110 121 0
113 122 0
113 123 0
125 136 0
126 134 0
118 132 0
120 131 0
113 122 0
124 133 0
118 126 0
119 128 0
111 120 0
117 127 0
115 122 0
112 122 0
121 128 0
112 116 0
113 118 0
117 124 0
114 118 0
115 119 0
113 115 0
109 115 0
113 117 0
102 105 0
109 112 0
100 104 0
109 112 0
107 107 0
96 96 0
98 97 0
104 105 0
94 88 0
96 95 0
85 82 0
107 102 0
90 90 0
89 80 0
76 68 0
83 74 0
83 72 0
70 63 0
86 78 0
86 78 0
76 69 0
83 76 0
91 85 0
86 77 0
87 80 0
88 83 0
100 91 0
100 90 0
92 84 0
98 88 0
93 86 0
99 91 0
112 103 0
110 100 0
101 95 0
107 100 0
102 94 0
111 105 0
115 108 0
110 102 0
110 102 0
109 104 0
107 98 11
111 104 0
108 100 0
117 110 16
110 105 0
115 109 11
116 109 0
114 107 0
119 114 0
119 113 0
117 110 0
118 113 19
110 106 11
113 108 11
112 106 11
129 121 16
119 113 0
119 113 11
116 109 19
109 102 11
116 108 0
115 109 0
116 109 19
115 109 0
121 114 16
124 117 30
121 116 22
120 113 19
127 120 16
122 116 16
122 117 25
117 112 28
131 125 32
111 105 0
120 115 11
134 126 32
131 122 34
118 112 19
130 123 25
131 124 32
131 124 34
129 123 19
116 110 22
124 117 28
123 116 28
128 123 30
117 111 11
130 124 36
121 115 39
126 118 32
124 118 19
130 124 32
120 113 22
125 116 30
115 109 22
127 119 36
132 126 30
121 115 37
129 122 44
118 111 36
125 117 39
131 124 34
125 120 28
117 112 37
119 113 34
119 112 34
116 110 28
125 118 34
123 117 32
119 115 32
126 121 32
126 120 42
123 117 42
116 109 36
126 118 37
122 117 44
119 113 36
118 111 36
126 120 44
200 224 255
200 224 255
200 224 255
200 224 255
200 224 255
201 224 255
201 224 255
201 224 255
201 224 255
201 224 255
201 225 255
201 225 255
202 225 255
202 225 255
202 225 255
202 225 255
202 225 255
202 225 255
202 225 255
202 225 255
202 225 255
202 225 255
202 225 255
202 225 255
202 225 255
202 225 255
202 225 255
203 225 255
203 225 255
203 225 255
203 225 255
203 225 255
203 225 255
203 225 255
203 225 255
203 225 255
203 225 255
203 225 255
203 225 255
203 225 255
203 225 255
203 225 255
203 225 255
203 225 255
203 225 255
203 225 255
203 225 255
203 225 255
203 225 255
203 225 255
203 225 255
203 225 255
203 225 255
203 225 255
203 225 255
202 225 255
202 225 255
202 225 255
202 225 255
202 225 255
202 225 255
202 225 255
202 225 255
202 225 255
202 225 255
202 225 255
202 225 255
201 225 255
201 225 255
201 225 255
201 224 255
201 224 255
201 224 255
201 224 255
201 224 255
200 224 255
200 224 255
200 224 255
200 224 255
200 224 255
199 223 255
199 223 255
199 223 255
199 223 255
198 223 255
198 223 255
198 223 255
197 222 255
197 222 255
197 222 255
196 222 255
196 222 255
196 221 255
195 221 255
195 221 255
194 221 255
193 220 255
193 220 255
192 220 255
191 219 255
191 219 255
190 218 255
189 218 255
187 217 255
181 211 226
172 201 151
163 190 0
159 186 0
161 189 0
162 189 0
159 187 0
162 188 0
162 189 0
160 186 0
158 183 0
156 183 0
159 185 0
157 182 0
158 183 0
161 187 0
158 183 0
157 181 0
157 181 0
154 179 0
161 186 0
153 177 0
162 186 0
156 180 0
155 179 0
155 178 0
155 178 0
155 178 0
153 177 0
159 182 0
151 174 0
155 178 0
156 179 0
145 167 0
153 176 0
147 169 0
147 170 0
155 177 0
151 173 0
156 179 0
154 176 0
154 177 0
148 170 0
150 171 0
147 169 0
153 174 0
142 163 0
135 155 0
141 162 0
139 160 0
146 166 0
138 157 0
145 165 0
138 158 0
130 151 0
133 152 0
134 155 0
130 150 0
130 150 0
131 150 0
130 149 0
133 152 0
114 133 0
124 143 0
119 137 0
122 139 0
122 140 0
132 150 0
112 129 0
114 133 0
106 122 0
106 122 0
96 113 0
97 113 0
90 106 0
105 120 0
98 113 0
93 109 0
87 102 0
107 121 0
90 105 0
93 106 0
89 103 0
88 102 0
83 95 0
89 102 0
88 102 0
75 88 0
74 87 0
84 96 0
68 80 0
71 83 0
73 84 0
62 72 0
58 70 0
67 77 0
76 88 0
65 77 0
71 83 0
68 79 0
78 89 0
74 85 0
86 98 0
77 88 0
86 96 0
70 83 0
61 72 0
79 93 0
71 82 0
80 92 0
84 95 0
88 100 0
83 95 0
81 93 0
77 89 0
81 93 0
78 91 0
93 106 0
89 101 0
89 100 0
79 91 0
104 115 0
92 104 0
89 102 0
92 102 0
106 117 0
98 111 0
98 111 0
91 106 0
96 109 0
109 123 0
109 124 0
109 121 0
111 127 0
112 123 0
118 131 0
113 126 0
116 130 0
108 121 0
105 114 0
119 130 0
106 117 0
125 138 0
123 136 0
117 129 0
108 119 0
117 128 0
124 137 0
110 122 0
118 131 0
123 135 0
119 129 0
124 137 0
117 128 0
116 127 0
131 142 0
108 118 0
106 116 0
118 127 0
116 126 0
107 117 0
130 140 0
115 122 0
132 140 0
128 135 0
107 113 0
115 122 0
113 119 0
113 121 0
113 117 0
112 118 0
110 112 0
108 113 0
102 108 0
112 112 0
108 112 0
99 100 0
105 108 0
111 112 0
113 114 0
100 101 0
79 78 0
90 89 0
105 103 0
97 98 0
94 93 0
86 82 0
89 86 0
89 85 0
88 84 0
68 63 0
80 72 0
66 58 0
78 71 0
83 72 0
82 75 0
88 79 0
81 71 0
90 81 0
93 84 0
82 76 0
85 77 0
92 84 0
103 95 0
93 85 0
90 81 0
100 91 0
110 102 0
102 95 0
103 95 0
100 91 0
108 99 0
106 98 0
110 102 0
120 110 0
109 102 11
108 102 0
109 103 0
108 99 0
116 109 0
114 106 0
118 110 16
104 96 0
106 101 0
114 107 16
109 103 0
117 110 11
110 101 11
109 102 11
120 112 11
110 103 11
120 115 11
110 104 16
122 114 11
103 97 11
124 116 19
115 107 16
122 116 16
128 120 19
124 118 22
117 111 16
123 117 22
114 108 16
119 111 11
104 98 11
116 111 11
128 119 25
128 120 19
129 123 25
127 119 28
119 111 22
118 113 16
128 122 28
113 106 16
124 117 28
118 112 22
128 121 30
121 113 22
124 118 28
131 124 28
121 113 19
117 111 25
124 117 25
128 122 30
128 120 22
122 115 19
123 116 34
127 118 25
121 114 25
129 120 36
131 124 39
120 112 32
133 125 37
125 117 34
128 120 32
118 112 32
123 117 30
122 115 32
123 116 34
122 117 32
126 119 30
122 117 28
128 121 39
125 118 36
116 110 41
124 118 32
118 112 30
128 122 39
117 110 34
113 107 30
120 113 32
117 113 34
122 116 32
112 106 28
117 111 30
120 114 39
198 223 255
199 223 255
199 223 255
199 223 255
199 223 255
200 224 255
200 224 255
200 224 255
200 224 255
200 224 255
200 224 255
200 224 255
201 224 255
201 224 255
201 224 255
201 224 255
201 224 255
201 224 255
201 224 255
201 225 255
201 225 255
201 225 255
201 225 255
202 225 255
202 225 255
202 225 255
202 225 255
202 225 255
202 225 255
202 225 255
202 225 255
202 225 255
202 225 255
202 225 255
202 225 255
202 225 255
202 225 255
202 225 255
202 225 255
202 225 255
202 225 255
202 225 255
202 225 255
202 225 255
202 225 255
202 225 255
202 225 255
202 225 255
202 225 255
202 225 255
202 225 255
202 225 255
202 225 255
202 225 255
202 225 255
202 225 255
202 225 255
201 225 255
201 225 255
201 225 255
201 224 255
201 224 255
201 224 255
201 224 255
201 224 255
201 224 255
201 224 255
201 224 255
200 224 255
200 224 255
200 224 255
200 224 255
200 224 255
200 224 255
199 224 255
199 224 255
199 223 255
199 223 255
199 223 255
199 223 255
198 223 255
198 223 255
198 223 255
197 222 255
197 222 255
197 222 255
197 222 255
196 222 255
196 222 255
195 221 255
195 221 255
194 221 255
194 221 255
193 220 255
193 220 255
192 220 255
191 219 255
191 219 255
190 218 255
189 218 255
188 217 255
186 216 253
177 207 206
166 196 114
162 191 0
158 186 0
162 189 0
159 187 0
159 187 0
163 189 0
161 188 0
160 186 0
158 184 0
159 185 0
163 189 0
165 191 0
161 187 0
159 185 0
163 188 0
161 185 0
157 182 0
161 186 0
159 184 0
162 186 0
159 183 0
164 188 0
155 177 0
154 178 0
155 179 0
157 180 0
155 178 0
157 179 0
160 183 0
157 180 0
155 178 0
155 177 0
157 179 0
154 176 0
151 173 0
144 166 0
145 166 0
150 171 0
146 168 0
148 169 0
146 167 0
149 170 0
151 172 0
146 167 0
147 168 0
140 161 0
143 163 0
138 158 0
150 171 0
149 171 0
142 163 0
139 159 0
147 167 0
138 159 0
135 155 0
132 152 0
140 160 0
135 155 0
135 155 0
131 150 0
130 148 0
127 146 0
118 136 0
136 155 0
128 146 0
116 134 0
110 128 0
119 137 0
119 138 0
125 144 0
111 130 0
103 120 0
108 124 0
106 122 0
101 117 0
90 105 0
103 119 0
107 123 0
101 116 0
99 115 0
95 110 0
90 105 0
100 114 0
85 99 0
78 92 0
82 95 0
94 108 0
75 88 0
83 97 0
78 92 0
69 80 0
79 91 0
83 95 0
70 84 0
69 82 0
72 84 0
74 85 0
80 93 0
83 96 0
53 64 0
86 98 0
85 98 0
81 91 0
81 92 0
75 86 0
69 80 0
82 94 0
81 94 0
79 91 0
82 94 0
85 97 0
99 111 0
78 91 0
86 97 0
99 113 0
90 103 0
101 114 0
81 93 0
76 88 0
97 109 0
93 107 0
97 109 0
86 100 0
96 109 0
99 114 0
94 107 0
92 105 0
98 110 0
112 125 0
115 126 0
110 124 0
105 118 0
117 130 0
111 123 0
113 125 0
113 123 0
116 130 0
118 130 0
108 123 0
122 135 0
113 126 0
115 129 0
120 133 0
116 132 0
117 130 0
123 137 0
127 140 0
120 134 0
113 126 0
116 128 0
119 133 0
112 124 0
124 136 0
114 125 0
116 129 0
112 123 0
113 122 0
125 138 0
109 122 0
120 130 0
119 127 0
121 130 0
107 114 0
102 110 0
107 114 0
124 132 0
119 129 0
114 123 0
114 120 0
104 110 0
116 122 0
111 117 0
113 119 0
124 131 0
117 121 0
108 111 0
103 105 0
102 109 0
118 121 0
106 108 0
99 97 0
100 103 0
100 99 0
111 110 0
103 99 0
96 99 0
102 99 0
89 88 0
99 98 0
101 99 0
81 76 0
80 76 0
87 81 0
71 64 0
68 59 16
79 69 0
77 70 0
86 79 11
87 79 0
89 82 0
75 68 0
93 84 0
95 85 0
92 83 0
82 73 0
90 82 0
105 94 0
98 92 0
97 88 0
94 86 0
96 88 0
101 93 0
112 106 0
105 99 11
93 84 0
113 105 0
109 101 0
107 100 0
109 102 0
109 102 0
102 95 0
105 98 0
108 102 0
113 105 0
116 109 0
113 105 11
107 101 0
107 97 0
116 106 11
108 103 0
109 103 0
104 98 0
119 110 16
113 104 11
118 111 0
119 111 11
119 113 16
118 111 11
113 107 11
119 111 11
118 111 19
109 102 11
115 107 22
122 114 11
114 108 16
118 111 11
118 111 25
115 108 16
108 102 16
127 120 30
117 111 11
117 110 25
128 121 28
112 106 30
124 118 19
123 117 25
124 117 25
122 115 19
114 107 22
129 122 36
123 115 28
121 113 28
117 110 19
125 119 22
121 115 19
126 119 22
115 108 28
125 120 19
121 115 32
115 109 25
124 117 22
118 113 28
117 109 32
116 110 22
122 118 32
111 105 19
126 119 30
128 122 32
123 118 34
123 115 39
127 120 36
117 113 22
125 119 34
123 117 36
118 114 36
119 112 37
121 114 32
126 119 37
127 120 41
127 120 36
121 113 32
114 108 34
123 116 47
128 120 39
119 114 42
113 107 36
192 217 230
197 222 255
198 223 255
198 223 255
198 223 255
198 223 255
199 223 255
199 223 255
199 223 255
199 223 255
199 223 255
199 224 255
200 224 255
200 224 255
200 224 255
200 224 255
200 224 255
200 224 255
200 224 255
200 224 255
200 224 255
200 224 255
201 224 255
201 224 255
201 224 255
201 224 255
201 224 255
201 224 255
201 224 255
201 224 255
201 224 255
201 224 255
201 224 255
201 224 255
201 224 255
201 224 255
201 224 255
201 224 255
201 224 255
201 224 255
201 224 255
201 224 255
201 224 255
201 224 255
201 224 255
201 224 255
201 224 255
201 224 255
201 224 255
201 224 255
201 224 255
201 224 255
201 224 255
201 224 255
201 224 255
201 224 255
201 224 255
201 224 255
200 224 255
200 224 255
200 224 255
200 224 255
200 224 255
200 224 255
200 224 255
200 224 255
200 224 255
199 224 255
199 224 255
199 223 255
199 223 255
199 223 255
199 223 255
198 223 255
198 223 255
198 223 255
198 223 255
198 223 255
197 222 255
197 222 255
197 222 255
197 222 255
196 222 255
196 222 255
196 222 255
195 221 255
195 221 255
194 221 255
194 221 255
193 220 255
193 220 255
193 220 255
192 220 255
191 219 255
190 219 255
190 218 255
189 218 255
188 217 255
187 217 255
182 212 233
170 199 163
162 190 76
161 189 0
163 190 0
163 191 0
164 192 0
158 185 0
161 188 0
167 193 0
163 189 0
159 186 0
161 187 0
162 188 0
157 182 0
164 189 0
160 184 0
155 179 0
156 181 0
162 187 0
159 184 0
165 190 0
156 181 0
156 181 0
156 180 0
155 179 0
156 180 0
156 180 0
157 180 0
159 183 0
153 176 0
154 177 0
157 181 0
158 180 0
151 174 0
152 175 0
148 171 0
153 175 0
150 173 0
149 172 0
155 177 0
147 170 0
145 167 0
150 171 0
149 171 0
151 172 0
148 169 0
154 176 0
151 172 0
147 169 0
149 170 0
150 172 0
139 160 0
138 158 0
145 166 0
139 159 0
143 164 0
140 160 0
135 153 0
132 151 0
130 150 0
135 156 0
127 146 0
138 159 0
122 141 0
132 152 0
116 135 0
129 148 0
120 140 0
134 153 0
123 142 0
117 136 0
117 136 0
123 141 0
113 131 0
95 113 0
117 134 0
114 130 0
105 122 0
112 130 0
122 140 0
99 116 0
102 119 0
96 111 0
89 104 0
88 103 0
89 104 0
94 109 0
93 108 0
86 101 0
89 103 0
82 96 0
91 106 0
97 111 0
88 102 0
75 90 0
85 99 0
88 102 0
90 102 0
83 97 0
69 82 0
64 78 0
90 103 0
86 97 0
90 102 0
75 87 0
89 102 0
93 105 0
92 107 0
71 85 0
89 102 0
84 97 0
72 85 0
93 106 0
86 99 0
91 104 0
90 102 0
87 101 0
84 98 0
80 93 0
95 108 0
91 103 0
105 119 0
104 119 0
91 103 0
86 100 0
84 97 0
114 127 0
102 117 0
104 120 0
107 120 0
104 117 0
110 124 0
109 122 0
94 107 0
101 114 0
107 120 0
105 119 0
117 131 0
115 127 0
122 134 0
108 122 0
110 124 0
121 134 0
105 118 0
122 136 0
117 129 0
117 131 0
120 133 0
123 136 0
120 132 0
120 133 0
121 133 0
107 118 0
111 124 0
115 127 0
114 127 0
123 138 0
115 128 0
107 118 0
121 133 0
117 126 0
117 126 0
120 131 0
122 133 0
104 112 0
114 123 0
118 127 0
112 118 0
125 137 0
112 118 0
113 121 0
117 124 0
115 119 0
111 119 0
109 117 0
110 118 0
114 119 0
114 118 0
107 113 0
118 121 0
115 118 0
105 105 0
108 115 0
109 110 0
107 110 0
107 108 0
107 108 0
108 111 0
93 92 0
99 97 0
99 98 0
102 100 0
88 86 0
107 105 0
93 90 0
95 90 0
77 75 0
81 74 0
88 80 0
79 73 0
71 63 0
82 73 0
85 75 0
70 60 0
80 70 0
77 68 0
92 82 0
87 79 0
80 73 0
99 89 0
82 72 0
89 80 0
100 93 0
94 87 0
102 94 0
98 90 0
91 84 0
98 91 11
90 81 0
96 87 0
103 94 0
106 99 0
108 99 0
102 92 0
116 107 16
108 101 0
109 99 11
112 104 16
100 92 16
104 97 0
110 102 0
106 98 0
114 104 0
113 105 11
112 106 11
105 96 11
113 105 0
120 112 11
116 108 0
118 113 11
110 101 16
109 102 0
116 110 19
113 105 16
118 110 11
126 117 16
110 103 25
120 114 19
123 114 28
118 111 22
117 108 16
112 107 16
120 112 11
129 120 32
110 103 16
110 104 22
110 104 16
116 110 16
110 103 25
123 115 22
121 114 19
124 116 30
112 106 16
119 110 22
127 120 28
109 102 19
118 112 22
118 111 30
119 111 34
120 112 16
126 118 34
115 109 28
119 111 30
124 118 30
125 117 36
121 115 34
118 111 19
121 114 25
116 108 28
120 113 28
125 117 36
124 118 32
123 115 34
127 120 37
121 113 34
115 106 36
111 106 30
120 113 41
107 101 32
113 106 36
115 108 34
103 95 34
120 114 36
99 94 28
111 105 32
102 97 19
111 105 30
115 107 39
123 116 44
132 135 34
175 198 0
177 200 102
185 209 179
194 219 237
197 222 255
197 222 255
197 222 255
197 223 255
198 223 255
198 223 255
198 223 255
198 223 255
199 223 255
199 223 255
199 223 255
199 223 255
199 223 255
199 223 255
199 223 255
199 223 255
199 224 255
200 224 255
200 224 255
200 224 255
200 224 255
200 224 255
200 224 255
200 224 255
200 224 255
200 224 255
200 224 255
200 224 255
200 224 255
200 224 255
200 224 255
200 224 255
200 224 255
200 224 255
200 224 255
200 224 255
200 224 255
200 224 255
200 224 255
200 224 255
200 224 255
200 224 255
200 224 255
200 224 255
200 224 255
200 224 255
200 224 255
200 224 255
200 224 255
200 224 255
200 224 255
200 224 255
200 224 255
200 224 255
199 224 255
199 223 255
199 223 255
199 223 255
199 223 255
199 223 255
199 223 255
199 223 255
198 223 255
198 223 255
198 223 255
198 223 255
198 223 255
198 223 255
197 222 255
197 222 255
197 222 255
197 222 255
196 222 255
196 222 255
196 222 255
196 222 255
195 221 255
195 221 255
195 221 255
194 221 255
194 221 255
194 220 255
193 220 255
193 220 255
192 220 255
192 219 255
191 219 255
190 219 255
189 218 255
189 218 255
188 217 255
187 217 255
184 214 244
174 204 182
165 193 76
162 190 0
162 190 0
160 188 0
159 187 0
161 188 0
165 192 0
161 189 0
160 187 0
162 189 0
163 188 0
164 189 0
160 186 0
159 185 0
164 189 0
167 192 0
161 186 0
159 185 0
163 188 0
158 183 0
162 186 0
159 183 0
157 182 0
159 183 0
161 185 0
156 180 0
156 180 0
157 180 0
157 180 0
153 177 0
152 175 0
158 181 0
154 177 0
159 181 0
147 170 0
156 179 0
151 175 0
152 174 0
150 172 0
155 178 0
148 171 0
151 173 0
146 168 0
153 175 0
151 173 0
152 174 0
143 164 0
144 166 0
139 161 0
145 168 0
139 159 0
139 160 0
136 156 0
138 159 0
142 162 0
136 156 0
126 146 0
145 166 0
128 148 0
146 166 0
136 156 0
135 155 0
132 151 0
138 158 0
134 153 0
125 145 0
136 155 0
126 145 0
119 138 0
129 149 0
129 147 0
118 136 0
124 142 0
127 146 0
129 148 0
124 142 0
108 126 0
115 132 0
130 148 0
103 121 0
114 130 0
116 134 0
106 123 0
107 125 0
98 114 0
107 123 0
99 116 0
96 111 0
94 110 0
102 117 0
96 111 0
97 112 0
97 112 0
89 103 0
92 108 0
87 102 0
91 105 0
87 102 0
78 92 0
70 83 0
97 110 0
91 105 0
86 101 0
89 102 0
90 104 0
90 105 0
84 97 0
84 97 0
85 99 0
100 115 0
85 98 0
103 115 0
72 85 0
83 95 0
84 100 0
85 100 0
100 113 0
84 99 0
93 106 0
87 100 0
88 102 0
87 100 0
91 109 0
97 110 0
94 108 0
92 105 0
105 119 0
110 123 0
107 121 0
87 100 0
101 117 0
102 114 0
108 123 0
110 123 0
113 129 0
103 118 0
101 115 0
105 119 0
116 130 0
122 134 0
113 128 0
115 129 0
104 118 0
128 145 0
113 125 0
113 127 0
118 131 0
101 114 0
108 120 0
122 134 0
121 134 0
131 147 0
128 140 0
114 126 0
119 130 0
121 135 0
118 129 0
117 128 0
120 134 0
125 139 0
123 136 0
117 129 0
126 137 0
129 140 0
119 130 0
119 129 0
112 122 0
118 129 0
119 128 0
119 131 0
127 137 0
108 117 0
111 122 0
122 129 0
122 133 0
121 128 0
120 131 0
116 122 0
112 117 0
120 124 0
111 116 0
108 113 0
106 112 0
121 126 0
115 118 0
112 117 0
109 113 0
109 111 0
96 96 0
97 95 0
102 104 0
102 103 0
97 99 0
92 90 0
109 110 0
96 96 0
89 86 0
89 88 0
91 90 0
80 73 0
83 79 0
85 84 0
79 75 0
85 80 0
69 60 0
76 66 11
65 57 0
80 69 0
94 82 0
82 75 11
84 77 11
80 71 0
82 70 0
88 80 0
87 79 0
98 89 0
101 91 0
100 89 0
88 80 0
99 88 0
94 87 0
97 91 0
92 83 0
99 91 16
116 107 0
104 97 0
101 93 0
111 104 0
95 89 0
98 92 0
110 99 0
105 97 0
103 96 0
112 104 11
105 96 11
105 100 0
102 94 0
108 101 11
108 102 16
115 107 11
117 109 19
124 116 11
107 98 0
110 105 0
117 109 22
117 110 19
116 110 11
119 110 16
119 111 16
119 113 16
117 110 16
115 108 19
122 114 16
118 111 25
117 108 25
125 116 22
121 112 19
113 108 16
117 112 22
120 112 28
125 118 25
121 113 16
120 111 25
113 106 16
120 111 25
123 117 30
115 107 28
119 114 22
128 120 19
126 119 30
115 110 22
115 108 19
118 112 25
122 114 22
118 111 41
127 119 34
119 112 16
123 116 25
112 106 19
124 116 32
121 114 37
132 124 25
121 116 19
118 112 25
117 110 28
114 108 32
114 107 22
119 113 36
118 113 34
110 103 30
114 107 32
114 107 32
116 110 37
115 110 41
113 106 36
115 106 34
110 102 37
112 106 28
124 122 30
142 152 19
163 181 19
170 191 0
172 195 0
173 196 0
171 195 0
173 196 0
180 204 127
187 211 191
192 217 234
196 222 255
196 222 255
197 222 255
197 222 255
197 222 255
197 222 255
197 222 255
198 223 255
198 223 255
198 223 255
198 223 255
198 223 255
198 223 255
198 223 255
198 223 255
199 223 255
199 223 255
199 223 255
199 223 255
199 223 255
199 223 255
199 223 255
199 223 255
199 223 255
199 223 255
199 223 255
199 223 255
199 223 255
199 223 255
199 223 255
199 223 255
199 223 255
199 223 255
199 223 255
199 223 255
199 223 255
199 223 255
199 223 255
199 223 255
199 223 255
199 223 255
199 223 255
199 223 255
199 223 255
199 223 255
199 223 255
199 223 255
199 223 255
199 223 255
198 223 255
198 223 255
198 223 255
198 223 255
198 223 255
198 223 255
198 223 255
198 223 255
198 223 255
197 222 255
197 222 255
197 222 255
197 222 255
197 222 255
196 222 255
196 222 255
196 222 255
196 222 255
196 222 255
195 221 255
195 221 255
195 221 255
194 221 255
194 221 255
194 220 255
193 220 255
193 220 255
192 220 255
192 220 255
192 219 255
191 219 255
190 219 255
190 218 255
189 218 255
188 218 255
188 217 255
186 217 255
183 214 241
175 205 184
169 198 140
164 192 25
164 191 0
162 189 0
164 192 0
164 190 0
159 186 0
162 190 0
160 188 0
158 186 0
162 189 0
160 186 0
161 187 0
166 192 0
158 185 0
161 186 0
159 185 0
158 183 0
156 181 0
157 183 0
162 187 0
159 184 0
161 186 0
162 187 0
152 177 0
151 175 0
158 182 0
159 183 0
156 180 0
157 181 0
151 174 0
157 180 0
158 181 0
158 181 0
158 181 0
160 183 0
157 180 0
149 172 0
151 173 0
153 175 0
150 172 0
161 183 0
154 176 0
147 169 0
144 165 0
142 164 0
161 182 0
154 175 0
151 172 0
148 170 0
141 161 0
151 172 0
147 169 0
145 167 0
141 162 0
140 160 0
141 162 0
141 162 0
145 166 0
140 160 0
145 165 0
145 165 0
132 152 0
138 158 0
144 164 0
143 163 0
132 152 0
130 149 0
130 149 0
125 144 0
130 149 0
131 151 0
128 148 0
126 144 0
117 135 0
124 144 0
103 121 0
119 137 0
133 151 0
119 136 0
126 144 0
119 138 0
117 135 0
114 132 0
117 134 0
110 128 0
110 126 0
116 134 0
119 137 0
115 132 0
99 115 0
92 108 0
97 112 0
94 109 0
94 109 0
100 116 0
110 125 0
93 109 0
99 116 0
94 109 0
90 105 0
90 106 0
94 109 0
78 93 0
88 103 0
94 108 0
91 105 0
86 99 0
95 110 0
93 106 0
88 102 0
101 115 0
99 114 0
86 100 0
85 100 0
97 112 0
84 98 0
92 107 0
98 112 0
89 105 0
106 120 0
94 109 0
96 109 0
97 112 0
97 111 0
108 123 0
89 103 0
99 112 0
100 113 0
123 138 0
110 124 0
92 106 0
107 120 0
113 129 0
114 128 0
100 115 0
88 103 0
104 118 0
110 126 0
129 142 0
104 119 0
111 125 0
115 129 0
116 129 0
115 128 0
119 134 0
131 146 0
117 130 0
117 132 0
121 136 0
116 132 0
111 127 0
124 139 0
112 125 0
121 132 0
123 136 0
120 133 0
131 145 0
127 140 0
112 125 0
120 131 0
126 139 0
117 129 0
121 134 0
122 137 0
126 139 0
117 128 0
119 130 0
114 126 0
111 121 0
123 135 0
116 126 0
122 133 0
117 125 0
119 127 0
129 138 0
116 126 0
112 121 0
109 116 0
105 113 0
114 121 0
116 122 0
121 128 0
116 122 0
123 131 0
108 113 0
104 108 0
109 114 0
118 123 0
110 115 0
115 119 0
117 123 0
112 116 0
103 104 0
94 94 0
114 118 0
109 112 0
107 107 0
103 104 0
94 95 0
91 89 0
106 100 0
103 97 0
90 88 0
88 82 0
99 96 0
81 76 0
78 76 0
74 68 0
85 79 0
81 74 0
69 60 0
75 65 11
79 68 0
94 81 0
83 73 0
93 84 0
88 77 0
84 73 0
87 79 0
98 89 0
102 93 0
96 87 0
92 83 0
100 89 0
98 92 0
91 84 0
110 101 0
98 89 11
104 96 0
105 97 0
101 92 0
106 98 0
99 92 0
108 100 0
100 92 16
99 90 0
97 88 0
104 96 0
104 95 0
110 101 11
112 104 0
108 102 0
100 91 11
104 97 16
115 107 22
120 114 19
108 102 11
112 104 11
96 89 0
113 103 16
109 100 0
124 115 16
121 115 16
117 109 19
118 108 22
119 110 11
120 112 22
117 109 11
112 103 16
118 111 16
117 109 16
120 114 25
120 112 28
114 106 16
118 109 19
122 114 41
118 109 16
118 112 19
119 112 11
121 115 28
115 108 25
123 115 19
123 116 22
117 110 28
122 114 37
120 113 25
111 102 25
119 110 25
116 109 28
121 112 32
115 108 28
117 109 34
119 111 30
105 97 25
113 109 22
117 110 32
113 106 34
112 106 30
104 96 32
123 115 37
116 108 30
116 108 36
116 108 28
113 107 37
112 106 34
103 99 19
123 116 42
127 129 34
149 159 22
157 173 11
169 189 0
170 190 0
168 189 0
167 188 0
174 196 0
172 196 0
173 196 0
171 195 0
173 196 0
174 196 0
175 198 0
177 201 105
183 208 181
191 217 234
195 221 253
195 221 255
196 222 255
196 222 255
196 222 255
196 222 255
197 222 255
197 222 255
197 222 255
197 222 255
197 222 255
197 222 255
197 222 255
197 222 255
197 222 255
198 223 255
198 223 255
198 223 255
198 223 255
198 223 255
198 223 255
198 223 255
198 223 255
198 223 255
198 223 255
198 223 255
198 223 255
198 223 255
198 223 255
198 223 255
198 223 255
198 223 255
198 223 255
198 223 255
198 223 255
198 223 255
198 223 255
198 223 255
198 223 255
198 223 255
198 223 255
198 223 255
198 223 255
198 223 255
197 222 255
197 222 255
197 222 255
197 222 255
197 222 255
197 222 255
197 222 255
197 222 255
197 222 255
196 222 255
196 222 255
196 222 255
196 222 255
196 222 255
195 221 255
195 221 255
195 221 255
195 221 255
195 221 255
194 221 255
194 221 255
194 221 255
193 220 255
193 220 255
193 220 255
192 220 255
192 219 255
191 219 255
191 219 255
190 219 255
190 218 255
189 218 255
188 218 255
188 217 255
187 217 255
186 216 255
180 211 226
175 205 179
164 193 99
164 192 0
162 191 0
161 188 0
161 189 0
164 192 0
162 190 0
165 192 0
161 188 0
161 188 0
160 187 0
163 189 0
162 189 0
164 190 0
157 183 0
157 182 0
159 186 0
165 191 0
159 185 0
159 184 0
165 190 0
159 183 0
157 181 0
160 185 0
162 186 0
157 182 0
159 183 0
153 176 0
156 180 0
149 172 0
156 179 0
159 183 0
159 183 0
157 180 0
159 183 0
152 174 0
152 175 0
145 168 0
150 173 0
155 177 0
154 177 0
153 175 0
154 177 0
148 170 0
151 173 0
160 182 0
150 171 0
155 177 0
151 173 0
152 174 0
154 177 0
153 175 0
150 171 0
145 167 0
150 171 0
141 163 0
150 172 0
141 162 0
140 161 0
141 161 0
146 167 0
135 155 0
136 156 0
136 156 0
137 156 0
145 166 0
131 152 0
143 162 0
135 156 0
139 158 0
131 150 0
129 148 0
128 148 0
124 144 0
131 150 0
126 145 0
121 140 0
130 149 0
117 136 0
106 124 0
129 147 0
127 146 0
114 131 0
114 132 0
105 123 0
112 130 0
111 129 0
109 126 0
101 119 0
106 124 0
103 120 0
97 115 0
108 126 0
91 108 0
109 125 0
120 136 0
100 115 0
107 125 0
100 115 0
88 103 0
99 114 0
93 107 0
102 118 0
92 108 0
106 123 0
97 112 0
106 122 0
91 104 0
83 99 0
88 104 0
98 113 0
91 105 0
90 104 0
106 121 0
89 103 0
89 105 0
95 109 0
93 110 0
97 110 0
83 98 0
94 108 0
99 114 0
94 110 0
109 123 0
102 117 0
101 116 0
101 114 0
100 116 0
104 118 0
97 112 0
103 119 0
115 131 0
111 126 0
101 115 0
87 101 0
108 122 0
104 119 0
109 124 0
94 110 0
108 122 0
115 129 0
100 116 0
112 124 0
113 128 0
118 133 0
114 131 0
111 125 0
126 141 0
108 123 0
98 113 0
113 126 0
118 132 0
130 146 0
120 132 0
121 135 0
119 132 0
115 131 0
119 131 0
122 134 0
125 140 0
112 125 0
113 125 0
119 132 0
125 136 0
126 139 0
122 135 0
131 144 0
124 138 0
118 127 0
120 130 0
127 139 0
123 136 0
110 120 0
129 139 0
128 142 0
111 125 0
126 137 0
116 124 0
113 120 0
127 137 0
122 132 0
116 124 0
123 132 0
111 116 0
119 126 0
116 122 0
120 127 0
121 126 0
124 132 0
120 127 0
113 120 0
128 134 0
117 125 0
119 122 0
122 127 0
111 115 0
106 108 0
105 107 0
106 105 0
104 106 0
110 110 0
105 103 0
108 110 0
103 100 0
108 109 0
99 97 0
107 103 0
92 88 0
89 87 0
96 92 0
104 101 0
83 79 0
83 77 0
88 78 0
84 78 0
86 80 0
68 56 0
76 63 0
58 50 0
79 67 0
84 75 0
91 79 0
80 69 0
86 76 0
94 84 0
85 75 0
90 78 0
86 78 11
102 90 0
83 73 0
95 85 0
95 86 0
104 95 0
90 82 0
100 89 0
105 97 11
107 97 0
88 80 0
89 81 0
107 100 0
99 90 0
110 101 0
109 101 16
107 98 0
108 99 11
107 98 0
105 99 11
117 108 16
112 104 16
109 102 16
108 101 0
113 103 11
108 102 0
113 104 16
106 99 11
121 112 11
113 105 22
114 107 11
105 99 16
115 105 16
116 110 11
113 105 16
115 106 16
111 103 22
121 113 28
112 103 25
113 107 22
115 107 22
114 106 25
127 119 19
114 106 22
112 105 25
115 108 32
121 113 19
116 108 16
110 102 25
119 113 28
122 115 22
113 105 28
114 107 28
113 106 30
113 106 28
115 108 28
120 113 36
109 102 22
117 110 30
117 111 32
102 95 25
118 110 28
125 117 30
114 106 28
120 113 30
109 102 28
113 107 28
117 110 30
128 120 34
120 113 37
120 112 30
131 130 34
146 155 16
151 165 19
172 192 0
164 182 0
167 187 0
166 182 0
163 182 0
170 189 0
168 187 0
175 197 0
172 194 0
176 199 0
172 195 0
175 198 0
174 197 0
177 199 0
171 194 0
174 197 0
175 197 0
176 199 72
185 209 169
187 213 211
192 218 237
194 221 255
195 221 255
195 221 255
195 221 255
195 221 255
195 221 255
196 222 255
196 222 255
196 222 255
196 222 255
196 222 255
196 222 255
196 222 255
196 222 255
197 222 255
197 222 255
197 222 255
197 222 255
197 222 255
197 222 255
197 222 255
197 222 255
197 222 255
197 222 255
197 222 255
197 222 255
197 222 255
197 222 255
197 222 255
197 222 255
197 222 255
197 222 255
197 222 255
197 222 255
197 222 255
197 222 255
197 222 255
196 222 255
196 222 255
196 222 255
196 222 255
196 222 255
196 222 255
196 222 255
196 222 255
195 221 255
195 221 255
195 221 255
195 221 255
195 221 255
195 221 255
195 221 255
194 221 255
194 221 255
194 221 255
194 221 255
193 220 255
193 220 255
193 220 255
192 220 255
192 220 255
192 220 255
191 219 255
191 219 255
191 219 255
190 219 255
190 218 255
189 218 255
188 218 255
188 217 255
187 217 255
186 216 255
183 214 242
177 207 203
170 200 147
165 195 88
163 191 0
163 190 0
164 192 0
161 189 0
165 192 0
165 193 0
164 191 0
163 190 0
163 190 0
163 190 0
165 190 0
161 188 0
163 189 0
164 191 0
163 190 0
160 186 0
162 188 0
160 185 0
163 188 0
163 189 0
159 184 0
161 186 0
158 183 0
155 179 0
162 186 0
158 182 0
159 183 0
161 185 0
152 175 0
160 185 0
156 180 0
157 180 0
156 179 0
151 175 0
155 178 0
156 179 0
152 174 0
159 182 0
156 179 0
160 183 0
154 177 0
154 176 0
154 176 0
150 173 0
155 177 0
152 174 0
148 170 0
156 178 0
142 163 0
157 179 0
143 164 0
157 179 0
156 178 0
152 174 0
154 176 0
147 168 0
144 165 0
152 173 0
139 160 0
139 161 0
143 164 0
135 155 0
145 165 0
140 161 0
137 158 0
145 165 0
143 164 0
134 156 0
137 157 0
142 162 0
147 168 0
141 161 0
135 154 0
131 151 0
131 149 0
135 155 0
125 144 0
133 152 0
129 149 0
131 150 0
127 146 0
123 142 0
123 142 0
124 143 0
121 138 0
119 137 0
126 144 0
121 139 0
116 133 0
113 131 0
125 143 0
118 135 0
108 125 0
110 128 0
116 134 0
115 130 0
120 137 0
108 124 0
118 135 0
90 108 0
91 107 0
108 125 0
97 114 0
100 117 0
93 109 0
105 120 0
102 118 0
111 128 0
96 111 0
96 111 0
102 120 0
105 121 0
95 111 0
110 126 0
90 106 0
79 91 0
108 123 0
107 123 0
94 108 0
88 102 0
108 123 0
96 112 0
90 103 0
92 108 0
100 114 0
107 123 0
99 113 0
111 125 0
109 124 0
100 117 0
95 110 0
107 121 0
104 119 0
99 116 0
110 124 0
115 131 0
116 130 0
89 104 0
111 126 0
113 129 0
101 118 0
118 133 0
111 124 0
108 120 0
105 121 0
115 127 0
102 117 0
110 125 0
111 126 0
119 134 0
110 125 0
125 141 0
118 133 0
119 134 0
123 137 0
116 131 0
112 124 0
114 129 0
129 144 0
130 146 0
112 126 0
127 140 0
119 135 0
127 142 0
115 130 0
123 136 0
131 146 0
122 135 0
133 145 0
131 143 0
125 137 0
120 132 0
121 134 0
114 127 0
128 141 0
111 123 0
123 134 0
122 134 0
132 144 0
124 135 0
114 121 0
124 136 0
123 131 0
122 134 0
119 129 0
124 132 0
121 131 0
114 119 0
133 140 0
114 117 0
121 124 0
119 126 0
113 118 0
121 128 0
119 126 0
113 119 0
116 121 0
123 129 0
111 116 0
109 113 0
114 115 0
110 114 0
104 106 0
108 110 0
107 109 0
97 96 0
103 102 0
103 99 0
104 101 0
98 96 0
100 95 0
91 89 0
90 88 0
93 88 0
96 95 0
87 80 0
80 74 0
93 87 0
83 78 0
78 69 0
85 79 0
78 72 0
71 61 0
86 76 0
74 64 0
86 75 0
96 87 0
97 87 0
80 70 0
96 86 0
96 85 0
88 78 0
91 81 0
100 89 11
97 87 0
95 85 0
105 96 11
92 84 0
106 96 0
88 81 0
106 96 16
88 78 0
98 91 0
104 94 11
94 84 0
110 102 11
103 95 11
111 103 0
119 109 11
104 94 11
101 96 0
109 102 16
110 102 0
106 97 11
112 104 16
118 111 16
109 102 16
107 100 11
106 97 16
117 109 0
114 106 22
104 97 0
116 107 16
108 101 11
114 109 25
115 108 22
111 105 25
121 113 28
116 110 22
121 114 28
110 103 28
107 102 22
119 110 19
115 108 28
116 108 25
124 116 19
120 112 30
105 99 16
124 117 32
118 110 32
122 116 16
115 107 19
112 105 28
112 105 25
119 112 30
120 112 32
128 121 34
107 100 19
121 114 28
122 115 32
102 97 28
99 94 22
122 115 36
108 102 11
108 102 34
107 99 36
110 106 25
144 150 25
153 166 19
161 174 0
169 187 0
165 184 0
164 183 0
164 184 0
167 184 0
168 187 0
167 186 0
170 190 0
171 190 0
165 184 0
174 197 0
172 196 0
177 199 0
173 196 0
172 196 0
173 197 0
175 198 0
173 197 0
172 195 0
174 197 0
173 197 0
175 198 0
174 197 0
175 198 0
177 201 108
184 209 182
186 212 203
192 218 244
193 220 255
194 220 255
194 221 255
194 221 255
194 221 255
195 221 255
195 221 255
195 221 255
195 221 255
195 221 255
195 221 255
195 221 255
195 221 255
195 221 255
195 221 255
195 221 255
195 221 255
195 221 255
196 221 255
196 221 255
195 221 255
195 221 255
195 221 255
195 221 255
195 221 255
195 221 255
195 221 255
195 221 255
195 221 255
195 221 255
195 221 255
195 221 255
195 221 255
195 221 255
195 221 255
195 221 255
195 221 255
195 221 255
194 221 255
194 221 255
194 221 255
194 221 255
194 221 255
194 220 255
193 220 255
193 220 255
193 220 255
193 220 255
193 220 255
192 220 255
192 220 255
192 220 255
191 219 255
191 219 255
191 219 255
190 219 255
190 219 255
189 218 255
189 218 255
188 218 255
188 218 255
187 217 255
187 217 255
186 216 255
182 213 238
178 208 201
172 202 163
167 196 95
163 190 0
162 191 0
164 192 0
163 191 0
165 192 0
162 190 0
164 192 0
164 191 0
160 187 0
160 187 0
159 187 0
161 189 0
164 191 0
165 192 0
161 188 0
159 185 0
162 189 0
163 190 0
161 187 0
160 186 0
160 185 0
161 187 0
163 187 0
161 186 0
161 186 0
158 183 0
160 184 0
157 181 0
161 185 0
159 183 0
162 185 0
160 184 0
163 187 0
152 175 0
155 179 0
152 176 0
161 184 0
159 182 0
157 180 0
158 181 0
161 183 0
155 178 0
157 180 0
155 177 0
147 169 0
150 172 0
158 181 0
155 178 0
154 175 0
160 182 0
155 177 0
157 180 0
153 175 0
148 169 0
152 173 0
154 175 0
158 180 0
142 163 0
149 169 0
141 162 0
152 174 0
142 163 0
146 168 0
145 167 0
142 163 0
146 167 0
154 175 0
148 169 0
141 162 0
136 157 0
132 151 0
130 150 0
134 155 0
139 160 0
143 162 0
134 154 0
131 150 0
134 154 0
128 147 0
131 151 0
131 151 0
133 153 0
130 149 0
129 148 0
118 137 0
132 150 0
133 152 0
125 144 0
119 137 0
134 152 0
125 145 0
131 149 0
118 136 0
107 125 0
119 137 0
107 124 0
113 131 0
120 137 0
108 125 0
112 129 0
111 128 0
108 126 0
106 121 0
118 136 0
120 139 0
107 124 0
102 118 0
97 114 0
114 131 0
112 128 0
101 118 0
99 116 0
119 136 0
102 119 0
107 123 0
108 125 0
119 135 0
100 117 0
111 125 0
105 122 0
105 122 0
105 120 0
101 118 0
107 122 0
109 125 0
95 109 0
106 122 0
104 118 0
103 119 0
102 118 0
108 124 0
108 125 0
101 118 0
107 120 0
103 117 0
102 119 0
108 124 0
121 137 0
114 130 0
112 128 0
112 130 0
107 123 0
112 127 0
114 130 0
106 121 0
116 134 0
119 136 0
108 121 0
115 129 0
114 130 0
120 138 0
110 126 0
107 123 0
114 128 0
116 132 0
120 136 0
121 135 0
119 135 0
124 139 0
127 142 0
124 140 0
124 137 0
127 142 0
125 138 0
120 133 0
124 137 0
126 140 0
132 149 0
109 122 0
127 142 0
123 135 0
107 117 0
127 142 0
119 131 0
125 140 0
131 144 0
128 141 0
120 133 0
121 132 0
123 136 0
125 136 0
128 140 0
124 134 0
126 134 0
129 141 0
113 124 0
119 131 0
121 130 0
117 125 0
126 136 0
122 133 0
113 123 0
122 131 0
117 123 0
117 125 0
105 108 0
121 126 0
117 121 0
116 121 0
112 118 0
113 118 0
121 124 0
115 118 0
113 117 0
126 131 0
105 108 0
124 129 0
113 116 0
115 120 0
116 119 0
100 101 0
95 94 0
110 111 0
96 95 0
103 103 0
103 100 0
104 105 0
95 93 0
95 92 0
103 101 0
100 95 0
94 90 0
90 86 0
94 87 0
92 88 0
87 80 0
75 71 0
77 70 0
89 83 0
83 76 0
82 74 0
92 83 0
80 69 11
87 77 0
69 61 0
80 69 0
79 71 0
100 89 0
88 80 11
96 86 0
94 84 0
93 83 0
94 85 0
95 88 0
98 88 0
107 96 16
96 87 0
89 80 16
97 88 11
89 80 0
102 92 11
101 92 0
107 97 11
99 88 11
103 94 0
111 103 11
95 89 0
99 91 0
107 98 22
108 101 11
103 97 11
105 98 16
113 106 16
113 105 22
103 95 11
113 106 36
115 107 25
101 94 11
108 102 16
119 109 25
117 107 30
112 105 16
109 103 16
108 101 16
103 98 11
116 109 16
113 103 19
115 106 25
121 112 32
110 102 32
115 108 28
99 92 0
108 98 25
117 108 30
115 109 30
112 105 30
112 104 16
100 93 16
106 98 22
103 96 16
119 110 32
119 110 39
105 99 30
113 104 30
108 103 16
113 105 34
106 106 16
139 143 28
150 160 16
150 161 0
168 187 0
161 177 0
156 172 0
162 177 0
166 184 0
168 184 0
164 181 0
166 182 0
166 182 0
167 187 0
164 182 0
169 187 0
167 187 0
165 182 0
173 196 0
176 198 0
173 196 0
170 193 0
176 199 0
175 198 0
175 197 0
176 198 0
173 196 0
172 194 0
173 196 0
174 197 0
174 197 0
174 197 0
176 198 0
173 196 0
174 197 0
175 198 0
172 196 57
180 204 140
182 208 177
186 212 206
191 218 244
192 220 255
193 220 255
193 220 255
193 220 255
193 220 255
193 220 255
193 220 255
193 220 255
194 220 255
194 221 255
194 221 255
194 221 255
194 221 255
194 221 255
194 221 255
194 221 255
194 221 255
194 221 255
194 221 255
194 221 255
194 221 255
194 221 255
194 221 255
194 221 255
194 220 255
194 220 255
194 220 255
193 220 255
193 220 255
193 220 255
193 220 255
193 220 255
193 220 255
193 220 255
193 220 255
193 220 255
192 220 255
192 220 255
192 220 255
192 219 255
192 219 255
191 219 255
191 219 255
191 219 255
190 219 255
190 219 255
190 218 255
189 218 255
189 218 255
188 218 255
188 217 255
187 217 255
187 217 255
186 217 255
182 213 241
180 210 218
175 205 181
172 201 153
165 194 72
165 193 0
163 191 0
162 191 0
164 192 0
163 192 0
164 193 0
162 191 0
163 190 0
161 189 0
164 192 0
164 191 0
164 191 0
163 190 0
164 191 0
160 186 0
161 188 0
161 187 0
164 190 0
160 186 0
162 188 0
163 189 0
162 187 0
162 188 0
158 183 0
160 185 0
162 188 0
158 183 0
161 186 0
161 185 0
153 178 0
159 184 0
156 180 0
164 188 0
162 186 0
159 183 0
158 182 0
154 178 0
152 176 0
162 185 0
159 182 0
155 178 0
156 179 0
156 180 0
155 178 0
158 181 0
154 177 0
156 179 0
160 183 0
156 179 0
145 167 0
153 176 0
159 182 0
147 169 0
148 170 0
153 175 0
154 176 0
147 169 0
154 176 0
143 166 0
148 170 0
150 172 0
152 173 0
142 163 0
151 172 0
142 163 0
148 169 0
152 173 0
142 162 0
142 163 0
151 171 0
139 161 0
152 172 0
137 158 0
147 168 0
142 162 0
138 159 0
140 160 0
137 157 0
137 158 0
148 167 0
133 152 0
133 153 0
128 148 0
148 168 0
136 156 0
135 155 0
133 152 0
124 144 0
129 148 0
129 148 0
126 146 0
128 147 0
124 143 0
117 135 0
122 142 0
120 138 0
115 133 0
116 135 0
118 137 0
119 137 0
104 123 0
122 140 0
123 142 0
115 132 0
116 134 0
101 119 0
108 127 0
116 134 0
113 130 0
113 130 0
118 136 0
120 137 0
99 118 0
115 132 0
110 126 0
116 134 0
110 127 0
108 126 0
107 123 0
116 134 0
110 128 0
105 121 0
109 123 0
112 128 0
98 114 0
109 125 0
102 117 0
99 116 0
104 118 0
110 126 0
97 111 0
111 128 0
103 119 0
106 121 0
116 132 0
112 130 0
107 123 0
112 128 0
114 131 0
110 127 0
106 122 0
108 123 0
109 125 0
110 125 0
102 117 0
121 137 0
113 129 0
113 128 0
115 132 0
125 140 0
120 135 0
119 135 0
109 124 0
132 147 0
121 137 0
112 128 0
117 133 0
115 129 0
117 134 0
131 146 0
115 128 0
121 136 0
113 128 0
132 146 0
126 139 0
109 120 0
122 137 0
128 143 0
120 133 0
121 136 0
128 142 0
117 131 0
129 142 0
123 138 0
112 125 0
114 126 0
126 138 0
127 141 0
120 130 0
117 131 0
120 133 0
134 146 0
116 129 0
118 132 0
117 130 0
130 143 0
119 133 0
131 145 0
130 142 0
128 138 0
125 132 0
128 135 0
123 132 0
134 143 0
127 138 0
125 135 0
120 129 0
134 145 0
123 133 0
134 143 0
121 129 0
113 118 0
126 133 0
122 129 0
128 136 0
123 130 0
104 110 0
111 113 0
111 117 0
108 111 0
119 124 0
115 119 0
111 115 0
111 113 0
117 117 0
100 104 0
115 114 0
104 105 0
99 97 0
111 110 0
106 103 0
96 92 0
101 100 0
104 102 0
100 96 0
105 103 0
100 95 0
101 95 0
87 83 0
93 90 0
94 88 0
78 73 0
86 79 0
74 65 0
81 76 0
86 80 0
81 70 0
79 71 0
83 73 0
76 70 0
87 78 0
86 76 0
79 71 0
84 74 0
83 75 11
85 74 0
82 69 0
86 78 0
94 83 0
95 87 0
92 82 16
97 87 0
101 93 0
97 88 11
104 95 11
105 95 11
94 86 11
93 86 11
94 84 11
106 97 11
103 94 16
101 94 0
114 105 22
103 96 16
90 82 0
107 99 22
108 99 11
113 106 22
107 98 19
109 100 16
105 97 16
106 97 16
104 96 0
106 96 0
103 95 16
100 92 11
116 107 25
102 95 22
115 107 30
111 104 16
107 99 19
107 99 16
113 106 22
108 100 19
105 100 19
115 107 19
112 104 11
93 86 19
100 94 22
108 101 30
106 98 30
99 92 16
96 88 30
100 93 16
109 102 25
119 113 25
126 127 22
139 145 25
142 150 16
154 166 0
161 177 0
162 176 0
164 180 0
164 180 0
164 180 0
164 180 0
167 183 0
164 181 0
168 187 0
163 178 0
167 183 0
166 183 0
168 187 0
166 185 0
165 182 0
164 182 0
164 183 0
166 185 0
173 196 0
174 196 0
173 196 0
173 196 0
176 198 0
174 197 0
174 197 0
174 197 0
174 197 0
173 196 0
174 197 0
175 198 0
171 195 0
173 196 0
174 197 0
172 195 0
176 198 0
173 197 0
175 197 0
175 198 0
175 198 0
174 197 0
174 197 0
176 199 57
179 203 122
183 209 182
184 211 203
188 215 226
189 217 238
191 219 255
191 219 255
192 219 255
192 220 255
192 219 255
192 220 255
192 220 255
192 220 255
192 220 255
192 220 255
192 220 255
192 220 255
192 220 255
192 220 255
192 220 255
192 220 255
192 220 255
192 220 255
192 220 255
192 219 255
192 219 255
192 219 255
191 219 255
191 219 255
191 219 255
191 219 255
191 219 255
191 219 255
191 219 255
190 219 255
190 219 255
190 219 255
190 218 255
189 218 255
189 218 255
189 218 255
188 218 255
188 218 255
188 217 255
187 217 255
187 217 255
186 217 255
183 213 242
179 209 211
176 207 198
173 203 169
168 198 140
164 193 67
163 191 0
165 193 0
164 193 0
164 193 0
165 193 0
163 191 0
163 192 0
162 190 0
164 192 0
163 190 0
166 193 0
166 194 0
164 190 0
162 190 0
160 188 0
162 189 0
165 192 0
163 189 0
164 191 0
161 187 0
160 186 0
164 190 0
164 190 0
162 187 0
164 189 0
160 184 0
160 185 0
162 187 0
163 188 0
162 188 0
167 192 0
157 182 0
161 186 0
159 184 0
157 181 0
162 187 0
160 184 0
157 180 0
157 181 0
158 183 0
167 191 0
166 189 0
161 185 0
165 188 0
160 183 0
156 179 0
155 177 0
155 177 0
159 182 0
157 179 0
158 181 0
152 175 0
155 178 0
151 173 0
162 184 0
152 174 0
149 171 0
151 173 0
153 175 0
150 172 0
158 180 0
156 178 0
147 169 0
142 164 0
149 170 0
150 172 0
143 164 0
154 175 0
144 166 0
141 162 0
149 170 0
149 170 0
153 174 0
140 162 0
147 169 0
138 160 0
139 160 0
144 165 0
148 170 0
144 165 0
138 159 0
130 150 0
136 157 0
134 153 0
129 149 0
135 156 0
138 157 0
129 149 0
128 148 0
130 150 0
139 159 0
133 152 0
123 142 0
126 146 0
131 149 0
132 151 0
127 145 0
120 140 0
126 145 0
116 136 0
125 144 0
127 144 0
123 143 0
123 142 0
127 145 0
122 140 0
125 143 0
120 140 0
120 139 0
109 128 0
121 139 0
117 135 0
110 128 0
111 129 0
109 128 0
118 135 0
110 126 0
103 120 0
114 132 0
111 129 0
117 135 0
118 137 0
109 127 0
125 141 0
109 127 0
116 133 0
106 122 0
112 128 0
113 130 0
115 133 0
111 127 0
126 143 0
109 125 0
110 125 0
100 116 0
114 128 0
117 134 0
112 130 0
100 117 0
112 131 0
130 146 0
109 124 0
96 113 0
110 126 0
128 145 0
110 124 0
122 139 0
111 127 0
119 136 0
113 131 0
115 131 0
110 125 0
112 126 0
114 131 0
117 135 0
125 143 0
114 130 0
121 135 0
113 129 0
115 131 0
124 139 0
118 133 0
119 134 0
126 142 0
119 133 0
116 131 0
124 140 0
116 129 0
120 135 0
126 141 0
116 131 0
127 141 0
118 133 0
121 137 0
127 143 0
117 131 0
127 140 0
122 134 0
123 138 0
133 148 0
131 146 0
122 135 0
132 142 0
126 140 0
124 134 0
124 137 0
124 136 0
120 133 0
130 143 0
126 139 0
132 145 0
132 146 0
112 122 0
133 147 0
130 141 0
135 145 0
118 129 0
118 126 0
130 140 0
109 122 0
127 139 0
127 138 0
132 142 0
124 132 0
124 134 0
126 132 0
127 136 0
117 125 0
123 134 0
116 120 0
113 120 0
126 131 0
117 123 0
113 118 0
117 125 0
108 110 0
110 115 0
115 118 0
127 131 0
106 106 0
109 112 0
107 108 0
115 116 0
114 114 0
104 102 0
100 97 0
103 102 0
101 100 0
116 116 0
103 101 0
105 104 0
112 113 0
103 100 0
103 98 0
107 104 0
95 93 0
99 96 0
109 109 0
83 79 0
93 86 0
88 83 0
82 77 0
105 97 0
95 90 0
101 98 0
88 84 0
98 91 0
90 80 0
93 85 0
85 76 0
79 69 0
65 54 0
93 81 0
88 76 0
80 73 0
96 87 0
95 87 0
85 75 11
95 84 11
92 83 0
96 88 11
103 95 19
96 89 0
87 77 0
87 78 0
110 99 19
99 89 16
99 89 19
105 97 16
94 85 0
95 86 11
104 96 25
102 93 16
102 94 16
105 98 16
102 94 16
107 98 11
107 98 19
105 95 16
109 100 16
98 89 0
100 91 22
109 100 11
105 97 22
109 101 16
94 87 19
112 103 30
108 99 25
92 86 11
110 103 28
115 106 22
102 94 22
117 109 32
96 91 11
107 102 19
115 113 25
129 135 16
137 140 25
147 158 0
154 167 0
160 174 0
160 175 0
162 176 0
161 174 0
159 173 0
157 173 0
160 175 0
163 181 0
161 174 0
167 183 0
162 177 0
164 179 0
163 180 0
162 178 0
166 183 0
165 182 0
161 179 0
164 181 0
168 186 0
168 186 0
168 185 0
168 185 0
164 181 0
173 197 0
174 197 0
175 197 0
173 196 0
174 197 0
173 196 0
174 197 0
175 197 0
174 196 0
175 197 0
176 198 0
175 198 0
173 196 0
173 197 0
175 198 0
176 198 0
175 198 0
176 198 0
174 197 0
175 197 0
175 198 0
173 197 0
174 197 0
174 197 0
173 197 0
172 196 0
172 196 0
171 196 0
173 196 0
175 199 72
174 198 76
180 205 147
180 206 163
182 209 191
183 210 196
186 214 221
187 215 234
189 217 244
190 218 255
190 218 255
190 218 255
190 218 255
190 218 255
190 218 255
190 218 255
190 218 255
190 218 255
190 218 255
189 218 255
189 218 255
189 218 255
189 218 255
189 218 255
189 218 255
189 218 255
188 218 255
188 218 255
188 217 255
188 217 255
187 217 255
187 217 255
186 217 254
185 215 249
183 213 238
181 210 218
178 207 198
175 204 175
175 205 182
173 201 142
169 196 99
165 193 51
164 192 0
167 194 0
163 192 0
163 192 0
164 193 0
165 193 0
163 192 0
165 193 0
167 194 0
165 193 0
163 191 0
163 190 0
161 189 0
165 192 0
163 191 0
165 192 0
162 190 0
163 191 0
165 192 0
163 190 0
163 190 0
164 190 0
162 187 0
167 193 0
165 191 0
165 190 0
163 189 0
163 189 0
162 186 0
164 189 0
158 184 0
161 186 0
163 189 0
160 185 0
159 184 0
162 187 0
158 183 0
162 187 0
160 184 0
158 182 0
161 186 0
157 181 0
156 179 0
162 186 0
159 183 0
163 186 0
162 185 0
162 185 0
164 187 0
159 182 0
153 175 0
158 180 0
157 180 0
159 182 0
154 175 0
159 182 0
160 183 0
157 180 0
156 179 0
154 176 0
154 176 0
151 173 0
152 173 0
153 175 0
153 174 0
143 165 0
150 172 0
150 172 0
152 174 0
153 174 0
145 166 0
150 172 0
151 173 0
145 166 0
145 166 0
144 165 0
150 171 0
151 172 0
155 176 0
143 164 0
142 163 0
153 174 0
149 170 0
146 167 0
132 153 0
143 164 0
142 163 0
132 154 0
138 158 0
143 164 0
132 152 0
139 160 0
143 164 0
142 162 0
135 155 0
127 146 0
128 147 0
132 152 0
145 166 0
125 144 0
131 150 0
134 153 0
118 136 0
141 159 0
120 139 0
136 156 0
121 141 0
131 149 0
124 144 0
120 139 0
114 133 0
129 148 0
125 143 0
124 142 0
113 132 0
113 130 0
109 127 0
124 142 0
115 134 0
102 121 0
112 129 0
118 134 0
118 136 0
121 139 0
122 139 0
117 135 0
122 141 0
121 139 0
121 139 0
116 135 0
119 137 0
106 124 0
100 118 0
110 127 0
118 136 0
116 134 0
117 134 0
118 135 0
106 125 0
101 117 0
125 141 0
114 131 0
96 112 0
103 117 0
114 132 0
115 132 0
110 128 0
119 137 0
116 134 0
121 138 0
106 123 0
122 139 0
120 137 0
121 138 0
115 131 0
119 135 0
122 139 0
119 135 0
108 124 0
126 143 0
118 135 0
119 134 0
125 140 0
121 137 0
118 133 0
121 137 0
122 138 0
118 134 0
120 133 0
126 141 0
117 134 0
126 142 0
124 139 0
120 132 0
123 137 0
119 136 0
133 150 0
126 140 0
133 150 0
127 143 0
134 148 0
118 133 0
118 131 0
118 132 0
131 147 0
135 151 0
129 144 0
129 143 0
129 141 0
125 140 0
127 141 0
134 149 0
121 133 0
122 134 0
132 145 0
133 144 0
122 134 0
134 149 0
119 130 0
124 135 0
125 136 0
120 131 0
120 132 0
122 133 0
126 137 0
130 141 0
139 149 0
123 135 0
126 135 0
120 130 0
133 144 0
116 126 0
126 135 0
122 132 0
132 142 0
136 145 0
121 126 0
129 136 0
114 120 0
126 133 0
119 126 0
122 127 0
127 133 0
115 119 0
116 119 0
119 118 0
118 121 0
126 132 0
113 112 0
127 131 0
113 116 0
120 125 0
111 112 0
114 114 0
102 102 0
117 118 0
125 127 0
110 108 0
102 99 0
103 101 0
101 97 0
116 113 0
112 109 0
103 101 0
107 104 0
101 92 0
93 86 0
110 106 0
95 90 0
107 100 0
91 85 0
100 95 0
96 90 0
104 99 0
89 84 0
103 97 0
101 90 0
102 98 0
119 114 0
101 92 0
86 78 0
98 94 0
95 87 0
88 80 0
96 86 0
94 88 11
97 85 0
100 87 0
92 81 11
88 77 16
91 82 0
93 83 16
86 77 11
98 89 16
96 87 16
99 90 11
96 88 16
101 92 11
104 93 11
95 84 19
92 85 0
91 82 16
99 90 16
96 88 11
99 91 22
108 99 11
91 81 11
106 100 28
110 100 30
92 84 16
105 96 22
103 96 16
104 98 19
115 115 19
114 111 19
122 125 16
131 136 0
132 138 16
139 147 16
146 155 11
157 169 0
153 164 0
153 163 0
152 163 0
160 172 0
158 175 0
163 173 0
161 174 0
159 171 0
158 170 0
160 174 0
161 175 0
163 178 0
159 174 0
164 179 0
159 173 0
161 176 0
164 178 0
163 177 0
161 177 0
164 178 0
166 184 0
165 182 0
163 180 0
162 178 0
164 179 0
164 182 0
165 182 0
167 184 0
173 196 0
174 197 0
174 196 0
176 198 0
176 198 0
175 198 0
174 197 0
176 199 0
174 196 0
174 197 0
176 199 0
173 196 0
175 198 0
175 198 0
174 197 0
174 197 0
174 197 0
171 194 0
173 196 0
172 195 0
173 196 0
174 197 0
173 196 0
175 198 0
172 195 0
173 196 0
173 197 0
174 197 0
172 196 0
170 194 0
172 196 0
174 197 0
174 197 0
172 196 0
172 196 0
174 197 0
172 196 0
171 196 0
174 198 51
175 200 88
173 198 84
174 200 130
175 201 127
175 202 130
178 205 163
178 205 163
178 205 167
179 206 169
176 203 153
178 206 175
175 203 157
176 204 165
177 205 173
176 203 163
174 202 147
173 201 149
174 202 137
173 200 127
171 199 120
169 197 92
166 194 62
168 195 44
165 192 0
166 194 0
167 194 0
164 192 0
168 194 0
165 193 0
165 193 0
166 193 0
167 194 0
165 193 0
164 192 0
165 193 0
166 193 0
165 192 0
163 191 0
166 193 0
167 194 0
166 192 0
164 192 0
165 192 0
162 190 0
166 193 0
164 191 0
165 192 0
163 190 0
161 188 0
160 187 0
165 192 0
160 185 0
166 193 0
165 191 0
161 187 0
166 191 0
164 191 0
163 189 0
164 190 0
162 188 0
163 188 0
162 187 0
160 185 0
160 185 0
162 187 0
162 187 0
160 185 0
163 187 0
163 188 0
162 186 0
164 188 0
160 184 0
154 177 0
162 186 0
157 182 0
160 184 0
167 190 0
161 184 0
164 188 0
156 180 0
157 180 0
162 186 0
162 185 0
153 176 0
159 182 0
157 180 0
159 182 0
156 178 0
159 181 0
161 184 0
159 182 0
155 177 0
156 178 0
154 176 0
159 182 0
154 176 0
145 167 0
148 170 0
146 168 0
153 174 0
159 181 0
154 176 0
150 172 0
156 178 0
144 166 0
144 166 0
145 166 0
143 164 0
146 167 0
148 170 0
141 163 0
143 164 0
147 168 0
151 173 0
142 162 0
142 162 0
134 155 0
149 171 0
148 169 0
142 163 0
139 160 0
139 159 0
137 157 0
143 163 0
148 168 0
138 159 0
126 148 0
132 153 0
122 142 0
138 158 0
138 157 0
125 144 0
127 147 0
124 143 0
129 148 0
129 148 0
132 151 0
128 148 0
128 148 0
130 148 0
122 140 0
121 138 0
131 149 0
118 137 0
112 131 0
125 145 0
118 136 0
117 135 0
127 146 0
121 140 0
127 145 0
106 125 0
123 142 0
121 139 0
114 131 0
119 137 0
126 145 0
114 131 0
127 144 0
116 135 0
122 140 0
120 137 0
123 141 0
116 135 0
125 144 0
115 132 0
125 144 0
113 130 0
111 128 0
110 129 0
113 128 0
121 139 0
115 132 0
127 144 0
106 124 0
117 134 0
122 139 0
115 132 0
114 131 0
106 123 0
120 139 0
118 134 0
115 133 0
125 142 0
114 129 0
112 128 0
99 116 0
123 140 0
116 133 0
120 136 0
125 140 0
125 142 0
115 132 0
131 148 0
115 131 0
121 138 0
116 132 0
132 150 0
118 135 0
110 125 0
121 138 0
123 139 0
122 136 0
122 137 0
130 145 0
120 135 0
128 144 0
126 142 0
122 138 0
125 140 0
128 144 0
116 131 0
131 146 0
121 137 0
139 156 0
121 135 0
134 148 0
121 135 0
132 148 0
128 141 0
131 146 0
126 140 0
122 134 0
126 138 0
131 145 0
130 142 0
132 146 0
129 142 0
139 151 0
126 138 0
124 137 0
122 134 0
129 141 0
130 141 0
127 141 0
127 139 0
123 137 0
119 131 0
134 143 0
139 153 0
128 139 0
134 145 0
133 142 0
130 141 0
125 132 0
127 138 0
129 139 0
127 135 0
127 133 0
112 121 0
126 132 0
119 125 0
124 132 0
128 137 0
127 134 0
114 119 0
125 126 0
124 131 0
126 133 0
111 114 0
117 119 0
117 122 0
122 124 0
124 125 0
114 116 0
120 125 0
120 123 0
117 117 0
114 116 0
115 116 0
113 112 0
126 127 0
113 111 0
113 109 0
108 105 0
113 112 0
100 97 0
110 103 0
103 98 0
111 107 0
96 92 0
96 90 0
109 104 0
99 94 0
104 100 0
101 94 0
98 93 0
103 98 0
106 99 0
91 85 0
101 95 0
103 96 0
102 98 0
108 103 0
112 109 0
107 102 0
101 98 0
119 118 0
106 102 0
115 113 0
114 110 0
113 106 11
116 111 11
116 115 11
113 109 0
118 116 0
114 108 16
108 102 0
112 107 16
101 100 11
110 106 16
111 110 11
121 120 11
121 119 11
113 109 0
123 120 0
125 127 11
122 121 19
141 143 11
131 133 0
143 148 0
136 136 0
150 156 0
146 150 0
153 159 0
147 156 0
152 160 0
150 156 0
145 153 0
153 163 0
154 161 0
156 165 0
149 158 0
156 165 0
155 166 0
157 168 0
159 170 0
156 169 0
157 170 0
157 169 0
161 173 0
160 174 0
160 174 0
158 173 0
162 174 0
163 177 0
157 171 0
160 174 0
159 174 0
163 176 0
163 179 0
161 176 0
164 181 0
160 178 0
163 180 0
163 178 0
163 177 0
167 186 0
165 182 0
166 183 0
166 184 0
174 197 0
173 196 0
175 198 0
175 198 0
175 198 0
175 197 0
175 198 0
176 199 0
175 198 0
174 197 0
173 196 0
172 195 0
175 198 0
175 198 0
173 196 0
173 196 0
174 197 0
175 198 0
172 195 0
174 197 0
176 199 0
174 197 0
174 197 0
174 198 0
174 197 0
173 196 0
174 197 0
172 196 0
174 197 0
173 197 0
172 196 0
173 197 0
171 196 0
171 196 0
171 196 0
171 196 0
173 197 0
173 197 0
171 195 0
169 195 0
171 195 0
171 196 0
171 196 0
171 196 0
170 195 0
171 196 0
169 195 0
170 195 0
171 196 0
170 195 0
167 193 0
170 195 0
169 195 0
169 195 0
167 194 0
168 195 0
167 194 0
169 194 0
167 194 0
166 193 0
167 194 0
167 194 0
166 193 0
168 195 0
166 193 0
165 192 0
167 194 0
166 194 0
166 193 0
164 192 0
166 193 0
165 193 0
166 193 0
166 193 0
166 194 0
163 190 0
164 192 0
165 192 0
163 190 0
165 193 0
169 195 0
165 192 0
163 190 0
164 191 0
167 193 0
166 193 0
163 190 0
167 193 0
161 187 0
165 191 0
160 186 0
165 191 0
162 188 0
164 190 0
163 188 0
166 191 0
166 191 0
163 189 0
165 189 0
165 190 0
159 183 0
162 188 0
156 180 0
157 181 0
158 182 0
163 186 0
162 185 0
162 187 0
162 185 0
161 185 0
161 185 0
160 184 0
163 186 0
160 183 0
159 182 0
157 181 0
165 188 0
156 179 0
160 183 0
156 178 0
161 184 0
153 176 0
149 172 0
158 180 0
151 173 0
154 177 0
157 180 0
152 176 0
158 181 0
163 185 0
157 180 0
153 175 0
150 173 0
152 174 0
154 177 0
147 169 0
150 172 0
152 174 0
150 171 0
152 174 0
149 170 0
158 179 0
149 170 0
150 171 0
148 169 0
141 163 0
155 177 0
154 176 0
151 171 0
142 163 0
142 163 0
140 161 0
146 166 0
148 169 0
146 166 0
141 162 0
150 169 0
142 163 0
145 166 0
143 164 0
131 152 0
141 162 0
133 154 0
140 160 0
136 156 0
133 153 0
129 148 0
149 169 0
137 157 0
130 150 0
130 150 0
129 149 0
134 153 0
137 157 0
124 144 0
121 140 0
126 145 0
128 149 0
125 144 0
123 142 0
115 134 0
121 139 0
129 149 0
124 144 0
125 145 0
121 141 0
123 141 0
120 138 0
125 143 0
133 152 0
129 147 0
123 141 0
127 144 0
112 131 0
116 133 0
124 142 0
117 136 0
121 140 0
117 134 0
119 138 0
128 145 0
115 133 0
124 141 0
125 142 0
112 130 0
126 143 0
114 133 0
119 136 0
110 128 0
108 126 0
116 134 0
122 138 0
124 143 0
115 133 0
118 136 0
119 137 0
122 140 0
125 143 0
124 141 0
128 147 0
120 135 0
115 133 0
127 144 0
114 131 0
125 142 0
116 133 0
114 130 0
122 139 0
124 142 0
121 138 0
116 133 0
122 137 0
129 147 0
118 134 0
118 134 0
126 143 0
130 146 0
113 127 0
120 137 0
114 130 0
121 137 0
120 136 0
123 138 0
123 139 0
129 147 0
126 142 0
122 138 0
130 148 0
117 130 0
134 148 0
124 138 0
121 134 0
131 145 0
145 161 0
130 144 0
132 146 0
125 138 0
127 145 0
116 131 0
122 135 0
129 146 0
115 129 0
127 143 0
123 139 0
119 133 0
132 146 0
133 148 0
125 138 0
120 132 0
132 144 0
129 143 0
127 140 0
131 145 0
117 128 0
137 151 0
120 133 0
132 144 0
134 146 0
137 148 0
122 132 0
131 142 0
138 148 0
134 145 0
122 132 0
124 134 0
127 136 0
131 140 0
129 137 0
130 140 0
124 134 0
135 144 0
128 136 0
129 135 0
123 132 0
117 123 0
119 125 0
122 127 0
119 126 0
116 119 0
125 130 0
124 131 0
122 125 0
120 123 0
127 132 0
122 124 0
118 121 0
124 124 0
112 115 0
114 113 0
120 120 0
120 119 0
128 131 0
113 112 0
115 116 0
114 112 0
108 108 0
114 112 0
117 113 0
111 108 0
101 96 0
116 115 0
112 111 0
102 98 0
109 104 0
102 98 0
99 96 0
115 109 0
102 98 0
105 97 0
117 112 0
108 107 0
104 97 0
117 114 0
101 94 0
98 92 0
106 103 0
114 109 0
116 108 0
116 112 0
118 114 0
123 122 0
113 110 0
126 125 0
115 109 0
125 123 0
129 130 0
128 126 0
127 124 0
123 123 0
135 132 0
132 130 0
135 135 0
129 128 0
142 145 0
129 130 0
142 145 0
141 145 0
140 141 0
143 146 0
138 141 0
142 146 0
135 141 0
143 151 0
146 150 0
153 160 0
144 152 0
153 163 0
153 163 0
148 154 0
154 163 0
147 155 0
144 150 0
159 172 0
156 165 0
155 165 0
149 158 0
154 164 0
156 169 0
151 160 0
156 165 0
157 170 0
158 169 0
159 171 0
154 166 0
158 171 0
159 173 0
157 168 0
160 175 0
161 176 0
160 175 0
159 172 0
159 175 0
166 183 0
160 174 0
157 170 0
162 179 0
165 183 0
165 180 0
167 181 0
164 180 0
172 196 0
172 196 0
175 198 0
175 198 0
176 199 0
174 197 0
175 198 0
175 198 0
173 196 0
173 196 0
173 196 0
175 198 0
174 197 0
173 196 0
175 198 0
175 198 0
173 196 0
175 198 0
173 196 0
175 198 0
174 198 0
174 197 0
175 198 0
173 196 0
174 197 0
174 197 0
174 198 0
170 195 0
172 196 0
173 197 0
172 196 0
172 196 0
171 196 0
172 197 0
172 196 0
171 196 0
172 196 0
171 196 0
172 196 0
172 197 0
172 197 0
170 196 0
170 196 0
171 196 0
171 196 0
168 194 0
170 196 0
169 195 0
169 195 0
169 195 0
167 194 0
167 194 0
170 195 0
170 196 0
169 195 0
167 194 0
166 193 0
167 193 0
167 194 0
167 193 0
167 194 0
166 193 0
167 193 0
165 193 0
167 194 0
166 193 0
166 193 0
166 193 0
166 193 0
166 193 0
165 193 0
166 193 0
166 193 0
164 192 0
166 193 0
165 192 0
166 192 0
167 193 0
166 193 0
167 193 0
168 194 0
163 189 0
164 190 0
165 191 0
166 192 0
161 187 0
165 191 0
164 191 0
162 188 0
160 185 0
161 187 0
169 194 0
164 189 0
162 187 0
166 191 0
164 188 0
165 191 0
164 189 0
164 188 0
158 183 0
162 186 0
152 176 0
162 186 0
162 186 0
165 189 0
159 183 0
164 187 0
162 186 0
160 184 0
162 185 0
166 190 0
163 186 0
163 187 0
161 185 0
158 182 0
164 188 0
156 180 0
162 184 0
164 187 0
157 180 0
161 184 0
160 183 0
163 186 0
157 180 0
156 179 0
156 179 0
157 179 0
155 178 0
153 176 0
154 175 0
148 170 0
152 175 0
158 179 0
150 172 0
151 173 0
147 170 0
162 183 0
149 171 0
156 178 0
153 174 0
150 171 0
149 170 0
149 170 0
155 176 0
156 177 0
142 162 0
146 166 0
140 161 0
147 167 0
147 168 0
149 170 0
137 158 0
149 170 0
137 158 0
144 165 0
143 164 0
149 170 0
144 164 0
140 160 0
142 163 0
146 166 0
126 145 0
141 161 0
138 159 0
130 150 0
135 155 0
126 145 0
130 149 0
134 154 0
142 162 0
130 149 0
136 156 0
128 148 0
125 145 0
125 144 0
129 148 0
131 150 0
114 133 0
130 149 0
125 144 0
123 141 0
137 156 0
126 144 0
117 136 0
124 143 0
112 132 0
129 149 0
115 135 0
121 140 0
125 145 0
127 147 0
127 147 0
117 135 0
129 148 0
122 141 0
119 138 0
121 139 0
111 129 0
132 151 0
125 144 0
129 148 0
118 136 0
121 140 0
117 135 0
121 140 0
129 148 0
115 132 0
114 132 0
128 145 0
109 128 0
126 143 0
118 135 0
126 143 0
111 128 0
107 124 0
119 137 0
109 125 0
125 143 0
116 131 0
125 141 0
121 138 0
128 145 0
114 131 0
107 124 0
120 136 0
125 142 0
133 151 0
130 148 0
118 135 0
123 139 0
132 149 0
122 140 0
132 148 0
131 148 0
133 151 0
123 140 0
131 149 0
112 128 0
130 148 0
119 137 0
127 143 0
134 150 0
125 143 0
118 134 0
133 150 0
127 144 0
133 150 0
131 149 0
123 141 0
123 139 0
128 145 0
128 144 0
128 143 0
125 142 0
130 144 0
114 128 0
130 144 0
134 151 0
131 146 0
118 133 0
122 135 0
126 141 0
131 145 0
139 152 0
142 156 0
128 140 0
132 146 0
136 150 0
136 146 0
134 147 0
133 145 0
136 151 0
127 139 0
129 142 0
129 140 0
126 140 0
137 151 0
121 130 0
130 143 0
126 139 0
126 138 0
133 144 0
117 129 0
121 131 0
121 128 0
129 140 0
133 142 0
123 133 0
120 130 0
129 137 0
124 133 0
118 126 0
128 136 0
142 151 0
131 140 0
121 129 0
125 130 0
116 123 0
126 134 0
126 131 0
135 144 0
130 136 0
115 120 0
121 124 0
116 116 0
117 119 0
132 137 0
122 126 0
114 115 0
114 114 0
119 120 0
124 126 0
129 130 0
121 123 0
115 117 0
124 126 0
110 110 0
108 108 0
115 115 0
110 110 0
104 104 0
114 111 0
121 118 0
122 121 0
109 106 0
109 106 0
110 106 0
107 103 0
110 104 0
109 105 0
109 103 0
111 105 0
99 93 0
111 105 0
120 115 0
122 121 0
117 115 0
114 110 0
118 115 0
113 109 0
128 125 0
129 125 0
119 116 0
122 120 0
115 113 0
120 121 0
118 118 0
122 121 0
130 129 0
131 132 0
130 132 0
129 130 0
128 126 0
132 134 0
125 125 0
135 138 0
139 143 0
138 141 0
135 136 0
136 138 0
140 143 0
141 145 0
149 156 0
139 142 0
153 161 0
150 155 0
142 145 0
146 151 0
141 146 0
150 157 0
154 162 0
151 158 0
154 163 0
156 165 0
151 160 0
156 165 0
158 167 0
156 169 0
158 170 0
155 166 0
150 162 0
150 160 0
158 168 0
161 173 0
159 174 0
160 172 0
164 179 0
160 174 0
159 175 0
163 178 0
163 177 0
161 175 0
163 178 0
164 180 0
161 177 0
161 175 0
165 180 0
161 178 0
161 178 0
164 180 0
174 197 0
173 195 0
173 196 0
174 197 0
177 199 0
173 195 0
174 197 0
175 197 0
175 198 0
175 198 0
173 197 0
174 197 0
175 198 0
176 198 0
173 197 0
173 197 0
173 197 0
174 197 0
173 196 0
174 198 0
175 198 0
175 198 0
174 197 0
173 197 0
174 197 0
173 197 0
172 196 0
172 195 0
174 197 0
174 197 0
173 197 0
171 196 0
172 197 0
170 195 0
171 196 0
171 196 0
173 197 0
171 196 0
171 196 0
171 196 0
172 197 0
170 196 0
169 195 0
170 195 0
171 196 0
169 195 0
168 195 0
168 194 0
168 194 0
168 195 0
169 195 0
169 195 0
168 194 0
168 194 0
168 194 0
167 193 0
167 194 0
166 193 0
168 194 0
168 194 0
167 194 0
168 194 0
167 194 0
168 195 0
168 194 0
166 194 0
166 193 0
166 193 0
164 192 0
164 192 0
165 192 0
165 192 0
163 190 0
167 193 0
167 193 0
166 192 0
167 193 0
164 191 0
164 191 0
168 194 0
164 191 0
165 191 0
165 192 0
163 188 0
168 193 0
164 189 0
164 190 0
167 192 0
164 190 0
166 192 0
160 185 0
160 185 0
166 192 0
160 186 0
161 186 0
167 191 0
161 185 0
167 192 0
159 183 0
163 188 0
164 188 0
163 187 0
166 190 0
161 186 0
165 189 0
166 189 0
162 187 0
156 180 0
162 185 0
159 182 0
167 190 0
160 184 0
161 183 0
157 180 0
162 185 0
163 185 0
156 179 0
160 183 0
161 185 0
163 187 0
159 182 0
153 175 0
159 182 0
157 179 0
161 184 0
161 184 0
155 177 0
154 178 0
153 175 0
155 177 0
163 186 0
157 179 0
156 178 0
157 179 0
155 176 0
149 170 0
155 177 0
151 173 0
154 175 0
146 168 0
146 168 0
151 173 0
152 172 0
152 173 0
146 168 0
152 174 0
151 172 0
146 168 0
141 161 0
140 161 0
141 162 0
137 158 0
155 177 0
143 165 0
138 159 0
145 167 0
147 167 0
148 169 0
149 171 0
139 159 0
136 156 0
138 158 0
140 161 0
146 167 0
145 166 0
142 163 0
142 163 0
135 156 0
134 154 0
130 150 0
134 153 0
133 154 0
134 153 0
140 161 0
127 148 0
142 161 0
131 150 0
121 139 0
133 153 0
133 152 0
143 164 0
137 157 0
130 150 0
127 147 0
125 144 0
116 135 0
132 152 0
124 143 0
132 150 0
116 135 0
125 144 0
131 150 0
125 144 0
132 151 0
131 149 0
132 153 0
125 145 0
119 138 0
137 157 0
111 130 0
125 143 0
130 148 0
125 145 0
121 139 0
126 145 0
129 145 0
128 146 0
119 138 0
118 135 0
108 125 0
126 144 0
123 142 0
132 149 0
131 149 0
114 131 0
130 146 0
119 135 0
134 152 0
124 141 0
134 151 0
120 136 0
113 130 0
118 135 0
129 147 0
123 140 0
120 137 0
116 131 0
127 145 0
130 149 0
131 150 0
123 138 0
131 148 0
117 133 0
125 141 0
139 156 0
122 138 0
127 147 0
117 134 0
134 151 0
135 152 0
123 141 0
118 135 0
131 150 0
111 127 0
127 143 0
123 139 0
135 154 0
138 156 0
127 143 0
130 147 0
127 143 0
118 132 0
118 134 0
136 151 0
125 143 0
129 145 0
123 140 0
127 142 0
140 156 0
133 146 0
127 142 0
128 143 0
130 146 0
133 150 0
134 151 0
133 148 0
121 135 0
132 143 0
129 141 0
135 149 0
138 153 0
141 153 0
135 148 0
123 136 0
140 155 0
132 145 0
124 136 0
125 136 0
129 143 0
136 149 0
136 149 0
130 140 0
123 133 0
135 147 0
121 134 0
131 144 0
141 154 0
136 147 0
128 137 0
129 136 0
139 152 0
123 133 0
126 134 0
125 135 0
131 138 0
123 130 0
125 135 0
128 133 0
126 134 0
124 130 0
139 147 0
123 129 0
122 128 0
126 131 0
117 123 0
133 139 0
128 133 0
123 125 0
130 134 0
127 130 0
115 118 0
124 126 0
124 123 0
124 129 0
120 122 0
120 123 0
128 131 0
116 116 0
122 123 0
113 110 0
122 121 0
103 101 0
120 119 0
115 111 0
112 111 0
112 112 0
118 117 0
114 110 0
115 113 0
121 122 0
112 111 0
106 100 0
117 115 0
117 114 0
110 106 0
112 110 0
127 122 0
121 120 0
122 119 0
119 116 0
112 107 0
124 122 0
114 115 0
120 118 0
117 112 0
127 126 0
126 123 0
125 124 0
126 126 0
128 124 0
130 133 0
128 128 0
139 141 0
130 131 0
135 135 0
133 133 0
134 134 0
137 141 0
138 140 0
138 143 0
131 134 0
144 147 0
143 148 0
140 147 0
143 148 0
145 151 0
148 157 0
152 160 0
150 155 0
143 147 0
151 158 0
150 156 0
150 157 0
150 157 0
147 156 0
155 164 0
153 160 0
157 168 0
156 166 0
157 165 0
153 161 0
160 170 0
155 167 0
162 174 0
158 171 0
158 171 0
154 167 0
155 166 0
157 169 0
156 167 0
158 170 0
160 175 0
155 168 0
159 175 0
164 180 0
159 172 0
158 172 0
163 178 0
164 178 0
166 183 0
176 198 0
174 197 0
173 196 0
175 198 0
174 197 0
175 198 0
173 196 0
175 198 0
174 198 0
174 197 0
174 197 0
175 197 0
174 197 0
174 197 0
174 197 0
174 197 0
175 198 0
173 196 0
175 198 0
174 197 0
173 197 0
174 198 0
172 196 0
173 197 0
173 197 0
173 197 0
173 197 0
173 196 0
173 197 0
170 195 0
170 195 0
171 196 0
171 196 0
172 197 0
170 195 0
171 196 0
171 196 0
172 197 0
170 195 0
171 196 0
172 197 0
170 196 0
171 196 0
169 195 0
169 195 0
168 194 0
167 194 0
169 195 0
170 195 0
169 195 0
171 196 0
168 194 0
169 195 0
169 195 0
169 195 0
169 195 0
169 195 0
169 194 0
166 193 0
168 194 0
167 194 0
167 194 0
168 194 0
166 192 0
167 193 0
166 192 0
167 193 0
167 194 0
168 195 0
166 193 0
167 192 0
166 192 0
168 195 0
163 190 0
164 191 0
167 194 0
165 191 0
169 194 0
165 191 0
165 190 0
167 193 0
169 195 0
163 189 0
164 190 0
163 189 0
167 193 0
165 190 0
167 192 0
164 190 0
165 190 0
166 190 0
164 189 0
165 190 0
158 183 0
167 192 0
162 186 0
160 184 0
169 193 0
166 190 0
161 185 0
162 186 0
164 188 0
156 179 0
162 185 0
159 182 0
158 181 0
166 189 0
158 181 0
159 183 0
164 188 0
155 178 0
158 180 0
155 179 0
163 186 0
163 186 0
160 183 0
158 181 0
160 183 0
162 185 0
152 174 0
148 171 0
155 178 0
162 184 0
160 183 0
154 177 0
156 179 0
159 182 0
158 180 0
156 179 0
162 184 0
147 169 0
151 173 0
162 183 0
160 182 0
153 175 0
158 181 0
152 174 0
158 180 0
147 169 0
150 172 0
153 175 0
153 175 0
148 169 0
148 170 0
151 172 0
149 171 0
143 165 0
147 169 0
143 165 0
150 171 0
154 175 0
143 165 0
147 168 0
146 167 0
153 175 0
147 167 0
143 163 0
133 154 0
137 158 0
150 171 0
136 157 0
140 161 0
139 159 0
137 157 0
138 158 0
140 160 0
139 159 0
142 162 0
136 156 0
134 154 0
140 160 0
133 153 0
133 155 0
135 154 0
144 163 0
135 155 0
129 150 0
133 153 0
126 146 0
141 160 0
127 148 0
125 142 0
138 158 0
131 151 0
128 148 0
129 149 0
134 153 0
127 146 0
128 149 0
136 154 0
125 144 0
133 153 0
129 148 0
125 143 0
131 150 0
126 145 0
118 138 0
121 139 0
127 146 0
120 139 0
124 142 0
120 138 0
124 144 0
119 137 0
119 138 0
115 133 0
121 141 0
119 136 0
112 128 0
117 136 0
122 140 0
127 146 0
130 147 0
131 149 0
128 145 0
125 143 0
130 147 0
107 126 0
138 156 0
130 147 0
125 143 0
134 153 0
128 146 0
134 154 0
129 146 0
132 151 0
127 145 0
128 145 0
124 141 0
123 140 0
132 151 0
120 138 0
128 144 0
122 139 0
132 151 0
128 145 0
127 145 0
128 145 0
133 148 0
128 145 0
131 148 0
126 142 0
131 149 0
141 160 0
132 150 0
121 137 0
125 140 0
135 152 0
127 144 0
132 148 0
133 149 0
131 146 0
125 140 0
130 149 0
135 152 0
129 145 0
136 153 0
145 162 0
133 148 0
133 149 0
140 155 0
132 150 0
142 158 0
125 140 0
130 146 0
142 157 0
138 152 0
124 136 0
125 140 0
131 143 0
137 151 0
133 146 0
133 147 0
130 145 0
139 152 0
135 149 0
130 144 0
132 146 0
134 146 0
131 143 0
131 144 0
135 148 0
130 141 0
135 148 0
138 151 0
128 140 0
130 143 0
122 131 0
130 142 0
130 142 0
132 142 0
131 140 0
131 139 0
132 142 0
121 132 0
120 125 0
136 144 0
127 134 0
127 135 0
131 138 0
135 142 0
133 141 0
128 134 0
130 138 0
126 133 0
126 132 0
129 133 0
120 124 0
118 123 0
117 118 0
129 133 0
121 122 0
119 121 0
120 125 0
129 131 0
127 131 0
130 133 0
125 126 0
118 120 0
122 123 0
115 116 0
126 127 0
127 127 0
128 129 0
126 128 0
127 130 0
119 116 0
120 121 0
125 128 0
113 109 0
119 119 0
116 117 0
117 117 0
125 124 0
124 123 0
125 124 0
127 124 0
124 121 0
112 106 0
113 110 0
124 121 0
111 107 0
120 116 0
120 117 0
125 123 0
124 124 0
118 116 0
117 110 0
137 136 0
125 125 0
129 128 0
139 141 0
129 128 0
121 119 0
140 142 0
139 141 0
142 141 0
140 144 0
142 145 0
129 130 0
139 143 0
146 152 0
143 148 0
136 140 0
145 150 0
146 150 0
142 145 0
144 150 0
147 154 0
146 152 0
148 155 0
146 153 0
148 155 0
150 156 0
155 163 0
148 155 0
145 156 0
156 165 0
157 165 0
151 159 0
150 158 0
164 176 0
155 163 0
158 168 0
157 169 0
159 171 0
155 166 0
152 162 0
155 168 0
160 172 0
160 173 0
156 169 0
160 174 0
160 176 0
161 173 0
159 174 0
160 174 0
155 169 0
159 173 0
164 177 0
173 197 0
174 197 0
174 198 0
174 198 0
175 198 0
175 198 0
173 197 0
174 197 0
173 196 0
174 197 0
173 196 0
173 196 0
174 197 0
174 198 0
176 198 0
174 197 0
174 198 0
175 198 0
173 197 0
173 197 0
173 197 0
172 196 0
171 195 0
173 197 0
173 197 0
172 197 0
171 195 0
170 195 0
171 196 0
172 197 0
170 196 0
172 196 0
172 196 0
171 196 0
171 196 0
171 196 0
170 196 0
171 196 0
172 197 0
171 196 0
171 196 0
170 196 0
171 196 0
170 195 0
170 195 0
168 194 0
169 195 0
170 196 0
169 194 0
169 195 0
168 194 0
168 194 0
167 193 0
168 194 0
168 194 0
168 193 0
169 195 0
167 193 0
168 195 0
167 194 0
167 193 0
168 195 0
169 195 0
165 192 0
168 194 0
166 193 0
167 193 0
166 193 0
168 194 0
170 196 0
168 194 0
168 194 0
167 192 0
168 194 0
167 191 0
166 192 0
167 192 0
166 191 0
163 188 0
167 192 0
167 193 0
165 190 0
164 190 0
164 189 0
164 189 0
165 191 0
167 192 0
167 192 0
166 190 0
168 193 0
167 192 0
164 188 0
162 187 0
162 187 0
161 186 0
158 183 0
162 186 0
164 189 0
162 186 0
163 187 0
161 185 0
164 188 0
165 188 0
162 186 0
155 178 0
165 188 0
168 191 0
162 185 0
157 180 0
158 181 0
166 189 0
164 187 0
162 185 0
159 181 0
152 175 0
159 181 0
158 180 0
157 180 0
158 180 0
161 184 0
158 181 0
152 174 0
159 182 0
155 178 0
156 179 0
157 179 0
155 178 0
155 177 0
161 183 0
158 180 0
159 181 0
149 171 0
161 183 0
158 181 0
157 179 0
158 180 0
150 172 0
155 177 0
154 176 0
156 179 0
143 164 0
146 167 0
151 173 0
147 169 0
155 178 0
147 169 0
146 168 0
150 172 0
149 171 0
147 169 0
146 167 0
145 166 0
144 165 0
147 168 0
139 160 0
143 164 0
144 166 0
150 171 0
143 164 0
148 169 0
144 165 0
144 165 0
125 146 0
140 160 0
137 157 0
135 156 0
133 154 0
135 154 0
135 156 0
152 174 0
140 160 0
135 155 0
134 154 0
128 149 0
133 152 0
149 168 0
132 152 0
144 164 0
124 144 0
118 139 0
134 153 0
139 159 0
119 138 0
138 157 0
132 152 0
131 151 0
130 149 0
134 153 0
137 156 0
127 146 0
134 153 0
131 150 0
127 147 0
129 148 0
133 152 0
127 146 0
125 144 0
130 148 0
125 145 0
133 151 0
124 142 0
130 151 0
122 141 0
126 144 0
122 140 0
121 140 0
127 145 0
131 148 0
124 142 0
131 150 0
123 141 0
111 129 0
130 147 0
128 146 0
111 131 0
120 139 0
122 141 0
132 151 0
112 131 0
128 146 0
132 151 0
122 140 0
125 144 0
131 150 0
121 141 0
115 132 0
126 144 0
130 147 0
123 141 0
129 148 0
140 156 0
131 151 0
122 139 0
126 143 0
127 144 0
128 147 0
131 147 0
116 133 0
131 150 0
132 149 0
131 149 0
125 142 0
133 151 0
135 153 0
142 159 0
126 143 0
133 150 0
127 145 0
131 148 0
136 152 0
142 160 0
130 145 0
130 147 0
131 147 0
132 148 0
135 150 0
137 151 0
140 154 0
131 146 0
134 151 0
128 141 0
133 150 0
133 150 0
128 142 0
138 153 0
133 147 0
136 151 0
134 152 0
137 151 0
134 150 0
135 150 0
133 149 0
142 157 0
144 159 0
127 141 0
135 148 0
133 148 0
125 140 0
123 136 0
130 142 0
138 151 0
126 135 0
136 149 0
130 144 0
130 142 0
127 140 0
132 141 0
131 142 0
132 144 0
141 152 0
122 132 0
125 132 0
132 142 0
119 128 0
126 137 0
123 131 0
136 147 0
125 131 0
123 133 0
121 125 0
121 131 0
130 137 0
127 133 0
135 144 0
129 139 0
133 140 0
125 129 0
127 132 0
128 132 0
130 135 0
140 143 0
124 128 0
126 132 0
134 140 0
135 138 0
126 130 0
123 126 0
124 129 0
131 131 0
123 123 0
124 127 0
123 124 0
123 126 0
139 143 0
113 112 0
129 131 0
121 119 0
120 121 0
125 126 0
124 122 0
126 128 0
124 126 0
123 120 0
119 119 0
121 121 0
123 124 0
119 118 0
109 104 0
119 118 0
117 115 0
126 123 0
123 121 0
118 115 0
128 127 0
121 121 0
127 128 0
121 117 0
123 122 0
125 124 0
124 122 0
129 128 0
135 136 0
137 139 0
130 132 0
129 125 0
131 132 0
141 141 0
134 135 0
142 145 0
139 143 0
137 138 0
147 151 0
147 151 0
135 137 0
142 147 0
144 148 0
137 141 0
146 150 0
149 156 0
148 153 0
146 153 0
141 147 0
145 150 0
147 155 0
149 156 0
151 156 0
149 158 0
157 168 0
146 152 0
159 171 0
152 160 0
155 165 0
158 171 0
157 169 0
156 166 0
159 167 0
159 172 0
156 167 0
158 171 0
158 170 0
158 170 0
159 173 0
161 173 0
160 172 0
160 173 0
164 181 0
162 177 0
153 164 0
156 170 0
161 176 0
175 198 0
174 197 0
174 198 0
173 197 0
174 196 0
175 198 0
173 197 0
174 197 0
172 195 0
172 196 0
174 197 0
174 197 0
173 197 0
174 198 0
171 195 0
172 196 0
174 198 0
173 197 0
173 197 0
173 197 0
172 196 0
172 196 0
171 195 0
174 198 0
173 197 0
173 197 0
173 197 0
173 197 0
172 197 0
172 197 0
171 196 0
170 196 0
173 197 0
172 196 0
173 197 0
171 196 0
171 196 0
170 196 0
169 194 0
171 196 0
169 194 0
171 196 0
169 194 0
170 195 0
170 196 0
168 194 0
171 196 0
170 195 0
168 195 0
170 195 0
168 194 0
168 194 0
168 194 0
167 194 0
169 195 0
167 193 0
168 194 0
168 195 0
168 194 0
168 194 0
167 193 0
168 194 0
167 192 0
168 194 0
167 193 0
165 191 0
168 194 0
164 189 0
164 191 0
165 192 0
169 194 0
169 194 0
165 191 0
168 193 0
167 193 0
164 190 0
163 190 0
167 192 0
168 194 0
162 188 0
165 191 0
165 190 0
165 189 0
166 192 0
160 185 0
164 190 0
164 189 0
163 188 0
160 184 0
165 190 0
167 191 0
166 190 0
161 185 0
162 186 0
163 187 0
164 188 0
162 186 0
161 184 0
165 188 0
161 184 0
166 191 0
160 184 0
164 188 0
159 182 0
162 185 0
160 184 0
165 188 0
158 182 0
157 180 0
162 186 0
158 182 0
164 187 0
160 184 0
160 182 0
162 185 0
161 184 0
161 184 0
159 182 0
161 183 0
158 180 0
162 184 0
153 176 0
160 182 0
157 180 0
163 186 0
155 178 0
156 178 0
158 180 0
154 176 0
153 174 0
157 179 0
162 185 0
163 186 0
155 177 0
152 173 0
151 174 0
151 173 0
151 173 0
155 177 0
150 172 0
149 171 0
145 167 0
145 167 0
158 180 0
152 174 0
144 166 0
144 166 0
150 171 0
149 170 0
147 169 0
143 164 0
147 168 0
147 169 0
150 171 0
149 170 0
151 172 0
142 163 0
145 165 0
136 158 0
148 168 0
137 157 0
149 169 0
136 157 0
143 164 0
148 168 0
145 165 0
148 169 0
135 155 0
132 154 0
133 153 0
137 158 0
139 161 0
134 155 0
130 151 0
132 153 0
127 145 0
126 146 0
131 152 0
129 148 0
142 162 0
141 161 0
131 149 0
128 148 0
129 149 0
136 157 0
120 140 0
123 142 0
124 144 0
134 153 0
123 142 0
129 148 0
132 150 0
133 154 0
132 151 0
130 148 0
142 161 0
129 148 0
122 142 0
132 152 0
136 155 0
130 150 0
132 152 0
126 145 0
122 140 0
131 150 0
132 149 0
136 154 0
142 161 0
132 151 0
136 155 0
127 147 0
132 152 0
134 152 0
120 140 0
128 147 0
131 149 0
129 147 0
131 149 0
126 144 0
140 159 0
140 158 0
123 141 0
130 148 0
130 147 0
137 155 0
121 137 0
131 149 0
129 146 0
130 147 0
127 144 0
130 148 0
121 139 0
130 149 0
133 148 0
128 144 0
137 156 0
123 140 0
126 144 0
135 152 0
134 153 0
122 139 0
126 145 0
128 144 0
134 152 0
138 156 0
130 145 0
132 150 0
132 150 0
137 153 0
137 154 0
128 144 0
143 160 0
130 145 0
137 154 0
133 151 0
129 144 0
135 152 0
120 133 0
135 154 0
135 151 0
136 152 0
133 149 0
136 151 0
139 156 0
130 145 0
135 149 0
137 151 0
135 150 0
137 152 0
140 157 0
135 151 0
131 145 0
134 149 0
126 139 0
133 148 0
127 140 0
122 136 0
138 154 0
144 160 0
134 149 0
129 143 0
135 149 0
132 147 0
137 151 0
131 143 0
134 145 0
136 148 0
129 142 0
137 147 0
128 142 0
141 153 0
131 141 0
127 138 0
132 142 0
125 133 0
124 135 0
125 136 0
134 141 0
124 127 0
135 144 0
129 138 0
127 135 0
130 135 0
126 135 0
123 126 0
125 133 0
130 133 0
119 123 0
129 137 0
127 134 0
122 127 0
135 140 0
119 123 0
129 134 0
121 129 0
124 127 0
126 131 0
126 131 0
132 136 0
131 135 0
128 130 0
122 124 0
124 124 0
123 126 0
121 122 0
132 135 0
119 118 0
111 112 0
134 134 0
126 128 0
128 130 0
126 127 0
132 135 0
124 122 0
133 133 0
114 113 0
121 118 0
129 130 0
128 130 0
120 117 0
124 125 0
129 131 0
128 127 0
126 125 0
119 117 0
129 130 0
127 125 0
132 134 0
123 124 0
121 119 0
131 131 0
128 129 0
138 139 0
129 132 0
139 142 0
135 138 0
136 137 0
134 134 0
139 141 0
134 134 0
140 143 0
138 141 0
134 135 0
143 142 0
149 154 0
145 152 0
143 148 0
149 155 0
149 155 0
144 148 0
142 145 0
140 146 0
151 158 0
153 160 0
154 160 0
149 157 0
159 170 0
154 166 0
145 151 0
149 155 0
151 163 0
158 167 0
150 157 0
154 166 0
160 168 0
156 166 0
156 167 0
154 166 0
155 165 0
159 172 0
152 163 0
160 171 0
160 173 0
158 170 0
163 176 0
159 171 0
165 178 0
158 171 0
165 179 0
162 176 0
176 198 0
175 198 0
174 198 0
172 196 0
175 198 0
174 198 0
172 196 0
174 198 0
172 196 0
175 198 0
174 198 0
172 196 0
173 197 0
174 197 0
173 197 0
172 196 0
175 198 0
174 198 0
172 197 0
174 197 0
172 196 0
172 196 0
173 197 0
173 197 0
171 196 0
173 197 0
173 197 0
172 196 0
173 197 0
171 196 0
173 197 0
171 196 0
172 196 0
172 196 0
172 197 0
172 196 0
171 196 0
170 195 0
171 196 0
170 196 0
168 194 0
171 196 0
171 196 0
171 195 0
170 195 0
170 195 0
169 194 0
170 196 0
168 195 0
170 196 0
168 194 0
167 193 0
168 194 0
168 194 0
169 194 0
167 194 0
168 194 0
170 196 0
169 195 0
165 191 0
167 194 0
168 193 0
168 194 0
168 194 0
168 194 0
170 195 0
169 195 0
168 194 0
164 190 0
167 193 0
169 194 0
167 192 0
165 190 0
162 188 0
165 190 0
166 190 0
167 192 0
164 190 0
165 189 0
169 194 0
168 192 0
161 186 0
165 190 0
169 194 0
167 192 0
163 187 0
165 190 0
162 186 0
165 190 0
166 191 0
161 186 0
164 187 0
160 183 0
163 187 0
155 178 0
163 187 0
163 186 0
167 191 0
165 189 0
165 189 0
161 185 0
162 186 0
157 179 0
161 185 0
165 188 0
161 184 0
159 182 0
163 186 0
165 189 0
160 184 0
164 187 0
162 184 0
157 180 0
160 183 0
161 183 0
157 180 0
157 180 0
161 184 0
161 184 0
158 180 0
160 183 0
157 180 0
160 183 0
154 177 0
159 181 0
159 180 0
149 172 0
157 178 0
153 176 0
153 175 0
157 180 0
158 180 0
150 173 0
156 179 0
156 178 0
153 175 0
150 172 0
150 172 0
158 180 0
153 176 0
145 166 0
151 174 0
151 173 0
149 170 0
158 179 0
145 166 0
153 174 0
148 170 0
153 174 0
155 175 0
147 168 0
147 168 0
146 167 0
156 177 0
145 166 0
143 164 0
151 173 0
140 162 0
136 157 0
143 164 0
142 162 0
139 160 0
145 165 0
144 165 0
149 171 0
138 160 0
137 158 0
138 158 0
144 165 0
133 153 0
139 160 0
137 157 0
134 154 0
140 160 0
138 158 0
140 160 0
148 169 0
142 162 0
145 167 0
126 147 0
134 154 0
121 140 0
121 139 0
138 157 0
134 154 0
129 149 0
140 161 0
127 146 0
134 153 0
132 151 0
136 155 0
131 150 0
135 155 0
137 157 0
129 148 0
123 144 0
131 150 0
135 156 0
136 155 0
133 152 0
124 142 0
118 138 0
132 151 0
114 133 0
133 152 0
121 139 0
133 152 0
129 148 0
133 153 0
131 148 0
133 151 0
128 147 0
126 144 0
124 143 0
129 149 0
140 160 0
131 150 0
132 150 0
140 159 0
128 146 0
131 150 0
135 154 0
136 155 0
120 138 0
130 147 0
132 150 0
134 153 0
132 150 0
138 156 0
128 145 0
128 146 0
138 157 0
125 143 0
136 154 0
130 148 0
133 150 0
135 152 0
129 146 0
129 145 0
134 152 0
131 149 0
131 150 0
130 148 0
134 152 0
133 151 0
137 155 0
129 146 0
134 154 0
139 158 0
135 153 0
137 154 0
130 148 0
132 150 0
139 156 0
134 150 0
115 133 0
135 148 0
129 147 0
128 144 0
132 149 0
135 150 0
136 150 0
136 151 0
142 159 0
132 149 0
128 143 0
134 149 0
138 155 0
135 153 0
140 156 0
134 148 0
125 140 0
132 146 0
140 155 0
145 161 0
126 142 0
141 155 0
134 149 0
132 144 0
132 144 0
136 152 0
128 141 0
133 147 0
136 148 0
141 155 0
142 157 0
132 141 0
131 143 0
146 160 0
129 139 0
133 145 0
129 141 0
134 144 0
129 141 0
135 146 0
128 140 0
136 145 0
138 149 0
135 145 0
134 144 0
136 144 0
132 142 0
131 141 0
133 144 0
119 123 0
132 142 0
125 132 0
139 147 0
126 133 0
134 142 0
127 136 0
136 142 0
127 132 0
125 128 0
138 144 0
136 146 0
133 140 0
138 143 0
130 137 0
127 132 0
118 120 0
120 121 0
137 140 0
123 122 0
115 120 0
119 121 0
127 129 0
127 131 0
123 124 0
129 132 0
130 134 0
123 126 0
129 132 0
125 126 0
121 120 0
126 125 0
119 118 0
120 118 0
130 131 0
132 131 0
138 140 0
126 126 0
129 130 0
133 132 0
131 132 0
126 127 0
134 134 0
135 137 0
118 121 0
131 133 0
137 138 0
138 137 0
127 127 0
129 131 0
137 141 0
128 131 0
137 140 0
133 134 0
139 143 0
141 147 0
144 147 0
141 144 0
140 142 0
141 141 0
142 147 0
142 147 0
145 150 0
140 142 0
138 144 0
146 152 0
150 156 0
146 151 0
143 146 0
147 154 0
142 149 0
150 156 0
155 163 0
152 161 0
148 153 0
154 161 0
153 163 0
153 161 0
155 167 0
160 169 0
152 161 0
148 155 0
155 165 0
157 167 0
158 169 0
156 169 0
152 161 0
152 160 0
156 168 0
159 169 0
160 171 0
158 172 0
161 175 0
165 179 0
161 174 0
160 174 0
175 198 0
172 195 0
175 197 0
175 198 0
175 198 0
173 197 0
175 198 0
174 197 0
176 198 0
173 196 0
174 198 0
173 197 0
174 198 0
174 197 0
173 197 0
172 196 0
172 196 0
173 197 0
175 198 0
172 197 0
173 197 0
173 197 0
172 196 0
173 197 0
173 197 0
172 197 0
173 197 0
172 196 0
172 196 0
172 196 0
170 195 0
172 196 0
170 196 0
171 196 0
171 196 0
170 195 0
171 196 0
172 196 0
171 196 0
170 195 0
171 196 0
169 194 0
169 194 0
169 194 0
170 196 0
170 195 0
169 195 0
169 195 0
171 196 0
168 193 0
172 197 0
169 195 0
168 194 0
168 194 0
170 195 0
169 194 0
170 195 0
168 194 0
168 194 0
167 193 0
168 194 0
168 193 0
169 194 0
169 194 0
169 194 0
169 194 0
165 192 0
167 193 0
166 191 0
169 194 0
169 195 0
168 194 0
164 189 0
169 194 0
166 191 0
166 191 0
167 193 0
166 191 0
168 193 0
166 191 0
163 188 0
169 193 0
164 189 0
167 191 0
166 190 0
168 192 0
168 192 0
166 190 0
167 191 0
165 189 0
165 189 0
165 188 0
167 192 0
159 183 0
166 189 0
161 185 0
160 184 0
166 190 0
163 186 0
167 189 0
169 192 0
163 185 0
168 191 0
165 188 0
164 188 0
157 179 0
164 187 0
161 184 0
165 188 0
164 187 0
161 183 0
155 177 0
165 188 0
160 183 0
161 183 0
160 183 0
159 182 0
158 180 0
156 178 0
164 187 0
155 177 0
160 183 0
156 179 0
150 173 0
160 182 0
165 186 0
151 174 0
147 168 0
153 174 0
158 180 0
152 174 0
161 182 0
152 173 0
156 178 0
159 181 0
160 182 0
153 175 0
152 173 0
156 178 0
163 185 0
154 176 0
150 172 0
146 168 0
156 177 0
146 167 0
146 167 0
141 164 0
147 167 0
155 176 0
160 182 0
144 165 0
153 175 0
144 166 0
139 161 0
156 177 0
152 173 0
151 172 0
146 167 0
141 163 0
144 165 0
143 164 0
147 168 0
148 169 0
138 159 0
139 160 0
137 157 0
138 159 0
145 167 0
141 162 0
146 167 0
149 170 0
141 161 0
142 162 0
140 161 0
142 163 0
135 155 0
142 162 0
141 163 0
135 154 0
139 160 0
138 158 0
139 158 0
132 151 0
142 163 0
135 155 0
135 155 0
138 158 0
120 140 0
130 149 0
140 160 0
130 148 0
131 151 0
133 153 0
125 145 0
134 154 0
130 150 0
135 156 0
135 156 0
130 149 0
122 140 0
137 157 0
135 152 0
122 142 0
124 143 0
131 151 0
131 149 0
139 157 0
132 150 0
117 136 0
135 153 0
119 138 0
128 147 0
134 154 0
135 154 0
135 153 0
131 151 0
129 148 0
130 148 0
131 151 0
139 158 0
129 147 0
133 152 0
135 154 0
142 162 0
132 149 0
125 143 0
125 145 0
124 142 0
139 159 0
128 146 0
130 149 0
137 154 0
135 153 0
135 151 0
129 147 0
133 153 0
134 151 0
139 157 0
136 155 0
127 144 0
140 158 0
133 151 0
141 159 0
132 148 0
132 149 0
128 145 0
132 149 0
139 156 0
131 149 0
135 150 0
131 147 0
135 153 0
131 147 0
130 145 0
139 155 0
135 154 0
133 149 0
139 156 0
134 150 0
144 159 0
136 153 0
148 165 0
141 159 0
143 160 0
140 158 0
137 152 0
140 155 0
141 156 0
134 149 0
142 158 0
134 148 0
138 154 0
134 149 0
128 141 0
138 153 0
134 148 0
134 147 0
137 152 0
130 139 0
129 144 0
135 147 0
142 157 0
137 150 0
144 158 0
135 149 0
141 153 0
125 138 0
139 150 0
136 146 0
137 151 0
141 156 0
135 146 0
132 144 0
137 150 0
140 151 0
130 139 0
137 146 0
135 144 0
129 139 0
142 150 0
128 139 0
131 141 0
130 141 0
129 139 0
136 144 0
132 141 0
128 136 0
121 129 0
125 128 0
133 140 0
127 134 0
122 127 0
129 134 0
133 137 0
131 136 0
139 145 0
125 128 0
132 139 0
139 144 0
125 130 0
127 133 0
134 137 0
130 134 0
128 130 0
127 130 0
138 141 0
141 145 0
138 141 0
138 143 0
138 138 0
138 141 0
128 130 0
134 135 0
129 133 0
120 118 0
125 127 0
124 126 0
131 131 0
127 130 0
134 136 0
118 113 0
126 127 0
132 134 0
133 131 0
131 132 0
135 135 0
129 130 0
139 142 0
132 132 0
134 134 0
126 124 0
133 132 0
127 126 0
144 146 0
141 144 0
138 142 0
142 144 0
138 141 0
135 137 0
138 138 0
137 137 0
135 139 0
140 144 0
139 144 0
139 142 0
144 147 0
143 149 0
140 144 0
138 143 0
140 146 0
142 145 0
141 145 0
151 159 0
142 148 0
147 151 0
145 152 0
146 152 0
146 154 0
154 160 0
151 158 0
148 155 0
158 167 0
147 156 0
153 160 0
155 160 0
154 163 0
152 161 0
157 167 0
148 153 0
153 162 0
151 160 0
160 172 0
153 161 0
154 165 0
162 177 0
160 174 0
159 172 0
157 168 0
154 166 0
162 177 0
174 197 0
176 199 0
173 196 0
173 197 0
174 198 0
176 198 0
174 197 0
174 197 0
175 198 0
174 197 0
174 197 0
174 198 0
174 198 0
174 198 0
173 197 0
174 197 0
173 197 0
174 197 0
173 197 0
173 197 0
173 197 0
173 197 0
172 197 0
172 196 0
172 196 0
173 197 0
172 196 0
173 197 0
171 195 0
173 197 0
172 196 0
170 196 0
171 196 0
173 197 0
172 197 0
170 195 0
171 196 0
171 195 0
170 194 0
170 195 0
171 196 0
171 196 0
168 194 0
167 192 0
169 194 0
169 194 0
171 196 0
169 194 0
170 195 0
169 195 0
170 195 0
169 195 0
166 192 0
167 193 0
167 193 0
170 195 0
169 195 0
168 193 0
170 195 0
167 193 0
168 193 0
168 194 0
167 192 0
170 195 0
169 194 0
166 191 0
167 192 0
169 193 0
168 193 0
167 192 0
167 192 0
168 192 0
166 191 0
169 194 0
167 192 0
166 189 0
166 191 0
164 189 0
168 192 0
164 189 0
165 189 0
163 188 0
166 190 0
167 191 0
168 192 0
164 189 0
166 189 0
164 188 0
167 190 0
161 184 0
167 191 0
165 189 0
164 188 0
165 189 0
167 191 0
167 190 0
166 189 0
162 186 0
159 182 0
165 188 0
161 184 0
159 182 0
161 184 0
159 182 0
163 186 0
157 180 0
160 183 0
162 185 0
157 179 0
158 181 0
164 187 0
163 186 0
159 182 0
158 180 0
159 182 0
161 183 0
160 183 0
160 182 0
157 180 0
152 175 0
163 185 0
152 174 0
159 182 0
157 179 0
159 182 0
159 181 0
156 178 0
149 171 0
158 180 0
154 175 0
155 177 0
152 174 0
156 179 0
157 179 0
152 173 0
158 180 0
151 173 0
152 175 0
154 175 0
157 179 0
151 173 0
149 172 0
154 176 0
157 179 0
149 169 0
148 169 0
150 172 0
150 172 0
142 163 0
151 171 0
146 168 0
151 172 0
150 171 0
146 167 0
151 172 0
143 163 0
148 168 0
148 169 0
144 165 0
143 165 0
147 168 0
142 162 0
141 161 0
143 164 0
144 166 0
145 167 0
142 163 0
144 165 0
141 162 0
138 158 0
139 160 0
143 163 0
142 164 0
151 172 0
147 167 0
132 151 0
142 163 0
143 163 0
138 159 0
134 154 0
138 159 0
135 154 0
139 159 0
145 167 0
138 158 0
141 160 0
143 163 0
141 163 0
133 153 0
134 153 0
129 148 0
136 156 0
136 154 0
118 138 0
137 155 0
130 150 0
129 149 0
134 155 0
133 152 0
134 153 0
116 135 0
128 146 0
134 154 0
142 162 0
140 161 0
127 147 0
126 145 0
133 151 0
133 152 0
129 150 0
123 142 0
131 151 0
128 146 0
143 163 0
121 140 0
131 150 0
139 160 0
134 153 0
130 149 0
136 154 0
137 155 0
133 154 0
132 152 0
133 152 0
132 151 0
132 152 0
134 153 0
141 159 0
131 148 0
125 143 0
145 164 0
124 143 0
129 148 0
137 155 0
142 161 0
133 152 0
126 145 0
132 152 0
139 159 0
131 150 0
133 154 0
131 149 0
140 158 0
137 152 0
134 151 0
137 155 0
129 145 0
132 148 0
130 147 0
137 154 0
149 167 0
134 151 0
132 149 0
143 159 0
134 150 0
138 155 0
144 163 0
132 149 0
131 147 0
136 153 0
129 145 0
137 152 0
129 147 0
135 151 0
140 156 0
129 144 0
135 151 0
141 158 0
128 143 0
145 161 0
128 144 0
129 145 0
136 152 0
143 158 0
133 149 0
135 149 0
139 155 0
138 153 0
135 151 0
147 164 0
131 143 0
137 150 0
142 156 0
130 144 0
131 141 0
130 144 0
126 140 0
129 141 0
135 149 0
141 155 0
141 151 0
131 145 0
142 155 0
133 146 0
135 148 0
142 156 0
131 143 0
141 151 0
141 154 0
128 138 0
141 152 0
139 151 0
141 153 0
131 138 0
127 132 0
132 141 0
134 144 0
142 150 0
126 135 0
140 151 0
140 149 0
135 142 0
123 128 0
132 139 0
135 145 0
133 140 0
135 142 0
132 137 0
137 144 0
144 150 0
140 148 0
141 147 0
138 142 0
135 139 0
131 137 0
127 134 0
133 137 0
137 142 0
133 138 0
130 135 0
126 129 0
135 140 0
114 115 0
128 133 0
130 135 0
136 139 0
129 130 0
133 133 0
133 135 0
133 136 0
129 129 0
123 125 0
135 139 0
126 128 0
134 132 0
125 126 0
134 135 0
134 138 0
136 138 0
137 141 0
129 129 0
129 129 0
141 145 0
144 149 0
133 135 0
142 141 0
133 137 0
138 143 0
134 136 0
142 147 0
145 147 0
135 135 0
134 138 0
144 150 0
138 143 0
143 148 0
146 151 0
147 152 0
142 146 0
139 143 0
148 155 0
149 154 0
147 151 0
153 159 0
148 152 0
151 157 0
147 154 0
152 161 0
154 162 0
154 162 0
147 153 0
149 155 0
153 160 0
154 161 0
148 157 0
157 168 0
157 168 0
160 170 0
154 164 0
159 168 0
149 158 0
155 162 0
150 159 0
152 163 0
160 172 0
160 171 0
158 169 0
158 173 0
159 169 0
162 175 0
172 196 0
174 197 0
173 197 0
174 198 0
174 198 0
175 198 0
173 197 0
174 198 0
174 198 0
173 196 0
172 196 0
175 198 0
172 196 0
174 197 0
175 198 0
173 197 0
173 197 0
173 196 0
171 196 0
173 197 0
174 198 0
173 197 0
173 197 0
172 196 0
172 197 0
173 197 0
172 197 0
171 196 0
172 196 0
171 196 0
172 196 0
170 195 0
171 196 0
170 195 0
170 195 0
172 197 0
171 195 0
172 196 0
171 196 0
170 195 0
170 195 0
171 196 0
170 196 0
170 194 0
170 195 0
169 194 0
170 194 0
170 195 0
167 193 0
169 194 0
168 194 0
169 193 0
170 195 0
169 194 0
170 195 0
166 192 0
170 195 0
167 192 0
165 191 0
168 193 0
166 191 0
169 194 0
166 191 0
167 193 0
169 195 0
170 195 0
169 195 0
166 191 0
165 191 0
168 194 0
169 193 0
170 196 0
167 192 0
161 185 0
168 192 0
166 191 0
164 188 0
166 191 0
169 193 0
166 191 0
166 190 0
163 187 0
165 189 0
166 191 0
167 191 0
163 187 0
162 186 0
164 188 0
165 189 0
165 190 0
163 187 0
164 187 0
165 189 0
169 193 0
164 186 0
162 185 0
162 186 0
164 187 0
162 187 0
158 181 0
162 185 0
162 185 0
160 183 0
160 183 0
157 180 0
159 182 0
167 189 0
164 187 0
164 188 0
159 182 0
162 186 0
160 182 0
159 183 0
155 177 0
160 183 0
157 179 0
157 179 0
154 176 0
165 188 0
154 176 0
158 181 0
152 173 0
153 176 0
165 187 0
157 179 0
160 181 0
152 174 0
155 177 0
157 179 0
162 184 0
153 175 0
155 177 0
155 178 0
153 176 0
161 182 0
159 181 0
156 177 0
148 169 0
157 179 0
163 185 0
153 174 0
145 166 0
147 168 0
153 176 0
152 174 0
148 169 0
146 168 0
155 176 0
150 172 0
153 174 0
148 169 0
152 173 0
139 161 0
153 174 0
135 156 0
141 161 0
150 171 0
146 167 0
141 163 0
143 164 0
152 173 0
141 163 0
140 161 0
140 161 0
136 156 0
142 163 0
132 153 0
145 165 0
147 168 0
142 164 0
142 162 0
146 167 0
148 168 0
146 167 0
141 161 0
146 166 0
147 169 0
140 161 0
139 158 0
142 163 0
138 159 0
142 163 0
136 156 0
134 155 0
143 162 0
135 155 0
134 154 0
129 149 0
138 158 0
141 162 0
136 157 0
130 150 0
131 152 0
139 159 0
136 156 0
134 155 0
142 162 0
135 154 0
132 150 0
131 152 0
135 155 0
128 146 0
136 156 0
138 158 0
128 148 0
133 154 0
137 157 0
141 159 0
130 149 0
134 153 0
129 148 0
136 156 0
132 152 0
126 147 0
127 148 0
133 152 0
131 151 0
134 154 0
131 150 0
124 143 0
131 150 0
132 152 0
122 141 0
128 146 0
129 146 0
129 147 0
130 149 0
135 154 0
127 146 0
135 153 0
141 160 0
137 155 0
136 155 0
135 154 0
141 159 0
135 155 0
131 146 0
133 151 0
140 157 0
138 157 0
138 154 0
145 165 0
136 152 0
128 146 0
136 156 0
139 157 0
138 155 0
138 156 0
135 153 0
134 151 0
136 154 0
139 156 0
128 145 0
131 150 0
139 157 0
135 154 0
130 148 0
136 154 0
129 145 0
143 161 0
131 146 0
136 155 0
140 156 0
133 150 0
130 145 0
131 146 0
135 152 0
136 153 0
137 154 0
138 154 0
139 155 0
135 152 0
139 155 0
143 161 0
145 163 0
132 147 0
141 156 0
138 153 0
141 159 0
135 150 0
136 149 0
145 160 0
138 152 0
137 150 0
139 152 0
140 153 0
144 160 0
139 152 0
137 148 0
135 145 0
136 151 0
137 149 0
144 156 0
133 146 0
137 151 0
134 145 0
129 140 0
134 146 0
138 153 0
140 153 0
130 141 0
142 152 0
135 146 0
138 148 0
139 152 0
128 134 0
134 146 0
136 143 0
137 147 0
137 144 0
131 142 0
141 150 0
133 136 0
144 156 0
139 147 0
143 152 0
131 138 0
138 142 0
139 147 0
128 133 0
134 139 0
140 145 0
134 140 0
140 146 0
134 140 0
134 138 0
133 135 0
135 140 0
131 137 0
133 134 0
135 139 0
136 142 0
131 132 0
127 130 0
133 137 0
132 135 0
124 128 0
122 124 0
130 131 0
132 136 0
143 148 0
128 129 0
127 127 0
137 141 0
132 134 0
136 139 0
136 140 0
133 135 0
128 127 0
133 136 0
137 140 0
133 135 0
136 142 0
138 141 0
133 134 0
143 149 0
128 129 0
150 155 0
144 146 0
141 146 0
140 144 0
142 145 0
129 130 0
137 140 0
138 143 0
138 142 0
137 140 0
143 148 0
146 153 0
150 156 0
145 150 0
138 143 0
147 156 0
138 143 0
148 155 0
147 153 0
146 150 0
156 166 0
156 163 0
151 158 0
152 160 0
152 161 0
149 155 0
146 156 0
156 165 0
154 161 0
156 166 0
148 157 0
162 173 0
156 164 0
158 170 0
154 167 0
161 172 0
157 168 0
156 167 0
157 168 0
156 167 0
156 168 0
157 169 0
161 172 0
174 198 0
174 198 0
174 198 0
173 197 0
173 197 0
173 197 0
175 198 0
173 197 0
172 197 0
173 197 0
173 197 0
172 197 0
173 197 0
173 196 0
172 196 0
173 197 0
174 197 0
174 198 0
174 198 0
172 196 0
172 197 0
173 197 0
173 196 0
171 196 0
171 196 0
171 196 0
172 197 0
171 195 0
171 196 0
171 196 0
171 196 0
171 195 0
170 195 0
171 195 0
168 194 0
171 196 0
171 195 0
170 194 0
171 196 0
171 196 0
172 196 0
170 195 0
169 194 0
173 197 0
171 196 0
170 195 0
168 193 0
166 192 0
171 195 0
170 195 0
170 195 0
169 195 0
168 193 0
167 192 0
166 191 0
170 195 0
167 193 0
169 194 0
166 191 0
170 195 0
168 193 0
169 194 0
171 196 0
170 195 0
170 195 0
169 194 0
167 191 0
167 191 0
168 193 0
165 190 0
168 193 0
168 193 0
165 190 0
168 193 0
168 192 0
167 191 0
166 190 0
165 190 0
164 188 0
166 190 0
169 193 0
166 190 0
166 191 0
163 187 0
164 188 0
168 192 0
165 188 0
162 186 0
163 187 0
164 187 0
165 188 0
163 186 0
164 187 0
163 186 0
167 191 0
163 186 0
161 184 0
157 180 0
166 190 0
158 181 0
157 181 0
156 179 0
161 183 0
164 188 0
161 183 0
155 179 0
159 182 0
166 189 0
160 182 0
157 180 0
162 185 0
160 182 0
159 182 0
163 186 0
157 179 0
158 181 0
164 187 0
155 177 0
156 178 0
162 184 0
151 174 0
158 180 0
161 183 0
152 174 0
151 174 0
157 179 0
160 183 0
163 186 0
154 176 0
154 175 0
163 184 0
157 179 0
151 174 0
162 184 0
150 172 0
159 181 0
158 180 0
147 169 0
154 176 0
158 180 0
159 180 0
153 175 0
158 179 0
151 173 0
152 173 0
155 177 0
155 176 0
156 176 0
142 163 0
150 170 0
154 174 0
149 170 0
154 174 0
155 176 0
140 162 0
139 161 0
150 172 0
150 171 0
147 168 0
150 171 0
147 169 0
154 175 0
151 172 0
140 162 0
140 161 0
143 164 0
145 165 0
143 164 0
139 160 0
140 160 0
146 168 0
138 159 0
141 163 0
142 163 0
144 165 0
144 165 0
150 171 0
143 164 0
141 161 0
140 160 0
138 156 0
140 160 0
144 165 0
146 166 0
136 156 0
132 153 0
137 158 0
130 152 0
137 157 0
141 161 0
141 162 0
140 160 0
126 147 0
143 163 0
129 150 0
142 162 0
126 146 0
126 146 0
132 152 0
135 155 0
131 152 0
137 157 0
133 152 0
141 161 0
135 155 0
127 148 0
138 158 0
137 158 0
129 148 0
135 154 0
136 157 0
135 155 0
138 158 0
133 152 0
137 155 0
138 157 0
141 160 0
131 151 0
133 151 0
138 156 0
129 147 0
135 155 0
139 160 0
132 150 0
135 153 0
136 156 0
145 165 0
147 168 0
135 153 0
145 163 0
134 154 0
130 149 0
129 149 0
132 151 0
129 147 0
123 141 0
128 147 0
142 161 0
139 156 0
130 147 0
139 157 0
140 160 0
132 150 0
141 158 0
147 166 0
133 149 0
129 148 0
127 145 0
139 158 0
134 152 0
139 158 0
139 158 0
140 158 0
138 156 0
133 151 0
134 150 0
141 158 0
140 156 0
141 157 0
128 147 0
134 149 0
125 142 0
138 155 0
135 151 0
136 152 0
135 152 0
138 155 0
142 159 0
140 154 0
138 155 0
132 148 0
135 150 0
144 161 0
127 142 0
132 148 0
127 144 0
143 158 0
140 156 0
145 159 0
136 154 0
140 156 0
132 146 0
141 155 0
138 151 0
134 147 0
129 143 0
130 143 0
136 150 0
139 154 0
144 157 0
137 151 0
140 152 0
139 153 0
131 143 0
133 147 0
140 152 0
127 138 0
136 147 0
134 143 0
135 147 0
141 154 0
136 145 0
139 149 0
140 154 0
131 141 0
129 137 0
118 128 0
134 144 0
137 149 0
145 155 0
129 139 0
131 139 0
135 143 0
140 150 0
140 148 0
137 146 0
139 147 0
135 141 0
137 144 0
134 144 0
138 144 0
139 145 0
135 142 0
135 141 0
138 147 0
136 143 0
143 148 0
127 131 0
133 139 0
132 135 0
132 136 0
140 146 0
136 140 0
138 142 0
132 136 0
128 131 0
138 142 0
132 136 0
134 139 0
133 135 0
138 143 0
138 141 0
134 137 0
138 143 0
134 137 0
133 137 0
141 145 0
141 146 0
139 143 0
132 136 0
129 130 0
128 130 0
133 136 0
137 139 0
144 146 0
140 142 0
143 147 0
133 133 0
139 143 0
144 147 0
135 138 0
142 146 0
134 140 0
141 142 0
146 150 0
141 145 0
140 145 0
134 137 0
139 143 0
143 148 0
142 142 0
143 146 0
140 143 0
141 144 0
145 153 0
149 157 0
154 158 0
153 163 0
148 154 0
153 162 0
149 156 0
149 158 0
152 158 0
155 165 0
148 154 0
152 161 0
156 164 0
155 166 0
159 167 0
154 162 0
154 162 0
157 167 0
152 161 0
156 165 0
160 172 0
158 170 0
156 167 0
156 169 0
159 169 0
160 172 0
175 198 0
173 197 0
175 198 0
174 198 0
174 197 0
173 197 0
173 197 0
173 197 0
173 197 0
174 197 0
173 197 0
172 196 0
174 197 0
175 198 0
175 198 0
173 197 0
173 197 0
173 197 0
173 197 0
171 196 0
174 198 0
173 197 0
173 197 0
172 197 0
169 194 0
172 196 0
171 195 0
171 196 0
173 197 0
171 196 0
171 196 0
169 195 0
170 195 0
172 197 0
172 197 0
171 196 0
170 195 0
170 195 0
170 195 0
172 196 0
171 196 0
168 193 0
169 195 0
169 194 0
170 194 0
171 195 0
169 194 0
168 192 0
171 195 0
169 194 0
168 194 0
168 193 0
170 195 0
165 190 0
168 193 0
169 193 0
169 194 0
169 194 0
166 190 0
169 194 0
166 190 0
168 192 0
164 189 0
166 191 0
170 195 0
165 189 0
170 194 0
170 194 0
166 190 0
170 195 0
168 193 0
168 192 0
166 191 0
163 188 0
167 191 0
164 188 0
163 187 0
167 191 0
167 190 0
168 193 0
167 191 0
165 189 0
166 189 0
170 194 0
167 191 0
161 185 0
165 189 0
162 186 0
161 185 0
159 183 0
163 187 0
163 186 0
160 183 0
166 189 0
158 181 0
164 187 0
160 183 0
159 182 0
164 188 0
166 189 0
162 185 0
162 184 0
158 181 0
164 187 0
163 185 0
162 184 0
158 181 0
166 188 0
163 186 0
157 179 0
168 191 0
154 177 0
163 186 0
157 180 0
152 176 0
157 179 0
157 180 0
155 178 0
163 186 0
164 186 0
163 185 0
164 187 0
160 183 0
160 183 0
156 179 0
159 181 0
152 174 0
156 178 0
159 180 0
156 178 0
159 181 0
155 177 0
151 174 0
158 179 0
153 175 0
161 182 0
148 170 0
152 174 0
150 172 0
141 163 0
156 178 0
159 181 0
143 165 0
154 174 0
150 172 0
153 174 0
155 176 0
150 172 0
154 175 0
147 169 0
153 174 0
149 170 0
154 176 0
147 169 0
145 167 0
150 172 0
148 170 0
149 170 0
148 169 0
152 174 0
144 165 0
148 169 0
145 165 0
144 165 0
145 165 0
141 163 0
142 162 0
138 161 0
145 166 0
154 175 0
144 165 0
138 159 0
140 162 0
148 169 0
136 157 0
144 165 0
134 154 0
130 151 0
141 162 0
140 162 0
141 162 0
140 161 0
147 169 0
143 164 0
145 165 0
138 159 0
130 150 0
137 157 0
142 162 0
133 153 0
141 161 0
138 158 0
124 143 0
141 160 0
142 162 0
131 151 0
137 157 0
134 154 0
125 145 0
141 160 0
139 158 0
125 144 0
137 157 0
136 155 0
138 158 0
135 156 0
139 159 0
141 160 0
146 167 0
134 154 0
125 144 0
144 164 0
137 155 0
129 149 0
131 151 0
144 164 0
143 161 0
135 155 0
136 156 0
135 154 0
132 152 0
138 157 0
124 143 0
125 142 0
137 156 0
144 164 0
137 157 0
126 145 0
126 145 0
144 160 0
137 154 0
134 154 0
137 154 0
133 153 0
131 149 0
137 156 0
136 156 0
137 157 0
139 158 0
144 162 0
138 156 0
138 156 0
137 155 0
131 149 0
144 164 0
135 154 0
140 158 0
143 162 0
142 159 0
137 155 0
142 162 0
146 166 0
131 147 0
139 157 0
140 158 0
129 146 0
126 142 0
130 150 0
138 156 0
138 154 0
138 156 0
137 153 0
132 151 0
131 148 0
144 160 0
145 163 0
144 161 0
133 149 0
137 152 0
134 152 0
138 156 0
136 152 0
144 159 0
132 148 0
137 151 0
140 157 0
140 156 0
140 154 0
135 149 0
136 149 0
137 151 0
140 154 0
151 168 0
139 154 0
140 156 0
129 143 0
141 158 0
140 155 0
139 153 0
137 150 0
145 158 0
131 142 0
140 154 0
143 156 0
134 146 0
133 146 0
145 157 0
139 152 0
144 153 0
140 153 0
143 158 0
131 142 0
137 148 0
151 164 0
139 151 0
140 151 0
133 144 0
140 150 0
136 146 0
130 138 0
137 146 0
139 149 0
134 142 0
138 147 0
140 149 0
139 146 0
140 151 0
147 156 0
133 140 0
146 154 0
133 142 0
136 145 0
139 146 0
135 143 0
134 139 0
129 134 0
139 145 0
137 144 0
138 144 0
131 135 0
136 145 0
135 142 0
140 146 0
143 151 0
129 132 0
131 135 0
133 138 0
138 143 0
140 146 0
137 140 0
136 138 0
137 140 0
138 142 0
127 128 0
136 140 0
144 149 0
147 151 0
142 146 0
140 146 0
137 142 0
142 147 0
140 141 0
139 141 0
142 145 0
147 152 0
128 128 0
136 140 0
134 137 0
142 144 0
141 148 0
135 137 0
138 145 0
138 142 0
142 146 0
144 147 0
144 149 0
141 147 0
134 136 0
143 146 0
146 153 0
143 144 0
151 156 0
143 149 0
147 149 0
145 153 0
153 160 0
149 154 0
143 148 0
154 163 0
149 154 0
153 159 0
149 157 0
149 157 0
151 156 0
150 160 0
156 167 0
144 154 0
155 165 0
148 159 0
149 159 0
155 163 0
152 162 0
159 169 0
153 163 0
150 162 0
157 168 0
155 166 0
150 160 0
159 171 0
158 170 0
175 198 0
173 196 0
172 196 0
176 199 0
175 198 0
175 198 0
173 197 0
174 197 0
174 197 0
175 198 0
174 198 0
172 196 0
174 198 0
172 197 0
173 197 0
173 197 0
171 196 0
172 196 0
173 197 0
174 198 0
172 196 0
173 196 0
170 194 0
173 197 0
171 196 0
172 197 0
170 195 0
171 196 0
172 196 0
171 196 0
169 193 0
173 197 0
171 196 0
171 195 0
171 195 0
169 193 0
172 196 0
171 196 0
168 193 0
171 196 0
169 194 0
173 197 0
170 195 0
166 191 0
170 194 0
171 196 0
171 196 0
170 195 0
170 195 0
169 194 0
167 192 0
168 193 0
170 195 0
168 193 0
169 194 0
168 193 0
170 195 0
170 195 0
168 193 0
165 190 0
166 191 0
169 193 0
166 191 0
166 191 0
167 192 0
168 192 0
166 191 0
168 192 0
168 192 0
166 190 0
166 191 0
164 189 0
170 194 0
169 193 0
166 190 0
166 190 0
170 193 0
165 188 0
167 190 0
167 191 0
163 188 0
165 189 0
164 188 0
165 189 0
163 187 0
161 184 0
155 179 0
168 192 0
171 193 0
166 189 0
163 187 0
166 189 0
165 188 0
159 183 0
165 188 0
161 185 0
165 189 0
167 190 0
159 181 0
160 183 0
165 187 0
166 189 0
164 186 0
157 181 0
161 183 0
158 180 0
162 185 0
161 184 0
160 182 0
156 178 0
166 188 0
157 179 0
166 188 0
163 186 0
157 178 0
161 184 0
162 185 0
159 182 0
155 178 0
159 182 0
162 185 0
167 189 0
163 184 0
159 181 0
157 179 0
157 179 0
151 172 0
150 172 0
156 178 0
155 177 0
151 172 0
158 180 0
157 179 0
154 176 0
159 181 0
159 181 0
156 178 0
150 172 0
157 178 0
152 174 0
150 171 0
149 170 0
152 173 0
146 168 0
151 172 0
152 173 0
157 179 0
144 165 0
151 172 0
152 174 0
147 168 0
150 171 0
154 176 0
147 169 0
150 171 0
150 171 0
148 169 0
148 170 0
148 168 0
145 166 0
150 171 0
153 174 0
141 161 0
138 159 0
144 165 0
140 161 0
139 160 0
144 164 0
152 173 0
147 168 0
143 165 0
146 167 0
144 164 0
141 162 0
146 167 0
130 150 0
142 163 0
147 169 0
142 163 0
138 159 0
150 170 0
145 167 0
134 154 0
142 162 0
145 166 0
136 157 0
134 154 0
131 152 0
140 160 0
140 160 0
141 163 0
142 165 0
131 152 0
136 156 0
132 151 0
144 164 0
141 160 0
133 151 0
137 156 0
145 166 0
128 148 0
137 157 0
131 150 0
137 157 0
142 162 0
130 150 0
141 160 0
139 158 0
139 157 0
141 161 0
128 147 0
133 152 0
138 157 0
132 151 0
134 153 0
133 151 0
143 163 0
127 146 0
132 150 0
139 158 0
134 154 0
134 152 0
140 160 0
140 159 0
144 163 0
128 149 0
133 151 0
142 162 0
129 148 0
131 151 0
142 161 0
136 155 0
133 153 0
143 161 0
143 162 0
136 156 0
136 156 0
139 158 0
137 157 0
142 162 0
133 151 0
131 149 0
139 158 0
131 150 0
133 151 0
134 151 0
138 156 0
132 151 0
134 153 0
135 153 0
137 154 0
140 159 0
134 152 0
136 155 0
139 156 0
141 159 0
143 159 0
133 149 0
141 161 0
132 150 0
133 150 0
140 160 0
137 154 0
128 144 0
143 160 0
134 152 0
124 140 0
141 158 0
148 168 0
151 169 0
131 147 0
135 151 0
137 154 0
133 149 0
141 156 0
139 156 0
142 156 0
139 156 0
141 155 0
142 157 0
137 153 0
137 152 0
143 158 0
145 161 0
137 154 0
144 162 0
135 147 0
138 153 0
138 152 0
145 161 0
127 142 0
131 144 0
137 151 0
144 158 0
130 141 0
132 145 0
139 153 0
138 151 0
146 161 0
143 158 0
143 157 0
137 149 0
139 150 0
146 160 0
137 149 0
142 152 0
145 159 0
134 143 0
138 149 0
139 148 0
142 154 0
133 144 0
135 144 0
138 149 0
141 152 0
138 148 0
137 145 0
130 138 0
143 151 0
144 154 0
132 143 0
140 148 0
140 149 0
146 154 0
134 142 0
135 140 0
130 136 0
130 137 0
140 150 0
140 148 0
145 151 0
134 141 0
139 146 0
140 146 0
122 123 0
127 132 0
136 142 0
132 137 0
137 143 0
139 146 0
137 142 0
135 140 0
141 147 0
141 149 0
138 146 0
137 142 0
143 149 0
141 146 0
140 143 0
143 148 0
140 144 0
145 150 0
144 148 0
135 140 0
140 145 0
136 138 0
138 138 0
143 147 0
138 142 0
140 147 0
141 146 0
143 146 0
132 135 0
143 147 0
146 153 0
137 139 0
146 151 0
135 138 0
138 139 0
145 151 0
148 154 0
140 144 0
142 145 0
147 152 0
142 148 0
148 154 0
149 155 0
145 152 0
150 159 0
147 153 0
139 143 0
147 154 0
150 156 0
151 159 0
154 163 0
145 152 0
153 159 0
150 157 0
151 162 0
150 159 0
159 171 0
153 161 0
158 170 0
154 165 0
158 169 0
147 157 0
159 172 0
160 172 0
159 167 0
154 164 0
175 198 0
174 198 0
174 198 0
173 197 0
174 198 0
173 196 0
173 197 0
174 198 0
173 197 0
173 197 0
173 197 0
174 198 0
173 197 0
174 197 0
174 198 0
172 196 0
174 197 0
172 196 0
172 197 0
173 196 0
173 197 0
172 197 0
172 196 0
173 197 0
174 197 0
172 197 0
171 196 0
171 195 0
172 196 0
172 196 0
169 194 0
171 195 0
172 196 0
171 195 0
171 196 0
170 194 0
172 196 0
170 195 0
172 196 0
172 197 0
170 194 0
171 195 0
169 195 0
170 195 0
171 196 0
170 194 0
171 195 0
170 194 0
168 193 0
170 195 0
169 193 0
167 192 0
166 191 0
171 195 0
167 191 0
171 195 0
171 195 0
169 193 0
166 190 0
172 196 0
164 189 0
166 191 0
167 191 0
169 193 0
165 188 0
166 190 0
168 192 0
166 190 0
167 191 0
169 193 0
166 190 0
168 192 0
168 191 0
163 188 0
166 190 0
167 191 0
165 188 0
169 192 0
169 192 0
162 185 0
167 191 0
169 193 0
163 187 0
165 188 0
167 191 0
163 187 0
166 190 0
158 181 0
165 188 0
165 189 0
162 185 0
158 182 0
167 190 0
161 184 0
163 186 0
160 183 0
164 186 0
163 185 0
165 188 0
162 185 0
157 181 0
161 184 0
163 185 0
165 187 0
159 183 0
163 186 0
163 186 0
155 178 0
156 179 0
155 178 0
164 186 0
154 177 0
156 179 0
159 181 0
160 183 0
158 181 0
158 179 0
159 181 0
165 187 0
151 173 0
156 179 0
162 184 0
164 186 0
161 183 0
156 178 0
157 180 0
154 177 0
153 176 0
153 174 0
149 170 0
152 173 0
156 178 0
159 181 0
154 176 0
150 172 0
158 179 0
158 180 0
161 183 0
148 170 0
147 168 0
160 182 0
154 175 0
155 177 0
155 176 0
152 174 0
152 174 0
149 171 0
148 170 0
152 174 0
149 170 0
147 170 0
151 173 0
156 177 0
148 169 0
142 162 0
151 173 0
149 169 0
148 170 0
149 171 0
152 173 0
141 162 0
144 165 0
148 168 0
146 167 0
145 166 0
151 172 0
141 163 0
143 165 0
146 166 0
142 164 0
149 171 0
146 166 0
150 172 0
141 161 0
146 167 0
143 164 0
147 167 0
139 160 0
144 164 0
144 164 0
140 160 0
142 163 0
145 165 0
140 160 0
138 157 0
143 165 0
137 159 0
140 160 0
142 163 0
131 151 0
140 161 0
135 154 0
138 159 0
146 166 0
147 167 0
128 148 0
144 165 0
140 160 0
141 161 0
141 163 0
141 160 0
141 162 0
142 162 0
136 155 0
143 164 0
134 153 0
136 155 0
136 157 0
134 156 0
129 149 0
124 146 0
145 165 0
139 158 0
136 156 0
131 151 0
136 156 0
135 154 0
141 162 0
139 157 0
142 162 0
135 154 0
138 157 0
136 155 0
143 163 0
136 155 0
131 150 0
144 162 0
133 151 0
138 158 0
140 160 0
138 157 0
146 164 0
144 164 0
135 153 0
140 159 0
134 154 0
147 166 0
138 157 0
134 153 0
134 154 0
135 153 0
138 157 0
138 158 0
138 156 0
142 160 0
139 158 0
141 159 0
134 150 0
148 165 0
138 157 0
130 148 0
142 161 0
139 155 0
141 161 0
146 164 0
146 163 0
140 158 0
142 161 0
141 157 0
132 148 0
137 154 0
131 149 0
143 160 0
134 150 0
131 147 0
146 163 0
142 159 0
147 164 0
146 164 0
149 167 0
143 161 0
140 159 0
138 154 0
140 156 0
139 155 0
142 160 0
139 154 0
144 157 0
133 145 0
145 161 0
139 157 0
143 159 0
143 160 0
143 158 0
136 151 0
141 155 0
139 154 0
138 155 0
148 164 0
140 156 0
141 155 0
142 158 0
143 159 0
141 155 0
138 152 0
137 151 0
143 158 0
140 152 0
142 157 0
142 153 0
134 148 0
139 152 0
145 158 0
150 164 0
144 155 0
137 149 0
142 157 0
136 148 0
139 151 0
143 156 0
137 145 0
148 160 0
144 157 0
132 144 0
140 149 0
141 151 0
139 149 0
128 137 0
129 137 0
134 144 0
140 150 0
142 153 0
141 148 0
144 153 0
141 148 0
142 150 0
137 145 0
135 143 0
134 141 0
140 147 0
142 150 0
144 154 0
133 142 0
131 135 0
132 136 0
144 153 0
131 138 0
136 143 0
136 141 0
136 141 0
136 141 0
131 135 0
143 149 0
138 143 0
142 147 0
139 140 0
139 144 0
133 136 0
136 141 0
139 143 0
149 158 0
134 136 0
142 149 0
147 152 0
140 146 0
133 139 0
140 146 0
134 137 0
147 152 0
142 147 0
146 153 0
136 140 0
139 142 0
143 145 0
140 145 0
142 145 0
142 148 0
140 145 0
143 149 0
143 147 0
145 152 0
147 150 0
147 154 0
145 150 0
145 151 0
147 151 0
154 163 0
149 155 0
147 152 0
152 162 0
150 156 0
145 155 0
154 161 0
149 156 0
155 163 0
149 155 0
149 159 0
151 159 0
152 160 0
144 152 0
163 172 0
156 165 0
160 171 0
152 161 0
146 154 0
156 165 0
149 157 0
154 164 0
158 168 0
157 168 0
173 197 0
174 198 0
175 198 0
174 197 0
174 197 0
172 196 0
171 195 0
174 197 0
174 197 0
173 197 0
174 198 0
173 197 0
172 196 0
173 197 0
173 197 0
173 197 0
173 197 0
175 198 0
172 197 0
173 197 0
171 195 0
172 196 0
173 197 0
172 196 0
174 197 0
171 196 0
171 196 0
173 197 0
172 196 0
172 196 0
173 197 0
172 196 0
169 194 0
173 197 0
171 195 0
171 196 0
169 194 0
169 195 0
170 195 0
171 196 0
168 192 0
170 194 0
169 194 0
169 193 0
171 195 0
167 192 0
171 195 0
169 194 0
169 193 0
171 195 0
169 194 0
166 191 0
170 194 0
169 193 0
168 193 0
168 192 0
170 194 0
168 192 0
170 194 0
168 193 0
168 192 0
167 192 0
167 191 0
165 190 0
164 189 0
168 192 0
169 193 0
167 190 0
169 193 0
171 194 0
169 194 0
167 191 0
167 191 0
165 189 0
166 190 0
165 189 0
168 192 0
167 190 0
166 190 0
165 188 0
163 187 0
167 191 0
168 191 0
165 189 0
166 190 0
162 186 0
163 186 0
168 191 0
161 185 0
166 189 0
164 187 0
163 186 0
167 190 0
161 184 0
159 183 0
164 187 0
160 184 0
163 186 0
163 186 0
164 186 0
160 183 0
160 183 0
163 184 0
166 188 0
161 184 0
163 186 0
163 186 0
160 183 0
158 181 0
157 179 0
156 179 0
160 183 0
158 179 0
165 187 0
162 185 0
157 179 0
158 180 0
154 176 0
159 182 0
154 177 0
167 190 0
154 177 0
156 178 0
152 174 0
160 182 0
155 177 0
155 178 0
157 179 0
159 181 0
157 180 0
151 173 0
160 182 0
158 181 0
163 185 0
155 177 0
142 163 0
150 172 0
153 174 0
153 175 0
155 177 0
147 168 0
148 169 0
144 165 0
152 174 0
153 175 0
154 176 0
154 175 0
148 169 0
156 178 0
155 176 0
154 176 0
143 165 0
150 173 0
149 170 0
154 175 0
148 168 0
144 166 0
147 170 0
148 169 0
148 170 0
148 169 0
145 167 0
143 164 0
142 164 0
139 159 0
147 168 0
145 166 0
144 166 0
150 170 0
143 163 0
142 164 0
136 156 0
138 159 0
137 158 0
141 162 0
146 166 0
142 162 0
144 165 0
146 168 0
139 160 0
138 160 0
150 171 0
146 167 0
138 158 0
151 172 0
140 160 0
143 163 0
153 173 0
140 161 0
137 155 0
142 160 0
140 161 0
143 162 0
139 160 0
132 152 0
140 161 0
145 165 0
144 165 0
139 158 0
127 147 0
144 165 0
141 161 0
135 156 0
143 163 0
137 155 0
146 166 0
144 165 0
140 159 0
148 167 0
139 160 0
143 163 0
131 151 0
140 161 0
143 162 0
146 165 0
134 153 0
137 157 0
143 163 0
138 158 0
146 166 0
144 164 0
134 154 0
143 164 0
144 163 0
137 158 0
136 155 0
134 154 0
143 163 0
137 156 0
144 163 0
136 156 0
138 158 0
138 160 0
126 145 0
133 152 0
134 154 0
138 157 0
132 151 0
134 152 0
141 158 0
128 146 0
137 157 0
146 165 0
140 160 0
135 154 0
141 160 0
139 158 0
143 164 0
130 150 0
142 161 0
138 157 0
146 162 0
134 153 0
148 167 0
142 160 0
130 147 0
132 150 0
138 156 0
133 150 0
135 152 0
145 164 0
139 157 0
136 154 0
148 164 0
147 166 0
142 161 0
139 155 0
137 154 0
158 178 0
136 155 0
141 158 0
152 168 0
134 150 0
133 149 0
142 158 0
137 157 0
133 149 0
137 152 0
147 164 0
144 161 0
146 162 0
140 157 0
142 158 0
147 162 0
142 157 0
146 161 0
125 140 0
139 156 0
141 157 0
142 155 0
142 156 0
143 154 0
148 160 0
143 160 0
141 155 0
148 162 0
134 148 0
146 157 0
132 144 0
142 155 0
139 152 0
149 164 0
132 145 0
144 159 0
139 151 0
145 161 0
140 149 0
141 151 0
142 155 0
145 158 0
146 159 0
143 155 0
138 150 0
146 159 0
143 155 0
139 148 0
137 148 0
143 156 0
136 149 0
141 152 0
138 148 0
132 140 0
138 150 0
142 151 0
141 152 0
138 146 0
145 156 0
138 145 0
143 152 0
138 148 0
143 151 0
145 152 0
135 142 0
135 142 0
139 148 0
144 150 0
137 145 0
140 147 0
152 160 0
145 152 0
136 144 0
139 147 0
138 143 0
132 137 0
134 140 0
139 146 0
137 142 0
132 138 0
143 148 0
143 147 0
142 149 0
140 146 0
142 147 0
140 144 0
140 142 0
137 143 0
137 142 0
143 149 0
141 147 0
152 160 0
137 144 0
148 153 0
150 154 0
142 146 0
137 138 0
141 147 0
146 151 0
147 153 0
143 144 0
148 154 0
143 147 0
152 162 0
150 157 0
139 143 0
147 153 0
146 150 0
144 149 0
144 152 0
140 142 0
145 151 0
146 153 0
147 153 0
153 162 0
151 160 0
148 155 0
156 164 0
157 165 0
148 155 0
150 158 0
152 158 0
155 164 0
149 158 0
157 166 0
151 158 0
155 162 0
162 174 0
156 163 0
152 162 0
161 174 0
151 160 0
174 198 0
173 197 0
173 197 0
173 197 0
174 197 0
174 198 0
174 197 0
173 197 0
173 197 0
174 197 0
174 197 0
173 196 0
174 197 0
174 198 0
173 197 0
172 196 0
172 195 0
172 196 0
173 197 0
172 196 0
173 196 0
173 197 0
173 197 0
172 197 0
173 197 0
171 195 0
171 196 0
172 196 0
172 196 0
171 195 0
171 196 0
173 197 0
170 194 0
171 196 0
171 196 0
171 195 0
171 196 0
171 195 0
170 195 0
170 195 0
170 195 0
170 194 0
171 196 0
170 193 0
171 195 0
170 195 0
168 193 0
170 194 0
171 196 0
171 196 0
167 192 0
168 192 0
172 196 0
172 196 0
170 193 0
173 197 0
170 194 0
170 194 0
170 195 0
168 192 0
164 188 0
169 193 0
168 192 0
169 193 0
167 191 0
167 191 0
167 191 0
172 196 0
166 191 0
166 190 0
167 191 0
163 187 0
164 187 0
171 194 0
166 190 0
168 192 0
165 189 0
162 186 0
168 192 0
162 184 0
167 191 0
163 186 0
165 188 0
168 192 0
163 186 0
169 192 0
161 184 0
169 192 0
166 189 0
162 185 0
164 187 0
168 190 0
159 183 0
168 191 0
160 183 0
166 189 0
162 185 0
162 185 0
161 184 0
162 184 0
161 183 0
166 188 0
163 186 0
161 182 0
163 187 0
161 183 0
151 174 0
163 186 0
161 183 0
164 187 0
160 183 0
161 184 0
160 184 0
160 182 0
160 181 0
156 177 0
160 183 0
162 184 0
161 183 0
152 175 0
156 178 0
152 174 0
165 187 0
155 176 0
158 181 0
155 178 0
155 178 0
160 181 0
162 184 0
155 177 0
151 172 0
159 182 0
157 179 0
150 172 0
152 176 0
157 179 0
157 179 0
151 172 0
159 179 0
159 180 0
153 174 0
150 172 0
158 179 0
159 180 0
153 175 0
155 176 0
153 174 0
147 169 0
152 173 0
151 172 0
151 172 0
148 171 0
149 172 0
147 167 0
145 167 0
149 173 0
148 169 0
143 164 0
155 176 0
148 169 0
151 172 0
155 177 0
146 168 0
146 166 0
146 168 0
141 162 0
139 160 0
154 174 0
144 164 0
148 170 0
142 164 0
141 160 0
146 167 0
150 170 0
145 166 0
144 165 0
143 164 0
148 168 0
140 160 0
146 165 0
139 160 0
146 168 0
141 161 0
142 162 0
141 162 0
143 166 0
139 159 0
143 163 0
149 170 0
147 167 0
145 165 0
145 165 0
145 164 0
145 165 0
143 163 0
138 160 0
146 165 0
138 157 0
144 165 0
141 161 0
136 156 0
138 157 0
136 157 0
135 153 0
135 154 0
144 166 0
140 161 0
131 150 0
136 157 0
134 151 0
135 155 0
133 154 0
144 165 0
135 154 0
140 160 0
135 155 0
140 159 0
139 159 0
140 161 0
139 158 0
131 151 0
140 159 0
136 157 0
128 148 0
141 160 0
134 151 0
139 159 0
143 163 0
144 163 0
142 162 0
134 151 0
141 162 0
143 162 0
139 159 0
137 156 0
140 160 0
138 158 0
140 159 0
142 163 0
144 163 0
138 157 0
128 145 0
139 156 0
142 162 0
141 159 0
139 157 0
146 166 0
140 159 0
132 151 0
148 166 0
137 154 0
145 164 0
148 168 0
144 163 0
148 167 0
143 160 0
141 158 0
143 159 0
134 153 0
148 167 0
141 159 0
139 158 0
147 167 0
131 150 0
149 168 0
151 170 0
144 162 0
146 164 0
145 165 0
147 167 0
139 158 0
149 166 0
143 161 0
135 152 0
141 155 0
140 156 0
134 150 0
141 158 0
147 164 0
140 158 0
144 159 0
136 151 0
147 164 0
140 155 0
143 160 0
144 157 0
142 158 0
141 156 0
150 168 0
141 156 0
139 155 0
145 159 0
137 150 0
139 154 0
144 158 0
139 153 0
130 145 0
142 159 0
141 155 0
145 159 0
136 149 0
141 156 0
147 160 0
146 162 0
136 150 0
149 163 0
147 160 0
143 155 0
139 150 0
146 160 0
138 150 0
148 161 0
133 144 0
137 149 0
144 154 0
135 145 0
138 148 0
138 149 0
139 150 0
146 159 0
143 154 0
145 156 0
144 153 0
142 153 0
145 154 0
142 150 0
140 151 0
137 148 0
135 145 0
140 151 0
138 147 0
137 146 0
138 147 0
142 151 0
142 150 0
146 154 0
143 152 0
146 152 0
139 148 0
147 158 0
141 145 0
139 145 0
136 143 0
138 143 0
141 146 0
145 152 0
142 147 0
142 148 0
141 149 0
136 145 0
142 150 0
137 145 0
145 152 0
140 147 0
144 153 0
141 148 0
137 143 0
142 148 0
147 153 0
144 149 0
144 149 0
136 143 0
147 153 0
143 149 0
144 147 0
143 149 0
144 150 0
142 149 0
140 147 0
146 151 0
145 149 0
150 155 0
145 151 0
143 149 0
146 154 0
149 156 0
147 154 0
143 148 0
149 155 0
148 154 0
145 151 0
158 163 0
154 164 0
155 164 0
151 158 0
155 164 0
152 160 0
156 165 0
151 160 0
150 154 0
148 157 0
159 171 0
152 162 0
153 163 0
149 156 0
152 161 0
148 157 0
153 163 0
155 166 0
156 165 0
174 197 0
173 197 0
174 198 0
171 195 0
174 198 0
174 198 0
175 198 0
173 197 0
173 197 0
172 196 0
172 196 0
171 196 0
174 197 0
172 196 0
173 197 0
172 197 0
172 196 0
170 194 0
172 195 0
171 195 0
174 198 0
172 196 0
172 196 0
172 196 0
171 195 0
170 194 0
173 197 0
170 195 0
172 196 0
172 196 0
172 196 0
170 195 0
170 194 0
169 194 0
172 196 0
170 195 0
174 197 0
168 193 0
169 194 0
170 194 0
170 194 0
171 195 0
168 193 0
170 195 0
169 193 0
171 195 0
169 193 0
170 195 0
169 193 0
167 191 0
169 194 0
168 192 0
166 190 0
172 196 0
171 195 0
169 192 0
168 192 0
167 191 0
169 193 0
171 195 0
165 189 0
166 190 0
165 190 0
172 195 0
169 193 0
167 191 0
170 194 0
165 189 0
170 193 0
166 190 0
165 188 0
169 193 0
169 192 0
169 193 0
169 192 0
168 191 0
165 188 0
166 189 0
166 189 0
162 185 0
165 189 0
167 191 0
169 192 0
167 190 0
165 189 0
160 183 0
165 188 0
165 187 0
166 187 0
167 190 0
163 186 0
165 188 0
163 186 0
164 186 0
161 184 0
159 182 0
166 190 0
160 182 0
160 182 0
164 187 0
168 191 0
162 185 0
161 183 0
167 190 0
165 187 0
160 181 0
158 180 0
163 185 0
164 187 0
153 175 0
162 185 0
162 184 0
161 184 0
159 180 0
168 190 0
155 177 0
158 181 0
159 182 0
162 184 0
161 183 0
162 184 0
161 183 0
158 180 0
157 179 0
167 188 0
157 179 0
154 176 0
157 179 0
148 171 0
162 185 0
146 168 0
156 177 0
148 171 0
157 179 0
157 179 0
155 177 0
155 177 0
159 181 0
156 178 0
161 182 0
147 170 0
155 176 0
155 177 0
148 169 0
157 178 0
151 173 0
146 169 0
147 168 0
143 165 0
147 169 0
153 174 0
157 179 0
145 165 0
156 177 0
148 170 0
149 171 0
146 167 0
151 173 0
142 163 0
143 164 0
150 170 0
155 177 0
151 171 0
142 163 0
146 167 0
155 176 0
151 173 0
148 169 0
144 166 0
151 172 0
145 166 0
144 165 0
135 157 0
147 168 0
142 162 0
145 167 0
137 158 0
147 168 0
144 165 0
139 159 0
142 163 0
148 170 0
141 161 0
138 159 0
152 174 0
138 158 0
139 159 0
141 161 0
136 158 0
145 166 0
132 154 0
142 162 0
143 164 0
141 163 0
145 165 0
134 154 0
144 164 0
143 164 0
139 159 0
135 155 0
133 154 0
143 163 0
132 150 0
131 149 0
138 158 0
142 163 0
145 166 0
140 161 0
142 160 0
149 170 0
144 162 0
136 156 0
140 160 0
137 157 0
136 156 0
140 160 0
146 167 0
132 152 0
134 153 0
139 157 0
140 159 0
142 163 0
145 166 0
137 157 0
137 156 0
129 148 0
139 158 0
140 160 0
139 158 0
151 169 0
134 155 0
144 164 0
135 154 0
146 166 0
139 158 0
135 155 0
139 158 0
138 157 0
137 157 0
142 162 0
141 159 0
138 159 0
144 162 0
144 162 0
142 161 0
143 160 0
154 174 0
147 164 0
145 166 0
142 162 0
141 160 0
138 155 0
135 151 0
131 148 0
139 157 0
139 158 0
134 152 0
144 161 0
146 165 0
139 157 0
146 166 0
132 151 0
134 151 0
138 155 0
140 156 0
140 159 0
140 157 0
144 161 0
150 170 0
147 165 0
142 159 0
148 167 0
137 153 0
143 161 0
141 157 0
140 157 0
147 164 0
139 157 0
144 161 0
137 153 0
148 167 0
148 164 0
142 156 0
143 160 0
137 155 0
144 162 0
141 155 0
143 159 0
143 157 0
145 159 0
143 155 0
139 151 0
137 154 0
138 154 0
146 162 0
142 155 0
134 150 0
148 163 0
145 159 0
140 154 0
142 156 0
145 159 0
141 154 0
150 164 0
137 152 0
145 160 0
140 152 0
139 153 0
135 146 0
142 155 0
146 159 0
132 146 0
137 151 0
145 156 0
133 144 0
146 159 0
134 143 0
135 144 0
145 154 0
140 152 0
148 159 0
148 156 0
143 152 0
139 148 0
138 148 0
142 154 0
142 150 0
135 144 0
150 161 0
142 152 0
143 153 0
138 149 0
144 155 0
141 150 0
144 152 0
137 143 0
146 155 0
144 153 0
145 154 0
135 139 0
131 137 0
147 154 0
146 155 0
133 139 0
139 146 0
138 145 0
150 161 0
149 155 0
145 150 0
150 159 0
139 146 0
148 159 0
137 142 0
142 147 0
138 145 0
143 147 0
143 150 0
147 152 0
145 151 0
138 145 0
140 143 0
140 147 0
140 146 0
147 153 0
139 146 0
144 150 0
149 152 0
144 150 0
146 152 0
149 155 0
147 153 0
144 151 0
148 154 0
140 146 0
151 158 0
151 158 0
151 156 0
148 156 0
137 142 0
150 158 0
146 152 0
146 157 0
148 156 0
157 164 0
152 160 0
144 151 0
148 156 0
151 159 0
144 151 0
153 164 0
149 157 0
146 153 0
154 164 0
148 156 0
152 162 0
153 163 0
159 171 0
155 165 0
156 168 0
151 161 0
174 197 0
173 196 0
174 198 0
174 197 0
172 196 0
173 197 0
173 197 0
172 196 0
173 197 0
172 196 0
172 196 0
173 196 0
173 197 0
173 197 0
173 196 0
171 195 0
173 197 0
172 197 0
171 195 0
172 196 0
169 194 0
173 197 0
170 195 0
171 195 0
172 196 0
171 196 0
172 196 0
172 197 0
168 192 0
169 193 0
171 195 0
172 197 0
171 196 0
173 196 0
169 193 0
170 195 0
171 194 0
171 196 0
169 193 0
173 197 0
170 194 0
168 192 0
170 195 0
170 194 0
169 193 0
167 190 0
169 194 0
169 193 0
170 194 0
171 195 0
167 191 0
170 194 0
167 192 0
170 195 0
167 192 0
170 194 0
168 192 0
170 194 0
170 194 0
166 190 0
168 192 0
170 193 0
166 191 0
171 195 0
167 191 0
169 192 0
168 192 0
164 188 0
166 189 0
168 191 0
164 188 0
172 196 0
170 194 0
170 193 0
167 191 0
167 191 0
163 187 0
161 185 0
165 189 0
168 192 0
167 190 0
167 191 0
163 185 0
165 188 0
165 188 0
167 190 0
163 186 0
168 192 0
168 190 0
166 190 0
162 186 0
161 184 0
166 188 0
166 189 0
162 185 0
162 186 0
164 187 0
167 191 0
164 187 0
164 187 0
167 190 0
163 185 0
164 186 0
161 183 0
156 178 0
166 189 0
160 183 0
161 184 0
159 182 0
161 183 0
161 184 0
161 183 0
160 182 0
164 186 0
154 177 0
164 186 0
153 175 0
158 179 0
159 182 0
154 176 0
158 180 0
157 180 0
157 179 0
162 184 0
157 180 0
157 180 0
160 183 0
154 176 0
149 171 0
160 182 0
158 181 0
160 182 0
158 180 0
155 177 0
158 180 0
159 181 0
159 182 0
157 179 0
154 175 0
153 175 0
159 182 0
151 173 0
158 180 0
149 170 0
155 177 0
159 180 0
155 178 0
152 174 0
142 162 0
148 171 0
144 166 0
149 171 0
147 169 0
149 171 0
147 168 0
145 166 0
144 166 0
155 176 0
151 172 0
147 169 0
154 175 0
142 163 0
153 175 0
145 166 0
150 171 0
156 177 0
150 172 0
147 168 0
143 164 0
150 171 0
138 159 0
152 172 0
143 164 0
143 164 0
140 162 0
146 167 0
148 169 0
151 171 0
146 167 0
138 160 0
140 161 0
137 158 0
142 163 0
140 160 0
150 172 0
142 163 0
144 166 0
134 156 0
144 164 0
151 173 0
143 164 0
141 161 0
138 158 0
139 161 0
138 160 0
146 167 0
151 172 0
144 164 0
141 161 0
138 157 0
149 169 0
142 162 0
138 158 0
146 166 0
130 151 0
148 168 0
142 162 0
138 158 0
146 167 0
139 158 0
140 160 0
152 172 0
144 164 0
145 167 0
137 156 0
143 162 0
138 159 0
151 172 0
131 150 0
137 155 0
130 150 0
140 160 0
132 153 0
138 158 0
139 159 0
138 157 0
136 155 0
138 157 0
146 165 0
140 161 0
147 169 0
141 161 0
142 162 0
146 166 0
143 163 0
140 160 0
142 160 0
143 161 0
147 168 0
137 156 0
138 157 0
143 162 0
138 157 0
143 164 0
144 163 0
145 165 0
136 155 0
139 158 0
138 156 0
140 157 0
139 158 0
138 156 0
144 163 0
143 163 0
136 156 0
144 162 0
148 166 0
137 156 0
145 164 0
144 164 0
138 157 0
136 155 0
144 162 0
144 162 0
148 167 0
146 164 0
142 160 0
141 158 0
135 153 0
143 160 0
146 163 0
147 165 0
142 161 0
140 158 0
143 161 0
153 169 0
146 164 0
139 158 0
145 163 0
137 152 0
147 166 0
146 162 0
142 159 0
141 160 0
150 169 0
148 166 0
145 161 0
146 160 0
150 168 0
147 165 0
144 159 0
140 156 0
142 158 0
144 161 0
145 161 0
137 152 0
137 151 0
141 156 0
138 152 0
147 161 0
143 160 0
143 159 0
144 160 0
139 150 0
142 156 0
137 148 0
144 156 0
137 150 0
147 162 0
133 144 0
148 158 0
143 157 0
133 145 0
137 149 0
142 153 0
143 157 0
135 146 0
143 156 0
140 151 0
146 156 0
139 149 0
135 148 0
139 149 0
136 144 0
143 155 0
140 153 0
136 148 0
142 153 0
136 146 0
145 158 0
141 148 0
145 157 0
143 153 0
147 158 0
149 159 0
146 154 0
141 149 0
144 153 0
149 161 0
145 154 0
148 155 0
139 145 0
139 148 0
145 155 0
145 150 0
142 149 0
143 151 0
144 151 0
141 148 0
137 143 0
139 145 0
141 147 0
150 160 0
139 146 0
137 143 0
144 151 0
145 149 0
142 147 0
139 145 0
150 158 0
138 144 0
139 149 0
141 149 0
145 152 0
133 140 0
144 153 0
145 151 0
151 156 0
144 151 0
146 153 0
143 149 0
144 151 0
141 149 0
143 152 0
144 148 0
146 151 0
158 167 0
143 150 0
151 157 0
141 148 0
150 162 0
154 162 0
150 153 0
149 154 0
143 152 0
150 157 0
150 157 0
148 154 0
149 157 0
155 165 0
152 162 0
153 157 0
154 160 0
155 166 0
146 155 0
148 155 0
156 167 0
149 157 0
154 165 0
153 162 0
174 198 0
173 197 0
174 197 0
175 198 0
172 197 0
173 197 0
174 197 0
172 196 0
172 196 0
175 198 0
173 196 0
173 197 0
173 197 0
172 196 0
173 197 0
172 196 0
171 196 0
173 197 0
172 197 0
172 196 0
171 194 0
173 197 0
170 194 0
173 197 0
172 197 0
171 195 0
173 196 0
170 194 0
172 196 0
170 195 0
169 193 0
172 196 0
172 196 0
171 195 0
167 192 0
171 196 0
169 194 0
171 196 0
170 194 0
168 193 0
169 193 0
171 196 0
171 195 0
168 192 0
171 195 0
170 194 0
170 194 0
169 194 0
167 190 0
171 196 0
168 192 0
170 194 0
167 191 0
171 195 0
168 192 0
171 194 0
172 196 0
170 193 0
165 189 0
166 189 0
169 193 0
164 187 0
165 189 0
168 191 0
166 190 0
170 193 0
167 190 0
168 191 0
167 190 0
165 189 0
162 186 0
164 187 0
166 189 0
166 189 0
165 189 0
167 191 0
165 189 0
169 192 0
170 194 0
167 189 0
164 187 0
165 187 0
170 193 0
166 189 0
171 193 0
163 186 0
168 191 0
167 190 0
165 187 0
163 186 0
161 183 0
166 189 0
164 186 0
160 182 0
166 189 0
160 182 0
168 190 0
159 182 0
163 186 0
158 182 0
166 187 0
163 185 0
160 183 0
165 187 0
166 187 0
166 188 0
161 185 0
160 182 0
163 186 0
162 185 0
166 188 0
161 184 0
163 186 0
157 179 0
161 184 0
160 182 0
160 182 0
162 184 0
164 186 0
158 180 0
163 185 0
157 179 0
163 185 0
154 176 0
156 179 0
153 175 0
161 182 0
159 181 0
164 186 0
154 176 0
160 183 0
154 176 0
154 176 0
151 173 0
156 179 0
155 177 0
153 174 0
148 170 0
156 179 0
156 178 0
149 172 0
158 179 0
149 170 0
150 171 0
152 173 0
151 173 0
151 173 0
153 175 0
149 170 0
150 171 0
146 167 0
147 168 0
141 162 0
149 171 0
154 175 0
157 178 0
150 172 0
148 169 0
143 163 0
153 176 0
148 170 0
153 174 0
147 168 0
153 174 0
147 167 0
147 169 0
147 168 0
153 172 0
143 164 0
154 175 0
149 170 0
153 175 0
146 166 0
141 162 0
160 181 0
152 174 0
141 161 0
150 171 0
148 169 0
148 169 0
147 168 0
141 161 0
146 167 0
144 166 0
147 168 0
143 164 0
150 173 0
147 168 0
141 162 0
133 154 0
142 163 0
140 159 0
147 168 0
138 157 0
151 172 0
145 164 0
149 171 0
133 154 0
142 163 0
142 161 0
134 154 0
145 165 0
143 163 0
144 165 0
140 159 0
148 168 0
134 155 0
143 165 0
145 166 0
150 171 0
132 154 0
143 164 0
143 164 0
135 157 0
135 155 0
145 167 0
139 159 0
151 171 0
144 164 0
139 159 0
136 154 0
142 162 0
137 155 0
140 159 0
143 164 0
147 167 0
143 164 0
139 158 0
141 159 0
136 156 0
147 167 0
145 165 0
148 169 0
146 166 0
137 157 0
138 157 0
136 156 0
138 158 0
141 160 0
142 162 0
141 159 0
136 155 0
142 161 0
145 163 0
142 161 0
150 170 0
144 164 0
150 169 0
136 157 0
143 163 0
140 159 0
139 154 0
147 167 0
141 161 0
144 161 0
144 163 0
145 163 0
148 167 0
145 165 0
141 158 0
145 163 0
146 165 0
143 164 0
144 162 0
143 161 0
151 169 0
144 164 0
146 162 0
143 162 0
143 161 0
142 160 0
147 164 0
146 164 0
137 153 0
147 166 0
149 166 0
146 165 0
129 147 0
141 158 0
150 169 0
144 162 0
140 158 0
141 159 0
143 159 0
149 166 0
144 160 0
140 153 0
139 154 0
145 160 0
146 160 0
145 160 0
143 159 0
140 157 0
140 157 0
136 151 0
142 157 0
147 162 0
135 148 0
137 151 0
146 161 0
144 159 0
142 154 0
147 162 0
144 159 0
144 160 0
143 159 0
148 165 0
141 155 0
145 162 0
143 157 0
151 164 0
142 156 0
147 164 0
146 160 0
142 155 0
137 148 0
148 161 0
137 148 0
145 157 0
137 146 0
141 153 0
148 161 0
144 158 0
147 160 0
137 148 0
148 159 0
138 148 0
138 149 0
150 162 0
145 157 0
142 152 0
152 164 0
148 160 0
147 157 0
139 149 0
145 153 0
141 150 0
142 150 0
147 156 0
140 148 0
141 150 0
141 149 0
145 157 0
148 156 0
141 147 0
151 161 0
146 156 0
148 154 0
138 146 0
149 159 0
139 145 0
147 159 0
146 155 0
144 150 0
144 152 0
140 148 0
145 153 0
140 145 0
144 152 0
146 155 0
143 151 0
144 153 0
140 147 0
152 159 0
144 152 0
148 158 0
141 147 0
145 151 0
146 153 0
146 154 0
143 149 0
138 143 0
150 156 0
156 165 0
150 159 0
140 147 0
141 148 0
154 161 0
151 159 0
150 157 0
158 167 0
148 156 0
143 150 0
147 154 0
152 160 0
149 158 0
156 164 0
150 161 0
154 163 0
156 163 0
152 162 0
154 163 0
152 162 0
155 163 0
153 163 0
148 158 0
152 161 0
154 163 0
152 162 0
154 163 0
174 198 0
174 197 0
173 197 0
172 196 0
174 198 0
173 197 0
173 197 0
173 196 0
174 198 0
172 196 0
174 198 0
173 196 0
172 197 0
174 197 0
172 195 0
171 195 0
171 195 0
171 195 0
171 195 0
173 197 0
172 196 0
172 197 0
170 195 0
172 196 0
170 195 0
174 197 0
172 196 0
171 195 0
170 194 0
171 195 0
172 196 0
170 195 0
172 196 0
173 196 0
171 196 0
170 193 0
170 194 0
168 192 0
170 194 0
170 194 0
171 194 0
170 194 0
169 193 0
168 192 0
169 193 0
168 192 0
169 194 0
169 193 0
171 196 0
171 195 0
171 195 0
172 195 0
170 194 0
168 192 0
161 185 0
169 192 0
173 195 0
169 193 0
165 188 0
164 187 0
171 193 0
165 189 0
169 193 0
168 191 0
169 193 0
167 190 0
166 190 0
163 187 0
166 189 0
167 191 0
165 189 0
166 190 0
165 188 0
164 187 0
161 183 0
165 188 0
166 189 0
167 190 0
169 193 0
165 188 0
167 190 0
167 190 0
163 187 0
160 184 0
168 191 0
168 191 0
164 187 0
167 190 0
162 186 0
166 189 0
157 180 0
169 191 0
158 182 0
165 187 0
158 180 0
168 190 0
155 177 0
162 186 0
163 186 0
161 184 0
161 183 0
159 181 0
165 187 0
158 181 0
163 186 0
163 186 0
153 175 0
153 176 0
163 185 0
160 183 0
162 185 0
158 181 0
165 188 0
157 179 0
159 181 0
157 178 0
164 185 0
156 179 0
156 179 0
164 187 0
155 177 0
160 183 0
158 180 0
165 187 0
166 188 0
160 183 0
157 179 0
157 179 0
163 185 0
161 183 0
159 181 0
158 180 0
162 184 0
158 180 0
156 177 0
160 181 0
159 181 0
147 170 0
156 178 0
153 175 0
156 178 0
150 172 0
153 173 0
155 177 0
155 177 0
150 172 0
154 176 0
154 176 0
147 170 0
160 182 0
151 173 0
148 169 0
152 175 0
153 174 0
151 172 0
159 181 0
147 169 0
155 178 0
153 175 0
152 173 0
145 166 0
146 167 0
153 176 0
156 178 0
151 172 0
149 172 0
151 173 0
147 168 0
149 170 0
139 161 0
151 172 0
145 166 0
144 166 0
145 166 0
152 172 0
154 175 0
150 170 0
151 171 0
150 172 0
145 166 0
149 169 0
136 157 0
144 165 0
146 167 0
149 170 0
144 163 0
138 158 0
145 167 0
142 163 0
150 172 0
153 173 0
142 164 0
142 164 0
145 165 0
143 165 0
138 157 0
140 160 0
138 159 0
142 162 0
152 173 0
143 164 0
146 167 0
143 163 0
148 169 0
141 162 0
149 171 0
153 174 0
144 166 0
137 157 0
143 163 0
144 163 0
145 166 0
138 157 0
136 155 0
138 158 0
143 163 0
143 163 0
142 162 0
143 163 0
135 154 0
143 164 0
142 162 0
142 160 0
139 159 0
141 162 0
146 166 0
139 159 0
145 164 0
142 163 0
144 165 0
142 160 0
148 167 0
134 155 0
148 167 0
144 163 0
138 158 0
141 159 0
136 156 0
148 168 0
135 155 0
150 170 0
142 161 0
135 156 0
137 156 0
143 160 0
146 166 0
144 162 0
141 158 0
150 170 0
135 154 0
140 162 0
144 163 0
154 173 0
141 160 0
154 172 0
145 166 0
147 165 0
144 161 0
144 162 0
141 158 0
140 160 0
146 166 0
141 161 0
143 161 0
148 166 0
148 167 0
139 157 0
136 152 0
148 165 0
145 164 0
145 164 0
144 164 0
133 153 0
137 153 0
144 162 0
147 165 0
146 163 0
139 155 0
137 153 0
141 160 0
147 165 0
146 162 0
154 170 0
146 163 0
145 162 0
140 155 0
146 163 0
145 162 0
143 160 0
145 162 0
151 167 0
148 165 0
148 163 0
140 157 0
151 168 0
145 163 0
136 148 0
144 160 0
147 163 0
141 156 0
143 157 0
144 159 0
151 169 0
148 162 0
145 158 0
139 153 0
148 163 0
131 141 0
139 154 0
142 156 0
142 156 0
147 163 0
142 154 0
136 147 0
146 157 0
140 155 0
150 164 0
145 158 0
141 150 0
138 151 0
141 152 0
155 167 0
141 154 0
139 149 0
146 160 0
142 156 0
139 145 0
142 152 0
137 150 0
144 152 0
139 149 0
136 145 0
142 152 0
135 146 0
148 161 0
146 156 0
140 150 0
138 148 0
147 157 0
147 158 0
148 159 0
153 164 0
147 156 0
149 159 0
143 153 0
134 142 0
134 142 0
143 155 0
149 158 0
144 154 0
146 155 0
140 148 0
144 153 0
142 147 0
139 144 0
147 156 0
147 157 0
148 158 0
147 155 0
148 156 0
137 145 0
145 155 0
142 148 0
141 148 0
144 151 0
143 150 0
149 154 0
155 165 0
156 165 0
147 155 0
152 161 0
144 152 0
148 155 0
143 153 0
150 157 0
149 157 0
149 157 0
148 159 0
139 143 0
148 157 0
147 151 0
144 148 0
150 159 0
145 152 0
150 158 0
150 160 0
146 154 0
147 154 0
149 155 0
149 158 0
156 165 0
141 149 0
151 161 0
153 163 0
154 161 0
153 163 0
157 166 0
151 162 0
153 162 0
150 162 0
174 197 0
172 196 0
172 196 0
173 197 0
174 197 0
173 197 0
172 196 0
173 197 0
171 196 0
173 197 0
173 197 0
175 198 0
172 196 0
173 197 0
172 196 0
173 197 0
175 198 0
171 195 0
173 197 0
173 196 0
172 196 0
173 197 0
172 196 0
174 197 0
169 193 0
171 195 0
171 196 0
172 196 0
170 194 0
172 196 0
173 197 0
173 197 0
170 194 0
172 196 0
170 194 0
169 193 0
169 194 0
170 195 0
171 195 0
170 194 0
170 194 0
171 195 0
173 197 0
171 196 0
169 193 0
172 196 0
168 192 0
171 195 0
171 195 0
168 190 0
170 194 0
168 191 0
168 192 0
169 193 0
170 193 0
165 189 0
166 190 0
162 186 0
167 191 0
166 189 0
167 191 0
166 189 0
166 190 0
170 194 0
167 190 0
166 189 0
164 188 0
168 191 0
168 191 0
168 191 0
168 191 0
163 186 0
171 194 0
168 191 0
167 190 0
166 190 0
161 184 0
161 184 0
163 185 0
167 190 0
163 186 0
164 187 0
163 187 0
166 189 0
166 189 0
164 187 0
164 187 0
163 185 0
164 187 0
163 186 0
162 185 0
164 187 0
158 181 0
170 193 0
163 186 0
165 186 0
166 189 0
164 185 0
158 181 0
164 186 0
161 183 0
163 186 0
159 182 0
168 191 0
164 187 0
160 182 0
157 179 0
163 186 0
167 190 0
163 186 0
167 189 0
159 182 0
163 185 0
162 184 0
161 184 0
157 180 0
159 181 0
163 185 0
158 180 0
155 178 0
157 178 0
156 177 0
154 176 0
156 178 0
163 184 0
159 181 0
158 179 0
153 175 0
151 173 0
157 179 0
159 181 0
150 172 0
151 173 0
158 180 0
160 182 0
159 181 0
154 175 0
155 178 0
162 183 0
153 175 0
156 177 0
149 171 0
152 173 0
147 169 0
154 176 0
159 181 0
154 175 0
156 177 0
149 171 0
153 174 0
153 175 0
149 171 0
157 178 0
152 174 0
149 170 0
147 169 0
154 175 0
150 171 0
151 172 0
156 178 0
147 169 0
154 175 0
152 174 0
144 164 0
139 159 0
148 170 0
150 172 0
140 162 0
147 168 0
149 171 0
149 170 0
142 163 0
158 180 0
147 170 0
145 167 0
149 169 0
151 173 0
145 166 0
142 164 0
145 166 0
139 160 0
157 178 0
148 170 0
156 176 0
150 171 0
149 168 0
141 161 0
138 158 0
147 168 0
145 163 0
142 164 0
136 158 0
143 163 0
150 169 0
138 159 0
146 167 0
129 150 0
140 161 0
141 161 0
144 165 0
139 161 0
141 162 0
149 170 0
148 169 0
150 171 0
144 164 0
144 163 0
140 160 0
145 167 0
135 155 0
141 160 0
149 169 0
151 172 0
142 163 0
141 161 0
137 157 0
142 164 0
152 171 0
134 153 0
140 159 0
142 163 0
148 170 0
138 158 0
134 154 0
140 160 0
146 166 0
144 164 0
145 164 0
143 161 0
142 163 0
144 165 0
145 165 0
138 159 0
147 166 0
138 156 0
150 170 0
148 168 0
136 156 0
143 163 0
141 160 0
142 163 0
151 170 0
150 170 0
148 168 0
142 161 0
145 166 0
144 163 0
143 160 0
143 161 0
142 161 0
144 163 0
142 163 0
135 155 0
144 163 0
147 166 0
144 163 0
151 169 0
140 160 0
145 165 0
142 161 0
143 162 0
152 171 0
142 160 0
147 167 0
143 161 0
145 162 0
143 163 0
140 157 0
140 158 0
144 163 0
144 162 0
151 170 0
145 164 0
137 153 0
147 168 0
149 168 0
144 162 0
132 151 0
149 168 0
137 152 0
147 163 0
155 172 0
144 160 0
145 163 0
135 149 0
145 164 0
140 156 0
144 162 0
149 166 0
142 160 0
142 159 0
147 163 0
139 153 0
140 156 0
142 156 0
149 163 0
148 165 0
140 157 0
137 149 0
142 158 0
135 151 0
159 176 0
143 158 0
143 158 0
148 160 0
148 163 0
138 151 0
143 158 0
135 150 0
136 149 0
146 161 0
147 162 0
142 157 0
148 164 0
148 163 0
149 160 0
142 155 0
149 162 0
145 159 0
147 160 0
145 160 0
147 159 0
146 160 0
142 152 0
145 156 0
145 159 0
149 164 0
139 150 0
140 150 0
145 158 0
151 164 0
152 163 0
144 155 0
141 151 0
149 161 0
150 163 0
145 156 0
146 157 0
147 161 0
148 161 0
144 156 0
150 162 0
142 152 0
138 147 0
147 160 0
137 147 0
146 155 0
138 147 0
136 145 0
143 151 0
143 151 0
149 157 0
148 156 0
155 165 0
142 151 0
141 152 0
148 156 0
136 142 0
143 152 0
152 164 0
147 155 0
147 155 0
144 150 0
145 153 0
143 150 0
150 158 0
150 160 0
155 164 0
147 157 0
147 156 0
152 163 0
144 149 0
147 154 0
154 163 0
147 153 0
156 168 0
155 165 0
155 164 0
151 160 0
153 166 0
155 167 0
147 155 0
149 156 0
146 156 0
149 156 0
151 157 0
157 166 0
152 159 0
156 165 0
158 168 0
150 158 0
155 166 0
154 162 0
153 164 0
152 160 0
143 150 0
158 170 0
157 169 0
151 161 0
157 168 0
173 197 0
173 196 0
173 197 0
173 196 0
172 196 0
175 198 0
172 195 0
174 197 0
172 195 0
173 197 0
173 197 0
172 195 0
173 197 0
172 196 0
170 194 0
173 197 0
173 197 0
171 196 0
172 196 0
170 194 0
172 196 0
174 198 0
170 194 0
171 195 0
171 195 0
172 196 0
174 197 0
172 196 0
173 197 0
172 196 0
172 196 0
169 192 0
170 195 0
171 195 0
169 194 0
170 194 0
167 191 0
171 195 0
169 193 0
169 192 0
171 195 0
171 195 0
168 192 0
168 191 0
170 194 0
167 192 0
172 196 0
171 195 0
171 195 0
169 193 0
166 190 0
166 190 0
167 191 0
169 193 0
170 192 0
171 194 0
168 192 0
168 191 0
167 190 0
171 194 0
168 191 0
166 189 0
169 192 0
166 189 0
170 193 0
167 191 0
164 188 0
165 189 0
168 191 0
164 188 0
167 191 0
163 186 0
165 188 0
170 192 0
159 182 0
168 191 0
163 186 0
169 192 0
163 186 0
169 191 0
162 184 0
161 184 0
169 192 0
166 189 0
159 182 0
171 194 0
167 189 0
167 190 0
167 191 0
164 186 0
164 188 0
166 189 0
162 185 0
161 184 0
164 187 0
154 176 0
162 185 0
165 188 0
156 178 0
163 185 0
156 178 0
160 182 0
159 182 0
161 182 0
162 185 0
163 185 0
164 188 0
165 187 0
154 177 0
163 185 0
162 185 0
154 176 0
160 183 0
165 188 0
166 189 0
161 184 0
155 177 0
158 180 0
160 182 0
156 177 0
158 180 0
164 185 0
158 180 0
157 179 0
162 182 0
157 179 0
155 177 0
162 183 0
160 181 0
160 182 0
166 188 0
157 180 0
156 178 0
161 183 0
147 170 0
151 173 0
158 181 0
150 173 0
154 176 0
159 180 0
156 179 0
148 169 0
159 181 0
151 172 0
155 177 0
154 176 0
157 179 0
154 176 0
154 176 0
150 171 0
155 175 0
160 181 0
153 176 0
153 175 0
148 170 0
150 171 0
151 172 0
146 167 0
153 175 0
152 172 0
151 172 0
152 174 0
149 170 0
147 167 0
149 171 0
146 167 0
154 175 0
142 164 0
157 179 0
151 173 0
148 170 0
149 171 0
146 167 0
134 154 0
144 165 0
150 171 0
145 166 0
150 171 0
150 172 0
152 173 0
154 176 0
143 165 0
138 159 0
143 164 0
142 164 0
148 168 0
155 177 0
148 171 0
136 157 0
143 165 0
145 167 0
142 163 0
148 170 0
145 165 0
142 163 0
150 171 0
148 170 0
140 161 0
130 150 0
147 169 0
146 167 0
138 158 0
145 166 0
151 171 0
146 166 0
146 167 0
139 159 0
140 159 0
141 160 0
149 170 0
146 167 0
143 163 0
140 161 0
135 155 0
137 157 0
144 164 0
145 167 0
134 155 0
146 165 0
138 158 0
142 164 0
141 161 0
147 167 0
148 167 0
145 165 0
134 155 0
146 167 0
146 166 0
137 156 0
143 162 0
146 168 0
138 156 0
137 158 0
145 165 0
144 167 0
142 162 0
144 164 0
139 157 0
146 165 0
138 159 0
143 164 0
137 157 0
143 162 0
141 161 0
148 166 0
148 167 0
144 163 0
143 162 0
141 160 0
156 177 0
142 163 0
140 159 0
140 161 0
145 163 0
140 159 0
139 157 0
141 161 0
137 158 0
143 164 0
148 168 0
145 164 0
143 161 0
150 168 0
142 160 0
138 157 0
140 159 0
143 161 0
142 160 0
151 169 0
153 173 0
147 164 0
151 169 0
145 164 0
141 159 0
148 166 0
140 158 0
149 170 0
142 157 0
143 160 0
144 160 0
151 169 0
148 165 0
140 158 0
150 170 0
141 158 0
145 162 0
148 164 0
150 166 0
146 164 0
143 161 0
143 158 0
143 160 0
151 169 0
140 155 0
144 161 0
137 152 0
147 160 0
147 162 0
148 166 0
150 167 0
141 157 0
154 170 0
145 159 0
149 165 0
146 162 0
146 160 0
136 153 0
146 160 0
149 164 0
144 157 0
142 158 0
142 156 0
146 162 0
140 153 0
142 154 0
140 154 0
138 153 0
140 154 0
149 163 0
146 157 0
132 145 0
149 163 0
148 162 0
145 158 0
138 151 0
143 155 0
147 158 0
146 159 0
137 148 0
131 139 0
148 160 0
143 153 0
140 151 0
145 156 0
144 155 0
146 157 0
146 158 0
149 161 0
149 159 0
138 149 0
147 157 0
145 156 0
147 159 0
141 149 0
150 160 0
143 155 0
142 152 0
146 154 0
137 147 0
147 156 0
145 154 0
150 161 0
139 145 0
150 160 0
142 150 0
134 145 0
149 159 0
137 143 0
145 154 0
151 158 0
146 155 0
143 154 0
150 161 0
147 153 0
144 151 0
147 159 0
143 151 0
145 151 0
156 163 0
142 147 0
148 155 0
147 155 0
154 164 0
149 157 0
144 152 0
150 160 0
155 161 0
151 161 0
145 154 0
148 156 0
151 160 0
148 155 0
147 157 0
150 161 0
151 160 0
149 159 0
155 165 0
148 156 0
152 161 0
151 159 0
148 157 0
149 158 0
150 161 0
143 152 0
161 171 0
155 165 0
157 167 0
162 174 0
162 173 0
148 157 0
175 198 0
174 197 0
173 197 0
173 197 0
173 197 0
173 197 0
173 197 0
173 197 0
173 197 0
173 196 0
170 195 0
171 195 0
169 193 0
171 195 0
172 196 0
171 195 0
173 197 0
173 197 0
173 197 0
171 195 0
172 196 0
174 197 0
170 194 0
172 196 0
171 195 0
172 196 0
171 195 0
172 196 0
171 196 0
169 194 0
171 195 0
168 191 0
172 196 0
168 193 0
171 196 0
170 194 0
170 194 0
169 193 0
169 192 0
169 193 0
169 192 0
171 195 0
169 192 0
164 187 0
170 193 0
170 194 0
168 191 0
170 193 0
168 192 0
172 195 0
171 195 0
169 193 0
168 191 0
166 189 0
170 194 0
170 194 0
166 189 0
167 191 0
169 193 0
166 189 0
168 192 0
167 190 0
163 187 0
170 193 0
169 192 0
166 189 0
163 186 0
167 190 0
167 190 0
164 187 0
165 189 0
172 194 0
164 188 0
166 190 0
165 188 0
164 187 0
167 190 0
164 188 0
167 190 0
169 192 0
168 190 0
167 190 0
161 183 0
159 181 0
158 181 0
166 188 0
166 189 0
161 184 0
167 189 0
165 188 0
162 184 0
160 182 0
166 188 0
159 182 0
161 185 0
166 189 0
162 185 0
156 178 0
160 182 0
164 186 0
166 188 0
165 187 0
163 185 0
155 177 0
161 185 0
164 187 0
158 180 0
156 179 0
164 186 0
164 186 0
155 177 0
163 186 0
166 188 0
162 185 0
164 186 0
166 188 0
158 181 0
158 181 0
164 185 0
158 179 0
154 176 0
156 179 0
160 183 0
164 185 0
162 184 0
157 179 0
169 192 0
160 183 0
160 182 0
155 177 0
158 180 0
156 177 0
157 180 0
155 178 0
153 174 0
159 181 0
149 171 0
152 174 0
147 169 0
163 185 0
155 175 0
147 168 0
161 182 0
148 169 0
158 181 0
156 178 0
153 176 0
154 175 0
148 170 0
146 168 0
156 177 0
151 174 0
153 174 0
153 174 0
150 172 0
149 171 0
153 175 0
160 182 0
155 178 0
157 178 0
149 170 0
148 170 0
148 170 0
151 171 0
149 170 0
146 167 0
153 174 0
155 177 0
152 173 0
154 175 0
143 163 0
152 175 0
143 165 0
154 177 0
150 170 0
149 170 0
143 165 0
150 169 0
149 169 0
146 169 0
150 171 0
146 167 0
142 163 0
144 164 0
148 170 0
144 165 0
154 175 0
145 164 0
149 170 0
149 171 0
145 167 0
141 163 0
141 163 0
150 171 0
153 174 0
146 168 0
133 154 0
152 173 0
139 159 0
145 166 0
149 171 0
138 159 0
146 168 0
153 172 0
141 162 0
143 164 0
143 164 0
150 171 0
141 162 0
141 162 0
141 161 0
147 169 0
137 158 0
141 162 0
145 165 0
137 157 0
148 169 0
144 162 0
144 165 0
142 162 0
144 165 0
144 165 0
141 161 0
144 165 0
142 163 0
136 156 0
135 156 0
150 170 0
137 157 0
140 160 0
145 167 0
148 167 0
133 151 0
140 158 0
145 166 0
148 167 0
147 168 0
142 161 0
140 160 0
147 167 0
146 166 0
142 161 0
146 167 0
144 164 0
138 158 0
137 157 0
148 168 0
142 162 0
134 154 0
141 161 0
146 164 0
156 178 0
148 169 0
140 158 0
140 159 0
142 160 0
142 160 0
153 173 0
150 170 0
148 167 0
136 153 0
144 164 0
144 161 0
144 163 0
139 158 0
145 165 0
145 164 0
141 160 0
156 174 0
138 155 0
145 165 0
140 159 0
147 164 0
143 159 0
152 169 0
148 167 0
144 164 0
148 165 0
148 165 0
142 160 0
153 169 0
149 167 0
141 160 0
147 163 0
150 170 0
149 167 0
151 168 0
143 159 0
140 154 0
140 156 0
149 164 0
148 166 0
139 155 0
144 160 0
142 158 0
144 159 0
146 163 0
147 165 0
144 161 0
140 156 0
144 159 0
144 160 0
148 163 0
145 162 0
143 158 0
148 165 0
145 159 0
140 156 0
141 155 0
138 155 0
157 173 0
146 159 0
143 156 0
144 158 0
144 158 0
156 170 0
148 164 0
148 162 0
143 156 0
137 151 0
145 159 0
139 153 0
144 154 0
144 158 0
148 163 0
137 151 0
142 155 0
144 156 0
154 169 0
153 166 0
144 156 0
148 159 0
144 158 0
152 163 0
146 159 0
149 162 0
153 167 0
147 159 0
151 164 0
148 162 0
149 159 0
144 154 0
144 155 0
152 164 0
142 152 0
144 154 0
149 161 0
144 151 0
151 163 0
138 147 0
144 155 0
140 150 0
139 149 0
142 150 0
147 156 0
146 154 0
148 159 0
144 154 0
147 154 0
148 155 0
140 147 0
149 161 0
142 150 0
156 165 0
139 148 0
148 155 0
153 164 0
151 159 0
156 166 0
145 153 0
156 166 0
149 158 0
153 161 0
148 157 0
151 160 0
149 157 0
152 160 0
150 159 0
148 158 0
151 160 0
146 155 0
144 154 0
151 159 0
144 153 0
148 157 0
151 161 0
153 165 0
148 159 0
149 156 0
144 153 0
157 165 0
150 160 0
155 163 0
159 172 0
144 155 0
151 159 0
150 158 0
158 169 0
154 161 0
155 165 0
171 195 0
172 196 0
173 197 0
175 198 0
175 198 0
172 196 0
172 196 0
172 196 0
174 197 0
173 197 0
172 196 0
173 196 0
174 197 0
171 195 0
173 195 0
172 196 0
173 197 0
171 195 0
170 194 0
174 197 0
173 196 0
171 195 0
171 195 0
170 194 0
169 193 0
169 194 0
171 196 0
170 194 0
171 194 0
170 193 0
169 194 0
172 195 0
169 193 0
172 196 0
171 195 0
169 193 0
167 190 0
167 191 0
171 195 0
169 192 0
171 194 0
172 196 0
169 193 0
170 194 0
171 194 0
166 190 0
168 191 0
172 196 0
165 189 0
168 192 0
168 192 0
170 194 0
166 189 0
169 192 0
170 193 0
167 190 0
166 189 0
162 185 0
172 195 0
166 190 0
170 193 0
167 190 0
169 193 0
166 189 0
167 191 0
163 187 0
165 189 0
168 192 0
167 190 0
164 187 0
165 188 0
170 192 0
166 190 0
169 191 0
167 191 0
164 187 0
167 191 0
167 191 0
168 191 0
163 186 0
163 185 0
162 185 0
159 182 0
167 190 0
168 191 0
160 183 0
166 189 0
161 184 0
158 180 0
169 191 0
164 188 0
169 192 0
162 185 0
165 187 0
156 179 0
159 182 0
160 184 0
164 187 0
163 185 0
168 191 0
162 185 0
162 184 0
163 186 0
160 182 0
161 183 0
164 186 0
161 184 0
161 182 0
161 184 0
160 183 0
157 180 0
162 184 0
165 187 0
155 177 0
158 180 0
165 187 0
166 188 0
154 175 0
161 182 0
159 181 0
165 187 0
163 184 0
168 190 0
155 177 0
160 182 0
159 182 0
156 177 0
155 177 0
155 177 0
156 179 0
154 176 0
157 179 0
162 184 0
162 183 0
156 178 0
157 179 0
154 176 0
157 179 0
150 173 0
153 175 0
155 178 0
158 180 0
155 177 0
157 179 0
156 179 0
155 176 0
151 174 0
159 181 0
164 186 0
151 173 0
148 169 0
161 183 0
153 176 0
161 181 0
156 177 0
143 165 0
152 174 0
145 167 0
155 177 0
137 158 0
156 178 0
149 171 0
156 177 0
156 177 0
142 164 0
151 173 0
147 169 0
150 172 0
150 171 0
152 172 0
147 169 0
148 168 0
152 173 0
149 171 0
151 173 0
150 171 0
143 163 0
143 165 0
152 173 0
150 171 0
142 163 0
146 168 0
146 166 0
139 160 0
147 167 0
146 166 0
150 171 0
146 167 0
146 166 0
148 169 0
146 167 0
147 168 0
147 168 0
155 175 0
143 164 0
148 169 0
148 168 0
150 170 0
153 174 0
142 162 0
151 170 0
141 162 0
150 172 0
152 172 0
141 161 0
144 165 0
145 166 0
149 171 0
149 169 0
148 170 0
149 169 0
147 166 0
150 170 0
144 165 0
145 165 0
147 168 0
142 161 0
144 164 0
143 163 0
151 171 0
140 160 0
145 165 0
146 165 0
142 163 0
143 163 0
138 159 0
153 174 0
144 165 0
148 167 0
147 167 0
148 168 0
146 166 0
144 164 0
150 171 0
150 169 0
147 168 0
139 159 0
143 163 0
143 164 0
143 163 0
144 164 0
144 165 0
142 162 0
127 148 0
148 168 0
141 160 0
138 156 0
143 162 0
143 162 0
143 161 0
150 170 0
140 158 0
148 165 0
139 161 0
142 160 0
150 170 0
141 160 0
150 169 0
150 170 0
146 165 0
147 165 0
146 167 0
142 160 0
149 169 0
152 172 0
140 158 0
146 164 0
146 164 0
142 162 0
145 164 0
146 166 0
147 166 0
140 158 0
139 159 0
142 161 0
155 174 0
138 155 0
151 170 0
148 166 0
146 165 0
135 151 0
150 168 0
145 162 0
144 162 0
154 172 0
149 166 0
145 162 0
145 161 0
145 160 0
145 161 0
142 159 0
136 154 0
147 165 0
154 170 0
146 161 0
147 165 0
144 158 0
146 163 0
141 157 0
153 169 0
146 161 0
145 161 0
140 154 0
136 151 0
150 166 0
145 162 0
145 160 0
145 161 0
142 155 0
150 166 0
144 159 0
146 160 0
151 167 0
154 167 0
150 167 0
147 162 0
146 163 0
146 161 0
144 158 0
140 154 0
146 161 0
147 160 0
147 162 0
147 160 0
147 159 0
146 161 0
148 164 0
149 163 0
146 159 0
138 150 0
141 153 0
153 167 0
146 161 0
144 154 0
147 159 0
147 160 0
147 160 0
148 160 0
146 158 0
155 170 0
139 150 0
146 158 0
150 163 0
148 160 0
146 156 0
144 155 0
150 160 0
154 166 0
147 158 0
150 162 0
147 156 0
143 155 0
146 154 0
147 159 0
145 156 0
148 156 0
140 146 0
138 148 0
143 151 0
149 158 0
150 161 0
151 161 0
144 150 0
157 169 0
149 159 0
149 160 0
147 158 0
148 158 0
152 163 0
144 150 0
147 158 0
146 153 0
151 159 0
147 154 0
150 157 0
159 168 0
153 163 0
149 156 0
150 161 0
145 151 0
153 162 0
148 158 0
149 156 0
152 162 0
148 158 0
153 163 0
158 169 0
145 153 0
153 162 0
154 161 0
150 156 0
148 155 0
153 166 0
152 161 0
155 165 0
155 164 0
148 157 0
154 166 0
154 164 0
158 168 0
174 197 0
174 198 0
174 197 0
173 197 0
173 197 0
171 195 0
171 195 0
169 192 0
171 195 0
173 196 0
171 194 0
172 196 0
173 196 0
170 195 0
170 194 0
171 195 0
172 196 0
171 195 0
173 196 0
171 194 0
173 196 0
170 194 0
169 192 0
173 197 0
172 196 0
174 197 0
172 196 0
172 196 0
171 195 0
170 194 0
171 195 0
171 196 0
171 194 0
171 195 0
170 194 0
171 194 0
166 189 0
170 194 0
170 194 0
168 192 0
169 192 0
172 195 0
169 192 0
171 195 0
168 192 0
169 192 0
170 194 0
167 191 0
171 195 0
170 194 0
169 193 0
159 182 0
168 191 0
164 186 0
167 189 0
166 189 0
175 198 0
166 189 0
167 190 0
169 192 0
169 192 0
167 189 0
167 190 0
170 193 0
169 193 0
166 189 0
162 185 0
167 190 0
168 192 0
166 189 0
170 192 0
168 191 0
164 187 0
168 192 0
168 191 0
161 184 0
165 188 0
163 186 0
165 187 0
162 185 0
163 187 0
163 186 0
165 188 0
169 192 0
166 190 0
162 185 0
165 188 0
169 191 0
169 191 0
162 185 0
165 188 0
163 185 0
164 186 0
164 186 0
163 186 0
164 186 0
158 181 0
164 187 0
161 184 0
158 181 0
159 182 0
162 184 0
161 183 0
160 183 0
165 187 0
165 187 0
162 184 0
163 186 0
158 180 0
159 182 0
162 184 0
156 178 0
163 185 0
162 185 0
155 177 0
160 181 0
157 179 0
162 185 0
153 176 0
157 178 0
163 186 0
155 178 0
155 178 0
159 180 0
163 184 0
151 173 0
159 181 0
166 189 0
152 174 0
153 176 0
162 184 0
160 183 0
153 174 0
163 185 0
155 177 0
149 172 0
156 179 0
152 173 0
156 178 0
161 182 0
154 174 0
159 181 0
154 176 0
152 173 0
155 176 0
151 172 0
143 165 0
154 176 0
155 175 0
146 167 0
150 172 0
160 181 0
147 168 0
152 172 0
155 177 0
159 181 0
152 174 0
150 172 0
147 168 0
152 174 0
155 177 0
157 179 0
157 179 0
153 174 0
148 168 0
148 169 0
153 174 0
152 173 0
153 176 0
150 171 0
153 175 0
152 173 0
153 176 0
148 169 0
156 177 0
150 171 0
148 169 0
145 166 0
147 169 0
147 168 0
150 171 0
141 162 0
145 166 0
151 172 0
149 170 0
140 160 0
150 171 0
145 167 0
150 171 0
143 163 0
150 172 0
153 175 0
148 169 0
152 173 0
146 167 0
149 170 0
142 164 0
148 168 0
137 158 0
139 160 0
147 168 0
141 161 0
147 169 0
150 170 0
149 171 0
155 176 0
154 175 0
146 165 0
141 162 0
140 161 0
149 169 0
145 165 0
140 160 0
144 164 0
149 168 0
143 163 0
148 168 0
149 169 0
148 170 0
150 172 0
142 163 0
138 158 0
148 169 0
148 168 0
137 156 0
146 166 0
140 161 0
147 166 0
140 160 0
143 164 0
140 160 0
146 165 0
147 169 0
141 159 0
137 157 0
153 175 0
150 170 0
149 168 0
145 165 0
147 167 0
142 162 0
142 162 0
146 165 0
147 169 0
141 163 0
144 165 0
148 167 0
139 159 0
137 156 0
146 166 0
145 166 0
147 167 0
142 164 0
139 158 0
146 165 0
142 161 0
143 162 0
151 170 0
146 164 0
144 161 0
149 167 0
149 167 0
148 169 0
139 158 0
144 163 0
144 162 0
146 167 0
149 169 0
141 159 0
150 170 0
150 169 0
142 162 0
138 154 0
146 164 0
152 171 0
143 161 0
147 164 0
151 168 0
144 163 0
154 173 0
142 159 0
143 161 0
147 165 0
149 168 0
150 169 0
152 171 0
149 166 0
142 160 0
139 157 0
150 168 0
151 167 0
145 163 0
144 157 0
144 164 0
151 169 0
142 159 0
143 159 0
150 166 0
146 162 0
146 163 0
148 166 0
148 165 0
150 166 0
148 161 0
143 158 0
144 160 0
145 161 0
142 156 0
145 162 0
144 160 0
150 166 0
142 159 0
142 157 0
144 161 0
141 156 0
148 163 0
148 164 0
144 159 0
145 160 0
143 156 0
144 157 0
144 159 0
145 160 0
148 162 0
148 161 0
147 161 0
146 158 0
147 160 0
149 161 0
158 173 0
149 162 0
146 159 0
155 169 0
148 161 0
145 160 0
132 140 0
150 162 0
144 154 0
150 164 0
144 155 0
148 160 0
143 155 0
143 154 0
150 160 0
146 155 0
146 158 0
144 156 0
148 160 0
150 163 0
152 166 0
152 164 0
146 156 0
145 156 0
149 157 0
155 168 0
147 155 0
149 158 0
146 154 0
149 158 0
145 153 0
145 153 0
146 155 0
146 159 0
152 165 0
152 163 0
147 158 0
144 153 0
142 148 0
158 168 0
152 162 0
152 164 0
151 162 0
147 155 0
157 170 0
152 160 0
144 150 0
149 157 0
151 160 0
144 151 0
152 161 0
154 165 0
148 155 0
148 159 0
151 158 0
150 161 0
152 158 0
152 163 0
153 160 0
158 171 0
152 162 0
152 160 0
155 163 0
149 161 0
149 157 0
151 161 0
156 169 0
157 167 0
151 162 0
149 158 0
154 164 0
171 194 0
173 197 0
172 196 0
174 197 0
173 197 0
173 196 0
171 196 0
173 197 0
173 196 0
172 196 0
172 196 0
170 194 0
172 195 0
174 198 0
173 197 0
172 196 0
171 196 0
172 196 0
174 197 0
172 196 0
172 196 0
169 192 0
171 195 0
174 198 0
172 196 0
170 194 0
173 197 0
170 194 0
171 195 0
170 194 0
170 194 0
169 193 0
173 196 0
170 193 0
168 192 0
169 193 0
171 194 0
170 194 0
167 192 0
171 195 0
171 194 0
171 195 0
171 194 0
169 192 0
167 190 0
169 193 0
168 191 0
168 192 0
170 192 0
168 191 0
172 196 0
170 193 0
168 191 0
162 185 0
167 191 0
168 191 0
171 194 0
169 193 0
171 194 0
165 188 0
165 189 0
169 193 0
162 185 0
170 193 0
169 192 0
165 189 0
170 194 0
169 191 0
163 186 0
169 192 0
162 185 0
164 187 0
167 190 0
158 181 0
167 189 0
163 186 0
166 189 0
158 181 0
166 188 0
164 187 0
161 185 0
161 184 0
168 191 0
165 189 0
167 190 0
164 187 0
164 186 0
161 184 0
167 189 0
161 183 0
164 185 0
166 188 0
164 187 0
165 188 0
160 183 0
157 179 0
161 184 0
166 188 0
169 192 0
165 187 0
168 190 0
161 184 0
165 188 0
166 189 0
161 184 0
160 182 0
156 179 0
165 187 0
159 181 0
169 190 0
164 186 0
165 187 0
160 182 0
154 177 0
155 177 0
161 183 0
151 173 0
164 186 0
162 184 0
155 178 0
160 183 0
156 179 0
162 185 0
155 178 0
161 183 0
158 180 0
149 171 0
158 180 0
156 178 0
155 177 0
155 177 0
154 177 0
157 178 0
158 180 0
161 183 0
156 179 0
164 186 0
157 179 0
159 182 0
164 185 0
159 180 0
161 182 0
154 176 0
155 177 0
157 179 0
154 176 0
152 173 0
158 179 0
154 176 0
152 172 0
160 180 0
158 180 0
149 170 0
160 182 0
148 170 0
146 167 0
158 180 0
157 179 0
151 172 0
153 174 0
155 177 0
155 177 0
155 176 0
155 175 0
145 167 0
154 177 0
150 172 0
156 177 0
149 170 0
156 178 0
150 171 0
148 170 0
144 167 0
151 172 0
147 167 0
152 173 0
152 174 0
151 171 0
139 159 0
137 160 0
150 171 0
153 174 0
152 174 0
155 177 0
143 164 0
143 164 0
146 167 0
151 173 0
149 169 0
148 170 0
146 168 0
149 169 0
150 171 0
150 171 0
143 164 0
145 165 0
160 180 0
149 172 0
147 167 0
149 169 0
142 163 0
147 168 0
150 172 0
158 180 0
144 165 0
151 173 0
136 155 0
149 170 0
145 166 0
145 166 0
141 162 0
148 169 0
137 157 0
147 166 0
156 178 0
147 169 0
142 163 0
151 173 0
147 168 0
147 167 0
141 164 0
145 166 0
142 164 0
144 164 0
146 165 0
149 169 0
139 159 0
149 170 0
143 163 0
141 160 0
146 165 0
145 165 0
152 171 0
145 165 0
137 159 0
148 168 0
138 157 0
145 165 0
144 164 0
147 167 0
148 170 0
142 161 0
143 162 0
138 158 0
148 168 0
147 168 0
147 168 0
149 169 0
145 165 0
127 146 0
147 167 0
141 160 0
146 166 0
144 162 0
150 170 0
146 164 0
149 170 0
147 166 0
145 164 0
144 162 0
148 166 0
146 165 0
152 172 0
145 164 0
135 152 0
141 159 0
146 165 0
149 169 0
143 161 0
147 166 0
150 168 0
143 162 0
145 165 0
151 168 0
141 159 0
146 164 0
146 164 0
143 162 0
144 162 0
141 161 0
149 167 0
141 158 0
152 171 0
157 174 0
148 166 0
141 159 0
151 169 0
149 166 0
150 167 0
145 162 0
147 164 0
146 163 0
153 172 0
147 164 0
151 165 0
146 164 0
146 159 0
152 170 0
145 161 0
144 157 0
148 164 0
152 171 0
151 167 0
145 163 0
142 159 0
146 161 0
147 162 0
144 161 0
156 173 0
141 157 0
146 162 0
145 161 0
152 167 0
143 156 0
154 170 0
148 163 0
142 156 0
148 163 0
144 155 0
142 156 0
152 165 0
149 164 0
146 159 0
152 168 0
142 153 0
150 164 0
144 159 0
150 165 0
149 163 0
148 162 0
146 161 0
147 161 0
147 162 0
142 153 0
149 165 0
151 163 0
153 168 0
145 161 0
147 160 0
144 156 0
148 160 0
147 157 0
148 160 0
148 161 0
143 156 0
159 171 0
147 161 0
145 158 0
146 159 0
145 156 0
150 161 0
147 159 0
144 156 0
144 154 0
144 154 0
150 160 0
148 160 0
149 156 0
152 165 0
156 165 0
148 159 0
152 163 0
150 161 0
145 156 0
145 151 0
151 161 0
149 157 0
151 163 0
151 160 0
155 165 0
143 152 0
143 154 0
151 162 0
156 167 0
154 162 0
148 157 0
152 163 0
145 156 0
148 156 0
153 163 0
144 151 0
145 154 0
155 166 0
149 157 0
143 152 0
151 163 0
155 168 0
151 162 0
154 162 0
149 158 0
164 178 0
156 166 0
151 160 0
152 162 0
150 158 0
152 163 0
156 167 0
156 166 0
149 160 0
155 165 0
174 197 0
175 198 0
172 196 0
172 194 0
174 198 0
173 196 0
174 198 0
171 194 0
173 197 0
170 194 0
170 193 0
174 198 0
171 195 0
172 195 0
170 194 0
171 195 0
174 197 0
171 194 0
171 195 0
172 196 0
173 196 0
170 194 0
173 197 0
171 195 0
170 193 0
172 196 0
174 197 0
173 196 0
170 195 0
171 194 0
171 195 0
171 195 0
168 191 0
171 194 0
173 196 0
172 196 0
171 195 0
170 194 0
168 191 0
170 193 0
170 194 0
168 191 0
167 190 0
167 190 0
172 196 0
168 191 0
171 194 0
170 193 0
172 195 0
169 192 0
169 191 0
160 184 0
169 191 0
168 191 0
170 193 0
166 188 0
168 190 0
166 189 0
171 194 0
169 190 0
165 189 0
165 189 0
167 190 0
168 192 0
167 190 0
168 191 0
166 188 0
164 187 0
168 190 0
170 193 0
167 190 0
165 188 0
162 185 0
166 189 0
165 188 0
159 181 0
166 188 0
162 185 0
163 186 0
163 186 0
162 185 0
160 183 0
168 191 0
165 188 0
168 191 0
167 189 0
166 189 0
163 187 0
166 189 0
165 187 0
166 189 0
169 191 0
163 185 0
164 187 0
162 184 0
166 188 0
161 184 0
160 182 0
164 186 0
161 182 0
166 188 0
163 185 0
167 190 0
160 181 0
165 188 0
162 185 0
160 182 0
166 189 0
162 185 0
161 182 0
164 187 0
164 185 0
163 185 0
164 187 0
160 182 0
152 174 0
170 192 0
159 182 0
154 176 0
161 183 0
156 178 0
159 181 0
158 181 0
158 180 0
160 181 0
164 186 0
162 184 0
158 179 0
157 180 0
157 180 0
158 180 0
152 173 0
159 181 0
158 180 0
158 180 0
157 178 0
154 176 0
157 179 0
156 178 0
159 181 0
161 183 0
154 176 0
158 180 0
149 171 0
154 177 0
155 178 0
148 169 0
155 176 0
158 179 0
151 172 0
159 181 0
152 173 0
155 177 0
155 178 0
148 170 0
150 171 0
156 178 0
157 179 0
155 177 0
158 180 0
155 177 0
148 170 0
150 173 0
156 177 0
156 177 0
146 168 0
151 172 0
155 176 0
154 176 0
151 172 0
150 170 0
157 180 0
155 176 0
147 168 0
148 169 0
146 167 0
152 175 0
153 174 0
155 174 0
149 170 0
147 168 0
151 173 0
149 169 0
145 167 0
149 169 0
147 168 0
144 166 0
148 170 0
152 173 0
142 164 0
148 169 0
156 178 0
150 170 0
144 163 0
149 170 0
150 171 0
147 170 0
145 167 0
157 178 0
156 176 0
144 165 0
145 166 0
141 161 0
151 172 0
137 156 0
141 163 0
150 170 0
148 168 0
141 161 0
151 173 0
145 166 0
141 162 0
149 170 0
140 162 0
147 168 0
147 166 0
145 166 0
156 176 0
142 163 0
152 174 0
138 157 0
149 170 0
146 167 0
142 163 0
147 168 0
143 164 0
141 160 0
150 171 0
147 166 0
148 168 0
145 165 0
144 164 0
136 156 0
142 162 0
138 159 0
143 163 0
151 170 0
147 167 0
146 165 0
145 165 0
151 173 0
145 165 0
150 170 0
141 161 0
147 167 0
144 164 0
142 161 0
145 165 0
148 168 0
145 163 0
143 163 0
140 158 0
151 172 0
152 172 0
147 167 0
147 168 0
149 169 0
145 163 0
151 169 0
146 164 0
143 163 0
143 161 0
147 166 0
154 172 0
151 171 0
148 169 0
151 171 0
145 164 0
153 173 0
152 172 0
149 170 0
140 159 0
145 164 0
142 162 0
154 171 0
152 171 0
143 160 0
146 163 0
144 162 0
152 170 0
140 158 0
142 160 0
142 160 0
151 170 0
146 165 0
148 164 0
142 159 0
144 161 0
152 170 0
146 163 0
144 162 0
157 173 0
146 163 0
152 170 0
156 175 0
150 167 0
149 167 0
144 163 0
152 170 0
145 160 0
148 166 0
148 163 0
144 160 0
146 162 0
148 164 0
150 167 0
141 155 0
149 167 0
143 158 0
136 150 0
148 164 0
149 165 0
141 157 0
146 165 0
156 171 0
150 164 0
152 169 0
154 170 0
154 170 0
148 162 0
151 166 0
150 163 0
151 167 0
151 167 0
144 156 0
145 159 0
146 162 0
148 160 0
143 157 0
145 156 0
146 158 0
142 156 0
152 167 0
149 165 0
153 168 0
140 153 0
141 156 0
148 158 0
155 169 0
149 159 0
144 156 0
145 158 0
145 157 0
151 163 0
149 162 0
144 157 0
148 158 0
151 163 0
151 163 0
155 169 0
144 155 0
144 156 0
148 158 0
149 160 0
147 160 0
151 165 0
156 167 0
151 162 0
153 166 0
151 160 0
150 162 0
153 167 0
141 152 0
153 164 0
149 157 0
147 159 0
151 163 0
151 162 0
157 169 0
145 154 0
159 170 0
151 162 0
147 158 0
152 164 0
155 167 0
156 167 0
159 171 0
151 162 0
145 155 0
155 165 0
154 163 0
149 158 0
145 154 0
152 163 0
155 168 0
159 170 0
150 161 0
146 153 0
163 175 0
153 165 0
154 163 0
159 170 0
146 153 0
159 173 0
157 167 0
155 167 0
155 164 0
154 164 0
161 173 0
144 152 0
173 196 0
175 198 0
173 196 0
171 195 0
174 197 0
173 196 0
173 197 0
174 197 0
173 197 0
174 198 0
173 197 0
171 194 0
172 196 0
172 196 0
171 195 0
171 195 0
171 195 0
169 192 0
174 198 0
170 194 0
171 195 0
170 193 0
169 193 0
172 196 0
171 195 0
171 194 0
171 193 0
169 193 0
171 194 0
168 192 0
169 193 0
167 191 0
168 191 0
172 196 0
171 194 0
169 193 0
169 192 0
174 197 0
170 193 0
168 191 0
169 193 0
168 191 0
171 195 0
168 192 0
166 189 0
169 192 0
172 195 0
168 190 0
171 194 0
169 192 0
169 192 0
169 192 0
167 190 0
164 186 0
166 190 0
172 195 0
167 190 0
172 195 0
169 192 0
169 192 0
167 191 0
167 190 0
167 190 0
169 193 0
168 191 0
166 189 0
166 189 0
168 191 0
165 188 0
169 192 0
165 188 0
169 192 0
165 188 0
164 187 0
165 187 0
167 189 0
169 191 0
166 188 0
162 185 0
170 192 0
166 189 0
166 189 0
167 190 0
164 187 0
164 187 0
165 187 0
167 191 0
166 188 0
166 188 0
163 187 0
165 187 0
165 188 0
161 184 0
167 189 0
164 186 0
160 182 0
168 191 0
166 188 0
162 185 0
160 182 0
158 180 0
155 177 0
165 188 0
154 177 0
161 183 0
164 188 0
165 187 0
161 183 0
158 181 0
164 186 0
165 187 0
161 183 0
163 185 0
160 182 0
165 188 0
164 186 0
162 184 0
164 186 0
158 180 0
161 182 0
161 184 0
160 182 0
159 182 0
154 176 0
157 180 0
151 172 0
155 176 0
158 181 0
154 177 0
168 190 0
159 181 0
159 181 0
159 180 0
152 174 0
157 179 0
149 171 0
151 173 0
156 179 0
161 183 0
149 170 0
153 175 0
160 182 0
146 168 0
157 179 0
147 170 0
158 180 0
147 168 0
156 177 0
148 169 0
163 185 0
159 181 0
153 176 0
155 177 0
150 171 0
154 176 0
150 172 0
147 170 0
157 177 0
154 176 0
157 177 0
151 172 0
152 173 0
151 173 0
151 173 0
150 173 0
151 173 0
157 179 0
155 178 0
153 175 0
155 177 0
149 171 0
144 165 0
153 175 0
147 168 0
145 166 0
156 176 0
146 168 0
158 180 0
155 177 0
154 176 0
147 169 0
148 169 0
152 173 0
146 168 0
148 169 0
142 163 0
152 173 0
141 162 0
151 172 0
144 165 0
149 170 0
150 172 0
152 172 0
141 162 0
146 167 0
151 172 0
146 167 0
154 175 0
150 170 0
147 169 0
145 166 0
148 170 0
139 159 0
142 163 0
149 170 0
155 177 0
143 164 0
152 174 0
146 165 0
144 164 0
155 177 0
146 166 0
142 163 0
148 167 0
144 165 0
136 156 0
146 167 0
139 160 0
152 173 0
150 172 0
148 170 0
148 167 0
145 165 0
147 167 0
145 166 0
151 172 0
145 166 0
137 158 0
149 172 0
150 171 0
145 164 0
145 168 0
149 170 0
148 169 0
143 162 0
143 162 0
146 166 0
147 167 0
141 160 0
143 164 0
152 172 0
145 164 0
139 159 0
141 161 0
145 165 0
147 168 0
139 159 0
147 167 0
147 166 0
154 174 0
143 164 0
160 181 0
147 167 0
142 161 0
146 166 0
147 167 0
144 163 0
147 166 0
149 170 0
134 152 0
147 167 0
149 167 0
153 173 0
139 157 0
150 169 0
147 166 0
140 158 0
151 169 0
145 164 0
145 164 0
145 163 0
145 164 0
144 161 0
151 170 0
148 167 0
140 157 0
146 164 0
150 169 0
146 164 0
146 164 0
146 163 0
150 170 0
152 170 0
147 165 0
152 171 0
150 170 0
148 166 0
141 160 0
150 169 0
142 161 0
144 162 0
148 165 0
155 175 0
146 163 0
146 164 0
150 168 0
154 170 0
146 163 0
152 167 0
147 161 0
152 169 0
140 158 0
144 162 0
153 170 0
149 165 0
151 170 0
139 158 0
139 152 0
148 163 0
153 171 0
143 159 0
147 161 0
148 163 0
159 175 0
153 169 0
150 168 0
151 167 0
148 162 0
147 161 0
151 166 0
145 160 0
151 168 0
155 170 0
148 164 0
151 166 0
147 162 0
148 162 0
146 163 0
147 160 0
150 165 0
153 169 0
151 164 0
147 159 0
150 164 0
143 155 0
142 153 0
151 163 0
146 159 0
151 163 0
157 170 0
148 161 0
149 160 0
153 168 0
153 170 0
149 162 0
145 155 0
148 162 0
150 165 0
147 159 0
150 162 0
145 155 0
151 164 0
147 160 0
157 168 0
149 160 0
149 161 0
149 163 0
157 171 0
151 162 0
137 146 0
152 163 0
150 162 0
145 156 0
149 161 0
143 153 0
149 159 0
157 169 0
144 155 0
148 158 0
152 164 0
144 151 0
153 164 0
151 162 0
154 166 0
149 161 0
136 145 0
154 161 0
156 170 0
154 164 0
152 165 0
150 157 0
151 161 0
149 161 0
155 164 0
153 165 0
158 167 0
152 161 0
153 164 0
154 164 0
152 164 0
156 167 0
154 164 0
148 159 0
156 167 0
153 162 0
156 167 0
149 157 0
150 161 0
154 162 0
153 164 0
175 198 0
172 195 0
171 195 0
172 196 0
172 196 0
174 197 0
172 195 0
174 198 0
173 196 0
172 196 0
171 195 0
173 197 0
171 194 0
170 194 0
170 193 0
174 197 0
172 195 0
169 192 0
169 192 0
173 197 0
170 194 0
173 196 0
172 196 0
166 190 0
173 196 0
172 195 0
170 193 0
169 193 0
170 192 0
171 193 0
169 192 0
171 194 0
170 194 0
171 194 0
170 193 0
173 196 0
169 192 0
173 196 0
167 191 0
167 191 0
171 194 0
172 195 0
167 190 0
173 195 0
171 194 0
164 187 0
169 192 0
171 193 0
167 191 0
169 193 0
167 191 0
169 193 0
168 191 0
170 193 0
169 193 0
171 194 0
167 190 0
168 191 0
166 189 0
165 188 0
166 189 0
166 189 0
163 186 0
165 188 0
171 194 0
159 181 0
169 193 0
168 191 0
169 192 0
163 186 0
167 190 0
164 187 0
171 193 0
162 184 0
164 187 0
168 191 0
169 192 0
169 190 0
167 190 0
172 194 0
160 183 0
165 188 0
163 185 0
163 185 0
166 188 0
164 187 0
166 189 0
167 189 0
166 189 0
159 182 0
166 187 0
166 189 0
163 184 0
164 186 0
163 185 0
164 186 0
163 186 0
157 180 0
163 186 0
161 183 0
162 184 0
163 186 0
162 185 0
161 183 0
164 187 0
163 185 0
161 184 0
155 179 0
158 180 0
159 182 0
167 189 0
165 186 0
159 181 0
158 181 0
160 183 0
158 181 0
161 184 0
156 178 0
155 177 0
160 182 0
161 183 0
163 185 0
159 181 0
161 182 0
162 184 0
161 184 0
151 174 0
158 181 0
166 188 0
152 174 0
164 186 0
160 182 0
161 183 0
155 176 0
160 183 0
159 182 0
159 181 0
154 176 0
160 183 0
163 184 0
157 178 0
148 169 0
159 183 0
161 182 0
152 174 0
151 173 0
153 175 0
153 176 0
154 177 0
157 178 0
155 177 0
159 179 0
156 177 0
155 176 0
153 175 0
157 179 0
154 176 0
157 178 0
150 170 0
153 175 0
163 185 0
155 176 0
150 171 0
154 176 0
150 171 0
151 171 0
156 178 0
153 174 0
149 171 0
151 173 0
146 167 0
156 178 0
152 173 0
151 172 0
152 173 0
141 162 0
150 172 0
153 174 0
149 170 0
156 178 0
153 175 0
149 170 0
149 172 0
147 168 0
158 180 0
151 172 0
155 178 0
147 169 0
154 175 0
148 169 0
150 172 0
154 176 0
138 157 0
155 175 0
154 176 0
148 169 0
151 171 0
142 162 0
149 170 0
153 173 0
156 178 0
149 169 0
154 176 0
149 171 0
148 168 0
147 168 0
146 167 0
150 172 0
147 169 0
144 164 0
144 165 0
136 156 0
136 157 0
150 170 0
149 167 0
144 165 0
153 175 0
142 163 0
142 163 0
146 166 0
140 161 0
154 175 0
157 179 0
152 172 0
139 160 0
153 172 0
147 167 0
143 163 0
146 165 0
149 169 0
145 165 0
148 168 0
148 169 0
150 169 0
140 160 0
145 165 0
153 173 0
146 164 0
150 170 0
149 168 0
148 168 0
148 170 0
150 171 0
143 162 0
143 163 0
148 169 0
145 165 0
148 170 0
151 172 0
151 172 0
152 172 0
141 161 0
145 165 0
139 157 0
140 160 0
152 171 0
144 165 0
149 170 0
149 168 0
150 171 0
150 169 0
155 176 0
150 169 0
143 162 0
149 167 0
149 166 0
154 173 0
147 166 0
151 172 0
153 171 0
153 172 0
151 171 0
153 171 0
152 172 0
150 169 0
141 161 0
149 167 0
143 161 0
145 163 0
147 165 0
144 163 0
146 163 0
149 167 0
144 162 0
144 162 0
141 160 0
151 169 0
144 162 0
147 164 0
144 162 0
147 163 0
152 171 0
151 168 0
144 163 0
144 161 0
151 167 0
154 171 0
151 168 0
156 174 0
143 161 0
147 164 0
141 158 0
144 159 0
151 169 0
151 167 0
153 168 0
146 162 0
154 171 0
146 164 0
149 166 0
148 163 0
141 156 0
149 166 0
145 160 0
142 159 0
148 162 0
144 161 0
148 164 0
147 159 0
150 167 0
155 170 0
153 168 0
140 155 0
153 167 0
143 156 0
141 155 0
149 164 0
152 168 0
150 167 0
149 162 0
148 158 0
153 170 0
147 162 0
153 168 0
151 165 0
150 165 0
147 160 0
146 157 0
146 159 0
149 162 0
147 161 0
145 159 0
146 160 0
141 155 0
151 166 0
154 169 0
149 162 0
151 163 0
150 161 0
144 159 0
149 164 0
152 165 0
145 157 0
149 161 0
146 157 0
148 162 0
156 168 0
150 162 0
148 159 0
145 156 0
148 159 0
141 151 0
151 162 0
150 161 0
146 159 0
154 165 0
145 155 0
152 161 0
152 164 0
157 169 0
152 163 0
148 159 0
153 166 0
146 155 0
147 157 0
146 154 0
150 160 0
147 158 0
156 167 0
148 157 0
155 165 0
147 157 0
155 165 0
148 159 0
155 164 0
151 163 0
150 159 0
155 165 0
157 169 0
149 159 0
150 162 0
156 167 0
144 153 0
151 164 0
155 166 0
151 162 0
158 169 0
159 171 0
153 164 0
156 168 0
171 195 0
173 197 0
173 196 0
173 196 0
172 195 0
168 193 0
175 198 0
173 195 0
173 197 0
170 193 0
173 196 0
172 196 0
175 198 0
173 197 0
171 195 0
174 197 0
173 197 0
173 196 0
169 193 0
170 193 0
174 197 0
169 193 0
171 194 0
170 193 0
171 195 0
171 195 0
171 195 0
171 194 0
171 194 0
172 195 0
170 193 0
172 195 0
170 193 0
172 195 0
171 194 0
169 192 0
171 194 0
168 191 0
170 193 0
163 186 0
170 193 0
172 194 0
169 192 0
168 190 0
165 188 0
169 192 0
169 192 0
165 189 0
171 194 0
168 191 0
166 189 0
168 190 0
167 191 0
170 194 0
166 188 0
166 189 0
171 194 0
162 185 0
165 187 0
172 194 0
165 188 0
168 191 0
168 191 0
170 193 0
165 188 0
167 189 0
167 189 0
165 189 0
161 183 0
165 187 0
159 182 0
164 187 0
169 192 0
165 188 0
168 191 0
166 190 0
166 188 0
163 186 0
157 179 0
166 189 0
167 189 0
166 188 0
161 184 0
166 188 0
163 185 0
165 188 0
165 187 0
161 184 0
159 181 0
165 188 0
166 189 0
166 189 0
164 187 0
168 190 0
160 183 0
165 187 0
157 180 0
163 185 0
162 185 0
161 184 0
161 184 0
153 175 0
158 180 0
162 185 0
164 186 0
162 185 0
161 183 0
162 184 0
162 184 0
161 183 0
160 182 0
161 183 0
159 181 0
161 184 0
162 185 0
164 187 0
158 180 0
157 179 0
164 188 0
161 183 0
156 178 0
161 182 0
159 182 0
158 180 0
166 189 0
160 182 0
158 181 0
162 184 0
156 178 0
157 180 0
152 174 0
157 179 0
154 177 0
154 177 0
161 183 0
151 174 0
157 179 0
155 177 0
158 180 0
152 174 0
152 174 0
153 177 0
159 180 0
151 174 0
156 178 0
160 181 0
157 179 0
159 181 0
152 175 0
152 175 0
156 179 0
155 176 0
153 174 0
154 176 0
148 170 0
149 171 0
144 166 0
157 179 0
155 177 0
152 174 0
158 181 0
156 178 0
153 176 0
146 168 0
146 168 0
142 164 0
145 167 0
156 178 0
150 172 0
149 170 0
152 174 0
141 162 0
153 175 0
147 169 0
149 171 0
155 177 0
144 166 0
144 165 0
151 172 0
150 171 0
145 167 0
145 166 0
150 171 0
146 166 0
158 179 0
140 161 0
146 168 0
143 165 0
151 173 0
146 167 0
150 171 0
146 168 0
151 173 0
145 165 0
157 179 0
145 166 0
156 177 0
152 172 0
155 176 0
152 175 0
149 169 0
142 163 0
147 169 0
147 169 0
152 173 0
153 174 0
153 174 0
149 169 0
150 171 0
142 163 0
147 167 0
150 171 0
159 181 0
148 169 0
143 164 0
140 161 0
150 171 0
149 170 0
153 174 0
148 169 0
151 171 0
148 167 0
150 172 0
154 176 0
151 171 0
144 165 0
156 177 0
140 160 0
148 170 0
140 160 0
156 178 0
144 166 0
141 162 0
153 175 0
153 175 0
150 170 0
153 172 0
147 168 0
149 168 0
154 173 0
145 165 0
152 172 0
149 168 0
150 173 0
153 173 0
145 165 0
152 173 0
147 167 0
139 159 0
146 167 0
151 172 0
154 174 0
142 161 0
151 171 0
143 162 0
145 164 0
141 161 0
149 169 0
157 174 0
142 162 0
145 164 0
144 162 0
153 172 0
147 165 0
152 171 0
145 163 0
149 167 0
148 167 0
137 157 0
145 163 0
152 172 0
143 159 0
154 171 0
145 163 0
154 175 0
144 162 0
148 167 0
150 168 0
151 170 0
155 175 0
149 167 0
140 159 0
149 166 0
146 164 0
152 171 0
155 173 0
153 171 0
154 173 0
147 168 0
149 169 0
143 160 0
152 168 0
145 164 0
139 158 0
155 173 0
145 162 0
148 167 0
147 164 0
137 154 0
149 167 0
149 166 0
150 168 0
155 174 0
150 169 0
153 169 0
150 168 0
149 166 0
143 159 0
149 164 0
143 160 0
152 170 0
156 174 0
149 168 0
154 172 0
148 163 0
150 166 0
151 167 0
145 161 0
150 164 0
146 162 0
149 165 0
150 165 0
144 159 0
148 162 0
154 171 0
150 165 0
148 163 0
147 160 0
151 166 0
156 172 0
152 168 0
141 155 0
152 167 0
140 153 0
146 161 0
150 164 0
146 162 0
143 157 0
142 156 0
147 160 0
154 170 0
152 167 0
150 164 0
150 163 0
148 160 0
147 163 0
154 167 0
147 160 0
154 167 0
149 158 0
145 156 0
153 165 0
152 167 0
159 173 0
147 160 0
149 162 0
146 160 0
156 167 0
152 164 0
150 160 0
146 160 0
153 166 0
152 166 0
149 163 0
145 156 0
148 161 0
152 166 0
148 161 0
153 166 0
155 168 0
153 167 0
147 158 0
146 159 0
148 160 0
157 169 0
149 159 0
156 165 0
156 170 0
147 158 0
150 161 0
150 158 0
158 169 0
150 161 0
152 163 0
162 176 0
151 165 0
159 172 0
146 158 0
151 165 0
156 168 0
154 165 0
153 164 0
153 165 0
152 162 0
149 160 0
156 166 0
148 158 0
155 167 0
153 162 0
153 166 0
171 195 0
172 195 0
172 195 0
173 197 0
172 195 0
172 195 0
171 194 0
170 194 0
173 195 0
172 196 0
172 196 0
173 196 0
173 197 0
175 198 0
169 192 0
172 196 0
174 197 0
173 197 0
170 194 0
172 196 0
169 192 0
171 193 0
168 191 0
169 193 0
171 194 0
172 195 0
168 192 0
171 195 0
172 195 0
165 189 0
167 190 0
170 193 0
171 194 0
170 193 0
172 196 0
171 195 0
167 190 0
169 193 0
170 194 0
167 189 0
168 191 0
171 194 0
168 191 0
163 186 0
169 192 0
168 192 0
171 194 0
172 195 0
170 193 0
167 191 0
170 194 0
171 194 0
166 189 0
166 189 0
169 192 0
169 191 0
169 192 0
164 187 0
165 187 0
164 187 0
166 189 0
170 192 0
168 192 0
169 192 0
169 192 0
163 186 0
167 190 0
168 191 0
165 188 0
168 192 0
165 188 0
165 187 0
165 188 0
167 189 0
167 190 0
164 187 0
165 187 0
166 189 0
157 180 0
165 188 0
169 192 0
157 181 0
167 190 0
162 185 0
163 185 0
164 186 0
169 191 0
167 189 0
163 185 0
165 187 0
163 186 0
163 185 0
165 188 0
162 184 0
164 187 0
162 185 0
165 187 0
167 190 0
165 186 0
167 189 0
166 188 0
161 183 0
162 184 0
162 185 0
166 188 0
159 182 0
163 185 0
165 188 0
166 190 0
160 182 0
160 182 0
170 192 0
158 180 0
165 187 0
163 186 0
158 180 0
165 187 0
165 188 0
157 180 0
159 181 0
161 183 0
161 183 0
166 189 0
158 181 0
163 186 0
162 184 0
155 178 0
167 189 0
150 171 0
166 187 0
155 178 0
159 182 0
157 179 0
165 187 0
155 176 0
151 173 0
166 189 0
158 181 0
158 180 0
152 175 0
157 180 0
162 185 0
148 171 0
154 176 0
155 177 0
165 186 0
156 178 0
155 178 0
144 166 0
152 173 0
148 170 0
158 180 0
155 177 0
152 173 0
151 174 0
159 180 0
157 180 0
156 180 0
155 177 0
161 183 0
155 177 0
153 174 0
149 172 0
151 172 0
151 172 0
150 170 0
146 168 0
151 173 0
153 175 0
153 175 0
159 181 0
151 173 0
155 177 0
151 173 0
154 176 0
148 170 0
151 173 0
147 166 0
151 173 0
158 179 0
148 171 0
147 168 0
153 175 0
159 181 0
155 176 0
145 165 0
154 176 0
152 173 0
152 173 0
142 163 0
148 171 0
146 167 0
152 174 0
146 168 0
147 167 0
151 172 0
149 170 0
145 167 0
155 177 0
152 174 0
156 177 0
151 172 0
145 166 0
153 174 0
147 167 0
151 172 0
146 165 0
151 170 0
152 173 0
148 167 0
146 167 0
151 171 0
141 163 0
146 168 0
139 161 0
148 168 0
151 170 0
149 170 0
142 163 0
153 175 0
151 171 0
145 164 0
142 163 0
149 170 0
150 170 0
140 160 0
149 169 0
150 171 0
138 158 0
146 165 0
145 165 0
143 164 0
144 163 0
145 166 0
154 174 0
148 168 0
144 166 0
147 168 0
142 162 0
145 166 0
138 159 0
149 169 0
151 170 0
153 173 0
147 167 0
151 172 0
146 166 0
145 165 0
148 167 0
153 173 0
149 169 0
150 170 0
145 165 0
151 171 0
150 170 0
154 174 0
152 172 0
143 163 0
150 170 0
146 164 0
151 171 0
150 170 0
147 167 0
150 171 0
145 164 0
150 171 0
150 170 0
151 171 0
156 176 0
144 164 0
144 162 0
148 167 0
145 165 0
145 164 0
140 159 0
146 164 0
146 165 0
140 159 0
140 158 0
145 161 0
144 162 0
149 169 0
154 172 0
151 172 0
149 168 0
151 172 0
147 164 0
142 159 0
155 173 0
146 162 0
148 166 0
150 170 0
151 170 0
142 160 0
152 169 0
146 163 0
146 163 0
146 166 0
150 168 0
152 170 0
145 163 0
148 168 0
150 166 0
150 164 0
155 174 0
140 157 0
150 168 0
146 164 0
146 162 0
145 160 0
151 167 0
148 165 0
148 165 0
151 166 0
146 163 0
147 163 0
149 165 0
148 166 0
151 168 0
152 170 0
151 167 0
151 166 0
151 169 0
151 166 0
150 166 0
148 166 0
152 167 0
151 166 0
144 158 0
152 168 0
148 166 0
149 164 0
141 154 0
145 161 0
156 173 0
148 163 0
151 165 0
149 165 0
149 163 0
147 164 0
148 161 0
151 167 0
150 165 0
150 163 0
151 165 0
143 154 0
148 164 0
146 158 0
145 159 0
152 168 0
153 167 0
149 164 0
155 171 0
156 170 0
143 154 0
146 161 0
148 160 0
147 158 0
148 160 0
156 168 0
153 165 0
150 163 0
154 165 0
153 165 0
154 167 0
154 166 0
152 165 0
144 156 0
151 165 0
156 170 0
151 163 0
156 169 0
141 148 0
153 164 0
151 164 0
150 161 0
159 172 0
153 164 0
153 165 0
153 164 0
154 164 0
153 161 0
154 166 0
159 170 0
151 163 0
152 163 0
148 159 0
153 166 0
152 164 0
155 167 0
156 167 0
154 167 0
152 165 0
153 161 0
151 160 0
148 161 0
155 167 0
149 158 0
159 172 0
151 159 0
170 193 0
174 197 0
172 195 0
171 194 0
172 195 0
171 193 0
171 195 0
172 195 0
173 197 0
173 196 0
167 191 0
170 193 0
172 195 0
169 192 0
172 196 0
171 194 0
169 193 0
172 195 0
173 196 0
170 193 0
171 194 0
171 193 0
175 198 0
173 196 0
170 194 0
172 195 0
170 194 0
172 195 0
169 193 0
171 195 0
170 193 0
173 196 0
169 192 0
169 192 0
169 192 0
171 193 0
172 195 0
169 193 0
164 188 0
167 191 0
169 192 0
172 196 0
168 192 0
169 191 0
173 196 0
165 188 0
171 195 0
169 192 0
170 194 0
170 193 0
168 191 0
170 193 0
170 192 0
166 189 0
168 191 0
167 190 0
169 191 0
164 187 0
169 192 0
167 191 0
167 189 0
166 189 0
163 186 0
166 189 0
168 191 0
162 184 0
164 188 0
167 190 0
164 187 0
170 192 0
168 191 0
164 186 0
165 188 0
170 192 0
165 188 0
164 186 0
167 189 0
164 187 0
164 186 0
164 187 0
168 192 0
163 186 0
163 186 0
169 192 0
162 186 0
171 194 0
164 186 0
167 189 0
170 193 0
160 183 0
165 186 0
165 188 0
163 187 0
162 184 0
159 181 0
164 187 0
161 184 0
159 182 0
162 185 0
162 185 0
159 182 0
162 185 0
166 189 0
166 188 0
161 183 0
161 183 0
163 185 0
164 187 0
160 182 0
159 182 0
159 181 0
166 189 0
168 190 0
164 187 0
155 176 0
164 186 0
163 184 0
159 180 0
162 184 0
162 184 0
156 178 0
156 178 0
157 180 0
157 180 0
155 178 0
160 181 0
156 178 0
164 186 0
159 181 0
166 189 0
143 166 0
161 184 0
158 181 0
161 183 0
160 182 0
160 182 0
157 180 0
161 182 0
159 181 0
162 183 0
159 181 0
156 178 0
160 180 0
161 182 0
152 174 0
152 174 0
161 183 0
157 179 0
155 178 0
154 174 0
153 175 0
157 178 0
163 184 0
155 178 0
158 180 0
154 175 0
151 172 0
148 169 0
155 176 0
163 185 0
157 178 0
160 182 0
157 180 0
154 176 0
153 175 0
151 173 0
153 174 0
153 174 0
162 184 0
153 174 0
155 177 0
150 171 0
152 172 0
148 169 0
151 172 0
150 171 0
149 171 0
145 164 0
148 169 0
151 173 0
148 170 0
163 184 0
151 172 0
146 168 0
153 174 0
145 166 0
147 167 0
155 175 0
147 167 0
151 172 0
142 164 0
155 177 0
145 165 0
149 172 0
143 165 0
154 176 0
152 172 0
154 175 0
155 177 0
142 163 0
156 178 0
145 166 0
145 165 0
149 169 0
146 167 0
148 170 0
158 181 0
152 174 0
158 179 0
142 163 0
148 170 0
150 172 0
147 168 0
148 169 0
147 167 0
147 167 0
155 177 0
145 166 0
146 165 0
150 171 0
153 174 0
154 174 0
145 165 0
155 176 0
146 168 0
153 173 0
152 173 0
140 161 0
154 176 0
146 166 0
157 177 0
156 178 0
144 166 0
151 172 0
149 170 0
152 172 0
153 175 0
150 170 0
148 168 0
144 164 0
148 170 0
149 170 0
155 177 0
152 172 0
138 157 0
148 168 0
144 165 0
147 167 0
158 179 0
139 160 0
147 167 0
148 167 0
151 172 0
148 168 0
154 173 0
156 175 0
152 173 0
153 172 0
154 174 0
154 174 0
148 167 0
151 171 0
148 167 0
149 170 0
148 167 0
139 159 0
157 177 0
151 170 0
147 167 0
144 163 0
152 171 0
153 173 0
153 173 0
149 170 0
144 164 0
146 167 0
151 170 0
154 173 0
143 160 0
150 168 0
149 169 0
149 169 0
153 173 0
153 171 0
155 173 0
141 160 0
146 163 0
149 167 0
156 175 0
147 165 0
155 173 0
146 164 0
148 167 0
146 164 0
153 172 0
148 167 0
156 175 0
148 166 0
146 164 0
150 168 0
139 157 0
147 165 0
146 164 0
150 169 0
153 172 0
146 164 0
151 170 0
143 158 0
146 162 0
158 175 0
154 171 0
148 165 0
142 161 0
148 166 0
148 165 0
154 168 0
153 167 0
148 166 0
148 163 0
138 154 0
150 166 0
153 167 0
152 166 0
148 163 0
149 167 0
147 162 0
155 171 0
146 160 0
154 170 0
155 172 0
150 163 0
141 153 0
150 165 0
146 160 0
155 172 0
151 167 0
145 159 0
148 164 0
148 162 0
151 166 0
151 163 0
151 167 0
151 163 0
154 165 0
151 166 0
141 155 0
152 165 0
145 159 0
146 159 0
149 161 0
154 168 0
149 161 0
148 162 0
151 163 0
146 157 0
152 167 0
156 170 0
153 164 0
154 166 0
152 162 0
143 155 0
145 158 0
148 158 0
151 161 0
149 161 0
149 163 0
150 164 0
150 163 0
151 165 0
153 166 0
151 163 0
146 159 0
158 171 0
153 164 0
153 165 0
150 161 0
151 162 0
153 166 0
148 162 0
157 170 0
153 164 0
149 161 0
143 156 0
156 167 0
150 163 0
151 163 0
150 159 0
151 164 0
153 166 0
154 166 0
155 167 0
151 164 0
150 162 0
154 165 0
157 170 0
151 162 0
157 171 0
152 163 0
159 173 0
151 160 0
171 194 0
171 194 0
172 196 0
173 197 0
174 197 0
172 195 0
170 194 0
171 194 0
172 195 0
173 196 0
171 195 0
170 193 0
171 194 0
174 197 0
172 195 0
172 195 0
172 195 0
168 192 0
170 193 0
174 197 0
172 195 0
170 194 0
168 192 0
171 193 0
170 194 0
170 193 0
168 192 0
170 193 0
172 195 0
170 194 0
171 194 0
172 195 0
172 195 0
170 193 0
171 194 0
166 189 0
172 195 0
174 197 0
173 196 0
172 195 0
172 195 0
169 191 0
165 188 0
171 194 0
169 192 0
170 193 0
170 193 0
164 187 0
167 190 0
170 193 0
170 193 0
168 192 0
167 189 0
165 189 0
168 191 0
164 187 0
170 192 0
164 187 0
171 194 0
170 193 0
168 191 0
167 190 0
167 190 0
168 191 0
169 192 0
161 184 0
172 195 0
166 188 0
166 188 0
165 187 0
166 189 0
166 188 0
169 192 0
163 186 0
163 185 0
163 185 0
171 194 0
164 186 0
168 191 0
167 190 0
167 190 0
165 187 0
161 183 0
162 185 0
164 185 0
158 180 0
165 188 0
163 184 0
165 188 0
168 190 0
163 185 0
162 184 0
164 186 0
163 186 0
164 187 0
163 186 0
162 185 0
161 184 0
159 181 0
163 185 0
165 188 0
162 185 0
162 184 0
161 184 0
163 186 0
163 185 0
163 186 0
161 183 0
163 185 0
159 182 0
160 183 0
157 179 0
161 183 0
162 184 0
165 187 0
160 183 0
156 178 0
161 184 0
159 180 0
158 181 0
162 184 0
162 185 0
155 178 0
157 179 0
163 185 0
160 182 0
161 184 0
157 179 0
156 179 0
161 184 0
158 180 0
156 178 0
157 179 0
161 183 0
157 178 0
162 184 0
154 177 0
155 177 0
157 179 0
151 174 0
152 174 0
156 176 0
155 177 0
151 173 0
159 182 0
158 181 0
150 172 0
158 180 0
146 168 0
162 184 0
157 179 0
156 178 0
164 186 0
161 183 0
158 179 0
155 177 0
156 178 0
158 180 0
154 176 0
144 166 0
151 172 0
161 184 0
154 175 0
155 176 0
153 174 0
151 172 0
155 177 0
155 177 0
155 177 0
154 175 0
155 177 0
156 178 0
155 177 0
158 180 0
151 173 0
145 167 0
154 175 0
151 171 0
147 168 0
157 179 0
162 183 0
151 172 0
161 182 0
146 168 0
157 179 0
158 180 0
155 176 0
143 164 0
146 167 0
149 172 0
149 169 0
147 169 0
149 171 0
156 177 0
145 166 0
144 165 0
152 174 0
145 167 0
151 172 0
146 168 0
139 160 0
153 173 0
154 176 0
150 171 0
148 169 0
155 177 0
147 169 0
143 165 0
153 176 0
155 176 0
145 167 0
147 169 0
152 172 0
145 166 0
144 164 0
150 171 0
149 170 0
144 164 0
146 165 0
155 177 0
149 169 0
149 171 0
149 170 0
144 164 0
143 164 0
162 183 0
141 161 0
157 176 0
152 173 0
147 168 0
152 172 0
151 171 0
146 168 0
148 170 0
145 165 0
140 161 0
155 177 0
141 161 0
150 169 0
156 178 0
147 167 0
156 177 0
149 169 0
145 165 0
142 164 0
152 173 0
150 170 0
147 167 0
141 161 0
152 173 0
154 173 0
149 168 0
141 161 0
141 161 0
141 161 0
152 173 0
151 171 0
156 176 0
146 164 0
150 170 0
146 166 0
144 165 0
151 170 0
141 162 0
153 173 0
144 164 0
148 167 0
151 168 0
155 174 0
145 166 0
143 163 0
146 165 0
148 167 0
151 168 0
151 171 0
150 169 0
153 171 0
151 171 0
152 172 0
154 173 0
152 169 0
147 165 0
154 173 0
149 168 0
151 170 0
145 164 0
144 164 0
149 167 0
155 173 0
147 165 0
147 164 0
154 172 0
147 166 0
154 171 0
147 167 0
145 163 0
157 175 0
154 173 0
143 159 0
149 166 0
149 166 0
144 162 0
151 169 0
146 164 0
153 172 0
150 168 0
151 169 0
156 175 0
151 168 0
148 166 0
145 161 0
145 161 0
148 167 0
150 166 0
142 158 0
147 163 0
153 171 0
144 159 0
151 167 0
153 170 0
150 166 0
146 162 0
152 165 0
150 166 0
153 171 0
153 170 0
150 166 0
152 168 0
148 163 0
144 161 0
148 161 0
152 167 0
149 166 0
145 162 0
144 159 0
146 161 0
151 168 0
142 156 0
147 163 0
155 171 0
151 167 0
151 164 0
151 167 0
149 164 0
151 165 0
155 168 0
156 169 0
143 157 0
152 168 0
150 162 0
149 163 0
150 166 0
152 165 0
145 158 0
143 155 0
152 167 0
147 161 0
152 166 0
157 172 0
146 160 0
151 165 0
148 159 0
154 167 0
146 159 0
160 174 0
149 162 0
152 163 0
154 164 0
148 161 0
154 166 0
152 166 0
150 161 0
155 166 0
154 168 0
152 165 0
150 164 0
154 168 0
153 165 0
149 161 0
157 169 0
149 160 0
147 158 0
154 166 0
148 159 0
150 162 0
157 168 0
156 169 0
156 170 0
149 159 0
153 167 0
148 157 0
155 168 0
156 171 0
153 164 0
155 169 0
154 168 0
150 162 0
151 161 0
153 162 0
158 170 0
173 197 0
171 195 0
169 192 0
174 197 0
174 197 0
171 195 0
171 195 0
171 194 0
172 196 0
175 198 0
168 192 0
169 192 0
171 194 0
174 197 0
169 193 0
170 194 0
167 190 0
170 194 0
171 195 0
171 194 0
170 194 0
169 191 0
170 193 0
171 195 0
170 193 0
171 194 0
170 194 0
172 195 0
171 194 0
170 193 0
170 193 0
171 194 0
172 195 0
166 188 0
166 189 0
169 193 0
169 192 0
167 189 0
170 193 0
169 192 0
167 191 0
166 189 0
168 191 0
168 192 0
168 191 0
169 192 0
167 190 0
165 188 0
167 190 0
167 190 0
170 193 0
166 189 0
162 185 0
169 192 0
168 191 0
164 188 0
162 185 0
167 190 0
169 193 0
169 192 0
165 189 0
165 188 0
168 191 0
166 189 0
168 191 0
165 188 0
164 188 0
164 187 0
164 187 0
166 189 0
166 188 0
169 192 0
166 189 0
167 189 0
161 183 0
164 186 0
168 190 0
159 181 0
167 190 0
160 182 0
166 189 0
155 178 0
160 183 0
167 190 0
164 187 0
161 185 0
165 187 0
158 181 0
166 190 0
165 187 0
164 187 0
165 188 0
167 189 0
159 182 0
160 183 0
162 185 0
168 190 0
163 185 0
158 179 0
162 184 0
163 184 0
163 184 0
167 190 0
166 189 0
164 187 0
162 185 0
163 185 0
160 182 0
158 180 0
154 176 0
161 182 0
159 181 0
164 187 0
156 178 0
161 183 0
158 180 0
153 176 0
165 186 0
158 180 0
154 176 0
157 179 0
164 185 0
161 184 0
158 180 0
156 179 0
161 183 0
158 180 0
150 173 0
155 177 0
161 183 0
157 180 0
158 180 0
150 172 0
160 183 0
149 172 0
152 175 0
155 177 0
160 183 0
154 176 0
160 182 0
158 180 0
147 170 0
161 184 0
160 183 0
162 185 0
156 178 0
155 178 0
153 176 0
160 181 0
151 174 0
152 174 0
149 171 0
155 176 0
159 181 0
156 178 0
148 170 0
146 169 0
147 169 0
152 172 0
152 174 0
148 171 0
158 180 0
151 173 0
151 173 0
145 167 0
151 172 0
147 169 0
151 173 0
148 169 0
152 174 0
154 176 0
153 174 0
151 172 0
152 173 0
152 173 0
144 166 0
151 174 0
156 178 0
153 175 0
152 174 0
153 175 0
147 169 0
145 167 0
144 164 0
155 176 0
156 177 0
156 178 0
160 182 0
151 171 0
153 175 0
153 175 0
152 173 0
149 170 0
152 173 0
155 175 0
150 172 0
152 174 0
150 171 0
156 178 0
155 177 0
149 170 0
151 172 0
156 177 0
157 178 0
151 172 0
153 174 0
152 174 0
142 163 0
152 175 0
155 176 0
152 173 0
146 167 0
151 172 0
141 163 0
148 169 0
154 176 0
146 166 0
151 170 0
151 171 0
146 166 0
145 166 0
151 173 0
153 173 0
155 175 0
153 174 0
158 179 0
144 166 0
149 170 0
147 167 0
153 174 0
147 167 0
144 164 0
145 166 0
151 171 0
151 172 0
147 169 0
145 165 0
152 173 0
147 167 0
132 151 0
153 173 0
157 177 0
147 167 0
147 167 0
149 170 0
142 162 0
144 163 0
152 172 0
153 174 0
149 169 0
149 170 0
154 173 0
146 166 0
148 168 0
149 168 0
153 172 0
147 167 0
147 166 0
158 180 0
142 161 0
140 159 0
145 163 0
146 166 0
146 164 0
156 175 0
152 173 0
155 175 0
151 171 0
149 169 0
146 165 0
146 165 0
151 167 0
150 169 0
152 173 0
149 169 0
143 161 0
146 165 0
150 169 0
150 168 0
139 158 0
150 170 0
147 166 0
143 164 0
146 165 0
142 161 0
153 173 0
145 164 0
146 162 0
143 161 0
149 167 0
151 170 0
147 166 0
143 162 0
148 166 0
148 166 0
153 171 0
146 165 0
150 169 0
152 170 0
141 159 0
147 165 0
154 169 0
147 164 0
153 171 0
145 158 0
147 164 0
153 169 0
153 170 0
149 168 0
153 170 0
143 159 0
155 172 0
154 173 0
150 168 0
142 160 0
142 158 0
152 171 0
154 173 0
153 170 0
137 153 0
149 165 0
148 163 0
148 165 0
146 162 0
150 167 0
152 170 0
148 163 0
151 168 0
154 171 0
153 168 0
149 164 0
158 175 0
145 161 0
149 165 0
150 167 0
148 164 0
151 166 0
147 163 0
145 162 0
147 163 0
148 161 0
147 160 0
150 161 0
159 174 0
151 168 0
151 165 0
153 166 0
152 167 0
149 166 0
151 167 0
159 174 0
150 165 0
157 171 0
151 163 0
151 164 0
146 160 0
153 167 0
146 159 0
151 164 0
150 166 0
155 171 0
144 157 0
147 162 0
142 155 0
155 170 0
153 167 0
150 166 0
153 167 0
151 164 0
147 160 0
149 162 0
152 164 0
148 160 0
152 162 0
151 165 0
149 161 0
153 166 0
150 162 0
151 165 0
154 165 0
144 155 0
155 167 0
151 164 0
152 165 0
151 163 0
155 166 0
157 170 0
156 168 0
152 162 0
151 164 0
158 170 0
146 156 0
140 153 0
153 164 0
152 165 0
150 162 0
154 166 0
145 157 0
155 167 0
153 165 0
172 196 0
171 194 0
174 198 0
176 198 0
171 194 0
171 194 0
174 196 0
170 194 0
170 193 0
170 193 0
171 194 0
172 195 0
172 194 0
171 195 0
170 194 0
168 192 0
173 196 0
172 195 0
173 197 0
171 194 0
172 195 0
172 195 0
172 195 0
169 192 0
172 195 0
166 190 0
171 193 0
172 195 0
168 192 0
167 190 0
170 192 0
172 195 0
172 195 0
166 189 0
165 187 0
169 192 0
165 189 0
173 197 0
172 194 0
170 194 0
169 192 0
172 195 0
166 189 0
166 188 0
170 192 0
168 191 0
169 192 0
169 193 0
169 192 0
168 191 0
173 195 0
168 191 0
169 192 0
165 187 0
168 191 0
167 191 0
168 191 0
168 191 0
168 192 0
170 192 0
171 194 0
162 185 0
166 188 0
171 194 0
169 190 0
168 191 0
166 189 0
170 192 0
165 188 0
163 186 0
167 190 0
166 189 0
162 184 0
165 188 0
166 189 0
163 185 0
164 185 0
166 188 0
168 191 0
160 183 0
170 192 0
173 195 0
167 189 0
165 187 0
164 187 0
165 188 0
162 185 0
158 180 0
164 186 0
164 187 0
165 188 0
161 184 0
163 186 0
163 185 0
161 184 0
168 191 0
167 189 0
164 187 0
162 183 0
164 188 0
163 186 0
160 183 0
162 183 0
165 186 0
159 180 0
163 185 0
161 184 0
160 182 0
160 182 0
164 186 0
162 184 0
160 184 0
161 183 0
154 176 0
166 189 0
160 182 0
157 178 0
156 177 0
157 180 0
157 179 0
162 183 0
159 181 0
158 180 0
162 185 0
162 185 0
147 169 0
163 185 0
156 178 0
165 186 0
154 176 0
148 171 0
160 183 0
161 182 0
161 181 0
164 186 0
156 178 0
157 178 0
156 178 0
164 186 0
165 188 0
158 180 0
163 184 0
156 179 0
160 182 0
156 179 0
157 179 0
156 179 0
152 176 0
156 178 0
146 167 0
157 179 0
160 181 0
147 168 0
162 183 0
147 170 0
148 169 0
153 175 0
155 177 0
158 180 0
154 175 0
153 175 0
155 177 0
155 177 0
159 180 0
157 179 0
149 171 0
154 176 0
149 170 0
151 172 0
156 178 0
146 167 0
151 173 0
159 181 0
152 173 0
153 175 0
149 170 0
152 174 0
149 171 0
151 172 0
150 171 0
155 178 0
148 170 0
154 176 0
151 173 0
148 170 0
149 171 0
154 176 0
152 173 0
150 171 0
153 175 0
149 171 0
150 172 0
145 168 0
152 173 0
150 172 0
145 166 0
152 172 0
157 178 0
153 174 0
152 173 0
147 169 0
153 174 0
146 166 0
150 171 0
146 167 0
150 172 0
147 168 0
155 179 0
149 171 0
156 176 0
147 168 0
145 165 0
148 169 0
155 176 0
146 168 0
150 169 0
153 175 0
145 164 0
152 173 0
148 169 0
149 170 0
158 179 0
157 178 0
143 163 0
152 173 0
151 172 0
151 171 0
142 164 0
149 170 0
153 173 0
154 176 0
150 171 0
143 164 0
155 175 0
143 164 0
151 171 0
138 158 0
157 178 0
150 172 0
153 173 0
143 163 0
145 166 0
144 163 0
152 172 0
148 168 0
149 171 0
158 180 0
150 171 0
143 163 0
148 167 0
158 180 0
151 173 0
151 171 0
151 171 0
146 167 0
147 166 0
150 168 0
139 158 0
151 172 0
152 174 0
157 176 0
145 166 0
145 165 0
157 176 0
149 169 0
155 175 0
152 172 0
150 170 0
147 167 0
142 159 0
152 172 0
150 170 0
146 166 0
161 179 0
153 173 0
141 159 0
148 167 0
152 171 0
149 170 0
151 170 0
154 175 0
146 165 0
150 171 0
144 163 0
155 175 0
151 171 0
144 163 0
147 167 0
143 163 0
149 166 0
143 163 0
153 174 0
142 161 0
162 179 0
153 172 0
156 177 0
149 165 0
147 166 0
153 171 0
142 161 0
148 166 0
152 170 0
145 163 0
149 168 0
146 164 0
148 167 0
153 170 0
150 170 0
141 161 0
154 172 0
145 163 0
154 171 0
143 159 0
153 171 0
149 166 0
148 167 0
146 162 0
148 165 0
150 169 0
150 167 0
150 165 0
145 159 0
141 158 0
149 164 0
151 171 0
142 160 0
149 167 0
146 160 0
148 166 0
153 169 0
147 161 0
148 163 0
153 169 0
151 169 0
155 173 0
156 174 0
152 169 0
149 164 0
156 171 0
156 173 0
142 155 0
153 168 0
151 163 0
153 168 0
154 169 0
155 167 0
149 163 0
149 161 0
154 168 0
152 168 0
156 171 0
148 164 0
155 171 0
150 166 0
157 169 0
151 167 0
155 168 0
151 165 0
153 166 0
150 161 0
149 160 0
151 167 0
147 158 0
156 169 0
151 165 0
153 165 0
157 171 0
156 168 0
147 158 0
153 167 0
155 169 0
152 165 0
150 164 0
157 170 0
151 163 0
150 163 0
148 163 0
153 165 0
152 165 0
145 157 0
146 158 0
155 168 0
158 171 0
156 169 0
151 164 0
153 168 0
152 163 0
155 168 0
154 165 0
153 164 0
148 161 0
155 166 0
153 166 0
152 163 0
160 174 0
148 158 0
159 174 0
154 163 0
156 169 0
155 169 0
172 195 0
172 194 0
174 196 0
172 194 0
172 195 0
171 194 0
170 193 0
171 194 0
171 194 0
175 197 0
173 197 0
170 194 0
171 194 0
170 194 0
170 193 0
171 194 0
174 197 0
172 195 0
173 196 0
169 193 0
167 191 0
173 196 0
169 192 0
167 191 0
171 194 0
172 194 0
171 194 0
165 187 0
170 193 0
170 193 0
173 196 0
167 190 0
165 189 0
168 192 0
169 192 0
168 191 0
167 190 0
167 189 0
170 192 0
167 190 0
167 190 0
168 191 0
164 186 0
168 190 0
167 190 0
167 190 0
169 192 0
166 189 0
170 192 0
165 188 0
165 189 0
171 194 0
162 184 0
163 186 0
160 182 0
165 188 0
167 190 0
158 180 0
164 187 0
166 188 0
165 187 0
164 188 0
163 186 0
166 189 0
167 191 0
162 185 0
166 190 0
161 184 0
169 191 0
167 190 0
167 189 0
168 190 0
164 186 0
164 187 0
165 187 0
166 188 0
164 186 0
159 180 0
165 188 0
166 189 0
167 189 0
164 187 0
166 189 0
163 187 0
161 184 0
167 190 0
163 185 0
166 188 0
164 186 0
165 187 0
164 186 0
158 181 0
167 189 0
161 184 0
162 185 0
157 180 0
163 186 0
166 189 0
159 182 0
166 188 0
165 188 0
165 188 0
166 188 0
162 184 0
163 185 0
162 184 0
161 183 0
156 179 0
169 192 0
159 182 0
163 185 0
164 186 0
161 184 0
154 176 0
165 188 0
163 185 0
159 181 0
161 184 0
153 174 0
162 185 0
163 185 0
156 179 0
160 183 0
165 187 0
159 182 0
164 186 0
160 182 0
160 183 0
162 184 0
155 178 0
157 178 0
149 171 0
153 174 0
163 184 0
158 180 0
156 177 0
158 181 0
153 174 0
151 173 0
159 181 0
152 174 0
149 170 0
152 174 0
152 174 0
156 178 0
158 179 0
161 182 0
157 178 0
160 181 0
158 180 0
157 180 0
152 174 0
159 181 0
157 180 0
159 181 0
160 182 0
157 179 0
149 170 0
150 173 0
159 181 0
149 171 0
156 176 0
155 175 0
155 177 0
157 179 0
149 172 0
155 178 0
149 171 0
158 180 0
151 172 0
152 174 0
149 171 0
157 180 0
155 177 0
148 170 0
156 177 0
157 180 0
150 171 0
150 172 0
152 174 0
156 177 0
144 164 0
159 180 0
152 174 0
154 175 0
148 170 0
157 177 0
148 170 0
152 173 0
160 181 0
150 170 0
151 172 0
160 182 0
155 176 0
147 168 0
145 166 0
151 173 0
152 174 0
155 177 0
158 179 0
150 171 0
154 175 0
149 169 0
145 165 0
155 179 0
156 178 0
146 167 0
149 169 0
145 167 0
150 171 0
148 169 0
146 168 0
140 160 0
143 162 0
156 177 0
145 165 0
142 162 0
144 165 0
148 169 0
157 179 0
146 167 0
151 173 0
147 168 0
147 168 0
148 168 0
145 164 0
140 161 0
157 178 0
150 171 0
148 170 0
158 179 0
150 171 0
141 161 0
159 179 0
149 170 0
148 167 0
151 171 0
149 169 0
152 173 0
147 168 0
158 179 0
154 174 0
144 164 0
149 170 0
143 163 0
148 169 0
147 166 0
150 169 0
148 169 0
141 162 0
143 163 0
154 175 0
140 159 0
150 170 0
151 172 0
145 165 0
153 174 0
140 159 0
148 167 0
155 174 0
151 171 0
155 175 0
148 168 0
146 167 0
146 166 0
147 168 0
154 173 0
146 164 0
153 173 0
152 171 0
148 167 0
156 176 0
156 176 0
155 175 0
145 163 0
151 170 0
152 172 0
151 170 0
154 174 0
152 171 0
153 172 0
147 166 0
141 158 0
152 171 0
156 177 0
151 169 0
143 162 0
157 177 0
142 160 0
150 171 0
155 173 0
150 170 0
148 164 0
155 174 0
147 165 0
146 165 0
155 174 0
144 162 0
154 173 0
149 166 0
154 172 0
148 167 0
147 166 0
148 165 0
146 163 0
148 167 0
145 162 0
146 165 0
151 170 0
155 173 0
152 171 0
153 171 0
144 161 0
148 164 0
150 169 0
155 172 0
157 176 0
153 169 0
155 171 0
143 162 0
145 163 0
150 164 0
146 162 0
147 165 0
151 169 0
152 169 0
148 163 0
146 162 0
150 166 0
155 172 0
148 164 0
149 166 0
153 168 0
154 169 0
154 169 0
158 176 0
146 162 0
152 169 0
146 163 0
153 167 0
154 170 0
154 170 0
153 166 0
149 163 0
155 170 0
154 171 0
156 172 0
150 164 0
152 167 0
148 163 0
153 167 0
145 159 0
155 171 0
149 162 0
156 170 0
148 162 0
153 169 0
151 162 0
151 163 0
152 166 0
145 161 0
150 164 0
151 164 0
151 166 0
155 171 0
150 164 0
153 165 0
151 163 0
151 166 0
145 157 0
153 169 0
155 168 0
152 164 0
152 163 0
154 167 0
150 163 0
153 164 0
156 170 0
152 164 0
151 163 0
153 166 0
152 164 0
147 160 0
151 162 0
151 162 0
153 166 0
154 165 0
153 163 0
158 172 0
158 171 0
154 167 0
151 164 0
158 171 0
157 172 0
157 171 0
149 162 0
151 164 0
162 176 0
157 170 0
158 169 0
168 193 0
169 192 0
173 196 0
173 196 0
170 194 0
173 196 0
173 196 0
173 195 0
169 193 0
169 192 0
167 191 0
169 192 0
173 196 0
170 194 0
170 193 0
170 194 0
167 191 0
169 192 0
172 195 0
173 196 0
171 194 0
171 193 0
172 195 0
167 190 0
170 194 0
168 191 0
167 189 0
172 196 0
169 192 0
170 193 0
165 188 0
170 193 0
171 194 0
171 193 0
170 194 0
166 190 0
169 192 0
171 194 0
167 190 0
168 191 0
171 194 0
168 190 0
171 193 0
168 191 0
165 188 0
171 194 0
170 192 0
167 189 0
165 188 0
170 193 0
165 188 0
166 188 0
169 192 0
167 190 0
171 194 0
171 195 0
168 191 0
163 186 0
167 190 0
167 190 0
165 188 0
171 193 0
167 189 0
171 193 0
164 187 0
169 192 0
166 188 0
160 183 0
164 187 0
170 192 0
164 187 0
167 189 0
166 188 0
167 190 0
164 187 0
166 189 0
163 186 0
165 187 0
170 193 0
161 185 0
158 181 0
165 188 0
165 187 0
165 188 0
163 186 0
158 182 0
169 190 0
160 183 0
159 182 0
166 188 0
170 191 0
158 179 0
167 190 0
161 185 0
163 185 0
164 186 0
162 184 0
166 189 0
159 181 0
160 182 0
163 185 0
162 184 0
163 186 0
163 185 0
164 186 0
154 177 0
159 181 0
161 183 0
166 187 0
159 182 0
159 182 0
161 182 0
163 185 0
163 185 0
161 183 0
160 183 0
162 184 0
160 182 0
165 186 0
164 186 0
156 179 0
160 181 0
156 179 0
154 176 0
161 183 0
164 186 0
158 181 0
155 178 0
157 180 0
162 184 0
158 180 0
159 181 0
160 183 0
157 179 0
163 185 0
154 176 0
162 183 0
155 177 0
159 180 0
155 177 0
158 180 0
158 180 0
155 179 0
151 173 0
160 181 0
166 188 0
157 178 0
165 187 0
156 178 0
152 174 0
157 179 0
155 177 0
154 176 0
160 183 0
149 171 0
157 179 0
151 173 0
157 178 0
157 180 0
153 175 0
156 178 0
154 176 0
155 178 0
155 176 0
148 169 0
155 176 0
156 176 0
151 174 0
156 178 0
162 184 0
159 182 0
150 173 0
151 172 0
153 174 0
151 172 0
154 174 0
147 169 0
150 171 0
155 178 0
154 176 0
152 174 0
155 177 0
153 175 0
154 176 0
149 170 0
152 172 0
153 175 0
148 169 0
150 172 0
150 171 0
150 172 0
151 173 0
151 174 0
146 167 0
145 165 0
162 184 0
148 170 0
148 169 0
149 171 0
145 166 0
148 170 0
150 171 0
158 180 0
156 178 0
151 171 0
148 169 0
149 171 0
151 172 0
148 169 0
149 171 0
156 178 0
151 172 0
151 173 0
154 176 0
151 170 0
155 176 0
154 175 0
150 171 0
142 162 0
149 169 0
152 173 0
150 171 0
144 165 0
146 167 0
155 177 0
145 166 0
153 175 0
157 178 0
152 173 0
149 169 0
154 175 0
148 170 0
150 170 0
147 167 0
149 169 0
151 172 0
153 173 0
157 178 0
149 169 0
152 174 0
155 176 0
146 167 0
148 169 0
148 169 0
149 171 0
147 167 0
145 164 0
149 168 0
142 163 0
153 174 0
144 165 0
156 175 0
153 173 0
151 172 0
148 168 0
144 165 0
146 166 0
146 164 0
143 165 0
149 169 0
148 168 0
144 163 0
151 173 0
155 175 0
149 169 0
144 162 0
153 174 0
157 177 0
150 172 0
148 169 0
150 170 0
152 169 0
151 169 0
146 164 0
144 162 0
153 171 0
147 167 0
156 177 0
149 169 0
157 178 0
152 170 0
157 177 0
152 170 0
146 163 0
150 170 0
146 166 0
144 161 0
147 166 0
145 164 0
148 166 0
154 174 0
152 171 0
153 173 0
142 162 0
149 169 0
152 173 0
153 173 0
155 172 0
150 168 0
152 171 0
150 169 0
153 170 0
147 165 0
143 162 0
152 172 0
136 151 0
152 172 0
153 170 0
156 173 0
158 176 0
150 169 0
152 169 0
150 169 0
144 160 0
150 169 0
152 171 0
148 165 0
156 174 0
145 160 0
155 172 0
154 173 0
146 164 0
149 164 0
149 166 0
156 173 0
150 166 0
150 167 0
154 171 0
146 161 0
151 167 0
152 168 0
152 169 0
150 169 0
154 170 0
146 162 0
147 164 0
154 170 0
149 164 0
139 155 0
154 171 0
150 165 0
154 169 0
151 165 0
147 163 0
154 170 0
150 165 0
149 166 0
146 162 0
158 173 0
147 161 0
152 165 0
150 164 0
155 171 0
151 165 0
148 163 0
156 172 0
154 166 0
151 165 0
155 171 0
152 167 0
151 165 0
149 163 0
152 164 0
152 167 0
153 166 0
154 165 0
160 175 0
143 155 0
154 167 0
153 169 0
155 168 0
153 165 0
147 159 0
155 167 0
151 164 0
157 172 0
153 168 0
147 160 0
155 169 0
153 166 0
151 163 0
156 168 0
154 166 0
153 166 0
152 165 0
152 164 0
153 166 0
153 164 0
156 167 0
150 162 0
142 154 0
150 162 0
153 167 0
154 168 0
147 159 0
157 172 0
146 159 0
157 171 0
156 170 0
150 159 0
172 195 0
171 194 0
173 196 0
174 197 0
171 194 0
171 194 0
172 195 0
171 193 0
172 196 0
168 191 0
168 191 0
170 193 0
173 197 0
171 195 0
171 194 0
171 194 0
170 193 0
170 193 0
169 193 0
171 194 0
171 194 0
169 192 0
172 195 0
170 193 0
169 193 0
166 188 0
170 194 0
173 196 0
173 196 0
166 189 0
166 190 0
171 194 0
169 191 0
170 193 0
164 187 0
170 193 0
170 193 0
170 193 0
167 189 0
169 191 0
167 190 0
167 190 0
170 192 0
165 188 0
171 195 0
167 190 0
168 191 0
167 189 0
158 182 0
171 194 0
166 189 0
170 194 0
171 194 0
167 191 0
166 189 0
166 189 0
169 191 0
162 185 0
167 189 0
167 190 0
165 188 0
170 192 0
164 187 0
166 188 0
166 188 0
167 190 0
168 191 0
165 189 0
171 194 0
165 188 0
163 185 0
165 187 0
163 186 0
162 184 0
159 183 0
168 190 0
161 184 0
167 189 0
168 190 0
168 190 0
162 184 0
158 180 0
161 184 0
167 190 0
164 187 0
164 187 0
165 187 0
168 191 0
163 185 0
165 188 0
165 186 0
161 184 0
166 189 0
164 186 0
163 185 0
159 181 0
163 185 0
164 187 0
155 177 0
164 185 0
165 187 0
168 191 0
159 182 0
160 183 0
165 187 0
164 187 0
160 182 0
160 183 0
161 184 0
167 190 0
169 191 0
164 185 0
161 184 0
161 183 0
159 181 0
161 184 0
153 175 0
165 188 0
163 184 0
157 179 0
165 188 0
158 181 0
156 179 0
157 180 0
157 180 0
157 178 0
151 173 0
152 174 0
158 181 0
152 173 0
158 180 0
153 175 0
155 177 0
161 183 0
163 185 0
161 183 0
158 181 0
160 183 0
157 179 0
160 182 0
157 179 0
164 185 0
155 177 0
156 179 0
161 182 0
153 175 0
158 179 0
160 182 0
157 180 0
159 182 0
163 185 0
155 177 0
154 175 0
157 179 0
151 173 0
157 178 0
155 179 0
155 176 0
160 182 0
151 173 0
155 177 0
150 172 0
145 167 0
156 178 0
164 185 0
161 183 0
156 179 0
151 174 0
156 179 0
158 179 0
146 167 0
161 182 0
157 179 0
146 168 0
162 184 0
159 180 0
154 176 0
154 175 0
154 176 0
156 176 0
155 176 0
149 170 0
153 174 0
145 167 0
154 175 0
150 173 0
157 179 0
156 176 0
149 171 0
157 179 0
142 164 0
155 176 0
150 171 0
155 177 0
150 171 0
150 171 0
148 170 0
143 164 0
144 166 0
151 172 0
154 175 0
152 173 0
151 173 0
152 173 0
153 175 0
154 176 0
147 168 0
146 167 0
152 174 0
147 169 0
159 179 0
149 171 0
148 169 0
147 168 0
145 166 0
151 173 0
144 166 0
150 171 0
152 172 0
151 172 0
149 170 0
159 180 0
155 176 0
146 167 0
147 167 0
148 169 0
144 165 0
153 174 0
149 171 0
153 171 0
157 178 0
148 167 0
145 165 0
150 169 0
155 175 0
150 172 0
142 164 0
156 177 0
155 177 0
151 172 0
153 175 0
150 172 0
150 171 0
152 171 0
155 175 0
148 168 0
151 172 0
148 169 0
152 174 0
145 166 0
145 167 0
152 172 0
153 173 0
154 174 0
149 169 0
152 171 0
152 173 0
145 165 0
150 169 0
139 159 0
156 175 0
154 175 0
147 165 0
148 168 0
145 164 0
151 171 0
149 169 0
147 167 0
147 166 0
144 162 0
152 171 0
154 174 0
148 167 0
156 177 0
156 173 0
147 166 0
158 177 0
156 176 0
143 164 0
149 169 0
154 174 0
147 166 0
153 174 0
154 172 0
142 160 0
153 172 0
146 163 0
152 172 0
154 175 0
149 167 0
151 172 0
147 165 0
150 168 0
153 173 0
152 171 0
156 175 0
144 163 0
149 169 0
148 165 0
155 172 0
154 172 0
148 166 0
159 178 0
152 170 0
157 176 0
152 169 0
150 169 0
153 169 0
147 165 0
146 162 0
155 174 0
153 171 0
152 170 0
154 172 0
153 171 0
154 174 0
153 170 0
157 174 0
145 163 0
151 169 0
148 164 0
146 163 0
139 155 0
150 168 0
150 167 0
153 170 0
154 172 0
150 166 0
152 168 0
157 172 0
154 170 0
152 169 0
147 162 0
154 173 0
152 169 0
156 174 0
152 167 0
152 169 0
153 166 0
159 175 0
153 169 0
158 176 0
155 168 0
149 164 0
153 167 0
158 175 0
150 166 0
153 168 0
158 173 0
153 170 0
154 168 0
159 174 0
149 164 0
150 164 0
145 158 0
154 168 0
150 167 0
151 167 0
153 165 0
156 172 0
149 160 0
149 162 0
153 170 0
155 169 0
155 167 0
144 158 0
151 163 0
149 164 0
154 168 0
160 172 0
145 159 0
151 164 0
150 163 0
158 173 0
153 168 0
157 171 0
154 168 0
157 170 0
156 170 0
148 164 0
157 170 0
152 164 0
151 165 0
154 167 0
142 154 0
158 171 0
153 166 0
154 165 0
156 168 0
157 170 0
159 173 0
160 174 0
161 174 0
159 175 0
152 165 0
152 165 0
155 168 0
154 170 0
149 161 0
159 170 0
173 196 0
171 194 0
175 197 0
169 192 0
170 193 0
169 191 0
168 191 0
172 195 0
171 194 0
172 195 0
171 194 0
170 193 0
173 196 0
169 192 0
173 196 0
170 193 0
173 196 0
172 194 0
167 190 0
173 196 0
171 194 0
169 192 0
164 188 0
169 191 0
168 191 0
172 195 0
173 196 0
170 193 0
167 190 0
170 192 0
173 197 0
168 191 0
170 193 0
168 192 0
170 193 0
162 186 0
165 188 0
171 193 0
172 194 0
168 191 0
167 190 0
167 190 0
168 191 0
166 188 0
166 189 0
165 187 0
166 189 0
170 193 0
165 187 0
170 192 0
167 190 0
166 189 0
165 188 0
167 189 0
169 191 0
169 192 0
170 193 0
166 189 0
163 186 0
166 190 0
167 189 0
168 191 0
163 187 0
166 189 0
167 191 0
169 192 0
162 184 0
166 188 0
164 187 0
166 190 0
165 188 0
164 187 0
167 190 0
165 186 0
167 190 0
166 188 0
162 185 0
167 190 0
162 184 0
166 190 0
164 186 0
162 184 0
165 188 0
160 182 0
164 187 0
163 187 0
162 184 0
162 186 0
162 184 0
165 188 0
161 183 0
168 190 0
162 185 0
164 186 0
164 185 0
164 186 0
166 190 0
161 183 0
165 186 0
168 190 0
155 178 0
160 182 0
159 181 0
167 190 0
158 180 0
154 176 0
162 184 0
161 183 0
164 186 0
159 182 0
162 185 0
162 185 0
159 181 0
165 187 0
163 186 0
164 186 0
162 185 0
159 182 0
159 181 0
161 183 0
159 180 0
164 187 0
161 183 0
162 184 0
159 180 0
161 184 0
155 178 0
152 172 0
158 180 0
158 181 0
155 177 0
156 178 0
160 182 0
156 177 0
156 178 0
162 184 0
160 183 0
158 181 0
158 180 0
156 178 0
155 178 0
153 174 0
156 178 0
156 178 0
160 183 0
158 179 0
159 181 0
156 178 0
153 173 0
156 178 0
154 176 0
160 182 0
156 177 0
158 179 0
153 174 0
151 172 0
156 178 0
152 173 0
151 173 0
162 184 0
152 175 0
159 180 0
158 180 0
150 172 0
157 179 0
155 177 0
160 181 0
159 181 0
157 179 0
153 175 0
156 178 0
154 177 0
153 176 0
153 175 0
154 175 0
160 181 0
155 177 0
158 180 0
151 173 0
150 170 0
156 177 0
153 176 0
160 182 0
155 176 0
153 175 0
146 168 0
147 168 0
152 173 0
146 169 0
156 177 0
151 172 0
157 179 0
152 173 0
143 164 0
157 178 0
148 169 0
149 171 0
153 175 0
149 172 0
148 169 0
153 173 0
152 173 0
153 174 0
151 173 0
145 167 0
153 175 0
153 175 0
153 174 0
149 170 0
151 172 0
157 180 0
148 169 0
154 176 0
147 169 0
152 172 0
150 172 0
157 180 0
138 159 0
147 167 0
156 178 0
146 166 0
145 165 0
147 168 0
153 174 0
151 173 0
158 180 0
144 165 0
150 171 0
153 174 0
155 176 0
147 168 0
152 173 0
154 175 0
153 174 0
151 170 0
150 170 0
154 175 0
150 171 0
141 161 0
154 175 0
154 175 0
153 173 0
150 172 0
151 170 0
146 166 0
157 180 0
145 165 0
154 173 0
146 166 0
147 166 0
150 170 0
155 177 0
155 175 0
152 174 0
154 174 0
151 172 0
150 172 0
158 179 0
159 179 0
156 176 0
154 174 0
155 176 0
160 179 0
148 167 0
151 172 0
143 163 0
152 172 0
151 171 0
145 167 0
149 170 0
153 175 0
143 161 0
150 169 0
153 174 0
152 171 0
154 175 0
151 170 0
159 178 0
151 170 0
148 169 0
156 176 0
154 173 0
143 162 0
152 173 0
153 173 0
146 163 0
150 170 0
151 171 0
153 173 0
144 163 0
144 163 0
148 169 0
150 169 0
155 172 0
147 164 0
153 171 0
149 167 0
149 169 0
149 170 0
149 168 0
156 171 0
149 168 0
153 171 0
161 181 0
149 169 0
151 168 0
151 171 0
155 174 0
153 171 0
156 174 0
153 173 0
145 162 0
157 175 0
157 177 0
157 174 0
157 175 0
149 168 0
152 169 0
146 164 0
148 166 0
148 164 0
151 167 0
146 161 0
150 165 0
153 172 0
151 167 0
158 176 0
154 172 0
157 174 0
150 166 0
157 174 0
146 164 0
153 171 0
152 169 0
154 169 0
149 166 0
152 171 0
149 166 0
149 168 0
149 166 0
152 170 0
155 174 0
160 178 0
148 165 0
154 169 0
147 161 0
148 164 0
149 162 0
155 170 0
152 169 0
150 162 0
150 165 0
152 166 0
152 167 0
155 170 0
155 172 0
155 169 0
158 174 0
154 168 0
152 168 0
157 171 0
150 164 0
153 170 0
151 164 0
156 171 0
153 167 0
157 171 0
149 166 0
160 174 0
154 167 0
161 175 0
156 171 0
160 176 0
152 166 0
151 164 0
152 165 0
155 169 0
161 175 0
161 176 0
159 173 0
153 165 0
141 153 0
152 166 0
159 173 0
158 173 0
157 171 0
152 166 0
158 173 0
154 166 0
148 161 0
155 169 0
151 162 0
158 174 0
154 168 0
150 164 0
152 163 0
156 170 0
151 162 0
157 171 0
152 164 0
168 191 0
172 195 0
173 196 0
168 191 0
171 194 0
172 196 0
173 196 0
169 192 0
171 194 0
170 193 0
173 196 0
169 192 0
170 194 0
169 192 0
170 194 0
170 193 0
170 193 0
172 195 0
169 192 0
171 194 0
174 196 0
167 190 0
166 190 0
173 195 0
170 194 0
170 192 0
172 194 0
168 191 0
170 193 0
171 194 0
169 192 0
170 193 0
171 194 0
168 191 0
168 192 0
171 193 0
170 193 0
168 191 0
164 187 0
170 192 0
168 191 0
170 192 0
173 195 0
165 188 0
171 194 0
168 191 0
168 190 0
169 191 0
169 191 0
165 187 0
168 191 0
166 189 0
166 190 0
166 190 0
168 190 0
168 191 0
171 193 0
165 188 0
163 187 0
165 187 0
166 189 0
166 189 0
166 188 0
167 189 0
165 188 0
164 186 0
166 189 0
162 185 0
164 187 0
165 188 0
168 190 0
166 188 0
169 191 0
166 188 0
167 190 0
164 186 0
166 189 0
164 186 0
166 187 0
166 188 0
166 188 0
165 188 0
162 185 0
163 184 0
163 186 0
164 186 0
168 191 0
164 186 0
165 187 0
160 182 0
163 185 0
168 191 0
167 189 0
162 184 0
164 187 0
161 183 0
162 185 0
164 187 0
157 179 0
163 185 0
160 181 0
162 185 0
162 185 0
159 181 0
164 186 0
163 185 0
167 189 0
158 181 0
159 181 0
154 176 0
160 183 0
156 178 0
165 187 0
161 183 0
158 180 0
162 184 0
159 182 0
156 178 0
162 184 0
158 181 0
155 176 0
163 185 0
155 176 0
164 186 0
158 180 0
164 185 0
158 181 0
153 175 0
160 181 0
165 186 0
165 188 0
161 183 0
160 181 0
154 175 0
155 177 0
156 178 0
153 174 0
160 181 0
151 173 0
158 180 0
157 179 0
160 181 0
160 183 0
163 184 0
153 175 0
158 181 0
157 179 0
154 176 0
155 178 0
151 174 0
155 177 0
165 187 0
152 172 0
158 179 0
158 180 0
156 179 0
157 180 0
156 177 0
153 175 0
156 178 0
146 169 0
149 170 0
165 186 0
152 173 0
162 184 0
160 182 0
157 179 0
156 177 0
149 171 0
150 170 0
150 173 0
148 169 0
159 181 0
158 180 0
159 182 0
147 169 0
161 183 0
155 176 0
159 182 0
153 174 0
156 178 0
159 180 0
146 166 0
157 179 0
159 182 0
149 170 0
159 181 0
146 169 0
149 170 0
152 173 0
159 180 0
163 185 0
156 176 0
147 167 0
151 171 0
153 175 0
159 180 0
154 175 0
150 171 0
154 175 0
141 162 0
145 167 0
151 174 0
154 175 0
152 174 0
155 178 0
147 167 0
154 174 0
153 176 0
148 170 0
152 174 0
154 176 0
153 174 0
151 171 0
152 174 0
136 157 0
154 175 0
154 177 0
148 169 0
156 178 0
147 168 0
154 175 0
144 166 0
149 170 0
147 169 0
148 168 0
147 167 0
150 173 0
145 167 0
145 166 0
161 183 0
153 173 0
146 169 0
148 167 0
147 168 0
156 177 0
149 170 0
152 173 0
155 176 0
155 176 0
153 173 0
152 171 0
153 174 0
146 165 0
161 182 0
153 174 0
150 169 0
150 171 0
157 177 0
162 183 0
145 166 0
157 176 0
150 170 0
150 170 0
153 172 0
154 175 0
154 174 0
154 176 0
143 163 0
151 172 0
152 174 0
153 174 0
153 173 0
153 172 0
154 174 0
150 169 0
147 167 0
152 174 0
152 170 0
154 173 0
149 171 0
142 163 0
140 160 0
152 172 0
149 169 0
144 163 0
154 174 0
147 167 0
153 173 0
162 183 0
158 177 0
153 172 0
153 174 0
151 170 0
149 168 0
156 176 0
147 165 0
148 169 0
151 171 0
153 173 0
158 178 0
149 169 0
149 166 0
150 169 0
143 161 0
154 174 0
164 182 0
150 168 0
152 170 0
155 173 0
145 164 0
153 172 0
152 171 0
151 170 0
156 175 0
154 172 0
154 171 0
152 172 0
154 174 0
152 170 0
153 171 0
154 173 0
155 173 0
152 170 0
155 173 0
142 160 0
150 169 0
151 170 0
153 171 0
154 172 0
157 175 0
155 174 0
156 176 0
155 173 0
151 169 0
152 170 0
151 168 0
154 173 0
146 162 0
154 172 0
154 173 0
154 171 0
145 163 0
159 178 0
159 176 0
145 161 0
148 162 0
152 170 0
150 166 0
150 168 0
145 160 0
154 168 0
157 173 0
149 167 0
157 173 0
150 164 0
154 169 0
156 171 0
150 165 0
152 168 0
147 161 0
153 169 0
154 171 0
151 167 0
152 167 0
152 166 0
152 170 0
158 173 0
150 163 0
154 171 0
147 160 0
158 174 0
149 163 0
151 166 0
152 168 0
152 166 0
141 155 0
153 168 0
156 170 0
147 160 0
155 170 0
152 166 0
150 165 0
159 172 0
153 171 0
151 167 0
152 169 0
150 165 0
156 166 0
153 167 0
152 165 0
152 167 0
151 165 0
157 175 0
154 168 0
157 171 0
149 161 0
159 172 0
156 167 0
157 168 0
159 173 0
154 168 0
149 164 0
159 174 0
153 165 0
155 168 0
155 169 0
155 171 0
156 170 0
155 167 0
170 193 0
171 195 0
171 194 0
173 197 0
171 195 0
170 193 0
168 190 0
172 195 0
170 192 0
173 196 0
170 194 0
168 191 0
173 196 0
168 191 0
168 191 0
168 191 0
170 193 0
170 193 0
171 194 0
175 197 0
171 194 0
171 194 0
171 194 0
168 191 0
170 193 0
171 194 0
169 192 0
169 191 0
164 187 0
168 191 0
167 189 0
170 193 0
169 192 0
170 193 0
164 186 0
170 193 0
168 191 0
166 189 0
166 190 0
167 190 0
167 190 0
169 192 0
167 189 0
165 188 0
171 194 0
162 185 0
175 198 0
168 190 0
166 189 0
167 190 0
172 194 0
172 195 0
169 192 0
162 184 0
167 189 0
167 190 0
166 190 0
166 189 0
160 182 0
171 194 0
166 189 0
170 193 0
168 191 0
169 193 0
168 191 0
163 186 0
166 188 0
168 191 0
166 189 0
164 187 0
165 187 0
166 190 0
166 188 0
163 185 0
165 187 0
158 180 0
171 193 0
168 189 0
169 192 0
162 184 0
163 186 0
162 185 0
163 184 0
162 184 0
160 183 0
163 185 0
165 188 0
160 182 0
165 188 0
171 193 0
162 184 0
161 184 0
161 183 0
160 182 0
160 182 0
162 185 0
159 182 0
165 187 0
161 183 0
160 182 0
164 187 0
165 187 0
160 183 0
154 177 0
163 184 0
162 184 0
164 186 0
159 182 0
163 186 0
168 190 0
162 184 0
160 181 0
157 178 0
164 186 0
157 180 0
157 180 0
156 179 0
165 188 0
160 182 0
161 182 0
163 185 0
162 184 0
159 181 0
159 182 0
160 183 0
153 175 0
161 183 0
158 180 0
159 181 0
158 181 0
157 180 0
161 184 0
160 182 0
163 185 0
158 181 0
156 179 0
162 184 0
161 184 0
160 183 0
159 180 0
163 185 0
155 177 0
161 183 0
153 176 0
159 182 0
163 186 0
157 178 0
159 181 0
152 173 0
159 180 0
156 178 0
160 182 0
154 176 0
151 174 0
147 169 0
161 182 0
154 176 0
147 169 0
154 176 0
156 178 0
153 176 0
155 177 0
162 184 0
151 174 0
157 179 0
155 176 0
157 178 0
153 175 0
152 175 0
156 178 0
159 180 0
153 174 0
159 181 0
161 184 0
161 183 0
157 179 0
156 177 0
149 170 0
153 174 0
157 178 0
158 179 0
152 175 0
161 182 0
155 178 0
154 176 0
143 163 0
151 174 0
155 176 0
152 173 0
149 171 0
157 178 0
153 175 0
148 169 0
155 175 0
151 173 0
156 177 0
148 169 0
152 174 0
152 174 0
156 179 0
149 170 0
156 177 0
153 175 0
151 173 0
149 171 0
151 172 0
154 176 0
152 173 0
150 170 0
153 175 0
151 172 0
161 182 0
144 166 0
154 177 0
145 167 0
148 170 0
150 172 0
153 174 0
136 157 0
154 175 0
145 167 0
149 170 0
147 169 0
151 172 0
161 183 0
154 175 0
150 171 0
159 181 0
143 163 0
152 174 0
153 175 0
150 172 0
152 175 0
152 173 0
152 173 0
148 169 0
159 180 0
150 170 0
152 174 0
158 178 0
149 170 0
154 175 0
150 171 0
146 166 0
151 171 0
158 179 0
153 174 0
149 171 0
157 179 0
152 172 0
148 168 0
150 171 0
156 176 0
153 174 0
149 170 0
151 171 0
147 167 0
152 172 0
151 171 0
145 166 0
156 177 0
147 168 0
151 172 0
154 176 0
154 175 0
150 170 0
152 172 0
158 180 0
147 168 0
151 173 0
153 174 0
148 168 0
153 175 0
149 170 0
151 170 0
155 177 0
146 166 0
148 168 0
151 171 0
153 172 0
157 176 0
155 175 0
156 177 0
144 164 0
155 175 0
152 173 0
154 172 0
147 166 0
159 180 0
151 172 0
151 171 0
153 174 0
153 171 0
152 171 0
146 164 0
147 165 0
154 176 0
158 177 0
147 166 0
150 169 0
157 176 0
159 179 0
150 169 0
151 168 0
156 176 0
149 167 0
154 174 0
150 168 0
145 164 0
154 172 0
152 172 0
154 174 0
154 172 0
148 167 0
153 171 0
164 183 0
151 169 0
158 178 0
155 174 0
149 167 0
156 176 0
153 170 0
150 168 0
149 166 0
154 172 0
153 170 0
155 173 0
154 170 0
151 169 0
154 171 0
159 177 0
157 173 0
151 168 0
145 160 0
151 168 0
151 167 0
156 174 0
151 166 0
153 171 0
150 166 0
143 159 0
159 176 0
150 167 0
150 166 0
155 172 0
153 171 0
154 172 0
155 170 0
153 168 0
151 166 0
150 167 0
151 166 0
152 168 0
158 174 0
153 170 0
150 165 0
159 179 0
154 171 0
154 171 0
152 169 0
151 165 0
159 174 0
157 172 0
149 166 0
143 157 0
144 158 0
152 165 0
154 169 0
145 159 0
158 175 0
151 167 0
156 169 0
147 162 0
160 175 0
148 160 0
154 168 0
152 164 0
148 162 0
151 166 0
156 170 0
152 166 0
151 165 0
156 169 0
155 170 0
155 170 0
154 169 0
152 164 0
158 172 0
150 164 0
157 171 0
153 166 0
151 163 0
158 173 0
159 175 0
160 175 0
157 172 0
155 171 0
152 164 0
158 174 0
155 170 0
171 193 0
170 194 0
172 195 0
171 194 0
172 195 0
170 192 0
172 195 0
170 193 0
174 197 0
170 194 0
170 193 0
171 194 0
172 195 0
171 193 0
170 193 0
173 196 0
169 192 0
168 192 0
171 192 0
171 194 0
169 192 0
166 189 0
169 191 0
172 195 0
175 198 0
165 189 0
171 194 0
169 192 0
169 191 0
168 191 0
165 188 0
162 186 0
172 194 0
168 191 0
167 190 0
164 187 0
167 191 0
166 189 0
163 186 0
167 190 0
172 195 0
164 186 0
172 195 0
164 186 0
165 189 0
172 195 0
171 194 0
168 190 0
165 188 0
163 185 0
162 183 0
166 188 0
172 195 0
164 186 0
171 194 0
163 187 0
163 184 0
164 187 0
166 190 0
166 188 0
165 188 0
166 188 0
167 189 0
169 192 0
163 186 0
164 187 0
162 184 0
158 181 0
165 188 0
164 187 0
161 183 0
166 188 0
168 190 0
165 187 0
166 190 0
165 188 0
165 188 0
158 180 0
160 183 0
167 189 0
166 188 0
158 181 0
168 191 0
166 188 0
167 191 0
166 189 0
163 185 0
166 189 0
162 185 0
158 180 0
165 187 0
163 184 0
164 186 0
165 187 0
161 183 0
157 179 0
162 184 0
159 182 0
161 183 0
161 183 0
164 187 0
163 186 0
164 186 0
161 183 0
157 180 0
161 183 0
164 186 0
163 185 0
154 176 0
162 184 0
164 186 0
157 179 0
162 184 0
159 182 0
162 185 0
164 186 0
162 183 0
157 179 0
159 181 0
161 183 0
157 180 0
155 177 0
158 180 0
163 185 0
160 183 0
158 181 0
158 180 0
160 183 0
161 184 0
161 182 0
154 175 0
161 183 0
160 183 0
163 186 0
162 184 0
160 183 0
157 178 0
165 187 0
150 172 0
157 179 0
159 181 0
157 179 0
155 177 0
161 183 0
155 178 0
152 174 0
156 178 0
155 178 0
160 182 0
160 183 0
156 180 0
159 180 0
159 180 0
161 183 0
151 173 0
156 178 0
156 179 0
156 178 0
153 175 0
154 177 0
159 181 0
153 175 0
157 180 0
155 176 0
155 177 0
157 178 0
159 181 0
152 175 0
157 179 0
157 180 0
154 176 0
151 173 0
158 180 0
157 180 0
163 185 0
151 173 0
150 173 0
149 171 0
151 173 0
152 175 0
152 173 0
157 179 0
148 170 0
150 173 0
149 170 0
150 172 0
154 176 0
162 183 0
159 181 0
153 176 0
155 176 0
151 172 0
142 163 0
151 172 0
148 169 0
148 168 0
152 173 0
156 177 0
156 177 0
157 180 0
160 182 0
160 181 0
150 169 0
161 182 0
154 175 0
154 175 0
159 180 0
154 175 0
150 171 0
149 169 0
150 170 0
151 172 0
158 180 0
151 172 0
148 169 0
149 169 0
157 180 0
153 175 0
158 180 0
152 173 0
154 175 0
147 169 0
152 174 0
157 178 0
153 174 0
155 177 0
156 178 0
142 163 0
146 168 0
150 171 0
153 175 0
149 169 0
150 172 0
149 170 0
160 180 0
151 172 0
158 177 0
151 173 0
151 172 0
150 170 0
148 169 0
150 172 0
156 177 0
150 171 0
155 177 0
155 175 0
153 173 0
160 181 0
151 171 0
154 175 0
154 176 0
154 174 0
149 171 0
148 167 0
151 171 0
152 173 0
147 167 0
154 177 0
152 172 0
155 176 0
155 175 0
151 173 0
148 169 0
157 177 0
153 174 0
155 176 0
151 170 0
161 181 0
154 175 0
153 174 0
151 172 0
152 171 0
149 169 0
155 176 0
144 163 0
149 170 0
155 175 0
153 173 0
156 176 0
147 167 0
154 174 0
156 176 0
155 176 0
152 172 0
145 165 0
151 171 0
150 168 0
158 180 0
148 167 0
156 178 0
150 170 0
158 177 0
152 172 0
143 162 0
157 178 0
158 179 0
159 178 0
156 174 0
150 168 0
156 176 0
145 164 0
150 169 0
150 170 0
153 173 0
161 180 0
155 174 0
154 173 0
153 170 0
152 169 0
154 173 0
154 171 0
147 167 0
155 172 0
157 178 0
154 173 0
151 170 0
153 169 0
156 173 0
154 171 0
145 163 0
148 164 0
161 180 0
142 159 0
156 172 0
152 171 0
150 167 0
146 164 0
155 171 0
159 178 0
149 166 0
151 167 0
148 166 0
153 169 0
155 172 0
154 171 0
153 171 0
154 170 0
153 172 0
153 169 0
150 166 0
150 167 0
153 170 0
155 169 0
153 170 0
159 177 0
153 171 0
149 165 0
149 163 0
159 174 0
149 166 0
154 169 0
158 174 0
154 170 0
148 165 0
152 166 0
151 168 0
151 165 0
160 177 0
153 170 0
159 174 0
159 178 0
152 167 0
150 164 0
153 168 0
153 167 0
149 162 0
148 164 0
155 170 0
154 171 0
156 171 0
159 175 0
154 169 0
153 169 0
156 169 0
155 170 0
159 175 0
145 160 0
152 165 0
154 167 0
154 169 0
150 165 0
153 166 0
158 172 0
155 168 0
152 164 0
160 175 0
152 164 0
156 172 0
155 169 0
161 176 0
152 166 0
148 162 0
151 164 0
149 163 0
155 168 0
159 173 0
160 175 0
161 176 0
156 169 0
156 170 0
171 193 0
172 195 0
172 195 0
172 194 0
173 196 0
173 196 0
169 192 0
173 196 0
167 191 0
173 196 0
171 194 0
170 193 0
172 194 0
171 194 0
169 192 0
171 194 0
171 195 0
170 193 0
169 192 0
172 195 0
172 196 0
170 193 0
165 187 0
165 188 0
170 193 0
168 190 0
169 191 0
169 191 0
174 196 0
167 190 0
167 190 0
169 192 0
170 193 0
166 189 0
170 193 0
168 191 0
163 186 0
169 192 0
168 191 0
167 190 0
166 189 0
169 192 0
166 188 0
166 189 0
165 188 0
166 187 0
168 191 0
168 191 0
166 189 0
166 189 0
165 188 0
168 191 0
163 186 0
168 190 0
168 191 0
167 190 0
166 188 0
164 187 0
168 191 0
168 190 0
168 191 0
167 191 0
165 188 0
166 190 0
167 190 0
164 187 0
161 184 0
163 186 0
164 186 0
170 192 0
165 188 0
167 190 0
168 190 0
163 186 0
161 184 0
165 188 0
165 188 0
160 183 0
166 188 0
165 187 0
169 191 0
168 190 0
165 186 0
166 189 0
166 188 0
167 189 0
164 186 0
166 189 0
159 182 0
164 186 0
165 187 0
165 188 0
163 186 0
166 188 0
162 185 0
162 185 0
162 183 0
169 192 0
158 180 0
160 182 0
159 182 0
162 184 0
163 185 0
161 183 0
167 190 0
165 187 0
163 186 0
166 189 0
159 182 0
158 180 0
157 180 0
157 179 0
163 185 0
160 182 0
162 185 0
162 185 0
155 177 0
166 188 0
158 181 0
159 181 0
160 183 0
163 185 0
160 183 0
164 187 0
157 178 0
158 181 0
160 182 0
164 186 0
162 184 0
158 179 0
159 181 0
158 180 0
162 185 0
163 187 0
162 183 0
157 179 0
158 180 0
160 181 0
164 186 0
160 182 0
161 184 0
157 178 0
150 172 0
156 179 0
157 180 0
157 180 0
156 178 0
162 184 0
154 176 0
154 176 0
158 181 0
152 174 0
158 180 0
160 182 0
159 180 0
156 177 0
158 180 0
156 178 0
153 175 0
158 180 0
152 174 0
155 177 0
157 178 0
155 177 0
152 174 0
155 177 0
153 175 0
149 171 0
160 181 0
155 178 0
157 178 0
149 172 0
156 178 0
152 173 0
156 178 0
155 175 0
161 183 0
157 178 0
157 177 0
159 181 0
149 171 0
157 181 0
155 177 0
151 174 0
151 173 0
154 177 0
151 173 0
154 177 0
155 176 0
147 169 0
159 181 0
153 175 0
151 174 0
152 172 0
154 175 0
153 175 0
148 169 0
150 171 0
160 183 0
160 181 0
153 175 0
152 174 0
157 178 0
155 177 0
161 184 0
157 179 0
147 169 0
149 171 0
145 166 0
155 176 0
158 181 0
154 176 0
150 171 0
158 180 0
153 175 0
150 172 0
150 172 0
150 172 0
161 181 0
154 175 0
158 178 0
151 173 0
150 170 0
157 179 0
151 172 0
153 175 0
154 175 0
146 167 0
152 173 0
148 170 0
159 181 0
151 172 0
157 178 0
151 173 0
154 175 0
146 166 0
139 160 0
150 171 0
153 175 0
154 175 0
158 180 0
151 170 0
146 166 0
149 170 0
145 166 0
155 175 0
146 165 0
154 174 0
151 172 0
147 168 0
147 166 0
151 171 0
156 176 0
152 172 0
157 179 0
144 164 0
146 167 0
152 172 0
146 168 0
158 180 0
152 172 0
156 177 0
157 176 0
156 177 0
149 170 0
156 177 0
150 169 0
152 173 0
155 175 0
154 174 0
157 178 0
154 174 0
160 181 0
149 168 0
153 173 0
152 173 0
155 176 0
151 170 0
154 173 0
154 175 0
153 174 0
150 171 0
152 171 0
156 175 0
152 170 0
147 168 0
141 161 0
149 170 0
155 176 0
147 166 0
147 164 0
155 173 0
158 177 0
156 176 0
150 170 0
149 170 0
157 175 0
155 174 0
157 176 0
150 168 0
156 174 0
154 174 0
153 174 0
148 165 0
146 165 0
151 168 0
154 172 0
142 160 0
156 177 0
152 171 0
153 173 0
154 172 0
147 164 0
150 166 0
155 174 0
148 165 0
154 172 0
156 177 0
152 170 0
152 170 0
146 163 0
150 169 0
156 174 0
149 165 0
149 165 0
150 168 0
151 168 0
151 168 0
155 173 0
151 170 0
157 177 0
147 163 0
147 164 0
152 169 0
156 173 0
150 166 0
155 172 0
156 174 0
153 169 0
153 169 0
152 168 0
152 169 0
150 167 0
150 166 0
153 172 0
157 175 0
148 165 0
161 177 0
156 172 0
152 170 0
154 171 0
152 168 0
154 170 0
157 174 0
153 170 0
154 168 0
154 171 0
152 166 0
149 166 0
156 172 0
155 172 0
152 167 0
161 176 0
159 173 0
146 159 0
157 173 0
148 163 0
153 169 0
151 165 0
156 171 0
145 159 0
158 173 0
163 180 0
157 172 0
157 173 0
154 168 0
151 164 0
155 171 0
153 165 0
148 164 0
152 165 0
153 167 0
156 171 0
148 164 0
155 168 0
155 170 0
151 167 0
154 166 0
156 172 0
154 167 0
157 172 0
153 168 0
159 175 0
159 175 0
155 168 0
161 174 0
157 174 0
150 164 0
151 165 0
154 170 0
172 195 0
171 195 0
171 194 0
170 193 0
170 193 0
171 194 0
170 194 0
168 190 0
174 196 0
169 193 0
171 194 0
171 192 0
172 195 0
171 194 0
169 192 0
174 196 0
171 195 0
172 195 0
168 191 0
170 193 0
172 195 0
170 193 0
171 194 0
167 190 0
170 193 0
169 192 0
168 190 0
173 195 0
172 194 0
169 193 0
169 192 0
165 188 0
168 192 0
167 190 0
168 191 0
170 193 0
170 193 0
170 192 0
165 189 0
170 192 0
163 186 0
167 190 0
167 191 0
169 191 0
169 192 0
170 194 0
171 194 0
170 193 0
162 184 0
168 191 0
168 191 0
166 189 0
166 188 0
163 186 0
167 189 0
169 192 0
165 187 0
167 190 0
166 189 0
170 192 0
169 191 0
169 192 0
165 187 0
170 192 0
163 185 0
171 193 0
169 192 0
160 183 0
163 185 0
163 186 0
161 183 0
167 190 0
163 185 0
168 191 0
169 192 0
167 190 0
163 186 0
163 186 0
167 189 0
166 189 0
169 191 0
164 187 0
166 189 0
166 188 0
169 191 0
167 189 0
161 184 0
165 188 0
160 182 0
160 182 0
157 180 0
159 180 0
163 186 0
161 184 0
160 182 0
153 176 0
164 187 0
157 180 0
162 184 0
167 189 0
160 182 0
163 186 0
170 192 0
166 189 0
165 187 0
160 183 0
163 186 0
154 176 0
159 181 0
157 180 0
159 182 0
163 185 0
161 182 0
161 184 0
157 180 0
157 180 0
156 177 0
160 182 0
159 182 0
167 190 0
165 188 0
161 183 0
161 183 0
157 179 0
156 178 0
165 186 0
156 179 0
160 182 0
165 187 0
157 179 0
159 181 0
164 187 0
165 187 0
166 188 0
160 183 0
159 182 0
154 177 0
159 181 0
153 175 0
161 182 0
158 181 0
158 180 0
159 181 0
165 187 0
154 175 0
158 179 0
158 180 0
156 177 0
162 184 0
155 178 0
155 177 0
159 181 0
156 178 0
149 171 0
158 181 0
151 173 0
153 175 0
151 172 0
164 186 0
161 183 0
157 179 0
148 171 0
159 181 0
156 179 0
154 177 0
155 178 0
156 178 0
159 181 0
159 181 0
161 181 0
156 177 0
154 176 0
150 171 0
157 179 0
154 175 0
153 175 0
153 174 0
159 180 0
158 180 0
154 176 0
158 179 0
159 181 0
154 175 0
154 176 0
151 172 0
157 179 0
151 173 0
147 168 0
154 175 0
155 175 0
155 177 0
152 174 0
162 184 0
150 171 0
154 176 0
157 179 0
152 171 0
162 184 0
158 180 0
154 176 0
154 175 0
155 176 0
156 179 0
148 169 0
157 179 0
157 179 0
155 175 0
150 170 0
156 177 0
155 175 0
150 171 0
154 175 0
150 171 0
148 169 0
153 174 0
161 184 0
144 165 0
151 173 0
155 176 0
155 175 0
152 174 0
149 170 0
144 165 0
149 170 0
153 175 0
155 177 0
152 173 0
152 171 0
153 175 0
145 166 0
149 169 0
153 174 0
150 170 0
147 168 0
157 175 0
152 172 0
143 162 0
152 172 0
145 165 0
140 160 0
149 169 0
150 171 0
144 164 0
150 171 0
151 172 0
151 172 0
154 175 0
155 177 0
151 171 0
147 168 0
154 176 0
148 169 0
148 170 0
148 169 0
136 155 0
146 165 0
152 173 0
145 165 0
144 165 0
156 177 0
148 168 0
149 169 0
147 167 0
152 172 0
158 178 0
146 166 0
154 175 0
152 173 0
150 168 0
155 175 0
153 173 0
155 175 0
148 167 0
146 165 0
157 178 0
155 175 0
148 167 0
149 170 0
155 174 0
159 180 0
151 171 0
155 176 0
152 171 0
160 180 0
145 164 0
159 178 0
148 166 0
152 171 0
156 175 0
148 165 0
153 172 0
149 169 0
155 174 0
155 174 0
151 170 0
151 173 0
155 175 0
147 166 0
154 173 0
152 174 0
160 182 0
151 170 0
148 167 0
153 173 0
155 176 0
157 177 0
154 173 0
146 162 0
148 167 0
145 161 0
153 170 0
152 171 0
146 166 0
151 171 0
146 163 0
154 172 0
151 169 0
152 171 0
151 168 0
155 172 0
153 172 0
150 169 0
151 169 0
156 174 0
151 170 0
156 174 0
150 167 0
155 173 0
153 172 0
157 176 0
153 171 0
156 173 0
152 168 0
154 170 0
152 171 0
156 175 0
156 174 0
156 173 0
146 161 0
156 174 0
150 167 0
147 162 0
150 165 0
152 167 0
154 171 0
150 166 0
156 173 0
149 167 0
151 167 0
144 157 0
156 173 0
161 178 0
145 162 0
159 175 0
151 167 0
155 171 0
157 175 0
154 169 0
152 167 0
157 173 0
160 177 0
150 164 0
160 177 0
158 174 0
150 166 0
151 167 0
155 173 0
159 174 0
154 170 0
156 169 0
154 170 0
151 165 0
152 168 0
159 172 0
159 174 0
160 173 0
157 173 0
158 172 0
155 170 0
150 165 0
156 168 0
157 171 0
152 165 0
157 171 0
151 165 0
148 162 0
149 163 0
157 174 0
154 167 0
158 171 0
156 171 0
158 171 0
160 172 0
160 175 0
149 163 0
160 173 0
159 174 0
154 167 0
156 170 0
149 160 0
172 195 0
170 192 0
171 194 0
174 197 0
173 196 0
170 193 0
174 197 0
168 191 0
168 191 0
170 192 0
173 195 0
170 194 0
170 193 0
171 193 0
167 190 0
170 194 0
168 191 0
167 189 0
173 195 0
174 197 0
170 193 0
167 191 0
171 194 0
170 193 0
168 191 0
170 192 0
170 192 0
169 192 0
170 192 0
166 189 0
171 194 0
166 189 0
167 189 0
166 189 0
173 195 0
174 196 0
168 191 0
172 194 0
170 192 0
170 192 0
168 191 0
166 189 0
167 189 0
167 189 0
164 187 0
167 190 0
164 187 0
166 188 0
169 191 0
161 183 0
164 186 0
168 190 0
168 191 0
165 188 0
169 191 0
164 187 0
167 190 0
166 188 0
171 194 0
168 191 0
164 186 0
172 194 0
167 189 0
167 190 0
164 187 0
161 183 0
164 186 0
160 183 0
164 186 0
162 185 0
171 195 0
165 188 0
160 182 0
166 188 0
163 186 0
163 185 0
167 190 0
168 189 0
168 191 0
166 189 0
168 192 0
157 181 0
165 186 0
160 183 0
164 186 0
162 185 0
166 188 0
165 187 0
168 191 0
163 185 0
164 187 0
163 187 0
157 180 0
161 183 0
161 184 0
162 184 0
162 183 0
166 189 0
157 180 0
160 182 0
162 185 0
164 187 0
159 181 0
157 179 0
160 182 0
161 184 0
164 186 0
159 181 0
163 186 0
164 187 0
165 187 0
164 186 0
163 186 0
157 178 0
160 182 0
160 182 0
160 182 0
160 182 0
162 183 0
164 186 0
154 176 0
161 183 0
160 183 0
159 181 0
160 182 0
163 185 0
164 187 0
165 188 0
151 173 0
164 187 0
165 186 0
159 182 0
163 185 0
157 180 0
153 175 0
149 171 0
158 181 0
158 179 0
157 179 0
161 183 0
163 185 0
154 176 0
156 177 0
158 180 0
152 175 0
155 176 0
159 180 0
156 177 0
153 175 0
153 175 0
157 179 0
165 187 0
153 174 0
163 185 0
153 174 0
160 181 0
156 178 0
158 180 0
150 172 0
159 181 0
160 181 0
152 173 0
157 180 0
153 175 0
154 176 0
152 173 0
153 175 0
154 177 0
156 178 0
154 177 0
158 179 0
156 178 0
158 179 0
158 181 0
154 176 0
159 181 0
158 181 0
154 177 0
157 180 0
155 176 0
154 175 0
154 175 0
148 169 0
161 183 0
150 171 0
159 181 0
159 183 0
152 174 0
156 178 0
152 175 0
156 178 0
150 171 0
151 172 0
146 168 0
154 175 0
153 176 0
153 176 0
155 178 0
157 177 0
155 176 0
154 176 0
152 172 0
152 174 0
150 170 0
147 169 0
149 170 0
160 182 0
157 179 0
154 176 0
159 180 0
158 179 0
149 168 0
151 172 0
152 173 0
154 175 0
155 178 0
153 175 0
157 179 0
149 170 0
155 177 0
149 172 0
153 174 0
152 173 0
151 172 0
161 182 0
156 177 0
153 174 0
152 173 0
151 172 0
148 167 0
156 177 0
154 176 0
153 174 0
153 175 0
155 177 0
154 176 0
144 165 0
148 167 0
156 177 0
146 167 0
151 172 0
151 173 0
141 163 0
152 173 0
144 166 0
149 171 0
153 174 0
155 176 0
150 171 0
148 170 0
150 169 0
153 174 0
156 178 0
150 170 0
152 172 0
150 171 0
154 175 0
158 178 0
146 166 0
153 174 0
148 168 0
146 168 0
152 174 0
154 174 0
151 173 0
154 174 0
158 178 0
150 171 0
146 164 0
155 176 0
152 173 0
149 170 0
151 171 0
150 171 0
158 179 0
152 173 0
148 170 0
153 173 0
147 167 0
156 177 0
154 174 0
154 176 0
150 169 0
160 180 0
153 176 0
151 173 0
151 170 0
149 167 0
155 175 0
156 176 0
156 176 0
153 172 0
146 164 0
150 170 0
149 168 0
154 172 0
154 173 0
155 174 0
146 166 0
154 174 0
149 168 0
157 178 0
157 177 0
149 168 0
162 181 0
154 174 0
154 174 0
154 174 0
156 175 0
150 169 0
154 173 0
150 168 0
150 169 0
149 169 0
151 169 0
158 176 0
145 162 0
156 176 0
151 170 0
164 182 0
156 174 0
153 171 0
157 177 0
153 168 0
155 175 0
148 165 0
151 168 0
156 172 0
153 171 0
155 173 0
156 172 0
148 163 0
153 169 0
160 179 0
156 173 0
153 170 0
151 168 0
150 167 0
156 174 0
153 170 0
154 170 0
152 171 0
153 171 0
155 172 0
154 172 0
154 171 0
154 173 0
158 175 0
154 169 0
152 166 0
150 166 0
154 171 0
154 171 0
155 171 0
154 170 0
154 171 0
151 168 0
153 169 0
151 168 0
155 172 0
156 175 0
156 172 0
154 168 0
155 171 0
153 169 0
152 169 0
152 168 0
159 176 0
156 173 0
153 169 0
155 169 0
159 175 0
157 172 0
149 164 0
153 168 0
151 166 0
157 173 0
148 163 0
161 174 0
155 171 0
150 164 0
151 163 0
152 165 0
155 169 0
153 167 0
150 163 0
157 172 0
157 172 0
162 179 0
159 171 0
159 174 0
156 169 0
152 167 0
158 171 0
159 175 0
155 170 0
159 172 0
154 171 0
157 170 0
161 176 0
171 195 0
170 193 0
171 195 0
172 194 0
171 194 0
166 189 0
169 192 0
170 193 0
168 191 0
171 194 0
172 194 0
172 195 0
168 192 0
170 193 0
172 195 0
170 193 0
166 189 0
172 195 0
166 189 0
165 188 0
169 192 0
168 191 0
167 189 0
169 192 0
171 193 0
167 190 0
172 195 0
167 190 0
167 190 0
168 191 0
167 189 0
169 192 0
172 194 0
171 194 0
168 190 0
168 191 0
170 193 0
168 191 0
168 190 0
164 187 0
169 192 0
164 187 0
171 194 0
167 190 0
168 191 0
165 188 0
167 189 0
165 188 0
165 188 0
168 191 0
169 191 0
165 188 0
164 187 0
166 189 0
166 189 0
167 190 0
161 184 0
167 188 0
166 189 0
163 186 0
169 191 0
165 186 0
169 192 0
167 190 0
168 191 0
164 185 0
168 190 0
166 189 0
162 185 0
164 187 0
169 191 0
166 188 0
166 189 0
172 195 0
167 189 0
165 188 0
166 188 0
170 192 0
166 189 0
169 191 0
161 184 0
167 189 0
167 190 0
164 187 0
164 187 0
161 183 0
166 189 0
161 184 0
160 182 0
165 189 0
154 178 0
161 183 0
162 184 0
166 188 0
165 187 0
161 184 0
159 181 0
161 183 0
161 184 0
167 189 0
165 188 0
166 188 0
162 185 0
160 183 0
168 190 0
165 188 0
166 188 0
166 188 0
162 185 0
161 183 0
160 183 0
160 182 0
155 177 0
158 179 0
161 184 0
162 184 0
159 182 0
162 184 0
162 184 0
162 184 0
159 181 0
161 182 0
159 181 0
158 180 0
163 186 0
158 180 0
160 182 0
161 184 0
164 186 0
163 185 0
163 185 0
155 177 0
159 181 0
155 176 0
161 183 0
148 170 0
158 180 0
159 181 0
160 182 0
159 181 0
154 177 0
159 182 0
157 178 0
160 182 0
162 184 0
161 184 0
162 184 0
161 184 0
147 169 0
150 171 0
157 179 0
151 172 0
161 183 0
155 176 0
156 179 0
156 178 0
158 180 0
159 182 0
159 180 0
152 174 0
161 182 0
151 172 0
155 176 0
150 172 0
161 183 0
156 178 0
159 182 0
156 178 0
159 182 0
158 180 0
163 183 0
158 180 0
157 178 0
149 170 0
158 180 0
160 183 0
157 179 0
157 178 0
149 170 0
153 174 0
143 166 0
157 179 0
163 185 0
156 178 0
156 178 0
144 167 0
151 172 0
153 174 0
154 176 0
147 168 0
150 171 0
159 181 0
158 181 0
152 174 0
150 171 0
159 180 0
155 177 0
158 178 0
156 178 0
152 174 0
153 175 0
144 166 0
156 178 0
154 176 0
156 178 0
157 179 0
156 178 0
159 181 0
160 181 0
146 166 0
156 178 0
160 181 0
156 178 0
157 180 0
152 174 0
160 182 0
164 186 0
161 183 0
148 169 0
151 171 0
149 169 0
145 166 0
154 177 0
153 174 0
149 170 0
152 173 0
157 179 0
152 173 0
153 175 0
156 177 0
155 175 0
150 170 0
157 180 0
152 175 0
149 170 0
161 184 0
153 174 0
141 163 0
151 172 0
152 174 0
155 174 0
151 171 0
151 173 0
155 177 0
150 172 0
156 177 0
158 178 0
154 176 0
148 169 0
151 170 0
154 174 0
157 178 0
153 174 0
150 169 0
151 171 0
152 172 0
152 175 0
156 177 0
154 175 0
150 169 0
153 174 0
143 164 0
159 180 0
157 177 0
156 175 0
156 174 0
145 165 0
152 172 0
155 174 0
155 176 0
154 173 0
153 173 0
146 167 0
149 168 0
153 170 0
158 180 0
155 177 0
152 171 0
147 166 0
155 175 0
147 167 0
145 165 0
155 174 0
159 178 0
150 168 0
156 176 0
153 173 0
156 175 0
158 178 0
145 162 0
155 176 0
154 174 0
153 172 0
158 180 0
155 174 0
149 169 0
148 168 0
152 172 0
157 176 0
154 174 0
145 162 0
153 173 0
152 171 0
151 170 0
155 176 0
155 175 0
157 176 0
154 172 0
153 171 0
157 172 0
156 174 0
152 169 0
147 166 0
152 171 0
153 170 0
155 173 0
152 170 0
150 170 0
146 166 0
154 172 0
151 170 0
153 171 0
157 177 0
151 170 0
160 178 0
149 168 0
157 175 0
157 176 0
155 173 0
144 160 0
144 162 0
149 166 0
146 165 0
153 171 0
156 174 0
149 167 0
151 167 0
152 170 0
148 164 0
149 166 0
150 167 0
148 167 0
155 173 0
155 173 0
152 168 0
155 171 0
161 178 0
155 172 0
159 176 0
148 166 0
154 169 0
157 174 0
158 176 0
159 177 0
151 170 0
159 178 0
148 166 0
155 171 0
156 173 0
155 172 0
155 170 0
149 163 0
148 165 0
150 167 0
152 169 0
151 169 0
150 163 0
150 165 0
151 168 0
158 174 0
155 170 0
150 165 0
160 175 0
157 174 0
152 165 0
160 176 0
151 166 0
152 169 0
156 172 0
158 173 0
156 170 0
153 165 0
153 166 0
154 168 0
153 169 0
154 172 0
164 181 0
156 173 0
153 170 0
155 171 0
156 174 0
153 167 0
150 166 0
159 172 0
157 169 0
162 177 0
155 171 0
146 158 0
153 167 0
161 177 0
170 194 0
173 196 0
167 191 0
174 197 0
169 193 0
171 195 0
169 191 0
173 196 0
171 194 0
169 192 0
173 195 0
171 193 0
171 195 0
169 193 0
167 191 0
168 191 0
173 196 0
170 194 0
170 193 0
172 196 0
172 195 0
170 193 0
169 192 0
163 185 0
165 188 0
170 192 0
171 194 0
168 190 0
167 190 0
169 192 0
168 191 0
167 191 0
170 193 0
164 187 0
164 187 0
171 194 0
170 193 0
165 189 0
169 192 0
170 193 0
171 193 0
166 189 0
169 192 0
168 190 0
171 194 0
170 193 0
169 193 0
167 191 0
168 191 0
167 189 0
168 192 0
165 188 0
171 193 0
168 191 0
169 192 0
167 189 0
164 186 0
167 190 0
170 193 0
166 188 0
165 188 0
163 186 0
163 186 0
166 188 0
161 184 0
171 193 0
165 187 0
164 186 0
168 191 0
162 185 0
160 182 0
165 189 0
166 189 0
161 184 0
166 189 0
162 186 0
168 191 0
167 190 0
167 189 0
170 193 0
167 190 0
168 191 0
163 186 0
160 182 0
166 188 0
169 192 0
160 184 0
161 185 0
159 182 0
162 185 0
166 189 0
162 185 0
165 188 0
161 183 0
163 185 0
168 189 0
162 184 0
161 183 0
161 184 0
165 187 0
162 185 0
167 189 0
165 188 0
166 188 0
162 185 0
162 185 0
164 186 0
160 183 0
162 184 0
167 190 0
157 179 0
167 189 0
159 181 0
158 181 0
162 184 0
158 180 0
148 170 0
161 184 0
156 180 0
163 186 0
156 179 0
156 179 0
161 184 0
160 182 0
165 187 0
159 181 0
155 177 0
156 179 0
160 182 0
160 182 0
163 186 0
159 180 0
165 187 0
162 184 0
156 179 0
159 181 0
163 185 0
163 185 0
160 182 0
150 173 0
150 172 0
152 174 0
156 179 0
158 181 0
162 183 0
158 181 0
151 173 0
164 186 0
154 176 0
160 183 0
160 183 0
160 180 0
160 183 0
156 178 0
155 178 0
154 175 0
161 183 0
153 175 0
158 180 0
159 181 0
156 178 0
153 174 0
157 178 0
160 181 0
156 178 0
159 181 0
157 180 0
158 180 0
160 182 0
156 178 0
161 183 0
161 183 0
153 175 0
159 180 0
160 183 0
155 177 0
154 177 0
159 180 0
160 182 0
157 179 0
161 183 0
154 175 0
149 172 0
158 180 0
156 179 0
153 175 0
150 170 0
151 173 0
154 176 0
152 173 0
154 175 0
159 181 0
155 176 0
151 173 0
156 179 0
158 180 0
148 170 0
154 175 0
152 173 0
159 182 0
149 171 0
154 177 0
149 171 0
154 175 0
153 174 0
153 173 0
156 177 0
155 177 0
151 172 0
164 186 0
149 171 0
149 170 0
159 181 0
146 169 0
156 178 0
154 174 0
154 175 0
152 173 0
155 176 0
155 175 0
145 166 0
159 181 0
147 169 0
156 177 0
151 173 0
158 179 0
154 175 0
154 174 0
153 176 0
160 182 0
150 172 0
146 166 0
153 174 0
156 177 0
141 161 0
152 173 0
156 178 0
150 171 0
157 177 0
159 179 0
157 179 0
144 165 0
151 173 0
154 175 0
151 173 0
151 171 0
158 180 0
155 175 0
158 180 0
148 167 0
155 175 0
153 172 0
150 172 0
150 170 0
150 171 0
151 173 0
153 175 0
151 171 0
155 175 0
156 178 0
152 172 0
158 180 0
148 168 0
151 172 0
156 178 0
158 180 0
151 172 0
154 172 0
156 176 0
161 182 0
152 173 0
154 174 0
147 166 0
156 175 0
151 170 0
155 175 0
154 175 0
147 167 0
141 161 0
147 168 0
148 168 0
153 175 0
157 177 0
144 164 0
160 180 0
152 173 0
151 171 0
159 179 0
153 173 0
150 170 0
152 171 0
154 172 0
147 167 0
161 181 0
149 169 0
151 170 0
151 169 0
148 169 0
157 175 0
151 171 0
151 171 0
149 168 0
158 176 0
156 175 0
155 176 0
155 174 0
154 173 0
156 175 0
154 173 0
158 175 0
147 165 0
153 173 0
149 169 0
155 174 0
149 168 0
163 184 0
152 172 0
154 172 0
153 171 0
151 172 0
148 165 0
148 167 0
148 167 0
158 177 0
157 175 0
150 167 0
162 181 0
159 177 0
152 168 0
162 180 0
152 170 0
151 168 0
152 169 0
145 163 0
146 161 0
152 170 0
158 177 0
152 169 0
153 171 0
150 167 0
149 165 0
154 173 0
154 171 0
157 175 0
151 167 0
156 171 0
161 178 0
162 179 0
153 171 0
153 171 0
154 171 0
155 172 0
152 165 0
156 173 0
163 178 0
153 170 0
156 174 0
147 164 0
159 178 0
147 162 0
163 180 0
157 175 0
156 173 0
155 171 0
150 166 0
156 173 0
152 171 0
158 175 0
156 172 0
149 166 0
156 174 0
155 171 0
158 173 0
151 166 0
153 167 0
156 171 0
151 168 0
149 164 0
152 168 0
153 167 0
157 173 0
156 173 0
159 175 0
161 176 0
156 173 0
156 169 0
159 176 0
156 171 0
154 171 0
150 165 0
163 179 0
161 177 0
161 177 0
153 170 0
159 174 0
153 170 0
156 169 0
150 165 0
157 172 0
153 168 0
