P3
400 225
255
204 226 255
204 226 255
204 226 255
204 226 255
204 226 255
204 226 255
204 226 255
204 226 255
204 226 255
204 226 255
204 226 255
204 226 255
204 226 255
204 226 255
204 226 255
203 226 255
203 226 255
203 226 255
203 226 255
203 226 255
203 226 255
203 226 255
203 226 255
203 225 255
203 225 255
203 225 255
203 225 255
203 225 255
203 225 255
203 225 255
203 225 255
203 225 255
202 225 255
202 225 255
202 225 255
202 225 255
202 225 255
202 225 255
202 225 255
202 225 255
202 225 255
202 225 255
202 225 255
202 225 255
202 225 255
202 225 255
202 225 255
202 225 255
201 225 255
201 225 255
201 225 255
201 225 255
201 225 255
201 224 255
201 224 255
201 224 255
201 224 255
201 224 255
201 224 255
201 224 255
201 224 255
201 224 255
201 224 255
200 224 255
200 224 255
200 224 255
200 224 255
200 224 255
200 224 255
200 224 255
200 224 255
200 224 255
200 224 255
200 224 255
200 224 255
200 224 255
200 224 255
200 224 255
199 224 255
199 224 255
199 223 255
199 223 255
199 223 255
199 223 255
199 223 255
199 223 255
199 223 255
199 223 255
199 223 255
199 223 255
199 223 255
199 223 255
198 223 255
198 223 255
198 223 255
198 223 255
198 223 255
198 223 255
198 223 255
198 223 255
198 223 255
198 223 255
198 223 255
198 223 255
198 223 255
198 223 255
197 223 255
197 222 255
197 222 255
197 222 255
197 222 255
197 222 255
197 222 255
197 222 255
197 222 255
197 222 255
197 222 255
197 222 255
197 222 255
197 222 255
197 222 255
196 222 255
196 222 255
196 222 255
196 222 255
196 222 255
196 222 255
196 222 255
196 222 255
196 222 255
196 222 255
196 222 255
196 222 255
196 222 255
196 222 255
196 221 255
196 221 255
195 221 255
195 221 255
195 221 255
195 221 255
195 221 255
195 221 255
195 221 255
195 221 255
195 221 255
195 221 255
195 221 255
195 221 255
195 221 255
195 221 255
195 221 255
195 221 255
195 221 255
195 221 255
194 221 255
194 221 255
194 221 255
194 221 255
194 221 255
194 221 255
194 221 255
194 221 255
194 221 255
194 221 255
194 221 255
194 221 255
194 221 255
194 221 255
194 221 255
194 221 255
194 221 255
194 221 255
194 221 255
194 221 255
194 221 255
194 221 255
194 220 255
194 220 255
194 220 255
194 220 255
194 220 255
194 220 255
194 220 255
194 220 255
194 220 255
193 220 255
193 220 255
193 220 255
193 220 255
193 220 255
193 220 255
193 220 255
193 220 255
193 220 255
193 220 255
193 220 255
193 220 255
193 220 255
193 220 255
193 220 255
193 220 255
193 220 255
193 220 255
193 220 255
193 220 255
193 220 255
193 220 255
193 220 255
193 220 255
193 220 255
193 220 255
193 220 255
193 220 255
194 220 255
194 220 255
194 220 255
194 220 255
194 220 255
194 220 255
194 220 255
194 220 255
194 220 255
194 221 255
194 221 255
194 221 255
194 221 255
194 221 255
194 221 255
194 221 255
194 221 255
194 221 255
194 221 255
194 221 255
194 221 255
194 221 255
194 221 255
194 221 255
194 221 255
194 221 255
194 221 255
194 221 255
194 221 255
194 221 255
194 221 255
195 221 255
195 221 255
195 221 255
195 221 255
195 221 255
195 221 255
195 221 255
195 221 255
195 221 255
195 221 255
195 221 255
195 221 255
195 221 255
195 221 255
195 221 255
195 221 255
195 221 255
195 221 255
196 221 255
196 221 255
196 222 255
196 222 255
196 222 255
196 222 255
196 222 255
196 222 255
196 222 255
196 222 255
196 222 255
196 222 255
196 222 255
196 222 255
196 222 255
196 222 255
197 222 255
197 222 255
197 222 255
197 222 255
197 222 255
197 222 255
197 222 255
197 222 255
197 222 255
197 222 255
197 222 255
197 222 255
197 222 255
197 222 255
197 223 255
198 223 255
198 223 255
198 223 255
198 223 255
198 223 255
198 223 255
198 223 255
198 223 255
198 223 255
198 223 255
198 223 255
198 223 255
198 223 255
198 223 255
199 223 255
199 223 255
199 223 255
199 223 255
199 223 255
199 223 255
199 223 255
199 223 255
199 223 255
199 223 255
199 223 255
199 223 255
199 224 255
199 224 255
200 224 255
200 224 255
200 224 255
200 224 255
200 224 255
200 224 255
200 224 255
200 224 255
200 224 255
200 224 255
200 224 255
200 224 255
200 224 255
200 224 255
200 224 255
201 224 255
201 224 255
201 224 255
201 224 255
201 224 255
201 224 255
201 224 255
201 224 255
201 224 255
201 224 255
201 224 255
201 225 255
201 225 255
201 225 255
201 225 255
202 225 255
202 225 255
202 225 255
202 225 255
202 225 255
202 225 255
202 225 255
202 225 255
202 225 255
202 225 255
202 225 255
202 225 255
202 225 255
202 225 255
202 225 255
202 225 255
203 225 255
203 225 255
203 225 255
203 225 255
203 225 255
203 225 255
203 225 255
203 225 255
203 225 255
203 226 255
203 226 255
203 226 255
203 226 255
203 226 255
203 226 255
203 226 255
203 226 255
204 226 255
204 226 255
204 226 255
204 226 255
204 226 255
204 226 255
204 226 255
204 226 255
204 226 255
204 226 255
204 226 255
204 226 255
204 226 255
204 226 255
204 226 255
204 226 255
204 226 255
204 226 255
204 226 255
204 226 255
204 226 255
204 226 255
204 226 255
204 226 255
204 226 255
204 226 255
204 226 255
204 226 255
204 226 255
204 226 255
204 226 255
204 226 255
204 226 255
203 226 255
203 226 255
203 226 255
203 226 255
203 226 255
203 226 255
203 226 255
203 225 255
203 225 255
203 225 255
203 225 255
203 225 255
203 225 255
203 225 255
203 225 255
203 225 255
202 225 255
202 225 255
202 225 255
202 225 255
202 225 255
202 225 255
202 225 255
202 225 255
202 225 255
202 225 255
202 225 255
202 225 255
202 225 255
202 225 255
202 225 255
202 225 255
201 225 255
201 225 255
201 225 255
201 225 255
201 224 255
201 224 255
201 224 255
201 224 255
201 224 255
201 224 255
201 224 255
201 224 255
201 224 255
201 224 255
201 224 255
200 224 255
200 224 255
200 224 255
200 224 255
200 224 255
200 224 255
200 224 255
200 224 255
200 224 255
200 224 255
200 224 255
200 224 255
200 224 255
200 224 255
199 224 255
199 224 255
199 224 255
199 223 255
199 223 255
199 223 255
199 223 255
199 223 255
199 223 255
199 223 255
199 223 255
199 223 255
199 223 255
199 223 255
199 223 255
198 223 255
198 223 255
198 223 255
198 223 255
198 223 255
198 223 255
198 223 255
198 223 255
198 223 255
198 223 255
198 223 255
198 223 255
198 223 255
198 223 255
197 223 255
197 222 255
197 222 255
197 222 255
197 222 255
197 222 255
197 222 255
197 222 255
197 222 255
197 222 255
197 222 255
197 222 255
197 222 255
197 222 255
197 222 255
196 222 255
196 222 255
196 222 255
196 222 255
196 222 255
196 222 255
196 222 255
196 222 255
196 222 255
196 222 255
196 222 255
196 222 255
196 222 255
196 222 255
196 222 255
196 221 255
195 221 255
195 221 255
195 221 255
195 221 255
195 221 255
195 221 255
195 221 255
195 221 255
195 221 255
195 221 255
195 221 255
195 221 255
195 221 255
195 221 255
195 221 255
195 221 255
195 221 255
195 221 255
195 221 255
194 221 255
194 221 255
194 221 255
194 221 255
194 221 255
194 221 255
194 221 255
194 221 255
194 221 255
194 221 255
194 221 255
194 221 255
194 221 255
194 221 255
194 221 255
194 221 255
194 221 255
194 221 255
194 221 255
194 221 255
194 221 255
194 221 255
194 221 255
194 221 255
194 221 255
194 220 255
194 220 255
194 220 255
194 220 255
194 220 255
194 220 255
194 220 255
194 220 255
194 220 255
194 220 255
194 220 255
194 220 255
194 220 255
194 220 255
194 220 255
194 220 255
194 220 255
194 220 255
194 220 255
194 220 255
194 220 255
194 220 255
194 220 255
194 220 255
194 220 255
194 220 255
194 220 255
194 220 255
194 220 255
194 220 255
194 220 255
194 220 255
194 220 255
194 220 255
194 221 255
194 221 255
194 221 255
194 221 255
194 221 255
194 221 255
194 221 255
194 221 255
194 221 255
194 221 255
194 221 255
194 221 255
194 221 255
194 221 255
194 221 255
194 221 255
194 221 255
194 221 255
194 221 255
194 221 255
194 221 255
194 221 255
194 221 255
194 221 255
194 221 255
195 221 255
195 221 255
195 221 255
195 221 255
195 221 255
195 221 255
195 221 255
195 221 255
195 221 255
195 221 255
195 221 255
195 221 255
195 221 255
195 221 255
195 221 255
195 221 255
195 221 255
195 221 255
195 221 255
196 221 255
196 222 255
196 222 255
196 222 255
196 222 255
196 222 255
196 222 255
196 222 255
196 222 255
196 222 255
196 222 255
196 222 255
196 222 255
196 222 255
196 222 255
196 222 255
197 222 255
197 222 255
197 222 255
197 222 255
197 222 255
197 222 255
197 222 255
197 222 255
197 222 255
197 222 255
197 222 255
197 222 255
197 222 255
197 222 255
197 223 255
198 223 255
198 223 255
198 223 255
198 223 255
198 223 255
198 223 255
198 223 255
198 223 255
198 223 255
198 223 255
198 223 255
198 223 255
198 223 255
198 223 255
199 223 255
199 223 255
199 223 255
199 223 255
199 223 255
199 223 255
199 223 255
199 223 255
199 223 255
199 223 255
199 223 255
199 223 255
199 224 255
199 224 255
200 224 255
200 224 255
200 224 255
200 224 255
200 224 255
200 224 255
200 224 255
200 224 255
200 224 255
200 224 255
200 224 255
200 224 255
200 224 255
200 224 255
200 224 255
201 224 255
201 224 255
201 224 255
201 224 255
201 224 255
201 224 255
201 224 255
201 224 255
201 224 255
201 224 255
201 225 255
201 225 255
201 225 255
201 225 255
201 225 255
202 225 255
202 225 255
202 225 255
202 225 255
202 225 255
202 225 255
202 225 255
202 225 255
202 225 255
202 225 255
202 225 255
202 225 255
202 225 255
202 225 255
202 225 255
202 225 255
203 225 255
203 225 255
203 225 255
203 225 255
203 225 255
203 225 255
203 225 255
203 225 255
203 225 255
203 226 255
203 226 255
203 226 255
203 226 255
203 226 255
203 226 255
203 226 255
204 226 255
204 226 255
204 226 255
204 226 255
204 226 255
204 226 255
204 226 255
204 226 255
204 226 255
204 226 255
204 226 255
204 226 255
204 226 255
204 226 255
204 226 255
204 226 255
204 226 255
204 226 255
205 226 255
205 226 255
204 226 255
204 226 255
204 226 255
204 226 255
204 226 255
204 226 255
204 226 255
204 226 255
204 226 255
204 226 255
204 226 255
204 226 255
204 226 255
204 226 255
204 226 255
204 226 255
204 226 255
204 226 255
203 226 255
203 226 255
203 226 255
203 226 255
203 226 255
203 226 255
203 226 255
203 225 255
203 225 255
203 225 255
203 225 255
203 225 255
203 225 255
203 225 255
203 225 255
203 225 255
202 225 255
202 225 255
202 225 255
202 225 255
202 225 255
202 225 255
202 225 255
202 225 255
202 225 255
202 225 255
202 225 255
202 225 255
202 225 255
202 225 255
202 225 255
202 225 255
201 225 255
201 225 255
201 225 255
201 225 255
201 225 255
201 224 255
201 224 255
201 224 255
201 224 255
201 224 255
201 224 255
201 224 255
201 224 255
201 224 255
201 224 255
200 224 255
200 224 255
200 224 255
200 224 255
200 224 255
200 224 255
200 224 255
200 224 255
200 224 255
200 224 255
200 224 255
200 224 255
200 224 255
200 224 255
200 224 255
199 224 255
199 224 255
199 223 255
199 223 255
199 223 255
199 223 255
199 223 255
199 223 255
199 223 255
199 223 255
199 223 255
199 223 255
199 223 255
199 223 255
198 223 255
198 223 255
198 223 255
198 223 255
198 223 255
198 223 255
198 223 255
198 223 255
198 223 255
198 223 255
198 223 255
198 223 255
198 223 255
198 223 255
197 223 255
197 222 255
197 222 255
197 222 255
197 222 255
197 222 255
197 222 255
197 222 255
197 222 255
197 222 255
197 222 255
197 222 255
197 222 255
197 222 255
197 222 255
196 222 255
196 222 255
196 222 255
196 222 255
196 222 255
196 222 255
196 222 255
196 222 255
196 222 255
196 222 255
196 222 255
196 222 255
196 222 255
196 222 255
196 222 255
196 221 255
195 221 255
195 221 255
195 221 255
195 221 255
195 221 255
195 221 255
195 221 255
195 221 255
195 221 255
195 221 255
195 221 255
195 221 255
195 221 255
195 221 255
195 221 255
195 221 255
195 221 255
195 221 255
195 221 255
195 221 255
194 221 255
194 221 255
194 221 255
194 221 255
194 221 255
194 221 255
194 221 255
194 221 255
194 221 255
194 221 255
194 221 255
194 221 255
194 221 255
194 221 255
194 221 255
194 221 255
194 221 255
194 221 255
194 221 255
194 221 255
194 221 255
194 221 255
194 221 255
194 221 255
194 221 255
194 221 255
194 221 255
194 221 255
194 221 255
194 221 255
194 221 255
194 220 255
194 220 255
194 220 255
194 220 255
194 220 255
194 220 255
194 220 255
194 220 255
194 220 255
194 220 255
194 220 255
194 220 255
194 220 255
194 220 255
194 220 255
194 220 255
194 221 255
194 221 255
194 221 255
194 221 255
194 221 255
194 221 255
194 221 255
194 221 255
194 221 255
194 221 255
194 221 255
194 221 255
194 221 255
194 221 255
194 221 255
194 221 255
194 221 255
194 221 255
194 221 255
194 221 255
194 221 255
194 221 255
194 221 255
194 221 255
194 221 255
194 221 255
194 221 255
194 221 255
194 221 255
194 221 255
195 221 255
195 221 255
195 221 255
195 221 255
195 221 255
195 221 255
195 221 255
195 221 255
195 221 255
195 221 255
195 221 255
195 221 255
195 221 255
195 221 255
195 221 255
195 221 255
195 221 255
195 221 255
195 221 255
195 221 255
195 221 255
196 221 255
196 222 255
196 222 255
196 222 255
196 222 255
196 222 255
196 222 255
196 222 255
196 222 255
196 222 255
196 222 255
196 222 255
196 222 255
196 222 255
196 222 255
196 222 255
197 222 255
197 222 255
197 222 255
197 222 255
197 222 255
197 222 255
197 222 255
197 222 255
197 222 255
197 222 255
197 222 255
197 222 255
197 222 255
197 222 255
197 223 255
198 223 255
198 223 255
198 223 255
198 223 255
198 223 255
198 223 255
198 223 255
198 223 255
198 223 255
198 223 255
198 223 255
198 223 255
198 223 255
198 223 255
199 223 255
199 223 255
199 223 255
199 223 255
199 223 255
199 223 255
199 223 255
199 223 255
199 223 255
199 223 255
199 223 255
199 223 255
199 224 255
199 224 255
200 224 255
200 224 255
200 224 255
200 224 255
200 224 255
200 224 255
200 224 255
200 224 255
200 224 255
200 224 255
200 224 255
200 224 255
200 224 255
200 224 255
200 224 255
201 224 255
201 224 255
201 224 255
201 224 255
201 224 255
201 224 255
201 224 255
201 224 255
201 224 255
201 224 255
201 225 255
201 225 255
201 225 255
201 225 255
201 225 255
202 225 255
202 225 255
202 225 255
202 225 255
202 225 255
202 225 255
202 225 255
202 225 255
202 225 255
202 225 255
202 225 255
202 225 255
202 225 255
202 225 255
202 225 255
202 225 255
203 225 255
203 225 255
203 225 255
203 225 255
203 225 255
203 225 255
203 225 255
203 225 255
203 225 255
203 226 255
203 226 255
203 226 255
203 226 255
203 226 255
203 226 255
203 226 255
204 226 255
204 226 255
204 226 255
204 226 255
204 226 255
204 226 255
204 226 255
204 226 255
204 226 255
204 226 255
204 226 255
204 226 255
204 226 255
204 226 255
204 226 255
204 226 255
204 226 255
204 226 255
205 226 255
205 226 255
205 226 255
205 226 255
205 226 255
205 226 255
204 226 255
204 226 255
204 226 255
204 226 255
204 226 255
204 226 255
204 226 255
204 226 255
204 226 255
204 226 255
204 226 255
204 226 255
204 226 255
204 226 255
204 226 255
204 226 255
204 226 255
204 226 255
203 226 255
203 226 255
203 226 255
203 226 255
203 226 255
203 226 255
203 226 255
203 225 255
203 225 255
203 225 255
203 225 255
203 225 255
203 225 255
203 225 255
203 225 255
203 225 255
203 225 255
202 225 255
202 225 255
202 225 255
202 225 255
202 225 255
202 225 255
202 225 255
202 225 255
202 225 255
202 225 255
202 225 255
202 225 255
202 225 255
202 225 255
202 225 255
201 225 255
201 225 255
201 225 255
201 225 255
201 225 255
201 224 255
201 224 255
201 224 255
201 224 255
201 224 255
201 224 255
201 224 255
201 224 255
201 224 255
201 224 255
200 224 255
200 224 255
200 224 255
200 224 255
200 224 255
200 224 255
200 224 255
200 224 255
200 224 255
200 224 255
200 224 255
200 224 255
200 224 255
200 224 255
200 224 255
199 224 255
199 224 255
199 223 255
199 223 255
199 223 255
199 223 255
199 223 255
199 223 255
199 223 255
199 223 255
199 223 255
199 223 255
199 223 255
199 223 255
198 223 255
198 223 255
198 223 255
198 223 255
198 223 255
198 223 255
198 223 255
198 223 255
198 223 255
198 223 255
198 223 255
198 223 255
198 223 255
198 223 255
197 223 255
197 222 255
197 222 255
197 222 255
197 222 255
197 222 255
197 222 255
197 222 255
197 222 255
197 222 255
197 222 255
197 222 255
197 222 255
197 222 255
197 222 255
196 222 255
196 222 255
196 222 255
196 222 255
196 222 255
196 222 255
196 222 255
196 222 255
196 222 255
196 222 255
196 222 255
196 222 255
196 222 255
196 222 255
196 222 255
196 222 255
196 221 255
195 221 255
195 221 255
195 221 255
195 221 255
195 221 255
195 221 255
195 221 255
195 221 255
195 221 255
195 221 255
195 221 255
195 221 255
195 221 255
195 221 255
195 221 255
195 221 255
195 221 255
195 221 255
195 221 255
195 221 255
195 221 255
194 221 255
194 221 255
194 221 255
194 221 255
194 221 255
194 221 255
194 221 255
194 221 255
194 221 255
194 221 255
194 221 255
194 221 255
194 221 255
194 221 255
194 221 255
194 221 255
194 221 255
194 221 255
194 221 255
194 221 255
194 221 255
194 221 255
194 221 255
194 221 255
194 221 255
194 221 255
194 221 255
194 221 255
194 221 255
194 221 255
194 221 255
194 221 255
194 221 255
194 221 255
194 221 255
194 221 255
194 221 255
194 221 255
194 221 255
194 221 255
194 221 255
194 221 255
194 221 255
194 221 255
194 221 255
194 221 255
194 221 255
194 221 255
194 221 255
194 221 255
194 221 255
194 221 255
194 221 255
194 221 255
194 221 255
194 221 255
194 221 255
194 221 255
194 221 255
194 221 255
194 221 255
194 221 255
194 221 255
194 221 255
194 221 255
194 221 255
194 221 255
194 221 255
194 221 255
194 221 255
195 221 255
195 221 255
195 221 255
195 221 255
195 221 255
195 221 255
195 221 255
195 221 255
195 221 255
195 221 255
195 221 255
195 221 255
195 221 255
195 221 255
195 221 255
195 221 255
195 221 255
195 221 255
195 221 255
195 221 255
195 221 255
196 221 255
196 221 255
196 222 255
196 222 255
196 222 255
196 222 255
196 222 255
196 222 255
196 222 255
196 222 255
196 222 255
196 222 255
196 222 255
196 222 255
196 222 255
196 222 255
196 222 255
197 222 255
197 222 255
197 222 255
197 222 255
197 222 255
197 222 255
197 222 255
197 222 255
197 222 255
197 222 255
197 222 255
197 222 255
197 222 255
197 222 255
197 223 255
198 223 255
198 223 255
198 223 255
198 223 255
198 223 255
198 223 255
198 223 255
198 223 255
198 223 255
198 223 255
198 223 255
198 223 255
198 223 255
198 223 255
199 223 255
199 223 255
199 223 255
199 223 255
199 223 255
199 223 255
199 223 255
199 223 255
199 223 255
199 223 255
199 223 255
199 223 255
199 224 255
199 224 255
200 224 255
200 224 255
200 224 255
200 224 255
200 224 255
200 224 255
200 224 255
200 224 255
200 224 255
200 224 255
200 224 255
200 224 255
200 224 255
200 224 255
200 224 255
201 224 255
201 224 255
201 224 255
201 224 255
201 224 255
201 224 255
201 224 255
201 224 255
201 224 255
201 224 255
201 225 255
201 225 255
201 225 255
201 225 255
201 225 255
202 225 255
202 225 255
202 225 255
202 225 255
202 225 255
202 225 255
202 225 255
202 225 255
202 225 255
202 225 255
202 225 255
202 225 255
202 225 255
202 225 255
202 225 255
203 225 255
203 225 255
203 225 255
203 225 255
203 225 255
203 225 255
203 225 255
203 225 255
203 225 255
203 226 255
203 226 255
203 226 255
203 226 255
203 226 255
203 226 255
203 226 255
203 226 255
204 226 255
204 226 255
204 226 255
204 226 255
204 226 255
204 226 255
204 226 255
204 226 255
204 226 255
204 226 255
204 226 255
204 226 255
204 226 255
204 226 255
204 226 255
204 226 255
204 226 255
204 226 255
205 226 255
205 226 255
205 226 255
205 226 255
205 226 255
205 226 255
205 226 255
205 226 255
205 226 255
205 226 255
205 226 255
204 226 255
204 226 255
204 226 255
204 226 255
204 226 255
204 226 255
204 226 255
204 226 255
204 226 255
204 226 255
204 226 255
204 226 255
204 226 255
204 226 255
204 226 255
204 226 255
204 226 255
203 226 255
203 226 255
203 226 255
203 226 255
203 226 255
203 226 255
203 226 255
203 226 255
203 225 255
203 225 255
203 225 255
203 225 255
203 225 255
203 225 255
203 225 255
203 225 255
203 225 255
202 225 255
202 225 255
202 225 255
202 225 255
202 225 255
202 225 255
202 225 255
202 225 255
202 225 255
202 225 255
202 225 255
202 225 255
202 225 255
202 225 255
202 225 255
201 225 255
201 225 255
201 225 255
201 225 255
201 225 255
201 224 255
201 224 255
201 224 255
201 224 255
201 224 255
201 224 255
201 224 255
201 224 255
201 224 255
201 224 255
200 224 255
200 224 255
200 224 255
200 224 255
200 224 255
200 224 255
200 224 255
200 224 255
200 224 255
200 224 255
200 224 255
200 224 255
200 224 255
200 224 255
200 224 255
199 224 255
199 224 255
199 223 255
199 223 255
199 223 255
199 223 255
199 223 255
199 223 255
199 223 255
199 223 255
199 223 255
199 223 255
199 223 255
199 223 255
198 223 255
198 223 255
198 223 255
198 223 255
198 223 255
198 223 255
198 223 255
198 223 255
198 223 255
198 223 255
198 223 255
198 223 255
198 223 255
198 223 255
197 223 255
197 222 255
197 222 255
197 222 255
197 222 255
197 222 255
197 222 255
197 222 255
197 222 255
197 222 255
197 222 255
197 222 255
197 222 255
197 222 255
197 222 255
197 222 255
196 222 255
196 222 255
196 222 255
196 222 255
196 222 255
196 222 255
196 222 255
196 222 255
196 222 255
196 222 255
196 222 255
196 222 255
196 222 255
196 222 255
196 222 255
196 221 255
196 221 255
195 221 255
195 221 255
195 221 255
195 221 255
195 221 255
195 221 255
195 221 255
195 221 255
195 221 255
195 221 255
195 221 255
195 221 255
195 221 255
195 221 255
195 221 255
195 221 255
195 221 255
195 221 255
195 221 255
195 221 255
195 221 255
195 221 255
194 221 255
194 221 255
194 221 255
194 221 255
194 221 255
194 221 255
194 221 255
194 221 255
194 221 255
194 221 255
194 221 255
194 221 255
194 221 255
194 221 255
194 221 255
194 221 255
194 221 255
194 221 255
194 221 255
194 221 255
194 221 255
194 221 255
194 221 255
194 221 255
194 221 255
194 221 255
194 221 255
194 221 255
194 221 255
194 221 255
194 221 255
194 221 255
194 221 255
194 221 255
194 221 255
194 221 255
194 221 255
194 221 255
194 221 255
194 221 255
194 221 255
194 221 255
194 221 255
194 221 255
194 221 255
194 221 255
194 221 255
194 221 255
194 221 255
194 221 255
194 221 255
194 221 255
194 221 255
194 221 255
194 221 255
194 221 255
194 221 255
194 221 255
194 221 255
194 221 255
194 221 255
194 221 255
195 221 255
195 221 255
195 221 255
195 221 255
195 221 255
195 221 255
195 221 255
195 221 255
195 221 255
195 221 255
195 221 255
195 221 255
195 221 255
195 221 255
195 221 255
195 221 255
195 221 255
195 221 255
195 221 255
195 221 255
195 221 255
195 221 255
196 221 255
196 221 255
196 222 255
196 222 255
196 222 255
196 222 255
196 222 255
196 222 255
196 222 255
196 222 255
196 222 255
196 222 255
196 222 255
196 222 255
196 222 255
196 222 255
196 222 255
197 222 255
197 222 255
197 222 255
197 222 255
197 222 255
197 222 255
197 222 255
197 222 255
197 222 255
197 222 255
197 222 255
197 222 255
197 222 255
197 222 255
197 222 255
198 223 255
198 223 255
198 223 255
198 223 255
198 223 255
198 223 255
198 223 255
198 223 255
198 223 255
198 223 255
198 223 255
198 223 255
198 223 255
198 223 255
198 223 255
199 223 255
199 223 255
199 223 255
199 223 255
199 223 255
199 223 255
199 223 255
199 223 255
199 223 255
199 223 255
199 223 255
199 223 255
199 224 255
199 224 255
200 224 255
200 224 255
200 224 255
200 224 255
200 224 255
200 224 255
200 224 255
200 224 255
200 224 255
200 224 255
200 224 255
200 224 255
200 224 255
200 224 255
200 224 255
201 224 255
201 224 255
201 224 255
201 224 255
201 224 255
201 224 255
201 224 255
201 224 255
201 224 255
201 224 255
201 225 255
201 225 255
201 225 255
201 225 255
201 225 255
202 225 255
202 225 255
202 225 255
202 225 255
202 225 255
202 225 255
202 225 255
202 225 255
202 225 255
202 225 255
202 225 255
202 225 255
202 225 255
202 225 255
202 225 255
203 225 255
203 225 255
203 225 255
203 225 255
203 225 255
203 225 255
203 225 255
203 225 255
203 225 255
203 226 255
203 226 255
203 226 255
203 226 255
203 226 255
203 226 255
203 226 255
203 226 255
204 226 255
204 226 255
204 226 255
204 226 255
204 226 255
204 226 255
204 226 255
204 226 255
204 226 255
204 226 255
204 226 255
204 226 255
204 226 255
204 226 255
204 226 255
204 226 255
204 226 255
205 226 255
205 226 255
205 226 255
205 226 255
205 226 255
205 226 255
205 226 255
205 227 255
205 227 255
205 226 255
205 226 255
205 226 255
205 226 255
205 226 255
205 226 255
205 226 255
204 226 255
204 226 255
204 226 255
204 226 255
204 226 255
204 226 255
204 226 255
204 226 255
204 226 255
204 226 255
204 226 255
204 226 255
204 226 255
204 226 255
204 226 255
204 226 255
204 226 255
204 226 255
203 226 255
203 226 255
203 226 255
203 226 255
203 226 255
203 226 255
203 226 255
203 225 255
203 225 255
203 225 255
203 225 255
203 225 255
203 225 255
203 225 255
203 225 255
203 225 255
202 225 255
202 225 255
202 225 255
202 225 255
202 225 255
202 225 255
202 225 255
202 225 255
202 225 255
202 225 255
202 225 255
202 225 255
202 225 255
202 225 255
202 225 255
202 225 255
201 225 255
201 225 255
201 225 255
201 225 255
201 224 255
201 224 255
201 224 255
201 224 255
201 224 255
201 224 255
201 224 255
201 224 255
201 224 255
201 224 255
200 224 255
200 224 255
200 224 255
200 224 255
200 224 255
200 224 255
200 224 255
200 224 255
200 224 255
200 224 255
200 224 255
200 224 255
200 224 255
200 224 255
200 224 255
199 224 255
199 224 255
199 223 255
199 223 255
199 223 255
199 223 255
199 223 255
199 223 255
199 223 255
199 223 255
199 223 255
199 223 255
199 223 255
199 223 255
198 223 255
198 223 255
198 223 255
198 223 255
198 223 255
198 223 255
198 223 255
198 223 255
198 223 255
198 223 255
198 223 255
198 223 255
198 223 255
198 223 255
198 223 255
197 222 255
197 222 255
197 222 255
197 222 255
197 222 255
197 222 255
197 222 255
197 222 255
197 222 255
197 222 255
197 222 255
197 222 255
197 222 255
197 222 255
197 222 255
196 222 255
196 222 255
196 222 255
196 222 255
196 222 255
196 222 255
196 222 255
196 222 255
196 222 255
196 222 255
196 222 255
196 222 255
196 222 255
196 222 255
196 222 255
196 222 255
196 221 255
195 221 255
195 221 255
195 221 255
195 221 255
195 221 255
195 221 255
195 221 255
195 221 255
195 221 255
195 221 255
195 221 255
195 221 255
195 221 255
195 221 255
195 221 255
195 221 255
195 221 255
195 221 255
195 221 255
195 221 255
195 221 255
195 221 255
195 221 255
195 221 255
194 221 255
194 221 255
194 221 255
194 221 255
194 221 255
194 221 255
194 221 255
194 221 255
194 221 255
194 221 255
194 221 255
194 221 255
194 221 255
194 221 255
194 221 255
194 221 255
194 221 255
194 221 255
194 221 255
194 221 255
194 221 255
194 221 255
194 221 255
194 221 255
194 221 255
194 221 255
194 221 255
194 221 255
194 221 255
194 221 255
194 221 255
194 221 255
194 221 255
194 221 255
194 221 255
194 221 255
194 221 255
194 221 255
194 221 255
194 221 255
194 221 255
194 221 255
194 221 255
194 221 255
194 221 255
194 221 255
194 221 255
194 221 255
194 221 255
194 221 255
194 221 255
194 221 255
194 221 255
194 221 255
195 221 255
195 221 255
195 221 255
195 221 255
195 221 255
195 221 255
195 221 255
195 221 255
195 221 255
195 221 255
195 221 255
195 221 255
195 221 255
195 221 255
195 221 255
195 221 255
195 221 255
195 221 255
195 221 255
195 221 255
195 221 255
195 221 255
195 221 255
195 221 255
196 221 255
196 222 255
196 222 255
196 222 255
196 222 255
196 222 255
196 222 255
196 222 255
196 222 255
196 222 255
196 222 255
196 222 255
196 222 255
196 222 255
196 222 255
196 222 255
196 222 255
197 222 255
197 222 255
197 222 255
197 222 255
197 222 255
197 222 255
197 222 255
197 222 255
197 222 255
197 222 255
197 222 255
197 222 255
197 222 255
197 222 255
197 222 255
198 223 255
198 223 255
198 223 255
198 223 255
198 223 255
198 223 255
198 223 255
198 223 255
198 223 255
198 223 255
198 223 255
198 223 255
198 223 255
198 223 255
198 223 255
199 223 255
199 223 255
199 223 255
199 223 255
199 223 255
199 223 255
199 223 255
199 223 255
199 223 255
199 223 255
199 223 255
199 223 255
199 224 255
199 224 255
200 224 255
200 224 255
200 224 255
200 224 255
200 224 255
200 224 255
200 224 255
200 224 255
200 224 255
200 224 255
200 224 255
200 224 255
200 224 255
200 224 255
201 224 255
201 224 255
201 224 255
201 224 255
201 224 255
201 224 255
201 224 255
201 224 255
201 224 255
201 224 255
201 224 255
201 225 255
201 225 255
201 225 255
201 225 255
202 225 255
202 225 255
202 225 255
202 225 255
202 225 255
202 225 255
202 225 255
202 225 255
202 225 255
202 225 255
202 225 255
202 225 255
202 225 255
202 225 255
202 225 255
202 225 255
203 225 255
203 225 255
203 225 255
203 225 255
203 225 255
203 225 255
203 225 255
203 225 255
203 225 255
203 226 255
203 226 255
203 226 255
203 226 255
203 226 255
203 226 255
203 226 255
204 226 255
204 226 255
204 226 255
204 226 255
204 226 255
204 226 255
204 226 255
204 226 255
204 226 255
204 226 255
204 226 255
204 226 255
204 226 255
204 226 255
204 226 255
204 226 255
204 226 255
204 226 255
205 226 255
205 226 255
205 226 255
205 226 255
205 226 255
205 226 255
205 226 255
205 227 255
205 227 255
205 227 255
205 227 255
205 227 255
205 227 255
205 226 255
205 226 255
205 226 255
205 226 255
205 226 255
205 226 255
205 226 255
205 226 255
204 226 255
204 226 255
204 226 255
204 226 255
204 226 255
204 226 255
204 226 255
204 226 255
204 226 255
204 226 255
204 226 255
204 226 255
204 226 255
204 226 255
204 226 255
204 226 255
204 226 255
203 226 255
203 226 255
203 226 255
203 226 255
203 226 255
203 226 255
203 226 255
203 225 255
203 225 255
203 225 255
203 225 255
203 225 255
203 225 255
203 225 255
203 225 255
203 225 255
202 225 255
202 225 255
202 225 255
202 225 255
202 225 255
202 225 255
202 225 255
202 225 255
202 225 255
202 225 255
202 225 255
202 225 255
202 225 255
202 225 255
202 225 255
202 225 255
201 225 255
201 225 255
201 225 255
201 225 255
201 224 255
201 224 255
201 224 255
201 224 255
201 224 255
201 224 255
201 224 255
201 224 255
201 224 255
201 224 255
201 224 255
200 224 255
200 224 255
200 224 255
200 224 255
200 224 255
200 224 255
200 224 255
200 224 255
200 224 255
200 224 255
200 224 255
200 224 255
200 224 255
200 224 255
199 224 255
199 224 255
199 223 255
199 223 255
199 223 255
199 223 255
199 223 255
199 223 255
199 223 255
199 223 255
199 223 255
199 223 255
199 223 255
199 223 255
198 223 255
198 223 255
198 223 255
198 223 255
198 223 255
198 223 255
198 223 255
198 223 255
198 223 255
198 223 255
198 223 255
198 223 255
198 223 255
198 223 255
198 223 255
197 222 255
197 222 255
197 222 255
197 222 255
197 222 255
197 222 255
197 222 255
197 222 255
197 222 255
197 222 255
197 222 255
197 222 255
197 222 255
197 222 255
197 222 255
196 222 255
196 222 255
196 222 255
196 222 255
196 222 255
196 222 255
196 222 255
196 222 255
196 222 255
196 222 255
196 222 255
196 222 255
196 222 255
196 222 255
196 222 255
196 222 255
196 222 255
196 221 255
195 221 255
195 221 255
195 221 255
195 221 255
195 221 255
195 221 255
195 221 255
195 221 255
195 221 255
195 221 255
195 221 255
195 221 255
195 221 255
195 221 255
195 221 255
195 221 255
195 221 255
195 221 255
195 221 255
195 221 255
195 221 255
195 221 255
195 221 255
195 221 255
195 221 255
195 221 255
194 221 255
194 221 255
194 221 255
194 221 255
194 221 255
194 221 255
194 221 255
194 221 255
194 221 255
194 221 255
194 221 255
194 221 255
194 221 255
194 221 255
194 221 255
194 221 255
194 221 255
194 221 255
194 221 255
194 221 255
194 221 255
194 221 255
194 221 255
194 221 255
194 221 255
194 221 255
194 221 255
194 221 255
194 221 255
194 221 255
194 221 255
194 221 255
194 221 255
194 221 255
194 221 255
194 221 255
194 221 255
194 221 255
194 221 255
194 221 255
194 221 255
194 221 255
194 221 255
194 221 255
195 221 255
195 221 255
195 221 255
195 221 255
195 221 255
195 221 255
195 221 255
195 221 255
195 221 255
195 221 255
195 221 255
195 221 255
195 221 255
195 221 255
195 221 255
195 221 255
195 221 255
195 221 255
195 221 255
195 221 255
195 221 255
195 221 255
195 221 255
195 221 255
195 221 255
195 221 255
196 221 255
196 222 255
196 222 255
196 222 255
196 222 255
196 222 255
196 222 255
196 222 255
196 222 255
196 222 255
196 222 255
196 222 255
196 222 255
196 222 255
196 222 255
196 222 255
196 222 255
196 222 255
197 222 255
197 222 255
197 222 255
197 222 255
197 222 255
197 222 255
197 222 255
197 222 255
197 222 255
197 222 255
197 222 255
197 222 255
197 222 255
197 222 255
197 222 255
198 223 255
198 223 255
198 223 255
198 223 255
198 223 255
198 223 255
198 223 255
198 223 255
198 223 255
198 223 255
198 223 255
198 223 255
198 223 255
198 223 255
198 223 255
199 223 255
199 223 255
199 223 255
199 223 255
199 223 255
199 223 255
199 223 255
199 223 255
199 223 255
199 223 255
199 223 255
199 223 255
199 224 255
199 224 255
200 224 255
200 224 255
200 224 255
200 224 255
200 224 255
200 224 255
200 224 255
200 224 255
200 224 255
200 224 255
200 224 255
200 224 255
200 224 255
200 224 255
201 224 255
201 224 255
201 224 255
201 224 255
201 224 255
201 224 255
201 224 255
201 224 255
201 224 255
201 224 255
201 224 255
201 225 255
201 225 255
201 225 255
201 225 255
202 225 255
202 225 255
202 225 255
202 225 255
202 225 255
202 225 255
202 225 255
202 225 255
202 225 255
202 225 255
202 225 255
202 225 255
202 225 255
202 225 255
202 225 255
202 225 255
203 225 255
203 225 255
203 225 255
203 225 255
203 225 255
203 225 255
203 225 255
203 225 255
203 225 255
203 226 255
203 226 255
203 226 255
203 226 255
203 226 255
203 226 255
203 226 255
204 226 255
204 226 255
204 226 255
204 226 255
204 226 255
204 226 255
204 226 255
204 226 255
204 226 255
204 226 255
204 226 255
204 226 255
204 226 255
204 226 255
204 226 255
204 226 255
204 226 255
204 226 255
205 226 255
205 226 255
205 226 255
205 226 255
205 226 255
205 226 255
205 226 255
205 227 255
205 227 255
205 227 255
205 227 255
205 227 255
205 227 255
205 227 255
205 227 255
205 227 255
205 227 255
205 227 255
205 226 255
205 226 255
205 226 255
205 226 255
205 226 255
205 226 255
205 226 255
204 226 255
204 226 255
204 226 255
204 226 255
204 226 255
204 226 255
204 226 255
204 226 255
204 226 255
204 226 255
204 226 255
204 226 255
204 226 255
204 226 255
204 226 255
204 226 255
204 226 255
203 226 255
203 226 255
203 226 255
203 226 255
203 226 255
203 226 255
203 226 255
203 226 255
203 225 255
203 225 255
203 225 255
203 225 255
203 225 255
203 225 255
203 225 255
203 225 255
203 225 255
202 225 255
202 225 255
202 225 255
202 225 255
202 225 255
202 225 255
202 225 255
202 225 255
202 225 255
202 225 255
202 225 255
202 225 255
202 225 255
202 225 255
202 225 255
201 225 255
201 225 255
201 225 255
201 225 255
201 224 255
201 224 255
201 224 255
201 224 255
201 224 255
201 224 255
201 224 255
201 224 255
201 224 255
201 224 255
201 224 255
200 224 255
200 224 255
200 224 255
200 224 255
200 224 255
200 224 255
200 224 255
200 224 255
200 224 255
200 224 255
200 224 255
200 224 255
200 224 255
200 224 255
199 224 255
199 224 255
199 223 255
199 223 255
199 223 255
199 223 255
199 223 255
199 223 255
199 223 255
199 223 255
199 223 255
199 223 255
199 223 255
199 223 255
198 223 255
198 223 255
198 223 255
198 223 255
198 223 255
198 223 255
198 223 255
198 223 255
198 223 255
198 223 255
198 223 255
198 223 255
198 223 255
198 223 255
198 223 255
197 223 255
197 222 255
197 222 255
197 222 255
197 222 255
197 222 255
197 222 255
197 222 255
197 222 255
197 222 255
197 222 255
197 222 255
197 222 255
197 222 255
197 222 255
197 222 255
196 222 255
196 222 255
196 222 255
196 222 255
196 222 255
196 222 255
196 222 255
196 222 255
196 222 255
196 222 255
196 222 255
196 222 255
196 222 255
196 222 255
196 222 255
196 222 255
196 222 255
196 221 255
195 221 255
195 221 255
195 221 255
195 221 255
195 221 255
195 221 255
195 221 255
195 221 255
195 221 255
195 221 255
195 221 255
195 221 255
195 221 255
195 221 255
195 221 255
195 221 255
195 221 255
195 221 255
195 221 255
195 221 255
195 221 255
195 221 255
195 221 255
195 221 255
195 221 255
195 221 255
195 221 255
195 221 255
195 221 255
195 221 255
194 221 255
194 221 255
194 221 255
194 221 255
194 221 255
194 221 255
194 221 255
194 221 255
194 221 255
194 221 255
194 221 255
194 221 255
194 221 255
194 221 255
194 221 255
194 221 255
194 221 255
194 221 255
194 221 255
194 221 255
194 221 255
194 221 255
194 221 255
194 221 255
194 221 255
194 221 255
194 221 255
194 221 255
194 221 255
194 221 255
195 221 255
195 221 255
195 221 255
195 221 255
195 221 255
195 221 255
195 221 255
195 221 255
195 221 255
195 221 255
195 221 255
195 221 255
195 221 255
195 221 255
195 221 255
195 221 255
195 221 255
195 221 255
195 221 255
195 221 255
195 221 255
195 221 255
195 221 255
195 221 255
195 221 255
195 221 255
195 221 255
195 221 255
195 221 255
195 221 255
196 221 255
196 221 255
196 222 255
196 222 255
196 222 255
196 222 255
196 222 255
196 222 255
196 222 255
196 222 255
196 222 255
196 222 255
196 222 255
196 222 255
196 222 255
196 222 255
196 222 255
196 222 255
197 222 255
197 222 255
197 222 255
197 222 255
197 222 255
197 222 255
197 222 255
197 222 255
197 222 255
197 222 255
197 222 255
197 222 255
197 222 255
197 222 255
197 222 255
197 223 255
198 223 255
198 223 255
198 223 255
198 223 255
198 223 255
198 223 255
198 223 255
198 223 255
198 223 255
198 223 255
198 223 255
198 223 255
198 223 255
198 223 255
198 223 255
199 223 255
199 223 255
199 223 255
199 223 255
199 223 255
199 223 255
199 223 255
199 223 255
199 223 255
199 223 255
199 223 255
199 223 255
199 224 255
199 224 255
200 224 255
200 224 255
200 224 255
200 224 255
200 224 255
200 224 255
200 224 255
200 224 255
200 224 255
200 224 255
200 224 255
200 224 255
200 224 255
200 224 255
201 224 255
201 224 255
201 224 255
201 224 255
201 224 255
201 224 255
201 224 255
201 224 255
201 224 255
201 224 255
201 224 255
201 225 255
201 225 255
201 225 255
201 225 255
202 225 255
202 225 255
202 225 255
202 225 255
202 225 255
202 225 255
202 225 255
202 225 255
202 225 255
202 225 255
202 225 255
202 225 255
202 225 255
202 225 255
202 225 255
203 225 255
203 225 255
203 225 255
203 225 255
203 225 255
203 225 255
203 225 255
203 225 255
203 225 255
203 226 255
203 226 255
203 226 255
203 226 255
203 226 255
203 226 255
203 226 255
203 226 255
204 226 255
204 226 255
204 226 255
204 226 255
204 226 255
204 226 255
204 226 255
204 226 255
204 226 255
204 226 255
204 226 255
204 226 255
204 226 255
204 226 255
204 226 255
204 226 255
204 226 255
205 226 255
205 226 255
205 226 255
205 226 255
205 226 255
205 226 255
205 226 255
205 226 255
205 227 255
205 227 255
205 227 255
205 227 255
205 227 255
205 227 255
205 227 255
205 227 255
205 227 255
205 227 255
205 227 255
205 227 255
205 227 255
205 227 255
205 227 255
205 226 255
205 226 255
205 226 255
205 226 255
205 226 255
205 226 255
205 226 255
205 226 255
204 226 255
204 226 255
204 226 255
204 226 255
204 226 255
204 226 255
204 226 255
204 226 255
204 226 255
204 226 255
204 226 255
204 226 255
204 226 255
204 226 255
204 226 255
204 226 255
204 226 255
203 226 255
203 226 255
203 226 255
203 226 255
203 226 255
203 226 255
203 226 255
203 225 255
203 225 255
203 225 255
203 225 255
203 225 255
203 225 255
203 225 255
203 225 255
203 225 255
202 225 255
202 225 255
202 225 255
202 225 255
202 225 255
202 225 255
202 225 255
202 225 255
202 225 255
202 225 255
202 225 255
202 225 255
202 225 255
202 225 255
202 225 255
201 225 255
201 225 255
201 225 255
201 225 255
201 224 255
201 224 255
201 224 255
201 224 255
201 224 255
201 224 255
201 224 255
201 224 255
201 224 255
201 224 255
201 224 255
200 224 255
200 224 255
200 224 255
200 224 255
200 224 255
200 224 255
200 224 255
200 224 255
200 224 255
200 224 255
200 224 255
200 224 255
200 224 255
200 224 255
199 224 255
199 224 255
199 223 255
199 223 255
199 223 255
199 223 255
199 223 255
199 223 255
199 223 255
199 223 255
199 223 255
199 223 255
199 223 255
199 223 255
198 223 255
198 223 255
198 223 255
198 223 255
198 223 255
198 223 255
198 223 255
198 223 255
198 223 255
198 223 255
198 223 255
198 223 255
198 223 255
198 223 255
198 223 255
197 223 255
197 222 255
197 222 255
197 222 255
197 222 255
197 222 255
197 222 255
197 222 255
197 222 255
197 222 255
197 222 255
197 222 255
197 222 255
197 222 255
197 222 255
197 222 255
196 222 255
196 222 255
196 222 255
196 222 255
196 222 255
196 222 255
196 222 255
196 222 255
196 222 255
196 222 255
196 222 255
196 222 255
196 222 255
196 222 255
196 222 255
196 222 255
196 222 255
196 222 255
196 221 255
196 221 255
195 221 255
195 221 255
195 221 255
195 221 255
195 221 255
195 221 255
195 221 255
195 221 255
195 221 255
195 221 255
195 221 255
195 221 255
195 221 255
195 221 255
195 221 255
195 221 255
195 221 255
195 221 255
195 221 255
195 221 255
195 221 255
195 221 255
195 221 255
195 221 255
195 221 255
195 221 255
195 221 255
195 221 255
195 221 255
195 221 255
195 221 255
195 221 255
195 221 255
195 221 255
195 221 255
195 221 255
195 221 255
195 221 255
195 221 255
195 221 255
195 221 255
195 221 255
195 221 255
195 221 255
195 221 255
195 221 255
195 221 255
195 221 255
195 221 255
195 221 255
195 221 255
195 221 255
195 221 255
195 221 255
195 221 255
195 221 255
195 221 255
195 221 255
195 221 255
195 221 255
195 221 255
195 221 255
195 221 255
195 221 255
195 221 255
195 221 255
195 221 255
195 221 255
195 221 255
195 221 255
195 221 255
195 221 255
195 221 255
195 221 255
195 221 255
195 221 255
195 221 255
195 221 255
195 221 255
195 221 255
195 221 255
195 221 255
196 221 255
196 221 255
196 222 255
196 222 255
196 222 255
196 222 255
196 222 255
196 222 255
196 222 255
196 222 255
196 222 255
196 222 255
196 222 255
196 222 255
196 222 255
196 222 255
196 222 255
196 222 255
196 222 255
196 222 255
197 222 255
197 222 255
197 222 255
197 222 255
197 222 255
197 222 255
197 222 255
197 222 255
197 222 255
197 222 255
197 222 255
197 222 255
197 222 255
197 222 255
197 222 255
197 223 255
198 223 255
198 223 255
198 223 255
198 223 255
198 223 255
198 223 255
198 223 255
198 223 255
198 223 255
198 223 255
198 223 255
198 223 255
198 223 255
198 223 255
199 223 255
199 223 255
199 223 255
199 223 255
199 223 255
199 223 255
199 223 255
199 223 255
199 223 255
199 223 255
199 223 255
199 223 255
199 224 255
199 224 255
199 224 255
200 224 255
200 224 255
200 224 255
200 224 255
200 224 255
200 224 255
200 224 255
200 224 255
200 224 255
200 224 255
200 224 255
200 224 255
200 224 255
200 224 255
201 224 255
201 224 255
201 224 255
201 224 255
201 224 255
201 224 255
201 224 255
201 224 255
201 224 255
201 224 255
201 225 255
201 225 255
201 225 255
201 225 255
201 225 255
202 225 255
202 225 255
202 225 255
202 225 255
202 225 255
202 225 255
202 225 255
202 225 255
202 225 255
202 225 255
202 225 255
202 225 255
202 225 255
202 225 255
202 225 255
203 225 255
203 225 255
203 225 255
203 225 255
203 225 255
203 225 255
203 225 255
203 225 255
203 225 255
203 226 255
203 226 255
203 226 255
203 226 255
203 226 255
203 226 255
203 226 255
204 226 255
204 226 255
204 226 255
204 226 255
204 226 255
204 226 255
204 226 255
204 226 255
204 226 255
204 226 255
204 226 255
204 226 255
204 226 255
204 226 255
204 226 255
204 226 255
204 226 255
205 226 255
205 226 255
205 226 255
205 226 255
205 226 255
205 226 255
205 226 255
205 226 255
205 227 255
205 227 255
205 227 255
205 227 255
205 227 255
205 227 255
205 227 255
205 227 255
205 227 255
205 227 255
205 227 255
205 227 255
205 227 255
205 227 255
205 227 255
205 227 255
205 227 255
205 227 255
205 227 255
205 227 255
205 227 255
205 226 255
205 226 255
205 226 255
205 226 255
205 226 255
205 226 255
205 226 255
204 226 255
204 226 255
204 226 255
204 226 255
204 226 255
204 226 255
204 226 255
204 226 255
204 226 255
204 226 255
204 226 255
204 226 255
204 226 255
204 226 255
204 226 255
204 226 255
204 226 255
203 226 255
203 226 255
203 226 255
203 226 255
203 226 255
203 226 255
203 226 255
203 225 255
203 225 255
203 225 255
203 225 255
203 225 255
203 225 255
203 225 255
203 225 255
203 225 255
202 225 255
202 225 255
202 225 255
202 225 255
202 225 255
202 225 255
202 225 255
202 225 255
202 225 255
202 225 255
202 225 255
202 225 255
202 225 255
202 225 255
202 225 255
201 225 255
201 225 255
201 225 255
201 225 255
201 225 255
201 224 255
201 224 255
201 224 255
201 224 255
201 224 255
201 224 255
201 224 255
201 224 255
201 224 255
201 224 255
200 224 255
200 224 255
200 224 255
200 224 255
200 224 255
200 224 255
200 224 255
200 224 255
200 224 255
200 224 255
200 224 255
200 224 255
200 224 255
200 224 255
199 224 255
199 224 255
199 224 255
199 223 255
199 223 255
199 223 255
199 223 255
199 223 255
199 223 255
199 223 255
199 223 255
199 223 255
199 223 255
199 223 255
199 223 255
198 223 255
198 223 255
198 223 255
198 223 255
198 223 255
198 223 255
198 223 255
198 223 255
198 223 255
198 223 255
198 223 255
198 223 255
198 223 255
198 223 255
198 223 255
197 222 255
197 222 255
197 222 255
197 222 255
197 222 255
197 222 255
197 222 255
197 222 255
197 222 255
197 222 255
197 222 255
197 222 255
197 222 255
197 222 255
197 222 255
197 222 255
196 222 255
196 222 255
196 222 255
196 222 255
196 222 255
196 222 255
196 222 255
196 222 255
196 222 255
196 222 255
196 222 255
196 222 255
196 222 255
196 222 255
196 222 255
196 222 255
196 222 255
196 222 255
196 221 255
196 221 255
195 221 255
195 221 255
195 221 255
195 221 255
195 221 255
195 221 255
195 221 255
195 221 255
195 221 255
195 221 255
195 221 255
195 221 255
195 221 255
195 221 255
195 221 255
195 221 255
195 221 255
195 221 255
195 221 255
195 221 255
195 221 255
195 221 255
195 221 255
195 221 255
195 221 255
195 221 255
195 221 255
195 221 255
195 221 255
195 221 255
195 221 255
195 221 255
195 221 255
195 221 255
195 221 255
195 221 255
195 221 255
195 221 255
195 221 255
195 221 255
195 221 255
195 221 255
195 221 255
195 221 255
195 221 255
195 221 255
195 221 255
195 221 255
195 221 255
195 221 255
195 221 255
195 221 255
195 221 255
195 221 255
195 221 255
195 221 255
195 221 255
195 221 255
195 221 255
195 221 255
195 221 255
195 221 255
195 221 255
195 221 255
195 221 255
195 221 255
195 221 255
195 221 255
195 221 255
195 221 255
195 221 255
195 221 255
195 221 255
195 221 255
195 221 255
195 221 255
196 221 255
196 221 255
196 222 255
196 222 255
196 222 255
196 222 255
196 222 255
196 222 255
196 222 255
196 222 255
196 222 255
196 222 255
196 222 255
196 222 255
196 222 255
196 222 255
196 222 255
196 222 255
196 222 255
196 222 255
197 222 255
197 222 255
197 222 255
197 222 255
197 222 255
197 222 255
197 222 255
197 222 255
197 222 255
197 222 255
197 222 255
197 222 255
197 222 255
197 222 255
197 222 255
197 222 255
198 223 255
198 223 255
198 223 255
198 223 255
198 223 255
198 223 255
198 223 255
198 223 255
198 223 255
198 223 255
198 223 255
198 223 255
198 223 255
198 223 255
198 223 255
199 223 255
199 223 255
199 223 255
199 223 255
199 223 255
199 223 255
199 223 255
199 223 255
199 223 255
199 223 255
199 223 255
199 223 255
199 224 255
199 224 255
199 224 255
200 224 255
200 224 255
200 224 255
200 224 255
200 224 255
200 224 255
200 224 255
200 224 255
200 224 255
200 224 255
200 224 255
200 224 255
200 224 255
200 224 255
201 224 255
201 224 255
201 224 255
201 224 255
201 224 255
201 224 255
201 224 255
201 224 255
201 224 255
201 224 255
201 225 255
201 225 255
201 225 255
201 225 255
201 225 255
202 225 255
202 225 255
202 225 255
202 225 255
202 225 255
202 225 255
202 225 255
202 225 255
202 225 255
202 225 255
202 225 255
202 225 255
202 225 255
202 225 255
202 225 255
203 225 255
203 225 255
203 225 255
203 225 255
203 225 255
203 225 255
203 225 255
203 225 255
203 225 255
203 226 255
203 226 255
203 226 255
203 226 255
203 226 255
203 226 255
203 226 255
204 226 255
204 226 255
204 226 255
204 226 255
204 226 255
204 226 255
204 226 255
204 226 255
204 226 255
204 226 255
204 226 255
204 226 255
204 226 255
204 226 255
204 226 255
204 226 255
204 226 255
205 226 255
205 226 255
205 226 255
205 226 255
205 226 255
205 226 255
205 226 255
205 226 255
205 227 255
205 227 255
205 227 255
205 227 255
205 227 255
205 227 255
205 227 255
205 227 255
205 227 255
205 227 255
205 227 255
206 227 255
206 227 255
206 227 255
205 227 255
205 227 255
205 227 255
205 227 255
205 227 255
205 227 255
205 227 255
205 227 255
205 227 255
205 227 255
205 227 255
205 226 255
205 226 255
205 226 255
205 226 255
205 226 255
205 226 255
205 226 255
204 226 255
204 226 255
204 226 255
204 226 255
204 226 255
204 226 255
204 226 255
204 226 255
204 226 255
204 226 255
204 226 255
204 226 255
204 226 255
204 226 255
204 226 255
204 226 255
204 226 255
203 226 255
203 226 255
203 226 255
203 226 255
203 226 255
203 226 255
203 226 255
203 225 255
203 225 255
203 225 255
203 225 255
203 225 255
203 225 255
203 225 255
203 225 255
203 225 255
202 225 255
202 225 255
202 225 255
202 225 255
202 225 255
202 225 255
202 225 255
202 225 255
202 225 255
202 225 255
202 225 255
202 225 255
202 225 255
202 225 255
202 225 255
202 225 255
201 225 255
201 225 255
201 225 255
201 225 255
201 224 255
201 224 255
201 224 255
201 224 255
201 224 255
201 224 255
201 224 255
201 224 255
201 224 255
201 224 255
200 224 255
200 224 255
200 224 255
200 224 255
200 224 255
200 224 255
200 224 255
200 224 255
200 224 255
200 224 255
200 224 255
200 224 255
200 224 255
200 224 255
200 224 255
199 224 255
199 224 255
199 223 255
199 223 255
199 223 255
199 223 255
199 223 255
199 223 255
199 223 255
199 223 255
199 223 255
199 223 255
199 223 255
199 223 255
198 223 255
198 223 255
198 223 255
198 223 255
198 223 255
198 223 255
198 223 255
198 223 255
198 223 255
198 223 255
198 223 255
198 223 255
198 223 255
198 223 255
198 223 255
197 223 255
197 222 255
197 222 255
197 222 255
197 222 255
197 222 255
197 222 255
197 222 255
197 222 255
197 222 255
197 222 255
197 222 255
197 222 255
197 222 255
197 222 255
197 222 255
197 222 255
196 222 255
196 222 255
196 222 255
196 222 255
196 222 255
196 222 255
196 222 255
196 222 255
196 222 255
196 222 255
196 222 255
196 222 255
196 222 255
196 222 255
196 222 255
196 222 255
196 222 255
196 222 255
196 222 255
196 221 255
196 221 255
195 221 255
195 221 255
195 221 255
195 221 255
195 221 255
195 221 255
195 221 255
195 221 255
195 221 255
195 221 255
195 221 255
195 221 255
195 221 255
195 221 255
195 221 255
195 221 255
195 221 255
195 221 255
195 221 255
195 221 255
195 221 255
195 221 255
195 221 255
195 221 255
195 221 255
195 221 255
195 221 255
195 221 255
195 221 255
195 221 255
195 221 255
195 221 255
195 221 255
195 221 255
195 221 255
195 221 255
195 221 255
195 221 255
195 221 255
195 221 255
195 221 255
195 221 255
195 221 255
195 221 255
195 221 255
195 221 255
195 221 255
195 221 255
195 221 255
195 221 255
195 221 255
195 221 255
195 221 255
195 221 255
195 221 255
195 221 255
195 221 255
195 221 255
195 221 255
195 221 255
195 221 255
195 221 255
195 221 255
195 221 255
195 221 255
195 221 255
195 221 255
195 221 255
196 221 255
196 221 255
196 222 255
196 222 255
196 222 255
196 222 255
196 222 255
196 222 255
196 222 255
196 222 255
196 222 255
196 222 255
196 222 255
196 222 255
196 222 255
196 222 255
196 222 255
196 222 255
196 222 255
196 222 255
196 222 255
197 222 255
197 222 255
197 222 255
197 222 255
197 222 255
197 222 255
197 222 255
197 222 255
197 222 255
197 222 255
197 222 255
197 222 255
197 222 255
197 222 255
197 222 255
197 222 255
197 223 255
198 223 255
198 223 255
198 223 255
198 223 255
198 223 255
198 223 255
198 223 255
198 223 255
198 223 255
198 223 255
198 223 255
198 223 255
198 223 255
198 223 255
198 223 255
199 223 255
199 223 255
199 223 255
199 223 255
199 223 255
199 223 255
199 223 255
199 223 255
199 223 255
199 223 255
199 223 255
199 223 255
199 224 255
199 224 255
200 224 255
200 224 255
200 224 255
200 224 255
200 224 255
200 224 255
200 224 255
200 224 255
200 224 255
200 224 255
200 224 255
200 224 255
200 224 255
200 224 255
200 224 255
201 224 255
201 224 255
201 224 255
201 224 255
201 224 255
201 224 255
201 224 255
201 224 255
201 224 255
201 224 255
201 225 255
201 225 255
201 225 255
201 225 255
202 225 255
202 225 255
202 225 255
202 225 255
202 225 255
202 225 255
202 225 255
202 225 255
202 225 255
202 225 255
202 225 255
202 225 255
202 225 255
202 225 255
202 225 255
202 225 255
203 225 255
203 225 255
203 225 255
203 225 255
203 225 255
203 225 255
203 225 255
203 225 255
203 226 255
203 226 255
203 226 255
203 226 255
203 226 255
203 226 255
203 226 255
204 226 255
204 226 255
204 226 255
204 226 255
204 226 255
204 226 255
204 226 255
204 226 255
204 226 255
204 226 255
204 226 255
204 226 255
204 226 255
204 226 255
204 226 255
204 226 255
204 226 255
204 226 255
205 226 255
205 226 255
205 226 255
205 226 255
205 226 255
205 226 255
205 226 255
205 227 255
205 227 255
205 227 255
205 227 255
205 227 255
205 227 255
205 227 255
205 227 255
205 227 255
205 227 255
205 227 255
206 227 255
206 227 255
206 227 255
206 227 255
206 227 255
206 227 255
206 227 255
206 227 255
205 227 255
205 227 255
205 227 255
205 227 255
205 227 255
205 227 255
205 227 255
205 227 255
205 227 255
205 227 255
205 227 255
205 227 255
205 226 255
205 226 255
205 226 255
205 226 255
205 226 255
205 226 255
205 226 255
204 226 255
204 226 255
204 226 255
204 226 255
204 226 255
204 226 255
204 226 255
204 226 255
204 226 255
204 226 255
204 226 255
204 226 255
204 226 255
204 226 255
204 226 255
204 226 255
204 226 255
203 226 255
203 226 255
203 226 255
203 226 255
203 226 255
203 226 255
203 226 255
203 225 255
203 225 255
203 225 255
203 225 255
203 225 255
203 225 255
203 225 255
203 225 255
203 225 255
202 225 255
202 225 255
202 225 255
202 225 255
202 225 255
202 225 255
202 225 255
202 225 255
202 225 255
202 225 255
202 225 255
202 225 255
202 225 255
202 225 255
202 225 255
201 225 255
201 225 255
201 225 255
201 225 255
201 224 255
201 224 255
201 224 255
201 224 255
201 224 255
201 224 255
201 224 255
201 224 255
201 224 255
201 224 255
200 224 255
200 224 255
200 224 255
200 224 255
200 224 255
200 224 255
200 224 255
200 224 255
200 224 255
200 224 255
200 224 255
200 224 255
200 224 255
200 224 255
200 224 255
199 224 255
199 224 255
199 223 255
199 223 255
199 223 255
199 223 255
199 223 255
199 223 255
199 223 255
199 223 255
199 223 255
199 223 255
199 223 255
199 223 255
198 223 255
198 223 255
198 223 255
198 223 255
198 223 255
198 223 255
198 223 255
198 223 255
198 223 255
198 223 255
198 223 255
198 223 255
198 223 255
198 223 255
198 223 255
198 223 255
197 222 255
197 222 255
197 222 255
197 222 255
197 222 255
197 222 255
197 222 255
197 222 255
197 222 255
197 222 255
197 222 255
197 222 255
197 222 255
197 222 255
197 222 255
197 222 255
197 222 255
196 222 255
196 222 255
196 222 255
196 222 255
196 222 255
196 222 255
196 222 255
196 222 255
196 222 255
196 222 255
196 222 255
196 222 255
196 222 255
196 222 255
196 222 255
196 222 255
196 222 255
196 222 255
196 222 255
196 222 255
196 221 255
196 221 255
195 221 255
195 221 255
195 221 255
195 221 255
195 221 255
195 221 255
195 221 255
195 221 255
195 221 255
195 221 255
195 221 255
195 221 255
195 221 255
195 221 255
195 221 255
195 221 255
195 221 255
195 221 255
195 221 255
195 221 255
195 221 255
195 221 255
195 221 255
195 221 255
195 221 255
195 221 255
195 221 255
195 221 255
195 221 255
195 221 255
195 221 255
195 221 255
195 221 255
195 221 255
195 221 255
195 221 255
195 221 255
195 221 255
195 221 255
195 221 255
195 221 255
195 221 255
195 221 255
195 221 255
195 221 255
195 221 255
195 221 255
195 221 255
195 221 255
195 221 255
195 221 255
195 221 255
195 221 255
195 221 255
195 221 255
195 221 255
195 221 255
195 221 255
195 221 255
195 221 255
196 221 255
196 221 255
196 221 255
196 222 255
196 222 255
196 222 255
196 222 255
196 222 255
196 222 255
196 222 255
196 222 255
196 222 255
196 222 255
196 222 255
196 222 255
196 222 255
196 222 255
196 222 255
196 222 255
196 222 255
196 222 255
196 222 255
197 222 255
197 222 255
197 222 255
197 222 255
197 222 255
197 222 255
197 222 255
197 222 255
197 222 255
197 222 255
197 222 255
197 222 255
197 222 255
197 222 255
197 222 255
197 222 255
197 222 255
198 223 255
198 223 255
198 223 255
198 223 255
198 223 255
198 223 255
198 223 255
198 223 255
198 223 255
198 223 255
198 223 255
198 223 255
198 223 255
198 223 255
198 223 255
198 223 255
199 223 255
199 223 255
199 223 255
199 223 255
199 223 255
199 223 255
199 223 255
199 223 255
199 223 255
199 223 255
199 223 255
199 223 255
199 224 255
199 224 255
200 224 255
200 224 255
200 224 255
200 224 255
200 224 255
200 224 255
200 224 255
200 224 255
200 224 255
200 224 255
200 224 255
200 224 255
200 224 255
200 224 255
200 224 255
201 224 255
201 224 255
201 224 255
201 224 255
201 224 255
201 224 255
201 224 255
201 224 255
201 224 255
201 224 255
201 225 255
201 225 255
201 225 255
201 225 255
202 225 255
202 225 255
202 225 255
202 225 255
202 225 255
202 225 255
202 225 255
202 225 255
202 225 255
202 225 255
202 225 255
202 225 255
202 225 255
202 225 255
202 225 255
203 225 255
203 225 255
203 225 255
203 225 255
203 225 255
203 225 255
203 225 255
203 225 255
203 225 255
203 226 255
203 226 255
203 226 255
203 226 255
203 226 255
203 226 255
203 226 255
204 226 255
204 226 255
204 226 255
204 226 255
204 226 255
204 226 255
204 226 255
204 226 255
204 226 255
204 226 255
204 226 255
204 226 255
204 226 255
204 226 255
204 226 255
204 226 255
204 226 255
205 226 255
205 226 255
205 226 255
205 226 255
205 226 255
205 226 255
205 226 255
205 226 255
205 227 255
205 227 255
205 227 255
205 227 255
205 227 255
205 227 255
205 227 255
205 227 255
205 227 255
205 227 255
205 227 255
206 227 255
206 227 255
206 227 255
206 227 255
206 227 255
206 227 255
206 227 255
206 227 255
206 227 255
206 227 255
206 227 255
206 227 255
206 227 255
205 227 255
205 227 255
205 227 255
205 227 255
205 227 255
205 227 255
205 227 255
205 227 255
205 227 255
205 227 255
205 227 255
205 226 255
205 226 255
205 226 255
205 226 255
205 226 255
205 226 255
205 226 255
204 226 255
204 226 255
204 226 255
204 226 255
204 226 255
204 226 255
204 226 255
204 226 255
204 226 255
204 226 255
204 226 255
204 226 255
204 226 255
204 226 255
204 226 255
204 226 255
204 226 255
203 226 255
203 226 255
203 226 255
203 226 255
203 226 255
203 226 255
203 226 255
203 225 255
203 225 255
203 225 255
203 225 255
203 225 255
203 225 255
203 225 255
203 225 255
203 225 255
202 225 255
202 225 255
202 225 255
202 225 255
202 225 255
202 225 255
202 225 255
202 225 255
202 225 255
202 225 255
202 225 255
202 225 255
202 225 255
202 225 255
202 225 255
201 225 255
201 225 255
201 225 255
201 225 255
201 224 255
201 224 255
201 224 255
201 224 255
201 224 255
201 224 255
201 224 255
201 224 255
201 224 255
201 224 255
201 224 255
200 224 255
200 224 255
200 224 255
200 224 255
200 224 255
200 224 255
200 224 255
200 224 255
200 224 255
200 224 255
200 224 255
200 224 255
200 224 255
200 224 255
199 224 255
199 224 255
199 223 255
199 223 255
199 223 255
199 223 255
199 223 255
199 223 255
199 223 255
199 223 255
199 223 255
199 223 255
199 223 255
199 223 255
199 223 255
198 223 255
198 223 255
198 223 255
198 223 255
198 223 255
198 223 255
198 223 255
198 223 255
198 223 255
198 223 255
198 223 255
198 223 255
198 223 255
198 223 255
198 223 255
197 223 255
197 222 255
197 222 255
197 222 255
197 222 255
197 222 255
197 222 255
197 222 255
197 222 255
197 222 255
197 222 255
197 222 255
197 222 255
197 222 255
197 222 255
197 222 255
197 222 255
197 222 255
196 222 255
196 222 255
196 222 255
196 222 255
196 222 255
196 222 255
196 222 255
196 222 255
196 222 255
196 222 255
196 222 255
196 222 255
196 222 255
196 222 255
196 222 255
196 222 255
196 222 255
196 222 255
196 222 255
196 222 255
196 222 255
196 221 255
196 221 255
196 221 255
195 221 255
195 221 255
195 221 255
195 221 255
195 221 255
195 221 255
195 221 255
195 221 255
195 221 255
195 221 255
195 221 255
195 221 255
195 221 255
195 221 255
195 221 255
195 221 255
195 221 255
195 221 255
195 221 255
195 221 255
195 221 255
195 221 255
195 221 255
195 221 255
195 221 255
195 221 255
195 221 255
195 221 255
195 221 255
195 221 255
195 221 255
195 221 255
195 221 255
195 221 255
195 221 255
195 221 255
195 221 255
195 221 255
195 221 255
195 221 255
195 221 255
195 221 255
195 221 255
195 221 255
195 221 255
195 221 255
195 221 255
195 221 255
195 221 255
195 221 255
196 221 255
196 221 255
196 221 255
196 222 255
196 222 255
196 222 255
196 222 255
196 222 255
196 222 255
196 222 255
196 222 255
196 222 255
196 222 255
196 222 255
196 222 255
196 222 255
196 222 255
196 222 255
196 222 255
196 222 255
196 222 255
196 222 255
196 222 255
196 222 255
197 222 255
197 222 255
197 222 255
197 222 255
197 222 255
197 222 255
197 222 255
197 222 255
197 222 255
197 222 255
197 222 255
197 222 255
197 222 255
197 222 255
197 222 255
197 222 255
197 222 255
197 223 255
198 223 255
198 223 255
198 223 255
198 223 255
198 223 255
198 223 255
198 223 255
198 223 255
198 223 255
198 223 255
198 223 255
198 223 255
198 223 255
198 223 255
198 223 255
199 223 255
199 223 255
199 223 255
199 223 255
199 223 255
199 223 255
199 223 255
199 223 255
199 223 255
199 223 255
199 223 255
199 223 255
199 223 255
199 224 255
199 224 255
200 224 255
200 224 255
200 224 255
200 224 255
200 224 255
200 224 255
200 224 255
200 224 255
200 224 255
200 224 255
200 224 255
200 224 255
200 224 255
200 224 255
201 224 255
201 224 255
201 224 255
201 224 255
201 224 255
201 224 255
201 224 255
201 224 255
201 224 255
201 224 255
201 224 255
201 225 255
201 225 255
201 225 255
201 225 255
202 225 255
202 225 255
202 225 255
202 225 255
202 225 255
202 225 255
202 225 255
202 225 255
202 225 255
202 225 255
202 225 255
202 225 255
202 225 255
202 225 255
202 225 255
203 225 255
203 225 255
203 225 255
203 225 255
203 225 255
203 225 255
203 225 255
203 225 255
203 225 255
203 226 255
203 226 255
203 226 255
203 226 255
203 226 255
203 226 255
203 226 255
204 226 255
204 226 255
204 226 255
204 226 255
204 226 255
204 226 255
204 226 255
204 226 255
204 226 255
204 226 255
204 226 255
204 226 255
204 226 255
204 226 255
204 226 255
204 226 255
204 226 255
205 226 255
205 226 255
205 226 255
205 226 255
205 226 255
205 226 255
205 226 255
205 227 255
205 227 255
205 227 255
205 227 255
205 227 255
205 227 255
205 227 255
205 227 255
205 227 255
205 227 255
205 227 255
206 227 255
206 227 255
206 227 255
206 227 255
206 227 255
206 227 255
206 227 255
206 227 255
206 227 255
206 227 255
206 227 255
206 227 255
206 227 255
206 227 255
206 227 255
206 227 255
206 227 255
206 227 255
206 227 255
205 227 255
205 227 255
205 227 255
205 227 255
205 227 255
205 227 255
205 227 255
205 227 255
205 227 255
205 227 255
205 227 255
205 226 255
205 226 255
205 226 255
205 226 255
205 226 255
205 226 255
205 226 255
204 226 255
204 226 255
204 226 255
204 226 255
204 226 255
204 226 255
204 226 255
204 226 255
204 226 255
204 226 255
204 226 255
204 226 255
204 226 255
204 226 255
204 226 255
204 226 255
204 226 255
203 226 255
203 226 255
203 226 255
203 226 255
203 226 255
203 226 255
203 225 255
203 225 255
203 225 255
203 225 255
203 225 255
203 225 255
203 225 255
203 225 255
203 225 255
202 225 255
202 225 255
202 225 255
202 225 255
202 225 255
202 225 255
202 225 255
202 225 255
202 225 255
202 225 255
202 225 255
202 225 255
202 225 255
202 225 255
202 225 255
201 225 255
201 225 255
201 225 255
201 225 255
201 225 255
201 224 255
201 224 255
201 224 255
201 224 255
201 224 255
201 224 255
201 224 255
201 224 255
201 224 255
201 224 255
200 224 255
200 224 255
200 224 255
200 224 255
200 224 255
200 224 255
200 224 255
200 224 255
200 224 255
200 224 255
200 224 255
200 224 255
200 224 255
200 224 255
199 224 255
199 224 255
199 224 255
199 223 255
199 223 255
199 223 255
199 223 255
199 223 255
199 223 255
199 223 255
199 223 255
199 223 255
199 223 255
199 223 255
199 223 255
198 223 255
198 223 255
198 223 255
198 223 255
198 223 255
198 223 255
198 223 255
198 223 255
198 223 255
198 223 255
198 223 255
198 223 255
198 223 255
198 223 255
198 223 255
198 223 255
197 222 255
197 222 255
197 222 255
197 222 255
197 222 255
197 222 255
197 222 255
197 222 255
197 222 255
197 222 255
197 222 255
197 222 255
197 222 255
197 222 255
197 222 255
197 222 255
197 222 255
197 222 255
196 222 255
196 222 255
196 222 255
196 222 255
196 222 255
196 222 255
196 222 255
196 222 255
196 222 255
196 222 255
196 222 255
196 222 255
196 222 255
196 222 255
196 222 255
196 222 255
196 222 255
196 222 255
196 222 255
196 222 255
196 222 255
196 222 255
196 222 255
196 222 255
196 221 255
196 221 255
196 221 255
195 221 255
195 221 255
195 221 255
195 221 255
195 221 255
195 221 255
195 221 255
195 221 255
195 221 255
195 221 255
195 221 255
195 221 255
195 221 255
195 221 255
195 221 255
195 221 255
195 221 255
195 221 255
195 221 255
195 221 255
195 221 255
195 221 255
195 221 255
195 221 255
195 221 255
195 221 255
195 221 255
195 221 255
195 221 255
195 221 255
195 221 255
195 221 255
195 221 255
195 221 255
195 221 255
195 221 255
195 221 255
195 221 255
196 221 255
196 221 255
196 221 255
196 222 255
196 222 255
196 222 255
196 222 255
196 222 255
196 222 255
196 222 255
196 222 255
196 222 255
196 222 255
196 222 255
196 222 255
196 222 255
196 222 255
196 222 255
196 222 255
196 222 255
196 222 255
196 222 255
196 222 255
196 222 255
196 222 255
196 222 255
196 222 255
197 222 255
197 222 255
197 222 255
197 222 255
197 222 255
197 222 255
197 222 255
197 222 255
197 222 255
197 222 255
197 222 255
197 222 255
197 222 255
197 222 255
197 222 255
197 222 255
197 222 255
197 222 255
198 223 255
198 223 255
198 223 255
198 223 255
198 223 255
198 223 255
198 223 255
198 223 255
198 223 255
198 223 255
198 223 255
198 223 255
198 223 255
198 223 255
198 223 255
198 223 255
199 223 255
199 223 255
199 223 255
199 223 255
199 223 255
199 223 255
199 223 255
199 223 255
199 223 255
199 223 255
199 223 255
199 223 255
199 224 255
199 224 255
199 224 255
200 224 255
200 224 255
200 224 255
200 224 255
200 224 255
200 224 255
200 224 255
200 224 255
200 224 255
200 224 255
200 224 255
200 224 255
200 224 255
200 224 255
201 224 255
201 224 255
201 224 255
201 224 255
201 224 255
201 224 255
201 224 255
201 224 255
201 224 255
201 224 255
201 225 255
201 225 255
201 225 255
201 225 255
201 225 255
202 225 255
202 225 255
202 225 255
202 225 255
202 225 255
202 225 255
202 225 255
202 225 255
202 225 255
202 225 255
202 225 255
202 225 255
202 225 255
202 225 255
202 225 255
203 225 255
203 225 255
203 225 255
203 225 255
203 225 255
203 225 255
203 225 255
203 225 255
203 225 255
203 226 255
203 226 255
203 226 255
203 226 255
203 226 255
203 226 255
203 226 255
204 226 255
204 226 255
204 226 255
204 226 255
204 226 255
204 226 255
204 226 255
204 226 255
204 226 255
204 226 255
204 226 255
204 226 255
204 226 255
204 226 255
204 226 255
204 226 255
205 226 255
205 226 255
205 226 255
205 226 255
205 226 255
205 226 255
205 226 255
205 227 255
205 227 255
205 227 255
205 227 255
205 227 255
205 227 255
205 227 255
205 227 255
205 227 255
205 227 255
205 227 255
205 227 255
206 227 255
206 227 255
206 227 255
206 227 255
206 227 255
206 227 255
206 227 255
206 227 255
206 227 255
206 227 255
206 227 255
206 227 255
206 227 255
206 227 255
206 227 255
206 227 255
206 227 255
206 227 255
206 227 255
206 227 255
206 227 255
206 227 255
206 227 255
205 227 255
205 227 255
205 227 255
205 227 255
205 227 255
205 227 255
205 227 255
205 227 255
205 227 255
205 227 255
205 227 255
205 226 255
205 226 255
205 226 255
205 226 255
205 226 255
205 226 255
205 226 255
204 226 255
204 226 255
204 226 255
204 226 255
204 226 255
204 226 255
204 226 255
204 226 255
204 226 255
204 226 255
204 226 255
204 226 255
204 226 255
204 226 255
204 226 255
204 226 255
204 226 255
203 226 255
203 226 255
203 226 255
203 226 255
203 226 255
203 226 255
203 226 255
203 225 255
203 225 255
203 225 255
203 225 255
203 225 255
203 225 255
203 225 255
203 225 255
203 225 255
202 225 255
202 225 255
202 225 255
202 225 255
202 225 255
202 225 255
202 225 255
202 225 255
202 225 255
202 225 255
202 225 255
202 225 255
202 225 255
202 225 255
202 225 255
201 225 255
201 225 255
201 225 255
201 225 255
201 224 255
201 224 255
201 224 255
201 224 255
201 224 255
201 224 255
201 224 255
201 224 255
201 224 255
201 224 255
200 224 255
200 224 255
200 224 255
200 224 255
200 224 255
200 224 255
200 224 255
200 224 255
200 224 255
200 224 255
200 224 255
200 224 255
200 224 255
200 224 255
200 224 255
199 224 255
199 224 255
199 223 255
199 223 255
199 223 255
199 223 255
199 223 255
199 223 255
199 223 255
199 223 255
199 223 255
199 223 255
199 223 255
199 223 255
199 223 255
198 223 255
198 223 255
198 223 255
198 223 255
198 223 255
198 223 255
198 223 255
198 223 255
198 223 255
198 223 255
198 223 255
198 223 255
198 223 255
198 223 255
198 223 255
197 223 255
197 222 255
197 222 255
197 222 255
197 222 255
197 222 255
197 222 255
197 222 255
197 222 255
197 222 255
197 222 255
197 222 255
197 222 255
197 222 255
197 222 255
197 222 255
197 222 255
197 222 255
197 222 255
196 222 255
196 222 255
196 222 255
196 222 255
196 222 255
196 222 255
196 222 255
196 222 255
196 222 255
196 222 255
196 222 255
196 222 255
196 222 255
196 222 255
196 222 255
196 222 255
196 222 255
196 222 255
196 222 255
196 222 255
196 222 255
196 222 255
196 222 255
196 222 255
196 222 255
196 222 255
196 222 255
196 221 255
196 221 255
196 221 255
196 221 255
196 221 255
195 221 255
195 221 255
195 221 255
195 221 255
195 221 255
195 221 255
195 221 255
195 221 255
195 221 255
195 221 255
195 221 255
195 221 255
195 221 255
195 221 255
195 221 255
195 221 255
195 221 255
195 221 255
195 221 255
195 221 255
195 221 255
195 221 255
196 221 255
196 221 255
196 221 255
196 221 255
196 221 255
196 222 255
196 222 255
196 222 255
196 222 255
196 222 255
196 222 255
196 222 255
196 222 255
196 222 255
196 222 255
196 222 255
196 222 255
196 222 255
196 222 255
196 222 255
196 222 255
196 222 255
196 222 255
196 222 255
196 222 255
196 222 255
196 222 255
196 222 255
196 222 255
196 222 255
196 222 255
196 222 255
197 222 255
197 222 255
197 222 255
197 222 255
197 222 255
197 222 255
197 222 255
197 222 255
197 222 255
197 222 255
197 222 255
197 222 255
197 222 255
197 222 255
197 222 255
197 222 255
197 222 255
197 222 255
197 223 255
198 223 255
198 223 255
198 223 255
198 223 255
198 223 255
198 223 255
198 223 255
198 223 255
198 223 255
198 223 255
198 223 255
198 223 255
198 223 255
198 223 255
198 223 255
198 223 255
199 223 255
199 223 255
199 223 255
199 223 255
199 223 255
199 223 255
199 223 255
199 223 255
199 223 255
199 223 255
199 223 255
199 223 255
199 224 255
199 224 255
200 224 255
200 224 255
200 224 255
200 224 255
200 224 255
200 224 255
200 224 255
200 224 255
200 224 255
200 224 255
200 224 255
200 224 255
200 224 255
200 224 255
200 224 255
201 224 255
201 224 255
201 224 255
201 224 255
201 224 255
201 224 255
201 224 255
201 224 255
201 224 255
201 224 255
201 225 255
201 225 255
201 225 255
201 225 255
202 225 255
202 225 255
202 225 255
202 225 255
202 225 255
202 225 255
202 225 255
202 225 255
202 225 255
202 225 255
202 225 255
202 225 255
202 225 255
202 225 255
202 225 255
203 225 255
203 225 255
203 225 255
203 225 255
203 225 255
203 225 255
203 225 255
203 225 255
203 225 255
203 226 255
203 226 255
203 226 255
203 226 255
203 226 255
203 226 255
203 226 255
204 226 255
204 226 255
204 226 255
204 226 255
204 226 255
204 226 255
204 226 255
204 226 255
204 226 255
204 226 255
204 226 255
204 226 255
204 226 255
204 226 255
204 226 255
204 226 255
204 226 255
205 226 255
205 226 255
205 226 255
205 226 255
205 226 255
205 226 255
205 226 255
205 227 255
205 227 255
205 227 255
205 227 255
205 227 255
205 227 255
205 227 255
205 227 255
205 227 255
205 227 255
205 227 255
206 227 255
206 227 255
206 227 255
206 227 255
206 227 255
206 227 255
206 227 255
206 227 255
206 227 255
206 227 255
206 227 255
206 227 255
206 227 255
206 227 255
206 227 255
206 227 255
206 227 255
206 227 255
206 227 255
206 227 255
206 227 255
206 227 255
206 227 255
206 227 255
206 227 255
206 227 255
206 227 255
206 227 255
206 227 255
205 227 255
205 227 255
205 227 255
205 227 255
205 227 255
205 227 255
205 227 255
205 227 255
205 227 255
205 227 255
205 227 255
205 226 255
205 226 255
205 226 255
205 226 255
205 226 255
205 226 255
205 226 255
204 226 255
204 226 255
204 226 255
204 226 255
204 226 255
204 226 255
204 226 255
204 226 255
204 226 255
204 226 255
204 226 255
204 226 255
204 226 255
204 226 255
204 226 255
204 226 255
203 226 255
203 226 255
203 226 255
203 226 255
203 226 255
203 226 255
203 226 255
203 225 255
203 225 255
203 225 255
203 225 255
203 225 255
203 225 255
203 225 255
203 225 255
203 225 255
202 225 255
202 225 255
202 225 255
202 225 255
202 225 255
202 225 255
202 225 255
202 225 255
202 225 255
202 225 255
202 225 255
202 225 255
202 225 255
202 225 255
202 225 255
201 225 255
201 225 255
201 225 255
201 225 255
201 224 255
201 224 255
201 224 255
201 224 255
201 224 255
201 224 255
201 224 255
201 224 255
201 224 255
201 224 255
200 224 255
200 224 255
200 224 255
200 224 255
200 224 255
200 224 255
200 224 255
200 224 255
200 224 255
200 224 255
200 224 255
200 224 255
200 224 255
200 224 255
200 224 255
199 224 255
199 224 255
199 223 255
199 223 255
199 223 255
199 223 255
199 223 255
199 223 255
199 223 255
199 223 255
199 223 255
199 223 255
199 223 255
199 223 255
199 223 255
198 223 255
198 223 255
198 223 255
198 223 255
198 223 255
198 223 255
198 223 255
198 223 255
198 223 255
198 223 255
198 223 255
198 223 255
198 223 255
198 223 255
198 223 255
198 223 255
197 223 255
197 222 255
197 222 255
197 222 255
197 222 255
197 222 255
197 222 255
197 222 255
197 222 255
197 222 255
197 222 255
197 222 255
197 222 255
197 222 255
197 222 255
197 222 255
197 222 255
197 222 255
197 222 255
197 222 255
196 222 255
196 222 255
196 222 255
196 222 255
196 222 255
196 222 255
196 222 255
196 222 255
196 222 255
196 222 255
196 222 255
196 222 255
196 222 255
196 222 255
196 222 255
196 222 255
196 222 255
196 222 255
196 222 255
196 222 255
196 222 255
196 222 255
196 222 255
196 222 255
196 222 255
196 222 255
196 222 255
196 222 255
196 222 255
196 222 255
196 222 255
196 222 255
196 222 255
196 222 255
196 222 255
196 222 255
196 222 255
196 222 255
196 222 255
196 222 255
196 222 255
196 222 255
196 222 255
196 222 255
196 222 255
196 222 255
196 222 255
196 222 255
196 222 255
196 222 255
196 222 255
196 222 255
196 222 255
196 222 255
196 222 255
196 222 255
196 222 255
196 222 255
196 222 255
196 222 255
196 222 255
196 222 255
196 222 255
196 222 255
196 222 255
196 222 255
196 222 255
196 222 255
196 222 255
196 222 255
196 222 255
196 222 255
196 222 255
196 222 255
196 222 255
196 222 255
196 222 255
196 222 255
197 222 255
197 222 255
197 222 255
197 222 255
197 222 255
197 222 255
197 222 255
197 222 255
197 222 255
197 222 255
197 222 255
197 222 255
197 222 255
197 222 255
197 222 255
197 222 255
197 222 255
197 222 255
197 222 255
197 223 255
198 223 255
198 223 255
198 223 255
198 223 255
198 223 255
198 223 255
198 223 255
198 223 255
198 223 255
198 223 255
198 223 255
198 223 255
198 223 255
198 223 255
198 223 255
198 223 255
199 223 255
199 223 255
199 223 255
199 223 255
199 223 255
199 223 255
199 223 255
199 223 255
199 223 255
199 223 255
199 223 255
199 223 255
199 223 255
199 224 255
199 224 255
200 224 255
200 224 255
200 224 255
200 224 255
200 224 255
200 224 255
200 224 255
200 224 255
200 224 255
200 224 255
200 224 255
200 224 255
200 224 255
200 224 255
201 224 255
201 224 255
201 224 255
201 224 255
201 224 255
201 224 255
201 224 255
201 224 255
201 224 255
201 224 255
201 224 255
201 225 255
201 225 255
201 225 255
201 225 255
202 225 255
202 225 255
202 225 255
202 225 255
202 225 255
202 225 255
202 225 255
202 225 255
202 225 255
202 225 255
202 225 255
202 225 255
202 225 255
202 225 255
202 225 255
203 225 255
203 225 255
203 225 255
203 225 255
203 225 255
203 225 255
203 225 255
203 225 255
203 225 255
203 226 255
203 226 255
203 226 255
203 226 255
203 226 255
203 226 255
203 226 255
204 226 255
204 226 255
204 226 255
204 226 255
204 226 255
204 226 255
204 226 255
204 226 255
204 226 255
204 226 255
204 226 255
204 226 255
204 226 255
204 226 255
204 226 255
204 226 255
205 226 255
205 226 255
205 226 255
205 226 255
205 226 255
205 226 255
205 226 255
205 227 255
205 227 255
205 227 255
205 227 255
205 227 255
205 227 255
205 227 255
205 227 255
205 227 255
205 227 255
205 227 255
206 227 255
206 227 255
206 227 255
206 227 255
206 227 255
206 227 255
206 227 255
206 227 255
206 227 255
206 227 255
206 227 255
206 227 255
206 227 255
206 227 255
206 227 255
206 227 255
206 227 255
206 227 255
206 227 255
206 227 255
206 227 255
206 227 255
206 227 255
206 227 255
206 227 255
206 227 255
206 227 255
206 227 255
206 227 255
206 227 255
206 227 255
206 227 255
206 227 255
206 227 255
205 227 255
205 227 255
205 227 255
205 227 255
205 227 255
205 227 255
205 227 255
205 227 255
205 227 255
205 227 255
205 227 255
205 226 255
205 226 255
205 226 255
205 226 255
205 226 255
205 226 255
205 226 255
204 226 255
204 226 255
204 226 255
204 226 255
204 226 255
204 226 255
204 226 255
204 226 255
204 226 255
204 226 255
204 226 255
204 226 255
204 226 255
204 226 255
204 226 255
204 226 255
204 226 255
203 226 255
203 226 255
203 226 255
203 226 255
203 226 255
203 226 255
203 226 255
203 225 255
203 225 255
203 225 255
203 225 255
203 225 255
203 225 255
203 225 255
203 225 255
202 225 255
202 225 255
202 225 255
202 225 255
202 225 255
202 225 255
202 225 255
202 225 255
202 225 255
202 225 255
202 225 255
202 225 255
202 225 255
202 225 255
202 225 255
201 225 255
201 225 255
201 225 255
201 225 255
201 225 255
201 224 255
201 224 255
201 224 255
201 224 255
201 224 255
201 224 255
201 224 255
201 224 255
201 224 255
201 224 255
200 224 255
200 224 255
200 224 255
200 224 255
200 224 255
200 224 255
200 224 255
200 224 255
200 224 255
200 224 255
200 224 255
200 224 255
200 224 255
200 224 255
199 224 255
199 224 255
199 224 255
199 223 255
199 223 255
199 223 255
199 223 255
199 223 255
199 223 255
199 223 255
199 223 255
199 223 255
199 223 255
199 223 255
199 223 255
199 223 255
198 223 255
198 223 255
198 223 255
198 223 255
198 223 255
198 223 255
198 223 255
198 223 255
198 223 255
198 223 255
198 223 255
198 223 255
198 223 255
198 223 255
198 223 255
198 223 255
197 223 255
197 222 255
197 222 255
197 222 255
197 222 255
197 222 255
197 222 255
197 222 255
197 222 255
197 222 255
197 222 255
197 222 255
197 222 255
197 222 255
197 222 255
197 222 255
197 222 255
197 222 255
197 222 255
197 222 255
197 222 255
196 222 255
196 222 255
196 222 255
196 222 255
196 222 255
196 222 255
196 222 255
196 222 255
196 222 255
196 222 255
196 222 255
196 222 255
196 222 255
196 222 255
196 222 255
196 222 255
196 222 255
196 222 255
196 222 255
196 222 255
196 222 255
196 222 255
196 222 255
196 222 255
196 222 255
196 222 255
196 222 255
196 222 255
196 222 255
196 222 255
196 222 255
196 222 255
196 222 255
196 222 255
196 222 255
196 222 255
196 222 255
196 222 255
196 222 255
196 222 255
196 222 255
196 222 255
196 222 255
196 222 255
196 222 255
196 222 255
196 222 255
196 222 255
196 222 255
196 222 255
196 222 255
196 222 255
196 222 255
196 222 255
196 222 255
196 222 255
196 222 255
196 222 255
196 222 255
196 222 255
196 222 255
196 222 255
196 222 255
196 222 255
196 222 255
196 222 255
196 222 255
196 222 255
196 222 255
196 222 255
197 222 255
197 222 255
197 222 255
197 222 255
197 222 255
197 222 255
197 222 255
197 222 255
197 222 255
197 222 255
197 222 255
197 222 255
197 222 255
197 222 255
197 222 255
197 222 255
197 222 255
197 222 255
197 222 255
197 222 255
197 223 255
198 223 255
198 223 255
198 223 255
198 223 255
198 223 255
198 223 255
198 223 255
198 223 255
198 223 255
198 223 255
198 223 255
198 223 255
198 223 255
198 223 255
198 223 255
198 223 255
198 223 255
199 223 255
199 223 255
199 223 255
199 223 255
199 223 255
199 223 255
199 223 255
199 223 255
199 223 255
199 223 255
199 223 255
199 223 255
199 224 255
199 224 255
199 224 255
200 224 255
200 224 255
200 224 255
200 224 255
200 224 255
200 224 255
200 224 255
200 224 255
200 224 255
200 224 255
200 224 255
200 224 255
200 224 255
200 224 255
201 224 255
201 224 255
201 224 255
201 224 255
201 224 255
201 224 255
201 224 255
201 224 255
201 224 255
201 224 255
201 225 255
201 225 255
201 225 255
201 225 255
201 225 255
202 225 255
202 225 255
202 225 255
202 225 255
202 225 255
202 225 255
202 225 255
202 225 255
202 225 255
202 225 255
202 225 255
202 225 255
202 225 255
202 225 255
202 225 255
203 225 255
203 225 255
203 225 255
203 225 255
203 225 255
203 225 255
203 225 255
203 225 255
203 226 255
203 226 255
203 226 255
203 226 255
203 226 255
203 226 255
203 226 255
204 226 255
204 226 255
204 226 255
204 226 255
204 226 255
204 226 255
204 226 255
204 226 255
204 226 255
204 226 255
204 226 255
204 226 255
204 226 255
204 226 255
204 226 255
204 226 255
204 226 255
205 226 255
205 226 255
205 226 255
205 226 255
205 226 255
205 226 255
205 226 255
205 227 255
205 227 255
205 227 255
205 227 255
205 227 255
205 227 255
205 227 255
205 227 255
205 227 255
205 227 255
205 227 255
206 227 255
206 227 255
206 227 255
206 227 255
206 227 255
206 227 255
206 227 255
206 227 255
206 227 255
206 227 255
206 227 255
206 227 255
206 227 255
206 227 255
206 227 255
206 227 255
206 227 255
206 227 255
207 227 255
207 227 255
206 227 255
206 227 255
206 227 255
206 227 255
206 227 255
206 227 255
206 227 255
206 227 255
206 227 255
206 227 255
206 227 255
206 227 255
206 227 255
206 227 255
206 227 255
206 227 255
206 227 255
206 227 255
206 227 255
205 227 255
205 227 255
205 227 255
205 227 255
205 227 255
205 227 255
205 227 255
205 227 255
205 227 255
205 227 255
205 227 255
205 226 255
205 226 255
205 226 255
205 226 255
205 226 255
205 226 255
205 226 255
204 226 255
204 226 255
204 226 255
204 226 255
204 226 255
204 226 255
204 226 255
204 226 255
204 226 255
204 226 255
204 226 255
204 226 255
204 226 255
204 226 255
204 226 255
204 226 255
203 226 255
203 226 255
203 226 255
203 226 255
203 226 255
203 226 255
203 226 255
203 225 255
203 225 255
203 225 255
203 225 255
203 225 255
203 225 255
203 225 255
203 225 255
203 225 255
202 225 255
202 225 255
202 225 255
202 225 255
202 225 255
202 225 255
202 225 255
202 225 255
202 225 255
202 225 255
202 225 255
202 225 255
202 225 255
202 225 255
202 225 255
201 225 255
201 225 255
201 225 255
201 225 255
201 224 255
201 224 255
201 224 255
201 224 255
201 224 255
201 224 255
201 224 255
201 224 255
201 224 255
201 224 255
200 224 255
200 224 255
200 224 255
200 224 255
200 224 255
200 224 255
200 224 255
200 224 255
200 224 255
200 224 255
200 224 255
200 224 255
200 224 255
200 224 255
200 224 255
199 224 255
199 224 255
199 223 255
199 223 255
199 223 255
199 223 255
199 223 255
199 223 255
199 223 255
199 223 255
199 223 255
199 223 255
199 223 255
199 223 255
199 223 255
198 223 255
198 223 255
198 223 255
198 223 255
198 223 255
198 223 255
198 223 255
198 223 255
198 223 255
198 223 255
198 223 255
198 223 255
198 223 255
198 223 255
198 223 255
198 223 255
198 223 255
197 223 255
197 222 255
197 222 255
197 222 255
197 222 255
197 222 255
197 222 255
197 222 255
197 222 255
197 222 255
197 222 255
197 222 255
197 222 255
197 222 255
197 222 255
197 222 255
197 222 255
197 222 255
197 222 255
197 222 255
197 222 255
197 222 255
196 222 255
196 222 255
196 222 255
196 222 255
196 222 255
196 222 255
196 222 255
196 222 255
196 222 255
196 222 255
196 222 255
196 222 255
196 222 255
196 222 255
196 222 255
196 222 255
196 222 255
196 222 255
196 222 255
196 222 255
196 222 255
196 222 255
196 222 255
196 222 255
196 222 255
196 222 255
196 222 255
196 222 255
196 222 255
196 222 255
196 222 255
196 222 255
196 222 255
196 222 255
196 222 255
196 222 255
196 222 255
196 222 255
196 222 255
196 222 255
196 222 255
196 222 255
196 222 255
196 222 255
196 222 255
196 222 255
196 222 255
196 222 255
196 222 255
196 222 255
196 222 255
196 222 255
196 222 255
196 222 255
196 222 255
196 222 255
196 222 255
196 222 255
196 222 255
196 222 255
196 222 255
196 222 255
197 222 255
197 222 255
197 222 255
197 222 255
197 222 255
197 222 255
197 222 255
197 222 255
197 222 255
197 222 255
197 222 255
197 222 255
197 222 255
197 222 255
197 222 255
197 222 255
197 222 255
197 222 255
197 222 255
197 222 255
197 222 255
197 223 255
198 223 255
198 223 255
198 223 255
198 223 255
198 223 255
198 223 255
198 223 255
198 223 255
198 223 255
198 223 255
198 223 255
198 223 255
198 223 255
198 223 255
198 223 255
198 223 255
198 223 255
199 223 255
199 223 255
199 223 255
199 223 255
199 223 255
199 223 255
199 223 255
199 223 255
199 223 255
199 223 255
199 223 255
199 223 255
199 223 255
199 224 255
199 224 255
200 224 255
200 224 255
200 224 255
200 224 255
200 224 255
200 224 255
200 224 255
200 224 255
200 224 255
200 224 255
200 224 255
200 224 255
200 224 255
200 224 255
200 224 255
201 224 255
201 224 255
201 224 255
201 224 255
201 224 255
201 224 255
201 224 255
201 224 255
201 224 255
201 224 255
201 225 255
201 225 255
201 225 255
201 225 255
202 225 255
202 225 255
202 225 255
202 225 255
202 225 255
202 225 255
202 225 255
202 225 255
202 225 255
202 225 255
202 225 255
202 225 255
202 225 255
202 225 255
202 225 255
203 225 255
203 225 255
203 225 255
203 225 255
203 225 255
203 225 255
203 225 255
203 225 255
203 225 255
203 226 255
203 226 255
203 226 255
203 226 255
203 226 255
203 226 255
203 226 255
204 226 255
204 226 255
204 226 255
204 226 255
204 226 255
204 226 255
204 226 255
204 226 255
204 226 255
204 226 255
204 226 255
204 226 255
204 226 255
204 226 255
204 226 255
204 226 255
205 226 255
205 226 255
205 226 255
205 226 255
205 226 255
205 226 255
205 226 255
205 227 255
205 227 255
205 227 255
205 227 255
205 227 255
205 227 255
205 227 255
205 227 255
205 227 255
205 227 255
205 227 255
206 227 255
206 227 255
206 227 255
206 227 255
206 227 255
206 227 255
206 227 255
206 227 255
206 227 255
206 227 255
206 227 255
206 227 255
206 227 255
206 227 255
206 227 255
206 227 255
206 227 255
206 227 255
206 227 255
207 227 255
207 227 255
207 227 255
207 227 255
207 227 255
207 227 255
206 227 255
206 227 255
206 227 255
206 227 255
206 227 255
206 227 255
206 227 255
206 227 255
206 227 255
206 227 255
206 227 255
206 227 255
206 227 255
206 227 255
206 227 255
206 227 255
206 227 255
206 227 255
206 227 255
206 227 255
205 227 255
205 227 255
205 227 255
205 227 255
205 227 255
205 227 255
205 227 255
205 227 255
205 227 255
205 227 255
205 226 255
205 226 255
205 226 255
205 226 255
205 226 255
205 226 255
205 226 255
204 226 255
204 226 255
204 226 255
204 226 255
204 226 255
204 226 255
204 226 255
204 226 255
204 226 255
204 226 255
204 226 255
204 226 255
204 226 255
204 226 255
204 226 255
204 226 255
204 226 255
203 226 255
203 226 255
203 226 255
203 226 255
203 226 255
203 226 255
203 226 255
203 225 255
203 225 255
203 225 255
203 225 255
203 225 255
203 225 255
203 225 255
203 225 255
202 225 255
202 225 255
202 225 255
202 225 255
202 225 255
202 225 255
202 225 255
202 225 255
202 225 255
202 225 255
202 225 255
202 225 255
202 225 255
202 225 255
202 225 255
201 225 255
201 225 255
201 225 255
201 225 255
201 224 255
201 224 255
201 224 255
201 224 255
201 224 255
201 224 255
201 224 255
201 224 255
201 224 255
201 224 255
201 224 255
200 224 255
200 224 255
200 224 255
200 224 255
200 224 255
200 224 255
200 224 255
200 224 255
200 224 255
200 224 255
200 224 255
200 224 255
200 224 255
200 224 255
199 224 255
199 224 255
199 224 255
199 223 255
199 223 255
199 223 255
199 223 255
199 223 255
199 223 255
199 223 255
199 223 255
199 223 255
199 223 255
199 223 255
199 223 255
199 223 255
198 223 255
198 223 255
198 223 255
198 223 255
198 223 255
198 223 255
198 223 255
198 223 255
198 223 255
198 223 255
198 223 255
198 223 255
198 223 255
198 223 255
198 223 255
198 223 255
198 223 255
197 223 255
197 222 255
197 222 255
197 222 255
197 222 255
197 222 255
197 222 255
197 222 255
197 222 255
197 222 255
197 222 255
197 222 255
197 222 255
197 222 255
197 222 255
197 222 255
197 222 255
197 222 255
197 222 255
197 222 255
197 222 255
197 222 255
197 222 255
197 222 255
196 222 255
196 222 255
196 222 255
196 222 255
196 222 255
196 222 255
196 222 255
196 222 255
196 222 255
196 222 255
196 222 255
196 222 255
196 222 255
196 222 255
196 222 255
196 222 255
196 222 255
196 222 255
196 222 255
196 222 255
196 222 255
196 222 255
196 222 255
196 222 255
196 222 255
196 222 255
196 222 255
196 222 255
196 222 255
196 222 255
196 222 255
196 222 255
196 222 255
196 222 255
196 222 255
196 222 255
196 222 255
196 222 255
196 222 255
196 222 255
196 222 255
196 222 255
196 222 255
196 222 255
196 222 255
196 222 255
196 222 255
196 222 255
196 222 255
196 222 255
196 222 255
196 222 255
197 222 255
197 222 255
197 222 255
197 222 255
197 222 255
197 222 255
197 222 255
197 222 255
197 222 255
197 222 255
197 222 255
197 222 255
197 222 255
197 222 255
197 222 255
197 222 255
197 222 255
197 222 255
197 222 255
197 222 255
197 222 255
197 222 255
197 222 255
197 223 255
198 223 255
198 223 255
198 223 255
198 223 255
198 223 255
198 223 255
198 223 255
198 223 255
198 223 255
198 223 255
198 223 255
198 223 255
198 223 255
198 223 255
198 223 255
198 223 255
198 223 255
199 223 255
199 223 255
199 223 255
199 223 255
199 223 255
199 223 255
199 223 255
199 223 255
199 223 255
199 223 255
199 223 255
199 223 255
199 223 255
199 224 255
199 224 255
199 224 255
200 224 255
200 224 255
200 224 255
200 224 255
200 224 255
200 224 255
200 224 255
200 224 255
200 224 255
200 224 255
200 224 255
200 224 255
200 224 255
200 224 255
201 224 255
201 224 255
201 224 255
201 224 255
201 224 255
201 224 255
201 224 255
201 224 255
201 224 255
201 224 255
201 224 255
201 225 255
201 225 255
201 225 255
201 225 255
202 225 255
202 225 255
202 225 255
202 225 255
202 225 255
202 225 255
202 225 255
202 225 255
202 225 255
202 225 255
202 225 255
202 225 255
202 225 255
202 225 255
202 225 255
203 225 255
203 225 255
203 225 255
203 225 255
203 225 255
203 225 255
203 225 255
203 225 255
203 226 255
203 226 255
203 226 255
203 226 255
203 226 255
203 226 255
203 226 255
204 226 255
204 226 255
204 226 255
204 226 255
204 226 255
204 226 255
204 226 255
204 226 255
204 226 255
204 226 255
204 226 255
204 226 255
204 226 255
204 226 255
204 226 255
204 226 255
204 226 255
205 226 255
205 226 255
205 226 255
205 226 255
205 226 255
205 226 255
205 226 255
205 227 255
205 227 255
205 227 255
205 227 255
205 227 255
205 227 255
205 227 255
205 227 255
205 227 255
205 227 255
206 227 255
206 227 255
206 227 255
206 227 255
206 227 255
206 227 255
206 227 255
206 227 255
206 227 255
206 227 255
206 227 255
206 227 255
206 227 255
206 227 255
206 227 255
206 227 255
206 227 255
206 227 255
206 227 255
206 227 255
207 227 255
207 227 255
207 227 255
207 227 255
207 228 255
207 228 255
207 227 255
207 227 255
207 227 255
207 227 255
207 227 255
206 227 255
206 227 255
206 227 255
206 227 255
206 227 255
206 227 255
206 227 255
206 227 255
206 227 255
206 227 255
206 227 255
206 227 255
206 227 255
206 227 255
206 227 255
206 227 255
206 227 255
206 227 255
206 227 255
205 227 255
205 227 255
205 227 255
205 227 255
205 227 255
205 227 255
205 227 255
205 227 255
205 227 255
205 227 255
205 227 255
205 226 255
205 226 255
205 226 255
205 226 255
205 226 255
205 226 255
205 226 255
204 226 255
204 226 255
204 226 255
204 226 255
204 226 255
204 226 255
204 226 255
204 226 255
204 226 255
204 226 255
204 226 255
204 226 255
204 226 255
204 226 255
204 226 255
204 226 255
203 226 255
203 226 255
203 226 255
203 226 255
203 226 255
203 226 255
203 226 255
203 225 255
203 225 255
203 225 255
203 225 255
203 225 255
203 225 255
203 225 255
203 225 255
202 225 255
202 225 255
202 225 255
202 225 255
202 225 255
202 225 255
202 225 255
202 225 255
202 225 255
202 225 255
202 225 255
202 225 255
202 225 255
202 225 255
202 225 255
201 225 255
201 225 255
201 225 255
201 225 255
201 225 255
201 224 255
201 224 255
201 224 255
201 224 255
201 224 255
201 224 255
201 224 255
201 224 255
201 224 255
201 224 255
200 224 255
200 224 255
200 224 255
200 224 255
200 224 255
200 224 255
200 224 255
200 224 255
200 224 255
200 224 255
200 224 255
200 224 255
200 224 255
200 224 255
200 224 255
199 224 255
199 224 255
199 223 255
199 223 255
199 223 255
199 223 255
199 223 255
199 223 255
199 223 255
199 223 255
199 223 255
199 223 255
199 223 255
199 223 255
199 223 255
198 223 255
198 223 255
198 223 255
198 223 255
198 223 255
198 223 255
198 223 255
198 223 255
198 223 255
198 223 255
198 223 255
198 223 255
198 223 255
198 223 255
198 223 255
198 223 255
198 223 255
198 223 255
197 223 255
197 222 255
197 222 255
197 222 255
197 222 255
197 222 255
197 222 255
197 222 255
197 222 255
197 222 255
197 222 255
197 222 255
197 222 255
197 222 255
197 222 255
197 222 255
197 222 255
197 222 255
197 222 255
197 222 255
197 222 255
197 222 255
197 222 255
197 222 255
197 222 255
197 222 255
197 222 255
196 222 255
196 222 255
196 222 255
196 222 255
196 222 255
196 222 255
196 222 255
196 222 255
196 222 255
196 222 255
196 222 255
196 222 255
196 222 255
196 222 255
196 222 255
196 222 255
196 222 255
196 222 255
196 222 255
196 222 255
196 222 255
196 222 255
196 222 255
196 222 255
196 222 255
196 222 255
196 222 255
196 222 255
196 222 255
196 222 255
196 222 255
196 222 255
196 222 255
196 222 255
196 222 255
196 222 255
196 222 255
196 222 255
196 222 255
196 222 255
197 222 255
197 222 255
197 222 255
197 222 255
197 222 255
197 222 255
197 222 255
197 222 255
197 222 255
197 222 255
197 222 255
197 222 255
197 222 255
197 222 255
197 222 255
197 222 255
197 222 255
197 222 255
197 222 255
197 222 255
197 222 255
197 222 255
197 222 255
197 222 255
197 222 255
197 222 255
198 223 255
198 223 255
198 223 255
198 223 255
198 223 255
198 223 255
198 223 255
198 223 255
198 223 255
198 223 255
198 223 255
198 223 255
198 223 255
198 223 255
198 223 255
198 223 255
198 223 255
198 223 255
199 223 255
199 223 255
199 223 255
199 223 255
199 223 255
199 223 255
199 223 255
199 223 255
199 223 255
199 223 255
199 223 255
199 223 255
199 223 255
199 223 255
199 224 255
199 224 255
200 224 255
200 224 255
200 224 255
200 224 255
200 224 255
200 224 255
200 224 255
200 224 255
200 224 255
200 224 255
200 224 255
200 224 255
200 224 255
200 224 255
200 224 255
201 224 255
201 224 255
201 224 255
201 224 255
201 224 255
201 224 255
201 224 255
201 224 255
201 224 255
201 224 255
201 225 255
201 225 255
201 225 255
201 225 255
201 225 255
202 225 255
202 225 255
202 225 255
202 225 255
202 225 255
202 225 255
202 225 255
202 225 255
202 225 255
202 225 255
202 225 255
202 225 255
202 225 255
202 225 255
203 225 255
203 225 255
203 225 255
203 225 255
203 225 255
203 225 255
203 225 255
203 225 255
203 225 255
203 226 255
203 226 255
203 226 255
203 226 255
203 226 255
203 226 255
203 226 255
204 226 255
204 226 255
204 226 255
204 226 255
204 226 255
204 226 255
204 226 255
204 226 255
204 226 255
204 226 255
204 226 255
204 226 255
204 226 255
204 226 255
204 226 255
204 226 255
205 226 255
205 226 255
205 226 255
205 226 255
205 226 255
205 226 255
205 226 255
205 227 255
205 227 255
205 227 255
205 227 255
205 227 255
205 227 255
205 227 255
205 227 255
205 227 255
205 227 255
205 227 255
206 227 255
206 227 255
206 227 255
206 227 255
206 227 255
206 227 255
206 227 255
206 227 255
206 227 255
206 227 255
206 227 255
206 227 255
206 227 255
206 227 255
206 227 255
206 227 255
206 227 255
206 227 255
206 227 255
207 227 255
207 227 255
207 227 255
207 227 255
207 227 255
207 228 255
207 228 255
207 228 255
207 228 255
207 228 255
207 228 255
207 228 255
207 227 255
207 227 255
207 227 255
207 227 255
207 227 255
206 227 255
206 227 255
206 227 255
206 227 255
206 227 255
206 227 255
206 227 255
206 227 255
206 227 255
206 227 255
206 227 255
206 227 255
206 227 255
206 227 255
206 227 255
206 227 255
206 227 255
206 227 255
206 227 255
205 227 255
205 227 255
205 227 255
205 227 255
205 227 255
205 227 255
205 227 255
205 227 255
205 227 255
205 227 255
205 226 255
205 226 255
205 226 255
205 226 255
205 226 255
205 226 255
205 226 255
204 226 255
204 226 255
204 226 255
204 226 255
204 226 255
204 226 255
204 226 255
204 226 255
204 226 255
204 226 255
204 226 255
204 226 255
204 226 255
204 226 255
204 226 255
204 226 255
204 226 255
203 226 255
203 226 255
203 226 255
203 226 255
203 226 255
203 226 255
203 225 255
203 225 255
203 225 255
203 225 255
203 225 255
203 225 255
203 225 255
203 225 255
203 225 255
202 225 255
202 225 255
202 225 255
202 225 255
202 225 255
202 225 255
202 225 255
202 225 255
202 225 255
202 225 255
202 225 255
202 225 255
202 225 255
202 225 255
202 225 255
201 225 255
201 225 255
201 225 255
201 225 255
201 224 255
201 224 255
201 224 255
201 224 255
201 224 255
201 224 255
201 224 255
201 224 255
201 224 255
201 224 255
200 224 255
200 224 255
200 224 255
200 224 255
200 224 255
200 224 255
200 224 255
200 224 255
200 224 255
200 224 255
200 224 255
200 224 255
200 224 255
200 224 255
200 224 255
200 224 255
199 224 255
199 224 255
199 223 255
199 223 255
199 223 255
199 223 255
199 223 255
199 223 255
199 223 255
199 223 255
199 223 255
199 223 255
199 223 255
199 223 255
199 223 255
199 223 255
198 223 255
198 223 255
198 223 255
198 223 255
198 223 255
198 223 255
198 223 255
198 223 255
198 223 255
198 223 255
198 223 255
198 223 255
198 223 255
198 223 255
198 223 255
198 223 255
198 223 255
198 223 255
197 223 255
197 222 255
197 222 255
197 222 255
197 222 255
197 222 255
197 222 255
197 222 255
197 222 255
197 222 255
197 222 255
197 222 255
197 222 255
197 222 255
197 222 255
197 222 255
197 222 255
197 222 255
197 222 255
197 222 255
197 222 255
197 222 255
197 222 255
197 222 255
197 222 255
197 222 255
197 222 255
197 222 255
197 222 255
197 222 255
197 222 255
197 222 255
196 222 255
196 222 255
196 222 255
196 222 255
196 222 255
196 222 255
196 222 255
196 222 255
196 222 255
196 222 255
196 222 255
196 222 255
196 222 255
196 222 255
196 222 255
196 222 255
196 222 255
196 222 255
196 222 255
196 222 255
196 222 255
196 222 255
197 222 255
197 222 255
197 222 255
197 222 255
197 222 255
197 222 255
197 222 255
197 222 255
197 222 255
197 222 255
197 222 255
197 222 255
197 222 255
197 222 255
197 222 255
197 222 255
197 222 255
197 222 255
197 222 255
197 222 255
197 222 255
197 222 255
197 222 255
197 222 255
197 222 255
197 222 255
197 222 255
197 222 255
197 222 255
197 222 255
197 222 255
197 223 255
198 223 255
198 223 255
198 223 255
198 223 255
198 223 255
198 223 255
198 223 255
198 223 255
198 223 255
198 223 255
198 223 255
198 223 255
198 223 255
198 223 255
198 223 255
198 223 255
198 223 255
198 223 255
199 223 255
199 223 255
199 223 255
199 223 255
199 223 255
199 223 255
199 223 255
199 223 255
199 223 255
199 223 255
199 223 255
199 223 255
199 223 255
199 223 255
199 224 255
199 224 255
200 224 255
200 224 255
200 224 255
200 224 255
200 224 255
200 224 255
200 224 255
200 224 255
200 224 255
200 224 255
200 224 255
200 224 255
200 224 255
200 224 255
200 224 255
200 224 255
201 224 255
201 224 255
201 224 255
201 224 255
201 224 255
201 224 255
201 224 255
201 224 255
201 224 255
201 224 255
201 225 255
201 225 255
201 225 255
201 225 255
202 225 255
202 225 255
202 225 255
202 225 255
202 225 255
202 225 255
202 225 255
202 225 255
202 225 255
202 225 255
202 225 255
202 225 255
202 225 255
202 225 255
202 225 255
203 225 255
203 225 255
203 225 255
203 225 255
203 225 255
203 225 255
203 225 255
203 225 255
203 225 255
203 226 255
203 226 255
203 226 255
203 226 255
203 226 255
203 226 255
203 226 255
204 226 255
204 226 255
204 226 255
204 226 255
204 226 255
204 226 255
204 226 255
204 226 255
204 226 255
204 226 255
204 226 255
204 226 255
204 226 255
204 226 255
204 226 255
204 226 255
205 226 255
205 226 255
205 226 255
205 226 255
205 226 255
205 226 255
205 226 255
205 227 255
205 227 255
205 227 255
205 227 255
205 227 255
205 227 255
205 227 255
205 227 255
205 227 255
205 227 255
206 227 255
206 227 255
206 227 255
206 227 255
206 227 255
206 227 255
206 227 255
206 227 255
206 227 255
206 227 255
206 227 255
206 227 255
206 227 255
206 227 255
206 227 255
206 227 255
206 227 255
206 227 255
206 227 255
207 227 255
207 227 255
207 227 255
207 227 255
207 227 255
207 228 255
207 228 255
207 228 255
207 228 255
207 228 255
207 228 255
207 228 255
207 228 255
207 228 255
207 228 255
207 228 255
207 228 255
207 228 255
207 227 255
207 227 255
207 227 255
207 227 255
207 227 255
206 227 255
206 227 255
206 227 255
206 227 255
206 227 255
206 227 255
206 227 255
206 227 255
206 227 255
206 227 255
206 227 255
206 227 255
206 227 255
206 227 255
206 227 255
206 227 255
206 227 255
206 227 255
206 227 255
205 227 255
205 227 255
205 227 255
205 227 255
205 227 255
205 227 255
205 227 255
205 227 255
205 227 255
205 227 255
205 226 255
205 226 255
205 226 255
205 226 255
205 226 255
205 226 255
205 226 255
204 226 255
204 226 255
204 226 255
204 226 255
204 226 255
204 226 255
204 226 255
204 226 255
204 226 255
204 226 255
204 226 255
204 226 255
204 226 255
204 226 255
204 226 255
204 226 255
203 226 255
203 226 255
203 226 255
203 226 255
203 226 255
203 226 255
203 226 255
203 225 255
203 225 255
203 225 255
203 225 255
203 225 255
203 225 255
203 225 255
203 225 255
202 225 255
202 225 255
202 225 255
202 225 255
202 225 255
202 225 255
202 225 255
202 225 255
202 225 255
202 225 255
202 225 255
202 225 255
202 225 255
202 225 255
202 225 255
201 225 255
201 225 255
201 225 255
201 225 255
201 225 255
201 224 255
201 224 255
201 224 255
201 224 255
201 224 255
201 224 255
201 224 255
201 224 255
201 224 255
201 224 255
200 224 255
200 224 255
200 224 255
200 224 255
200 224 255
200 224 255
200 224 255
200 224 255
200 224 255
200 224 255
200 224 255
200 224 255
200 224 255
200 224 255
200 224 255
199 224 255
199 224 255
199 224 255
199 223 255
199 223 255
199 223 255
199 223 255
199 223 255
199 223 255
199 223 255
199 223 255
199 223 255
199 223 255
199 223 255
199 223 255
199 223 255
198 223 255
198 223 255
198 223 255
198 223 255
198 223 255
198 223 255
198 223 255
198 223 255
198 223 255
198 223 255
198 223 255
198 223 255
198 223 255
198 223 255
198 223 255
198 223 255
198 223 255
198 223 255
198 223 255
198 223 255
197 223 255
197 222 255
197 222 255
197 222 255
197 222 255
197 222 255
197 222 255
197 222 255
197 222 255
197 222 255
197 222 255
197 222 255
197 222 255
197 222 255
197 222 255
197 222 255
197 222 255
197 222 255
197 222 255
197 222 255
197 222 255
197 222 255
197 222 255
197 222 255
197 222 255
197 222 255
197 222 255
197 222 255
197 222 255
197 222 255
197 222 255
197 222 255
197 222 255
197 222 255
197 222 255
197 222 255
197 222 255
197 222 255
197 222 255
197 222 255
197 222 255
197 222 255
197 222 255
197 222 255
197 222 255
197 222 255
197 222 255
197 222 255
197 222 255
197 222 255
197 222 255
197 222 255
197 222 255
197 222 255
197 222 255
197 222 255
197 222 255
197 222 255
197 222 255
197 222 255
197 222 255
197 222 255
197 222 255
197 222 255
197 222 255
197 222 255
197 222 255
197 222 255
197 222 255
197 222 255
197 222 255
197 222 255
197 222 255
197 222 255
197 222 255
197 222 255
197 222 255
197 223 255
198 223 255
198 223 255
198 223 255
198 223 255
198 223 255
198 223 255
198 223 255
198 223 255
198 223 255
198 223 255
198 223 255
198 223 255
198 223 255
198 223 255
198 223 255
198 223 255
198 223 255
198 223 255
198 223 255
199 223 255
199 223 255
199 223 255
199 223 255
199 223 255
199 223 255
199 223 255
199 223 255
199 223 255
199 223 255
199 223 255
199 223 255
199 223 255
199 223 255
199 224 255
199 224 255
199 224 255
200 224 255
200 224 255
200 224 255
200 224 255
200 224 255
200 224 255
200 224 255
200 224 255
200 224 255
200 224 255
200 224 255
200 224 255
200 224 255
200 224 255
200 224 255
201 224 255
201 224 255
201 224 255
201 224 255
201 224 255
201 224 255
201 224 255
201 224 255
201 224 255
201 224 255
201 225 255
201 225 255
201 225 255
201 225 255
201 225 255
202 225 255
202 225 255
202 225 255
202 225 255
202 225 255
202 225 255
202 225 255
202 225 255
202 225 255
202 225 255
202 225 255
202 225 255
202 225 255
202 225 255
202 225 255
203 225 255
203 225 255
203 225 255
203 225 255
203 225 255
203 225 255
203 225 255
203 225 255
203 226 255
203 226 255
203 226 255
203 226 255
203 226 255
203 226 255
203 226 255
204 226 255
204 226 255
204 226 255
204 226 255
204 226 255
204 226 255
204 226 255
204 226 255
204 226 255
204 226 255
204 226 255
204 226 255
204 226 255
204 226 255
204 226 255
204 226 255
205 226 255
205 226 255
205 226 255
205 226 255
205 226 255
205 226 255
205 226 255
205 227 255
205 227 255
205 227 255
205 227 255
205 227 255
205 227 255
205 227 255
205 227 255
205 227 255
205 227 255
206 227 255
206 227 255
206 227 255
206 227 255
206 227 255
206 227 255
206 227 255
206 227 255
206 227 255
206 227 255
206 227 255
206 227 255
206 227 255
206 227 255
206 227 255
206 227 255
206 227 255
206 227 255
206 227 255
207 227 255
207 227 255
207 227 255
207 227 255
207 227 255
207 228 255
207 228 255
207 228 255
207 228 255
207 228 255
207 228 255
207 228 255
207 228 255
207 228 255
207 228 255
207 228 255
207 228 255
207 228 255
207 228 255
207 228 255
207 228 255
207 228 255
207 228 255
207 228 255
207 227 255
207 227 255
207 227 255
207 227 255
207 227 255
206 227 255
206 227 255
206 227 255
206 227 255
206 227 255
206 227 255
206 227 255
206 227 255
206 227 255
206 227 255
206 227 255
206 227 255
206 227 255
206 227 255
206 227 255
206 227 255
206 227 255
206 227 255
205 227 255
205 227 255
205 227 255
205 227 255
205 227 255
205 227 255
205 227 255
205 227 255
205 227 255
205 227 255
205 227 255
205 226 255
205 226 255
205 226 255
205 226 255
205 226 255
205 226 255
205 226 255
204 226 255
204 226 255
204 226 255
204 226 255
204 226 255
204 226 255
204 226 255
204 226 255
204 226 255
204 226 255
204 226 255
204 226 255
204 226 255
204 226 255
204 226 255
203 226 255
203 226 255
203 226 255
203 226 255
203 226 255
203 226 255
203 226 255
203 226 255
203 225 255
203 225 255
203 225 255
203 225 255
203 225 255
203 225 255
203 225 255
203 225 255
202 225 255
202 225 255
202 225 255
202 225 255
202 225 255
202 225 255
202 225 255
202 225 255
202 225 255
202 225 255
202 225 255
202 225 255
202 225 255
202 225 255
202 225 255
201 225 255
201 225 255
201 225 255
201 225 255
201 224 255
201 224 255
201 224 255
201 224 255
201 224 255
201 224 255
201 224 255
201 224 255
201 224 255
201 224 255
201 224 255
200 224 255
200 224 255
200 224 255
200 224 255
200 224 255
200 224 255
200 224 255
200 224 255
200 224 255
200 224 255
200 224 255
200 224 255
200 224 255
200 224 255
200 224 255
199 224 255
199 224 255
199 223 255
199 223 255
199 223 255
199 223 255
199 223 255
199 223 255
199 223 255
199 223 255
199 223 255
199 223 255
199 223 255
199 223 255
199 223 255
199 223 255
199 223 255
198 223 255
198 223 255
198 223 255
198 223 255
198 223 255
198 223 255
198 223 255
198 223 255
198 223 255
198 223 255
198 223 255
198 223 255
198 223 255
198 223 255
198 223 255
198 223 255
198 223 255
198 223 255
198 223 255
198 223 255
197 223 255
197 222 255
197 222 255
197 222 255
197 222 255
197 222 255
197 222 255
197 222 255
197 222 255
197 222 255
197 222 255
197 222 255
197 222 255
197 222 255
197 222 255
197 222 255
197 222 255
197 222 255
197 222 255
197 222 255
197 222 255
197 222 255
197 222 255
197 222 255
197 222 255
197 222 255
197 222 255
197 222 255
197 222 255
197 222 255
197 222 255
197 222 255
197 222 255
197 222 255
197 222 255
197 222 255
197 222 255
197 222 255
197 222 255
197 222 255
197 222 255
197 222 255
197 222 255
197 222 255
197 222 255
197 222 255
197 222 255
197 222 255
197 222 255
197 222 255
197 222 255
197 222 255
197 222 255
197 222 255
197 222 255
197 222 255
197 222 255
197 222 255
197 222 255
197 222 255
197 222 255
197 222 255
197 222 255
197 222 255
197 222 255
197 222 255
197 222 255
197 222 255
197 222 255
197 223 255
198 223 255
198 223 255
198 223 255
198 223 255
198 223 255
198 223 255
198 223 255
198 223 255
198 223 255
198 223 255
198 223 255
198 223 255
198 223 255
198 223 255
198 223 255
198 223 255
198 223 255
198 223 255
198 223 255
198 223 255
199 223 255
199 223 255
199 223 255
199 223 255
199 223 255
199 223 255
199 223 255
199 223 255
199 223 255
199 223 255
199 223 255
199 223 255
199 223 255
199 223 255
199 223 255
199 224 255
199 224 255
200 224 255
200 224 255
200 224 255
200 224 255
200 224 255
200 224 255
200 224 255
200 224 255
200 224 255
200 224 255
200 224 255
200 224 255
200 224 255
200 224 255
200 224 255
201 224 255
201 224 255
201 224 255
201 224 255
201 224 255
201 224 255
201 224 255
201 224 255
201 224 255
201 224 255
201 224 255
201 225 255
201 225 255
201 225 255
201 225 255
202 225 255
202 225 255
202 225 255
202 225 255
202 225 255
202 225 255
202 225 255
202 225 255
202 225 255
202 225 255
202 225 255
202 225 255
202 225 255
202 225 255
202 225 255
203 225 255
203 225 255
203 225 255
203 225 255
203 225 255
203 225 255
203 225 255
203 225 255
203 225 255
203 226 255
203 226 255
203 226 255
203 226 255
203 226 255
203 226 255
203 226 255
204 226 255
204 226 255
204 226 255
204 226 255
204 226 255
204 226 255
204 226 255
204 226 255
204 226 255
204 226 255
204 226 255
204 226 255
204 226 255
204 226 255
204 226 255
204 226 255
205 226 255
205 226 255
205 226 255
205 226 255
205 226 255
205 226 255
205 227 255
205 227 255
205 227 255
205 227 255
205 227 255
205 227 255
205 227 255
205 227 255
205 227 255
205 227 255
205 227 255
206 227 255
206 227 255
206 227 255
206 227 255
206 227 255
206 227 255
206 227 255
206 227 255
206 227 255
206 227 255
206 227 255
206 227 255
206 227 255
206 227 255
206 227 255
206 227 255
206 227 255
206 227 255
207 227 255
207 227 255
207 227 255
207 227 255
207 227 255
207 228 255
207 228 255
207 228 255
207 228 255
207 228 255
207 228 255
207 228 255
207 228 255
207 228 255
207 228 255
207 228 255
207 228 255
207 228 255
207 228 255
207 228 255
207 228 255
207 228 255
207 228 255
207 228 255
207 228 255
207 228 255
207 228 255
207 228 255
207 228 255
207 228 255
207 227 255
207 227 255
207 227 255
207 227 255
206 227 255
206 227 255
206 227 255
206 227 255
206 227 255
206 227 255
206 227 255
206 227 255
206 227 255
206 227 255
206 227 255
206 227 255
206 227 255
206 227 255
206 227 255
206 227 255
206 227 255
206 227 255
206 227 255
205 227 255
205 227 255
205 227 255
205 227 255
205 227 255
205 227 255
205 227 255
205 227 255
205 227 255
205 227 255
205 226 255
205 226 255
205 226 255
205 226 255
205 226 255
205 226 255
205 226 255
204 226 255
204 226 255
204 226 255
204 226 255
204 226 255
204 226 255
204 226 255
204 226 255
204 226 255
204 226 255
204 226 255
204 226 255
204 226 255
204 226 255
204 226 255
204 226 255
203 226 255
203 226 255
203 226 255
203 226 255
203 226 255
203 226 255
203 226 255
203 225 255
203 225 255
203 225 255
203 225 255
203 225 255
203 225 255
203 225 255
203 225 255
203 225 255
202 225 255
202 225 255
202 225 255
202 225 255
202 225 255
202 225 255
202 225 255
202 225 255
202 225 255
202 225 255
202 225 255
202 225 255
202 225 255
202 225 255
201 225 255
201 225 255
201 225 255
201 225 255
201 225 255
201 224 255
201 224 255
201 224 255
201 224 255
201 224 255
201 224 255
201 224 255
201 224 255
201 224 255
201 224 255
200 224 255
200 224 255
200 224 255
200 224 255
200 224 255
200 224 255
200 224 255
200 224 255
200 224 255
200 224 255
200 224 255
200 224 255
200 224 255
200 224 255
200 224 255
200 224 255
199 224 255
199 224 255
199 223 255
199 223 255
199 223 255
199 223 255
199 223 255
199 223 255
199 223 255
199 223 255
199 223 255
199 223 255
199 223 255
199 223 255
199 223 255
199 223 255
199 223 255
198 223 255
198 223 255
198 223 255
198 223 255
198 223 255
198 223 255
198 223 255
198 223 255
198 223 255
198 223 255
198 223 255
198 223 255
198 223 255
198 223 255
198 223 255
198 223 255
198 223 255
198 223 255
198 223 255
198 223 255
198 223 255
198 223 255
197 223 255
197 222 255
197 222 255
197 222 255
197 222 255
197 222 255
197 222 255
197 222 255
197 222 255
197 222 255
197 222 255
197 222 255
197 222 255
197 222 255
197 222 255
197 222 255
197 222 255
197 222 255
197 222 255
197 222 255
197 222 255
197 222 255
197 222 255
197 222 255
197 222 255
197 222 255
197 222 255
197 222 255
197 222 255
197 222 255
197 222 255
197 222 255
197 222 255
197 222 255
197 222 255
197 222 255
197 222 255
197 222 255
197 222 255
197 222 255
197 222 255
197 222 255
197 222 255
197 222 255
197 222 255
197 222 255
197 222 255
197 222 255
197 222 255
197 222 255
197 222 255
197 222 255
197 222 255
197 222 255
197 222 255
197 222 255
197 222 255
197 222 255
197 222 255
197 223 255
198 223 255
198 223 255
198 223 255
198 223 255
198 223 255
198 223 255
198 223 255
198 223 255
198 223 255
198 223 255
198 223 255
198 223 255
198 223 255
198 223 255
198 223 255
198 223 255
198 223 255
198 223 255
198 223 255
198 223 255
198 223 255
198 223 255
199 223 255
199 223 255
199 223 255
199 223 255
199 223 255
199 223 255
199 223 255
199 223 255
199 223 255
199 223 255
199 223 255
199 223 255
199 223 255
199 223 255
199 223 255
199 224 255
199 224 255
200 224 255
200 224 255
200 224 255
200 224 255
200 224 255
200 224 255
200 224 255
200 224 255
200 224 255
200 224 255
200 224 255
200 224 255
200 224 255
200 224 255
200 224 255
200 224 255
201 224 255
201 224 255
201 224 255
201 224 255
201 224 255
201 224 255
201 224 255
201 224 255
201 224 255
201 224 255
201 225 255
201 225 255
201 225 255
201 225 255
201 225 255
202 225 255
202 225 255
202 225 255
202 225 255
202 225 255
202 225 255
202 225 255
202 225 255
202 225 255
202 225 255
202 225 255
202 225 255
202 225 255
202 225 255
202 225 255
203 225 255
203 225 255
203 225 255
203 225 255
203 225 255
203 225 255
203 225 255
203 225 255
203 226 255
203 226 255
203 226 255
203 226 255
203 226 255
203 226 255
203 226 255
204 226 255
204 226 255
204 226 255
204 226 255
204 226 255
204 226 255
204 226 255
204 226 255
204 226 255
204 226 255
204 226 255
204 226 255
204 226 255
204 226 255
204 226 255
204 226 255
205 226 255
205 226 255
205 226 255
205 226 255
205 226 255
205 226 255
205 226 255
205 227 255
205 227 255
205 227 255
205 227 255
205 227 255
205 227 255
205 227 255
205 227 255
205 227 255
205 227 255
206 227 255
206 227 255
206 227 255
206 227 255
206 227 255
206 227 255
206 227 255
206 227 255
206 227 255
206 227 255
206 227 255
206 227 255
206 227 255
206 227 255
206 227 255
206 227 255
206 227 255
206 227 255
207 227 255
207 227 255
207 227 255
207 227 255
207 227 255
207 228 255
207 228 255
207 228 255
207 228 255
207 228 255
207 228 255
207 228 255
207 228 255
207 228 255
207 228 255
207 228 255
207 228 255
207 228 255
207 228 255
208 228 255
207 228 255
207 228 255
207 228 255
207 228 255
207 228 255
207 228 255
207 228 255
207 228 255
207 228 255
207 228 255
207 228 255
207 228 255
207 228 255
207 228 255
207 228 255
207 227 255
207 227 255
207 227 255
207 227 255
207 227 255
206 227 255
206 227 255
206 227 255
206 227 255
206 227 255
206 227 255
206 227 255
206 227 255
206 227 255
206 227 255
206 227 255
206 227 255
206 227 255
206 227 255
206 227 255
206 227 255
206 227 255
206 227 255
206 227 255
205 227 255
205 227 255
205 227 255
205 227 255
205 227 255
205 227 255
205 227 255
205 227 255
205 227 255
205 227 255
205 226 255
205 226 255
205 226 255
205 226 255
205 226 255
205 226 255
205 226 255
204 226 255
204 226 255
204 226 255
204 226 255
204 226 255
204 226 255
204 226 255
204 226 255
204 226 255
204 226 255
204 226 255
204 226 255
204 226 255
204 226 255
204 226 255
204 226 255
203 226 255
203 226 255
203 226 255
203 226 255
203 226 255
203 226 255
203 226 255
203 225 255
203 225 255
203 225 255
203 225 255
203 225 255
203 225 255
203 225 255
203 225 255
202 225 255
202 225 255
202 225 255
202 225 255
202 225 255
202 225 255
202 225 255
202 225 255
202 225 255
202 225 255
202 225 255
202 225 255
202 225 255
202 225 255
202 225 255
201 225 255
201 225 255
201 225 255
201 225 255
201 224 255
201 224 255
201 224 255
201 224 255
201 224 255
201 224 255
201 224 255
201 224 255
201 224 255
201 224 255
201 224 255
200 224 255
200 224 255
200 224 255
200 224 255
200 224 255
200 224 255
200 224 255
200 224 255
200 224 255
200 224 255
200 224 255
200 224 255
200 224 255
200 224 255
200 224 255
200 224 255
199 224 255
199 224 255
199 223 255
199 223 255
199 223 255
199 223 255
199 223 255
199 223 255
199 223 255
199 223 255
199 223 255
199 223 255
199 223 255
199 223 255
199 223 255
199 223 255
199 223 255
198 223 255
198 223 255
198 223 255
198 223 255
198 223 255
198 223 255
198 223 255
198 223 255
198 223 255
198 223 255
198 223 255
198 223 255
198 223 255
198 223 255
198 223 255
198 223 255
198 223 255
198 223 255
198 223 255
198 223 255
198 223 255
198 223 255
198 223 255
198 223 255
197 223 255
197 222 255
197 222 255
197 222 255
197 222 255
197 222 255
197 222 255
197 222 255
197 222 255
197 222 255
197 222 255
197 222 255
197 222 255
197 222 255
197 222 255
197 222 255
197 222 255
197 222 255
197 222 255
197 222 255
197 222 255
197 222 255
197 222 255
197 222 255
197 222 255
197 222 255
197 222 255
197 222 255
197 222 255
197 222 255
197 222 255
197 222 255
197 222 255
197 222 255
197 222 255
197 222 255
197 222 255
197 222 255
197 222 255
197 222 255
197 222 255
197 222 255
197 222 255
197 222 255
197 222 255
197 222 255
197 222 255
197 222 255
197 222 255
198 223 255
198 223 255
198 223 255
198 223 255
198 223 255
198 223 255
198 223 255
198 223 255
198 223 255
198 223 255
198 223 255
198 223 255
198 223 255
198 223 255
198 223 255
198 223 255
198 223 255
198 223 255
198 223 255
198 223 255
198 223 255
198 223 255
198 223 255
198 223 255
198 223 255
199 223 255
199 223 255
199 223 255
199 223 255
199 223 255
199 223 255
199 223 255
199 223 255
199 223 255
199 223 255
199 223 255
199 223 255
199 223 255
199 223 255
199 223 255
199 224 255
199 224 255
200 224 255
200 224 255
200 224 255
200 224 255
200 224 255
200 224 255
200 224 255
200 224 255
200 224 255
200 224 255
200 224 255
200 224 255
200 224 255
200 224 255
200 224 255
200 224 255
201 224 255
201 224 255
201 224 255
201 224 255
201 224 255
201 224 255
201 224 255
201 224 255
201 224 255
201 224 255
201 224 255
201 225 255
201 225 255
201 225 255
201 225 255
202 225 255
202 225 255
202 225 255
202 225 255
202 225 255
202 225 255
202 225 255
202 225 255
202 225 255
202 225 255
202 225 255
202 225 255
202 225 255
202 225 255
202 225 255
203 225 255
203 225 255
203 225 255
203 225 255
203 225 255
203 225 255
203 225 255
203 225 255
203 225 255
203 226 255
203 226 255
203 226 255
203 226 255
203 226 255
203 226 255
204 226 255
204 226 255
204 226 255
204 226 255
204 226 255
204 226 255
204 226 255
204 226 255
204 226 255
204 226 255
204 226 255
204 226 255
204 226 255
204 226 255
204 226 255
204 226 255
205 226 255
205 226 255
205 226 255
205 226 255
205 226 255
205 226 255
205 226 255
205 227 255
205 227 255
205 227 255
205 227 255
205 227 255
205 227 255
205 227 255
205 227 255
205 227 255
205 227 255
206 227 255
206 227 255
206 227 255
206 227 255
206 227 255
206 227 255
206 227 255
206 227 255
206 227 255
206 227 255
206 227 255
206 227 255
206 227 255
206 227 255
206 227 255
206 227 255
206 227 255
206 227 255
206 227 255
207 227 255
207 227 255
207 227 255
207 227 255
207 228 255
207 228 255
207 228 255
207 228 255
207 228 255
207 228 255
207 228 255
207 228 255
207 228 255
207 228 255
207 228 255
207 228 255
207 228 255
207 228 255
207 228 255
207 228 255
208 228 255
208 228 255
208 228 255
208 228 255
208 228 255
207 228 255
207 228 255
207 228 255
207 228 255
207 228 255
207 228 255
207 228 255
207 228 255
207 228 255
207 228 255
207 228 255
207 228 255
207 228 255
207 228 255
207 228 255
207 227 255
207 227 255
207 227 255
207 227 255
207 227 255
206 227 255
206 227 255
206 227 255
206 227 255
206 227 255
206 227 255
206 227 255
206 227 255
206 227 255
206 227 255
206 227 255
206 227 255
206 227 255
206 227 255
206 227 255
206 227 255
206 227 255
206 227 255
205 227 255
205 227 255
205 227 255
205 227 255
205 227 255
205 227 255
205 227 255
205 227 255
205 227 255
205 227 255
205 227 255
205 226 255
205 226 255
205 226 255
205 226 255
205 226 255
205 226 255
204 226 255
204 226 255
204 226 255
204 226 255
204 226 255
204 226 255
204 226 255
204 226 255
204 226 255
204 226 255
204 226 255
204 226 255
204 226 255
204 226 255
204 226 255
204 226 255
203 226 255
203 226 255
203 226 255
203 226 255
203 226 255
203 226 255
203 226 255
203 225 255
203 225 255
203 225 255
203 225 255
203 225 255
203 225 255
203 225 255
203 225 255
203 225 255
202 225 255
202 225 255
202 225 255
202 225 255
202 225 255
202 225 255
202 225 255
202 225 255
202 225 255
202 225 255
202 225 255
202 225 255
202 225 255
202 225 255
201 225 255
201 225 255
201 225 255
201 225 255
201 225 255
201 224 255
201 224 255
201 224 255
201 224 255
201 224 255
201 224 255
201 224 255
201 224 255
201 224 255
201 224 255
201 224 255
200 224 255
200 224 255
200 224 255
200 224 255
200 224 255
200 224 255
200 224 255
200 224 255
200 224 255
200 224 255
200 224 255
200 224 255
200 224 255
200 224 255
200 224 255
199 224 255
199 224 255
199 224 255
199 223 255
199 223 255
199 223 255
199 223 255
199 223 255
199 223 255
199 223 255
199 223 255
199 223 255
199 223 255
199 223 255
199 223 255
199 223 255
199 223 255
199 223 255
199 223 255
198 223 255
198 223 255
198 223 255
198 223 255
198 223 255
198 223 255
198 223 255
198 223 255
198 223 255
198 223 255
198 223 255
198 223 255
198 223 255
198 223 255
198 223 255
198 223 255
198 223 255
198 223 255
198 223 255
198 223 255
198 223 255
198 223 255
198 223 255
198 223 255
198 223 255
198 223 255
198 223 255
197 223 255
197 223 255
197 222 255
197 222 255
197 222 255
197 222 255
197 222 255
197 222 255
197 222 255
197 222 255
197 222 255
197 222 255
197 222 255
197 222 255
197 222 255
197 222 255
197 222 255
197 222 255
197 222 255
197 222 255
197 222 255
197 222 255
197 222 255
197 222 255
197 222 255
197 222 255
197 222 255
197 222 255
197 222 255
197 222 255
197 222 255
197 222 255
197 222 255
197 222 255
197 223 255
197 223 255
198 223 255
198 223 255
198 223 255
198 223 255
198 223 255
198 223 255
198 223 255
198 223 255
198 223 255
198 223 255
198 223 255
198 223 255
198 223 255
198 223 255
198 223 255
198 223 255
198 223 255
198 223 255
198 223 255
198 223 255
198 223 255
198 223 255
198 223 255
198 223 255
198 223 255
198 223 255
198 223 255
199 223 255
199 223 255
199 223 255
199 223 255
199 223 255
199 223 255
199 223 255
199 223 255
199 223 255
199 223 255
199 223 255
199 223 255
199 223 255
199 223 255
199 223 255
199 223 255
199 224 255
199 224 255
199 224 255
200 224 255
200 224 255
200 224 255
200 224 255
200 224 255
200 224 255
200 224 255
200 224 255
200 224 255
200 224 255
200 224 255
200 224 255
200 224 255
200 224 255
200 224 255
201 224 255
201 224 255
201 224 255
201 224 255
201 224 255
201 224 255
201 224 255
201 224 255
201 224 255
201 224 255
201 224 255
201 225 255
201 225 255
201 225 255
201 225 255
201 225 255
202 225 255
202 225 255
202 225 255
202 225 255
202 225 255
202 225 255
202 225 255
202 225 255
202 225 255
202 225 255
202 225 255
202 225 255
202 225 255
202 225 255
202 225 255
203 225 255
203 225 255
203 225 255
203 225 255
203 225 255
203 225 255
203 225 255
203 225 255
203 226 255
203 226 255
203 226 255
203 226 255
203 226 255
203 226 255
203 226 255
204 226 255
204 226 255
204 226 255
204 226 255
204 226 255
204 226 255
204 226 255
204 226 255
204 226 255
204 226 255
204 226 255
204 226 255
204 226 255
204 226 255
204 226 255
204 226 255
205 226 255
205 226 255
205 226 255
205 226 255
205 226 255
205 226 255
205 227 255
205 227 255
205 227 255
205 227 255
205 227 255
205 227 255
205 227 255
205 227 255
205 227 255
205 227 255
205 227 255
206 227 255
206 227 255
206 227 255
206 227 255
206 227 255
206 227 255
206 227 255
206 227 255
206 227 255
206 227 255
206 227 255
206 227 255
206 227 255
206 227 255
206 227 255
206 227 255
206 227 255
206 227 255
207 227 255
207 227 255
207 227 255
207 227 255
207 227 255
207 228 255
207 228 255
207 228 255
207 228 255
207 228 255
207 228 255
207 228 255
207 228 255
207 228 255
207 228 255
207 228 255
207 228 255
207 228 255
207 228 255
207 228 255
208 228 255
208 228 255
208 228 255
208 228 255
208 228 255
208 228 255
208 228 255
208 228 255
208 228 255
208 228 255
208 228 255
207 228 255
207 228 255
207 228 255
207 228 255
207 228 255
207 228 255
207 228 255
207 228 255
207 228 255
207 228 255
207 228 255
207 228 255
207 228 255
207 228 255
207 228 255
207 227 255
207 227 255
207 227 255
207 227 255
207 227 255
206 227 255
206 227 255
206 227 255
206 227 255
206 227 255
206 227 255
206 227 255
206 227 255
206 227 255
206 227 255
206 227 255
206 227 255
206 227 255
206 227 255
206 227 255
206 227 255
206 227 255
206 227 255
205 227 255
205 227 255
205 227 255
205 227 255
205 227 255
205 227 255
205 227 255
205 227 255
205 227 255
205 227 255
205 226 255
205 226 255
205 226 255
205 226 255
205 226 255
205 226 255
205 226 255
204 226 255
204 226 255
204 226 255
204 226 255
204 226 255
204 226 255
204 226 255
204 226 255
204 226 255
204 226 255
204 226 255
204 226 255
204 226 255
204 226 255
204 226 255
204 226 255
203 226 255
203 226 255
203 226 255
203 226 255
203 226 255
203 226 255
203 226 255
203 225 255
203 225 255
203 225 255
203 225 255
203 225 255
203 225 255
203 225 255
203 225 255
202 225 255
202 225 255
202 225 255
202 225 255
202 225 255
202 225 255
202 225 255
202 225 255
202 225 255
202 225 255
202 225 255
202 225 255
202 225 255
202 225 255
202 225 255
201 225 255
201 225 255
201 225 255
201 225 255
201 225 255
201 224 255
201 224 255
201 224 255
201 224 255
201 224 255
201 224 255
201 224 255
201 224 255
201 224 255
201 224 255
200 224 255
200 224 255
200 224 255
200 224 255
200 224 255
200 224 255
200 224 255
200 224 255
200 224 255
200 224 255
200 224 255
200 224 255
200 224 255
200 224 255
200 224 255
200 224 255
200 224 255
199 224 255
199 224 255
199 223 255
199 223 255
199 223 255
199 223 255
199 223 255
199 223 255
199 223 255
199 223 255
199 223 255
199 223 255
199 223 255
199 223 255
199 223 255
199 223 255
199 223 255
199 223 255
199 223 255
198 223 255
198 223 255
198 223 255
198 223 255
198 223 255
198 223 255
198 223 255
198 223 255
198 223 255
198 223 255
198 223 255
198 223 255
198 223 255
198 223 255
198 223 255
198 223 255
198 223 255
198 223 255
198 223 255
198 223 255
198 223 255
198 223 255
198 223 255
198 223 255
198 223 255
198 223 255
198 223 255
198 223 255
198 223 255
198 223 255
198 223 255
198 223 255
198 223 255
198 223 255
198 223 255
198 223 255
197 223 255
198 223 255
198 223 255
197 223 255
197 223 255
198 223 255
197 223 255
198 223 255
198 223 255
198 223 255
197 223 255
198 223 255
198 223 255
198 223 255
198 223 255
198 223 255
198 223 255
198 223 255
198 223 255
198 223 255
198 223 255
198 223 255
198 223 255
198 223 255
198 223 255
198 223 255
198 223 255
198 223 255
198 223 255
198 223 255
198 223 255
198 223 255
198 223 255
198 223 255
198 223 255
198 223 255
198 223 255
198 223 255
198 223 255
198 223 255
198 223 255
198 223 255
198 223 255
198 223 255
198 223 255
198 223 255
199 223 255
199 223 255
199 223 255
199 223 255
199 223 255
199 223 255
199 223 255
199 223 255
199 223 255
199 223 255
199 223 255
199 223 255
199 223 255
199 223 255
199 223 255
199 223 255
199 223 255
199 224 255
199 224 255
200 224 255
200 224 255
200 224 255
200 224 255
200 224 255
200 224 255
200 224 255
200 224 255
200 224 255
200 224 255
200 224 255
200 224 255
200 224 255
200 224 255
200 224 255
200 224 255
200 224 255
201 224 255
201 224 255
201 224 255
201 224 255
201 224 255
201 224 255
201 224 255
201 224 255
201 224 255
201 224 255
201 225 255
201 225 255
201 225 255
201 225 255
201 225 255
202 225 255
202 225 255
202 225 255
202 225 255
202 225 255
202 225 255
202 225 255
202 225 255
202 225 255
202 225 255
202 225 255
202 225 255
202 225 255
202 225 255
202 225 255
203 225 255
203 225 255
203 225 255
203 225 255
203 225 255
203 225 255
203 225 255
203 225 255
203 226 255
203 226 255
203 226 255
203 226 255
203 226 255
203 226 255
203 226 255
204 226 255
204 226 255
204 226 255
204 226 255
204 226 255
204 226 255
204 226 255
204 226 255
204 226 255
204 226 255
204 226 255
204 226 255
204 226 255
204 226 255
204 226 255
204 226 255
205 226 255
205 226 255
205 226 255
205 226 255
205 226 255
205 226 255
205 226 255
205 227 255
205 227 255
205 227 255
205 227 255
205 227 255
205 227 255
205 227 255
205 227 255
205 227 255
205 227 255
206 227 255
206 227 255
206 227 255
206 227 255
206 227 255
206 227 255
206 227 255
206 227 255
206 227 255
206 227 255
206 227 255
206 227 255
206 227 255
206 227 255
206 227 255
206 227 255
206 227 255
206 227 255
207 227 255
207 227 255
207 227 255
207 227 255
207 227 255
207 228 255
207 228 255
207 228 255
207 228 255
207 228 255
207 228 255
207 228 255
207 228 255
207 228 255
207 228 255
207 228 255
207 228 255
207 228 255
207 228 255
207 228 255
208 228 255
208 228 255
208 228 255
208 228 255
208 228 255
208 228 255
208 228 255
208 228 255
208 228 255
208 228 255
208 228 255
208 228 255
208 228 255
208 228 255
208 228 255
208 228 255
208 228 255
207 228 255
207 228 255
207 228 255
207 228 255
207 228 255
207 228 255
207 228 255
207 228 255
207 228 255
207 228 255
207 228 255
207 228 255
207 228 255
207 228 255
207 228 255
207 227 255
207 227 255
207 227 255
207 227 255
207 227 255
206 227 255
206 227 255
206 227 255
206 227 255
206 227 255
206 227 255
206 227 255
206 227 255
206 227 255
206 227 255
206 227 255
206 227 255
206 227 255
206 227 255
206 227 255
206 227 255
206 227 255
206 227 255
205 227 255
205 227 255
205 227 255
205 227 255
205 227 255
205 227 255
205 227 255
205 227 255
205 227 255
205 227 255
205 226 255
205 226 255
205 226 255
205 226 255
205 226 255
205 226 255
205 226 255
204 226 255
204 226 255
204 226 255
204 226 255
204 226 255
204 226 255
204 226 255
204 226 255
204 226 255
204 226 255
204 226 255
204 226 255
204 226 255
204 226 255
204 226 255
203 226 255
203 226 255
203 226 255
203 226 255
203 226 255
203 226 255
203 226 255
203 225 255
203 225 255
203 225 255
203 225 255
203 225 255
203 225 255
203 225 255
203 225 255
203 225 255
202 225 255
202 225 255
202 225 255
202 225 255
202 225 255
202 225 255
202 225 255
202 225 255
202 225 255
202 225 255
202 225 255
202 225 255
202 225 255
202 225 255
202 225 255
201 225 255
201 225 255
201 225 255
201 225 255
201 224 255
201 224 255
201 224 255
201 224 255
201 224 255
201 224 255
201 224 255
201 224 255
201 224 255
201 224 255
201 224 255
200 224 255
200 224 255
200 224 255
200 224 255
200 224 255
200 224 255
200 224 255
200 224 255
200 224 255
200 224 255
200 224 255
200 224 255
200 224 255
200 224 255
200 224 255
200 224 255
200 224 255
199 224 255
199 224 255
199 224 255
199 223 255
199 223 255
199 223 255
199 223 255
199 223 255
199 223 255
199 223 255
199 223 255
199 223 255
199 223 255
199 223 255
199 223 255
199 223 255
199 223 255
199 223 255
199 223 255
199 223 255
198 223 255
198 223 255
198 223 255
198 223 255
198 223 255
198 223 255
198 223 255
198 223 255
198 223 255
198 223 255
198 223 255
198 223 255
198 223 255
198 223 255
198 223 255
198 223 255
198 223 255
198 223 255
198 223 255
198 223 255
198 223 255
198 223 255
198 223 255
198 223 255
198 223 255
198 223 255
198 223 255
198 223 255
198 223 255
198 223 255
198 223 255
198 223 255
198 223 255
198 223 255
198 223 255
198 223 255
198 223 255
198 223 255
198 223 255
198 223 255
198 223 255
198 223 255
198 223 255
198 223 255
198 223 255
198 223 255
198 223 255
198 223 255
198 223 255
198 223 255
198 223 255
198 223 255
198 223 255
198 223 255
198 223 255
198 223 255
198 223 255
198 223 255
198 223 255
198 223 255
198 223 255
198 223 255
198 223 255
198 223 255
198 223 255
198 223 255
198 223 255
198 223 255
198 223 255
198 223 255
198 223 255
198 223 255
198 223 255
198 223 255
199 223 255
199 223 255
199 223 255
199 223 255
199 223 255
199 223 255
199 223 255
199 223 255
199 223 255
199 223 255
199 223 255
199 223 255
199 223 255
199 223 255
199 223 255
199 223 255
199 223 255
199 223 255
199 224 255
199 224 255
200 224 255
200 224 255
200 224 255
200 224 255
200 224 255
200 224 255
200 224 255
200 224 255
200 224 255
200 224 255
200 224 255
200 224 255
200 224 255
200 224 255
200 224 255
200 224 255
200 224 255
201 224 255
201 224 255
201 224 255
201 224 255
201 224 255
201 224 255
201 224 255
201 224 255
201 224 255
201 224 255
201 224 255
201 225 255
201 225 255
201 225 255
201 225 255
202 225 255
202 225 255
202 225 255
202 225 255
202 225 255
202 225 255
202 225 255
202 225 255
202 225 255
202 225 255
202 225 255
202 225 255
202 225 255
202 225 255
202 225 255
203 225 255
203 225 255
203 225 255
203 225 255
203 225 255
203 225 255
203 225 255
203 225 255
203 225 255
203 226 255
203 226 255
203 226 255
203 226 255
203 226 255
203 226 255
203 226 255
204 226 255
204 226 255
204 226 255
204 226 255
204 226 255
204 226 255
204 226 255
204 226 255
204 226 255
204 226 255
204 226 255
204 226 255
204 226 255
204 226 255
204 226 255
205 226 255
205 226 255
205 226 255
205 226 255
205 226 255
205 226 255
205 226 255
205 227 255
205 227 255
205 227 255
205 227 255
205 227 255
205 227 255
205 227 255
205 227 255
205 227 255
205 227 255
206 227 255
206 227 255
206 227 255
206 227 255
206 227 255
206 227 255
206 227 255
206 227 255
206 227 255
206 227 255
206 227 255
206 227 255
206 227 255
206 227 255
206 227 255
206 227 255
206 227 255
206 227 255
207 227 255
207 227 255
207 227 255
207 227 255
207 227 255
207 228 255
207 228 255
207 228 255
207 228 255
207 228 255
207 228 255
207 228 255
207 228 255
207 228 255
207 228 255
207 228 255
207 228 255
207 228 255
207 228 255
207 228 255
208 228 255
208 228 255
208 228 255
208 228 255
208 228 255
208 228 255
208 228 255
208 228 255
208 228 255
208 228 255
208 228 255
208 228 255
208 228 255
208 228 255
208 228 255
208 228 255
208 228 255
208 228 255
208 228 255
208 228 255
208 228 255
208 228 255
208 228 255
207 228 255
207 228 255
207 228 255
207 228 255
207 228 255
207 228 255
207 228 255
207 228 255
207 228 255
207 228 255
207 228 255
207 228 255
207 228 255
207 228 255
207 228 255
207 227 255
207 227 255
207 227 255
207 227 255
207 227 255
206 227 255
206 227 255
206 227 255
206 227 255
206 227 255
206 227 255
206 227 255
206 227 255
206 227 255
206 227 255
206 227 255
206 227 255
206 227 255
206 227 255
206 227 255
206 227 255
206 227 255
206 227 255
205 227 255
205 227 255
205 227 255
205 227 255
205 227 255
205 227 255
205 227 255
205 227 255
205 227 255
205 227 255
205 226 255
205 226 255
205 226 255
205 226 255
205 226 255
205 226 255
204 226 255
204 226 255
204 226 255
204 226 255
204 226 255
204 226 255
204 226 255
204 226 255
204 226 255
204 226 255
204 226 255
204 226 255
204 226 255
204 226 255
204 226 255
204 226 255
203 226 255
203 226 255
203 226 255
203 226 255
203 226 255
203 226 255
203 226 255
203 225 255
203 225 255
203 225 255
203 225 255
203 225 255
203 225 255
203 225 255
203 225 255
203 225 255
202 225 255
202 225 255
202 225 255
202 225 255
202 225 255
202 225 255
202 225 255
202 225 255
202 225 255
202 225 255
202 225 255
202 225 255
202 225 255
202 225 255
202 225 255
201 225 255
201 225 255
201 225 255
201 225 255
201 224 255
201 224 255
201 224 255
201 224 255
201 224 255
201 224 255
201 224 255
201 224 255
201 224 255
201 224 255
201 224 255
200 224 255
200 224 255
200 224 255
200 224 255
200 224 255
200 224 255
200 224 255
200 224 255
200 224 255
200 224 255
200 224 255
200 224 255
200 224 255
200 224 255
200 224 255
200 224 255
200 224 255
199 224 255
199 224 255
199 224 255
199 223 255
199 223 255
199 223 255
199 223 255
199 223 255
199 223 255
199 223 255
199 223 255
199 223 255
199 223 255
199 223 255
199 223 255
199 223 255
199 223 255
199 223 255
199 223 255
199 223 255
199 223 255
199 223 255
198 223 255
198 223 255
198 223 255
198 223 255
198 223 255
198 223 255
198 223 255
198 223 255
198 223 255
198 223 255
198 223 255
198 223 255
198 223 255
198 223 255
198 223 255
198 223 255
198 223 255
198 223 255
198 223 255
198 223 255
198 223 255
198 223 255
198 223 255
198 223 255
198 223 255
198 223 255
198 223 255
198 223 255
198 223 255
198 223 255
198 223 255
198 223 255
198 223 255
198 223 255
198 223 255
198 223 255
198 223 255
198 223 255
198 223 255
198 223 255
198 223 255
198 223 255
198 223 255
198 223 255
198 223 255
198 223 255
198 223 255
198 223 255
198 223 255
198 223 255
198 223 255
198 223 255
198 223 255
198 223 255
198 223 255
198 223 255
198 223 255
198 223 255
198 223 255
198 223 255
198 223 255
198 223 255
198 223 255
198 223 255
199 223 255
199 223 255
199 223 255
199 223 255
199 223 255
199 223 255
199 223 255
199 223 255
199 223 255
199 223 255
199 223 255
199 223 255
199 223 255
199 223 255
199 223 255
199 223 255
199 223 255
199 223 255
199 223 255
199 224 255
199 224 255
199 224 255
200 224 255
200 224 255
200 224 255
200 224 255
200 224 255
200 224 255
200 224 255
200 224 255
200 224 255
200 224 255
200 224 255
200 224 255
200 224 255
200 224 255
200 224 255
200 224 255
200 224 255
201 224 255
201 224 255
201 224 255
201 224 255
201 224 255
201 224 255
201 224 255
201 224 255
201 224 255
201 224 255
201 224 255
201 225 255
201 225 255
201 225 255
201 225 255
202 225 255
202 225 255
202 225 255
202 225 255
202 225 255
202 225 255
202 225 255
202 225 255
202 225 255
202 225 255
202 225 255
202 225 255
202 225 255
202 225 255
202 225 255
202 225 255
203 225 255
203 225 255
203 225 255
203 225 255
203 225 255
203 225 255
203 225 255
203 225 255
203 226 255
203 226 255
203 226 255
203 226 255
203 226 255
203 226 255
203 226 255
204 226 255
204 226 255
204 226 255
204 226 255
204 226 255
204 226 255
204 226 255
204 226 255
204 226 255
204 226 255
204 226 255
204 226 255
204 226 255
204 226 255
204 226 255
204 226 255
205 226 255
205 226 255
205 226 255
205 226 255
205 226 255
205 226 255
205 227 255
205 227 255
205 227 255
205 227 255
205 227 255
205 227 255
205 227 255
205 227 255
205 227 255
205 227 255
206 227 255
206 227 255
206 227 255
206 227 255
206 227 255
206 227 255
206 227 255
206 227 255
206 227 255
206 227 255
206 227 255
206 227 255
206 227 255
206 227 255
206 227 255
206 227 255
206 227 255
206 227 255
207 227 255
207 227 255
207 227 255
207 227 255
207 227 255
207 228 255
207 228 255
207 228 255
207 228 255
207 228 255
207 228 255
207 228 255
207 228 255
207 228 255
207 228 255
207 228 255
207 228 255
207 228 255
207 228 255
207 228 255
208 228 255
208 228 255
208 228 255
208 228 255
208 228 255
208 228 255
208 228 255
208 228 255
208 228 255
208 228 255
208 228 255
208 228 255
208 228 255
208 228 255
208 228 255
208 228 255
208 228 255
208 228 255
208 228 255
208 228 255
208 228 255
208 228 255
208 228 255
208 228 255
208 228 255
208 228 255
208 228 255
208 228 255
208 228 255
207 228 255
207 228 255
207 228 255
207 228 255
207 228 255
207 228 255
207 228 255
207 228 255
207 228 255
207 228 255
207 228 255
207 228 255
207 228 255
207 228 255
207 228 255
207 227 255
207 227 255
207 227 255
207 227 255
206 227 255
206 227 255
206 227 255
206 227 255
206 227 255
206 227 255
206 227 255
206 227 255
206 227 255
206 227 255
206 227 255
206 227 255
206 227 255
206 227 255
206 227 255
206 227 255
206 227 255
206 227 255
206 227 255
205 227 255
205 227 255
205 227 255
205 227 255
205 227 255
205 227 255
205 227 255
205 227 255
205 227 255
205 227 255
205 226 255
205 226 255
205 226 255
205 226 255
205 226 255
205 226 255
204 226 255
204 226 255
204 226 255
204 226 255
204 226 255
204 226 255
204 226 255
204 226 255
204 226 255
204 226 255
204 226 255
204 226 255
204 226 255
204 226 255
204 226 255
204 226 255
203 226 255
203 226 255
203 226 255
203 226 255
203 226 255
203 226 255
203 226 255
203 225 255
203 225 255
203 225 255
203 225 255
203 225 255
203 225 255
203 225 255
203 225 255
202 225 255
202 225 255
202 225 255
202 225 255
202 225 255
202 225 255
202 225 255
202 225 255
202 225 255
202 225 255
202 225 255
202 225 255
202 225 255
202 225 255
202 225 255
201 225 255
201 225 255
201 225 255
201 225 255
201 225 255
201 224 255
201 224 255
201 224 255
201 224 255
201 224 255
201 224 255
201 224 255
201 224 255
201 224 255
201 224 255
201 224 255
200 224 255
200 224 255
200 224 255
200 224 255
200 224 255
200 224 255
200 224 255
200 224 255
200 224 255
200 224 255
200 224 255
200 224 255
200 224 255
200 224 255
200 224 255
200 224 255
200 224 255
200 224 255
199 224 255
199 224 255
199 224 255
199 223 255
199 223 255
199 223 255
199 223 255
199 223 255
199 223 255
199 223 255
199 223 255
199 223 255
199 223 255
199 223 255
199 223 255
199 223 255
199 223 255
199 223 255
199 223 255
199 223 255
199 223 255
199 223 255
199 223 255
198 223 255
198 223 255
198 223 255
198 223 255
198 223 255
198 223 255
198 223 255
198 223 255
198 223 255
198 223 255
198 223 255
198 223 255
198 223 255
198 223 255
198 223 255
198 223 255
198 223 255
198 223 255
198 223 255
198 223 255
198 223 255
198 223 255
198 223 255
198 223 255
198 223 255
198 223 255
198 223 255
198 223 255
198 223 255
198 223 255
198 223 255
198 223 255
198 223 255
198 223 255
198 223 255
198 223 255
198 223 255
198 223 255
198 223 255
198 223 255
198 223 255
198 223 255
198 223 255
198 223 255
198 223 255
198 223 255
198 223 255
198 223 255
198 223 255
198 223 255
198 223 255
198 223 255
198 223 255
198 223 255
199 223 255
199 223 255
199 223 255
199 223 255
199 223 255
199 223 255
199 223 255
199 223 255
199 223 255
199 223 255
199 223 255
199 223 255
199 223 255
199 223 255
199 223 255
199 223 255
199 223 255
199 223 255
199 223 255
199 223 255
199 224 255
199 224 255
199 224 255
200 224 255
200 224 255
200 224 255
200 224 255
200 224 255
200 224 255
200 224 255
200 224 255
200 224 255
200 224 255
200 224 255
200 224 255
200 224 255
200 224 255
200 224 255
200 224 255
200 224 255
200 224 255
201 224 255
201 224 255
201 224 255
201 224 255
201 224 255
201 224 255
201 224 255
201 224 255
201 224 255
201 224 255
201 224 255
201 225 255
201 225 255
201 225 255
201 225 255
201 225 255
202 225 255
202 225 255
202 225 255
202 225 255
202 225 255
202 225 255
202 225 255
202 225 255
202 225 255
202 225 255
202 225 255
202 225 255
202 225 255
202 225 255
202 225 255
203 225 255
203 225 255
203 225 255
203 225 255
203 225 255
203 225 255
203 225 255
203 225 255
203 226 255
203 226 255
203 226 255
203 226 255
203 226 255
203 226 255
203 226 255
204 226 255
204 226 255
204 226 255
204 226 255
204 226 255
204 226 255
204 226 255
204 226 255
204 226 255
204 226 255
204 226 255
204 226 255
204 226 255
204 226 255
204 226 255
204 226 255
205 226 255
205 226 255
205 226 255
205 226 255
205 226 255
205 226 255
205 227 255
205 227 255
205 227 255
205 227 255
205 227 255
205 227 255
205 227 255
205 227 255
205 227 255
205 227 255
205 227 255
206 227 255
206 227 255
206 227 255
206 227 255
206 227 255
206 227 255
206 227 255
206 227 255
206 227 255
206 227 255
206 227 255
206 227 255
206 227 255
206 227 255
206 227 255
206 227 255
206 227 255
207 227 255
207 227 255
207 227 255
207 227 255
207 227 255
207 228 255
207 228 255
207 228 255
207 228 255
207 228 255
207 228 255
207 228 255
207 228 255
207 228 255
207 228 255
207 228 255
207 228 255
207 228 255
207 228 255
207 228 255
208 228 255
208 228 255
208 228 255
208 228 255
208 228 255
208 228 255
208 228 255
208 228 255
208 228 255
208 228 255
208 228 255
208 228 255
208 228 255
208 228 255
208 228 255
208 228 255
208 228 255
208 228 255
208 228 255
208 228 255
208 228 255
208 228 255
208 228 255
208 228 255
208 228 255
208 228 255
208 228 255
208 228 255
208 228 255
208 228 255
208 228 255
208 228 255
208 228 255
208 228 255
208 228 255
207 228 255
207 228 255
207 228 255
207 228 255
207 228 255
207 228 255
207 228 255
207 228 255
207 228 255
207 228 255
207 228 255
207 228 255
207 228 255
207 228 255
207 228 255
207 227 255
207 227 255
207 227 255
207 227 255
207 227 255
206 227 255
206 227 255
206 227 255
206 227 255
206 227 255
206 227 255
206 227 255
206 227 255
206 227 255
206 227 255
206 227 255
206 227 255
206 227 255
206 227 255
206 227 255
206 227 255
206 227 255
205 227 255
205 227 255
205 227 255
205 227 255
205 227 255
205 227 255
205 227 255
205 227 255
205 227 255
205 227 255
205 226 255
205 226 255
205 226 255
205 226 255
205 226 255
205 226 255
205 226 255
204 226 255
204 226 255
204 226 255
204 226 255
204 226 255
204 226 255
204 226 255
204 226 255
204 226 255
204 226 255
204 226 255
204 226 255
204 226 255
204 226 255
204 226 255
204 226 255
203 226 255
203 226 255
203 226 255
203 226 255
203 226 255
203 226 255
203 225 255
203 225 255
203 225 255
203 225 255
203 225 255
203 225 255
203 225 255
203 225 255
203 225 255
202 225 255
202 225 255
202 225 255
202 225 255
202 225 255
202 225 255
202 225 255
202 225 255
202 225 255
202 225 255
202 225 255
202 225 255
202 225 255
202 225 255
202 225 255
201 225 255
201 225 255
201 225 255
201 225 255
201 225 255
201 224 255
201 224 255
201 224 255
201 224 255
201 224 255
201 224 255
201 224 255
201 224 255
201 224 255
201 224 255
201 224 255
200 224 255
200 224 255
200 224 255
200 224 255
200 224 255
200 224 255
200 224 255
200 224 255
200 224 255
200 224 255
200 224 255
200 224 255
200 224 255
200 224 255
200 224 255
200 224 255
200 224 255
200 224 255
199 224 255
199 224 255
199 224 255
199 223 255
199 223 255
199 223 255
199 223 255
199 223 255
199 223 255
199 223 255
199 223 255
199 223 255
199 223 255
199 223 255
199 223 255
199 223 255
199 223 255
199 223 255
199 223 255
199 223 255
199 223 255
199 223 255
199 223 255
199 223 255
199 223 255
199 223 255
199 223 255
198 223 255
198 223 255
198 223 255
198 223 255
198 223 255
198 223 255
198 223 255
198 223 255
198 223 255
198 223 255
198 223 255
198 223 255
198 223 255
198 223 255
198 223 255
198 223 255
198 223 255
198 223 255
198 223 255
198 223 255
198 223 255
198 223 255
198 223 255
198 223 255
198 223 255
198 223 255
198 223 255
198 223 255
198 223 255
198 223 255
198 223 255
198 223 255
198 223 255
198 223 255
198 223 255
198 223 255
198 223 255
198 223 255
198 223 255
198 223 255
199 223 255
199 223 255
199 223 255
199 223 255
199 223 255
199 223 255
199 223 255
199 223 255
199 223 255
199 223 255
199 223 255
199 223 255
199 223 255
199 223 255
199 223 255
199 223 255
199 223 255
199 223 255
199 223 255
199 223 255
199 223 255
199 223 255
199 223 255
199 224 255
199 224 255
199 224 255
199 224 255
200 224 255
200 224 255
200 224 255
200 224 255
200 224 255
200 224 255
200 224 255
200 224 255
200 224 255
200 224 255
200 224 255
200 224 255
200 224 255
200 224 255
200 224 255
200 224 255
200 224 255
200 224 255
201 224 255
201 224 255
201 224 255
201 224 255
201 224 255
201 224 255
201 224 255
201 224 255
201 224 255
201 224 255
201 224 255
201 225 255
201 225 255
201 225 255
201 225 255
201 225 255
202 225 255
202 225 255
202 225 255
202 225 255
202 225 255
202 225 255
202 225 255
202 225 255
202 225 255
202 225 255
202 225 255
202 225 255
202 225 255
202 225 255
202 225 255
203 225 255
203 225 255
203 225 255
203 225 255
203 225 255
203 225 255
203 225 255
203 225 255
203 225 255
203 226 255
203 226 255
203 226 255
203 226 255
203 226 255
203 226 255
204 226 255
204 226 255
204 226 255
204 226 255
204 226 255
204 226 255
204 226 255
204 226 255
204 226 255
204 226 255
204 226 255
204 226 255
204 226 255
204 226 255
204 226 255
204 226 255
205 226 255
205 226 255
205 226 255
205 226 255
205 226 255
205 226 255
205 226 255
205 227 255
205 227 255
205 227 255
205 227 255
205 227 255
205 227 255
205 227 255
205 227 255
205 227 255
205 227 255
206 227 255
206 227 255
206 227 255
206 227 255
206 227 255
206 227 255
206 227 255
206 227 255
206 227 255
206 227 255
206 227 255
206 227 255
206 227 255
206 227 255
206 227 255
206 227 255
206 227 255
206 227 255
207 227 255
207 227 255
207 227 255
207 227 255
207 228 255
207 228 255
207 228 255
207 228 255
207 228 255
207 228 255
207 228 255
207 228 255
207 228 255
207 228 255
207 228 255
207 228 255
207 228 255
207 228 255
207 228 255
208 228 255
208 228 255
208 228 255
208 228 255
208 228 255
208 228 255
208 228 255
208 228 255
208 228 255
208 228 255
208 228 255
208 228 255
208 228 255
208 228 255
208 228 255
208 228 255
208 228 255
208 228 255
208 228 255
209 228 255
208 228 255
208 228 255
208 228 255
208 228 255
208 228 255
208 228 255
208 228 255
208 228 255
208 228 255
208 228 255
208 228 255
208 228 255
208 228 255
208 228 255
208 228 255
208 228 255
208 228 255
208 228 255
208 228 255
208 228 255
208 228 255
207 228 255
207 228 255
207 228 255
207 228 255
207 228 255
207 228 255
207 228 255
207 228 255
207 228 255
207 228 255
207 228 255
207 228 255
207 228 255
207 228 255
207 228 255
207 227 255
207 227 255
207 227 255
207 227 255
206 227 255
206 227 255
206 227 255
206 227 255
206 227 255
206 227 255
206 227 255
206 227 255
206 227 255
206 227 255
206 227 255
206 227 255
206 227 255
206 227 255
206 227 255
206 227 255
206 227 255
206 227 255
205 227 255
205 227 255
205 227 255
205 227 255
205 227 255
205 227 255
205 227 255
205 227 255
205 227 255
205 227 255
205 226 255
205 226 255
205 226 255
205 226 255
205 226 255
205 226 255
205 226 255
204 226 255
204 226 255
204 226 255
204 226 255
204 226 255
204 226 255
204 226 255
204 226 255
204 226 255
204 226 255
204 226 255
204 226 255
204 226 255
204 226 255
204 226 255
203 226 255
203 226 255
203 226 255
203 226 255
203 226 255
203 226 255
203 226 255
203 225 255
203 225 255
203 225 255
203 225 255
203 225 255
203 225 255
203 225 255
203 225 255
203 225 255
202 225 255
202 225 255
202 225 255
202 225 255
202 225 255
202 225 255
202 225 255
202 225 255
202 225 255
202 225 255
202 225 255
202 225 255
202 225 255
202 225 255
202 225 255
201 225 255
201 225 255
201 225 255
201 225 255
201 225 255
201 224 255
201 224 255
201 224 255
201 224 255
201 224 255
201 224 255
201 224 255
201 224 255
201 224 255
201 224 255
201 224 255
200 224 255
200 224 255
200 224 255
200 224 255
200 224 255
200 224 255
200 224 255
200 224 255
200 224 255
200 224 255
200 224 255
200 224 255
200 224 255
200 224 255
200 224 255
200 224 255
200 224 255
200 224 255
200 224 255
199 224 255
199 224 255
199 224 255
199 224 255
199 223 255
199 223 255
199 223 255
199 223 255
199 223 255
199 223 255
199 223 255
199 223 255
199 223 255
199 223 255
199 223 255
199 223 255
199 223 255
199 223 255
199 223 255
199 223 255
199 223 255
199 223 255
199 223 255
199 223 255
199 223 255
199 223 255
199 223 255
199 223 255
199 223 255
199 223 255
199 223 255
199 223 255
199 223 255
198 223 255
198 223 255
198 223 255
198 223 255
198 223 255
198 223 255
198 223 255
198 223 255
198 223 255
198 223 255
198 223 255
198 223 255
198 223 255
198 223 255
198 223 255
198 223 255
198 223 255
198 223 255
198 223 255
198 223 255
199 223 255
199 223 255
199 223 255
199 223 255
199 223 255
199 223 255
199 223 255
199 223 255
199 223 255
199 223 255
199 223 255
199 223 255
199 223 255
199 223 255
199 223 255
199 223 255
199 223 255
199 223 255
199 223 255
199 223 255
199 223 255
199 223 255
199 223 255
199 223 255
199 223 255
199 223 255
199 223 255
199 223 255
199 223 255
199 224 255
199 224 255
199 224 255
200 224 255
200 224 255
200 224 255
200 224 255
200 224 255
200 224 255
200 224 255
200 224 255
200 224 255
200 224 255
200 224 255
200 224 255
200 224 255
200 224 255
200 224 255
200 224 255
200 224 255
200 224 255
200 224 255
201 224 255
201 224 255
201 224 255
201 224 255
201 224 255
201 224 255
201 224 255
201 224 255
201 224 255
201 224 255
201 224 255
201 224 255
201 225 255
201 225 255
201 225 255
201 225 255
201 225 255
202 225 255
202 225 255
202 225 255
202 225 255
202 225 255
202 225 255
202 225 255
202 225 255
202 225 255
202 225 255
202 225 255
202 225 255
202 225 255
202 225 255
202 225 255
203 225 255
203 225 255
203 225 255
203 225 255
203 225 255
203 225 255
203 225 255
203 225 255
203 225 255
203 226 255
203 226 255
203 226 255
203 226 255
203 226 255
203 226 255
203 226 255
204 226 255
204 226 255
204 226 255
204 226 255
204 226 255
204 226 255
204 226 255
204 226 255
204 226 255
204 226 255
204 226 255
204 226 255
204 226 255
204 226 255
204 226 255
205 226 255
205 226 255
205 226 255
205 226 255
205 226 255
205 226 255
205 226 255
205 227 255
205 227 255
205 227 255
205 227 255
205 227 255
205 227 255
205 227 255
205 227 255
205 227 255
205 227 255
206 227 255
206 227 255
206 227 255
206 227 255
206 227 255
206 227 255
206 227 255
206 227 255
206 227 255
206 227 255
206 227 255
206 227 255
206 227 255
206 227 255
206 227 255
206 227 255
206 227 255
206 227 255
207 227 255
207 227 255
207 227 255
207 227 255
207 228 255
207 228 255
207 228 255
207 228 255
207 228 255
207 228 255
207 228 255
207 228 255
207 228 255
207 228 255
207 228 255
207 228 255
207 228 255
207 228 255
207 228 255
208 228 255
208 228 255
208 228 255
208 228 255
208 228 255
208 228 255
208 228 255
208 228 255
208 228 255
208 228 255
208 228 255
208 228 255
208 228 255
208 228 255
208 228 255
208 228 255
208 228 255
208 228 255
208 228 255
208 228 255
208 228 255
209 228 255
209 229 255
209 229 255
209 229 255
209 228 255
208 228 255
208 228 255
208 228 255
208 228 255
208 228 255
208 228 255
208 228 255
208 228 255
208 228 255
208 228 255
208 228 255
208 228 255
208 228 255
208 228 255
208 228 255
208 228 255
208 228 255
208 228 255
208 228 255
208 228 255
208 228 255
207 228 255
207 228 255
207 228 255
207 228 255
207 228 255
207 228 255
207 228 255
207 228 255
207 228 255
207 228 255
207 228 255
207 228 255
207 228 255
207 228 255
207 228 255
207 227 255
207 227 255
207 227 255
207 227 255
206 227 255
206 227 255
206 227 255
206 227 255
206 227 255
206 227 255
206 227 255
206 227 255
206 227 255
206 227 255
206 227 255
206 227 255
206 227 255
206 227 255
206 227 255
206 227 255
206 227 255
206 227 255
205 227 255
205 227 255
205 227 255
205 227 255
205 227 255
205 227 255
205 227 255
205 227 255
205 227 255
205 227 255
205 226 255
205 226 255
205 226 255
205 226 255
205 226 255
205 226 255
204 226 255
204 226 255
204 226 255
204 226 255
204 226 255
204 226 255
204 226 255
204 226 255
204 226 255
204 226 255
204 226 255
204 226 255
204 226 255
204 226 255
204 226 255
204 226 255
203 226 255
203 226 255
203 226 255
203 226 255
203 226 255
203 226 255
203 226 255
203 225 255
203 225 255
203 225 255
203 225 255
203 225 255
203 225 255
203 225 255
203 225 255
203 225 255
202 225 255
202 225 255
202 225 255
202 225 255
202 225 255
202 225 255
202 225 255
202 225 255
202 225 255
202 225 255
202 225 255
202 225 255
202 225 255
202 225 255
202 225 255
201 225 255
201 225 255
201 225 255
201 225 255
201 225 255
201 224 255
201 224 255
201 224 255
201 224 255
201 224 255
201 224 255
201 224 255
201 224 255
201 224 255
201 224 255
201 224 255
201 224 255
200 224 255
200 224 255
200 224 255
200 224 255
200 224 255
200 224 255
200 224 255
200 224 255
200 224 255
200 224 255
200 224 255
200 224 255
200 224 255
200 224 255
200 224 255
200 224 255
200 224 255
200 224 255
200 224 255
200 224 255
199 224 255
199 224 255
199 224 255
199 224 255
199 223 255
199 223 255
199 223 255
199 223 255
199 223 255
199 223 255
199 223 255
199 223 255
199 223 255
199 223 255
199 223 255
199 223 255
199 223 255
199 223 255
199 223 255
199 223 255
199 223 255
199 223 255
199 223 255
199 223 255
199 223 255
199 223 255
199 223 255
199 223 255
199 223 255
199 223 255
199 223 255
199 223 255
199 223 255
199 223 255
199 223 255
199 223 255
199 223 255
199 223 255
199 223 255
199 223 255
199 223 255
199 223 255
199 223 255
199 223 255
199 223 255
199 223 255
199 223 255
199 223 255
199 223 255
199 223 255
199 223 255
199 223 255
199 223 255
199 223 255
199 223 255
199 223 255
199 223 255
199 223 255
199 223 255
199 223 255
199 223 255
199 223 255
199 223 255
199 223 255
199 223 255
199 223 255
199 223 255
199 223 255
199 223 255
199 223 255
199 223 255
199 223 255
199 224 255
199 224 255
199 224 255
199 224 255
200 224 255
200 224 255
200 224 255
200 224 255
200 224 255
200 224 255
200 224 255
200 224 255
200 224 255
200 224 255
200 224 255
200 224 255
200 224 255
200 224 255
200 224 255
200 224 255
200 224 255
200 224 255
200 224 255
200 224 255
201 224 255
201 224 255
201 224 255
201 224 255
201 224 255
201 224 255
201 224 255
201 224 255
201 224 255
201 224 255
201 224 255
201 224 255
201 225 255
201 225 255
201 225 255
201 225 255
201 225 255
202 225 255
202 225 255
202 225 255
202 225 255
202 225 255
202 225 255
202 225 255
202 225 255
202 225 255
202 225 255
202 225 255
202 225 255
202 225 255
202 225 255
202 225 255
203 225 255
203 225 255
203 225 255
203 225 255
203 225 255
203 225 255
203 225 255
203 225 255
203 225 255
203 226 255
203 226 255
203 226 255
203 226 255
203 226 255
203 226 255
203 226 255
204 226 255
204 226 255
204 226 255
204 226 255
204 226 255
204 226 255
204 226 255
204 226 255
204 226 255
204 226 255
204 226 255
204 226 255
204 226 255
204 226 255
204 226 255
204 226 255
205 226 255
205 226 255
205 226 255
205 226 255
205 226 255
205 226 255
205 227 255
205 227 255
205 227 255
205 227 255
205 227 255
205 227 255
205 227 255
205 227 255
205 227 255
205 227 255
206 227 255
206 227 255
206 227 255
206 227 255
206 227 255
206 227 255
206 227 255
206 227 255
206 227 255
206 227 255
206 227 255
206 227 255
206 227 255
206 227 255
206 227 255
206 227 255
206 227 255
206 227 255
207 227 255
207 227 255
207 227 255
207 227 255
207 228 255
207 228 255
207 228 255
207 228 255
207 228 255
207 228 255
207 228 255
207 228 255
207 228 255
207 228 255
207 228 255
207 228 255
207 228 255
207 228 255
207 228 255
208 228 255
208 228 255
208 228 255
208 228 255
208 228 255
208 228 255
208 228 255
208 228 255
208 228 255
208 228 255
208 228 255
208 228 255
208 228 255
208 228 255
208 228 255
208 228 255
208 228 255
208 228 255
208 228 255
208 228 255
208 228 255
209 228 255
209 228 255
209 229 255
209 229 255
209 229 255
209 229 255
209 229 255
209 229 255
209 229 255
209 229 255
209 228 255
208 228 255
208 228 255
208 228 255
208 228 255
208 228 255
208 228 255
208 228 255
208 228 255
208 228 255
208 228 255
208 228 255
208 228 255
208 228 255
208 228 255
208 228 255
208 228 255
208 228 255
208 228 255
208 228 255
208 228 255
208 228 255
207 228 255
207 228 255
207 228 255
207 228 255
207 228 255
207 228 255
207 228 255
207 228 255
207 228 255
207 228 255
207 228 255
207 228 255
207 228 255
207 228 255
207 228 255
207 227 255
207 227 255
207 227 255
207 227 255
206 227 255
206 227 255
206 227 255
206 227 255
206 227 255
206 227 255
206 227 255
206 227 255
206 227 255
206 227 255
206 227 255
206 227 255
206 227 255
206 227 255
206 227 255
206 227 255
206 227 255
206 227 255
205 227 255
205 227 255
205 227 255
205 227 255
205 227 255
205 227 255
205 227 255
205 227 255
205 227 255
205 227 255
205 226 255
205 226 255
205 226 255
205 226 255
205 226 255
205 226 255
204 226 255
204 226 255
204 226 255
204 226 255
204 226 255
204 226 255
204 226 255
204 226 255
204 226 255
204 226 255
204 226 255
204 226 255
204 226 255
204 226 255
204 226 255
204 226 255
203 226 255
203 226 255
203 226 255
203 226 255
203 226 255
203 226 255
203 226 255
203 225 255
203 225 255
203 225 255
203 225 255
203 225 255
203 225 255
203 225 255
203 225 255
202 225 255
202 225 255
202 225 255
202 225 255
202 225 255
202 225 255
202 225 255
202 225 255
202 225 255
202 225 255
202 225 255
202 225 255
202 225 255
202 225 255
202 225 255
202 225 255
201 225 255
201 225 255
201 225 255
201 225 255
201 225 255
201 224 255
201 224 255
201 224 255
201 224 255
201 224 255
201 224 255
201 224 255
201 224 255
201 224 255
201 224 255
201 224 255
201 224 255
200 224 255
200 224 255
200 224 255
200 224 255
200 224 255
200 224 255
200 224 255
200 224 255
200 224 255
200 224 255
200 224 255
200 224 255
200 224 255
200 224 255
200 224 255
200 224 255
200 224 255
200 224 255
200 224 255
200 224 255
200 224 255
200 224 255
199 224 255
199 224 255
199 224 255
199 224 255
199 223 255
199 223 255
199 223 255
199 223 255
199 223 255
199 223 255
199 223 255
199 223 255
199 223 255
199 223 255
199 223 255
199 223 255
199 223 255
199 223 255
199 223 255
199 223 255
199 223 255
199 223 255
199 223 255
199 223 255
199 223 255
199 223 255
199 223 255
199 223 255
199 223 255
199 223 255
199 223 255
199 223 255
199 223 255
199 223 255
199 223 255
199 223 255
199 223 255
199 223 255
199 223 255
199 223 255
199 223 255
199 223 255
199 223 255
199 223 255
199 223 255
199 223 255
199 223 255
199 223 255
199 223 255
199 223 255
199 223 255
199 223 255
199 223 255
199 223 255
199 223 255
199 223 255
199 223 255
199 223 255
199 223 255
199 223 255
199 223 255
199 223 255
199 224 255
199 224 255
199 224 255
199 224 255
200 224 255
200 224 255
200 224 255
200 224 255
200 224 255
200 224 255
200 224 255
200 224 255
200 224 255
200 224 255
200 224 255
200 224 255
200 224 255
200 224 255
200 224 255
200 224 255
200 224 255
200 224 255
200 224 255
200 224 255
200 224 255
200 224 255
201 224 255
201 224 255
201 224 255
201 224 255
201 224 255
201 224 255
201 224 255
201 224 255
201 224 255
201 224 255
201 224 255
201 224 255
201 225 255
201 225 255
201 225 255
201 225 255
201 225 255
202 225 255
202 225 255
202 225 255
202 225 255
202 225 255
202 225 255
202 225 255
202 225 255
202 225 255
202 225 255
202 225 255
202 225 255
202 225 255
202 225 255
202 225 255
203 225 255
203 225 255
203 225 255
203 225 255
203 225 255
203 225 255
203 225 255
203 225 255
203 225 255
203 226 255
203 226 255
203 226 255
203 226 255
203 226 255
203 226 255
203 226 255
204 226 255
204 226 255
204 226 255
204 226 255
204 226 255
204 226 255
204 226 255
204 226 255
204 226 255
204 226 255
204 226 255
204 226 255
204 226 255
204 226 255
204 226 255
204 226 255
205 226 255
205 226 255
205 226 255
205 226 255
205 226 255
205 226 255
205 227 255
205 227 255
205 227 255
205 227 255
205 227 255
205 227 255
205 227 255
205 227 255
205 227 255
205 227 255
206 227 255
206 227 255
206 227 255
206 227 255
206 227 255
206 227 255
206 227 255
206 227 255
206 227 255
206 227 255
206 227 255
206 227 255
206 227 255
206 227 255
206 227 255
206 227 255
206 227 255
207 227 255
207 227 255
207 227 255
207 227 255
207 227 255
207 228 255
207 228 255
207 228 255
207 228 255
207 228 255
207 228 255
207 228 255
207 228 255
207 228 255
207 228 255
207 228 255
207 228 255
207 228 255
207 228 255
207 228 255
208 228 255
208 228 255
208 228 255
208 228 255
208 228 255
208 228 255
208 228 255
208 228 255
208 228 255
208 228 255
208 228 255
208 228 255
208 228 255
208 228 255
208 228 255
208 228 255
208 228 255
208 228 255
208 228 255
208 228 255
208 228 255
209 228 255
209 229 255
209 229 255
209 229 255
209 229 255
209 229 255
209 229 255
209 229 255
209 229 255
209 229 255
209 229 255
209 229 255
209 229 255
209 229 255
209 229 255
209 229 255
209 228 255
209 228 255
208 228 255
208 228 255
208 228 255
208 228 255
208 228 255
208 228 255
208 228 255
208 228 255
208 228 255
208 228 255
208 228 255
208 228 255
208 228 255
208 228 255
208 228 255
208 228 255
208 228 255
208 228 255
208 228 255
208 228 255
208 228 255
207 228 255
207 228 255
207 228 255
207 228 255
207 228 255
207 228 255
207 228 255
207 228 255
207 228 255
207 228 255
207 228 255
207 228 255
207 228 255
207 228 255
207 227 255
207 227 255
207 227 255
207 227 255
207 227 255
206 227 255
206 227 255
206 227 255
206 227 255
206 227 255
206 227 255
206 227 255
206 227 255
206 227 255
206 227 255
206 227 255
206 227 255
206 227 255
206 227 255
206 227 255
206 227 255
206 227 255
205 227 255
205 227 255
205 227 255
205 227 255
205 227 255
205 227 255
205 227 255
205 227 255
205 227 255
205 227 255
205 226 255
205 226 255
205 226 255
205 226 255
205 226 255
205 226 255
204 226 255
204 226 255
204 226 255
204 226 255
204 226 255
204 226 255
204 226 255
204 226 255
204 226 255
204 226 255
204 226 255
204 226 255
204 226 255
204 226 255
204 226 255
204 226 255
203 226 255
203 226 255
203 226 255
203 226 255
203 226 255
203 226 255
203 226 255
203 225 255
203 225 255
203 225 255
203 225 255
203 225 255
203 225 255
203 225 255
203 225 255
202 225 255
202 225 255
202 225 255
202 225 255
202 225 255
202 225 255
202 225 255
202 225 255
202 225 255
202 225 255
202 225 255
202 225 255
202 225 255
202 225 255
202 225 255
202 225 255
201 225 255
201 225 255
201 225 255
201 225 255
201 225 255
201 225 255
201 224 255
201 224 255
201 224 255
201 224 255
201 224 255
201 224 255
201 224 255
201 224 255
201 224 255
201 224 255
201 224 255
201 224 255
200 224 255
200 224 255
200 224 255
200 224 255
200 224 255
200 224 255
200 224 255
200 224 255
200 224 255
200 224 255
200 224 255
200 224 255
200 224 255
200 224 255
200 224 255
200 224 255
200 224 255
200 224 255
200 224 255
200 224 255
200 224 255
200 224 255
200 224 255
199 224 255
199 224 255
199 224 255
199 224 255
199 224 255
199 224 255
199 223 255
199 223 255
199 223 255
199 223 255
199 223 255
199 223 255
199 223 255
199 223 255
199 223 255
199 223 255
199 223 255
199 223 255
199 223 255
199 223 255
199 223 255
199 223 255
199 223 255
199 223 255
199 223 255
199 223 255
199 223 255
199 223 255
199 223 255
199 223 255
199 223 255
199 223 255
199 223 255
199 223 255
199 223 255
199 223 255
199 223 255
199 223 255
199 223 255
199 223 255
199 223 255
199 223 255
199 223 255
199 223 255
199 223 255
199 223 255
199 223 255
199 223 255
199 223 255
199 223 255
199 224 255
199 224 255
199 224 255
199 224 255
199 224 255
199 224 255
200 224 255
200 224 255
200 224 255
200 224 255
200 224 255
200 224 255
200 224 255
200 224 255
200 224 255
200 224 255
200 224 255
200 224 255
200 224 255
200 224 255
200 224 255
200 224 255
200 224 255
200 224 255
200 224 255
200 224 255
200 224 255
200 224 255
200 224 255
201 224 255
201 224 255
201 224 255
201 224 255
201 224 255
201 224 255
201 224 255
201 224 255
201 224 255
201 224 255
201 224 255
201 224 255
201 224 255
201 225 255
201 225 255
201 225 255
201 225 255
201 225 255
202 225 255
202 225 255
202 225 255
202 225 255
202 225 255
202 225 255
202 225 255
202 225 255
202 225 255
202 225 255
202 225 255
202 225 255
202 225 255
202 225 255
202 225 255
202 225 255
203 225 255
203 225 255
203 225 255
203 225 255
203 225 255
203 225 255
203 225 255
203 225 255
203 226 255
203 226 255
203 226 255
203 226 255
203 226 255
203 226 255
203 226 255
204 226 255
204 226 255
204 226 255
204 226 255
204 226 255
204 226 255
204 226 255
204 226 255
204 226 255
204 226 255
204 226 255
204 226 255
204 226 255
204 226 255
204 226 255
204 226 255
205 226 255
205 226 255
205 226 255
205 226 255
205 226 255
205 226 255
205 227 255
205 227 255
205 227 255
205 227 255
205 227 255
205 227 255
205 227 255
205 227 255
205 227 255
205 227 255
206 227 255
206 227 255
206 227 255
206 227 255
206 227 255
206 227 255
206 227 255
206 227 255
206 227 255
206 227 255
206 227 255
206 227 255
206 227 255
206 227 255
206 227 255
206 227 255
206 227 255
207 227 255
207 227 255
207 227 255
207 227 255
207 227 255
207 228 255
207 228 255
207 228 255
207 228 255
207 228 255
207 228 255
207 228 255
207 228 255
207 228 255
207 228 255
207 228 255
207 228 255
207 228 255
207 228 255
207 228 255
208 228 255
208 228 255
208 228 255
208 228 255
208 228 255
208 228 255
208 228 255
208 228 255
208 228 255
208 228 255
208 228 255
208 228 255
208 228 255
208 228 255
208 228 255
208 228 255
208 228 255
208 228 255
208 228 255
208 228 255
209 228 255
209 228 255
209 229 255
209 229 255
209 229 255
209 229 255
209 229 255
209 229 255
209 229 255
209 229 255
209 229 255
209 229 255
209 229 255
209 229 255
209 229 255
209 229 255
209 229 255
209 229 255
209 229 255
209 229 255
209 229 255
209 229 255
209 229 255
209 228 255
209 228 255
208 228 255
208 228 255
208 228 255
208 228 255
208 228 255
208 228 255
208 228 255
208 228 255
208 228 255
208 228 255
208 228 255
208 228 255
208 228 255
208 228 255
208 228 255
208 228 255
208 228 255
208 228 255
208 228 255
208 228 255
208 228 255
207 228 255
207 228 255
207 228 255
207 228 255
207 228 255
207 228 255
207 228 255
207 228 255
207 228 255
207 228 255
207 228 255
207 228 255
207 228 255
207 228 255
207 227 255
207 227 255
207 227 255
207 227 255
206 227 255
206 227 255
206 227 255
206 227 255
206 227 255
206 227 255
206 227 255
206 227 255
206 227 255
206 227 255
206 227 255
206 227 255
206 227 255
206 227 255
206 227 255
206 227 255
206 227 255
206 227 255
205 227 255
205 227 255
205 227 255
205 227 255
205 227 255
205 227 255
205 227 255
205 227 255
205 227 255
205 227 255
205 226 255
205 226 255
205 226 255
205 226 255
205 226 255
205 226 255
204 226 255
204 226 255
204 226 255
204 226 255
204 226 255
204 226 255
204 226 255
204 226 255
204 226 255
204 226 255
204 226 255
204 226 255
204 226 255
204 226 255
204 226 255
204 226 255
203 226 255
203 226 255
203 226 255
203 226 255
203 226 255
203 226 255
203 226 255
203 225 255
203 225 255
203 225 255
203 225 255
203 225 255
203 225 255
203 225 255
203 225 255
203 225 255
202 225 255
202 225 255
202 225 255
202 225 255
202 225 255
202 225 255
202 225 255
202 225 255
202 225 255
202 225 255
202 225 255
202 225 255
202 225 255
202 225 255
202 225 255
202 225 255
201 225 255
201 225 255
201 225 255
201 225 255
201 225 255
201 224 255
201 224 255
201 224 255
201 224 255
201 224 255
201 224 255
201 224 255
201 224 255
201 224 255
201 224 255
201 224 255
201 224 255
201 224 255
200 224 255
200 224 255
200 224 255
200 224 255
200 224 255
200 224 255
200 224 255
200 224 255
200 224 255
200 224 255
200 224 255
200 224 255
200 224 255
200 224 255
200 224 255
200 224 255
200 224 255
200 224 255
200 224 255
200 224 255
200 224 255
200 224 255
200 224 255
200 224 255
200 224 255
200 224 255
199 224 255
199 224 255
199 224 255
199 224 255
199 224 255
199 224 255
199 224 255
199 224 255
199 224 255
199 223 255
199 223 255
199 223 255
199 223 255
199 223 255
199 223 255
199 223 255
199 223 255
199 223 255
199 223 255
199 223 255
199 223 255
199 223 255
199 223 255
199 223 255
199 223 255
199 223 255
199 223 255
199 223 255
199 223 255
199 223 255
199 223 255
199 223 255
199 223 255
199 224 255
199 224 255
199 224 255
199 224 255
199 224 255
199 224 255
199 224 255
199 224 255
199 224 255
200 224 255
200 224 255
200 224 255
200 224 255
200 224 255
200 224 255
200 224 255
200 224 255
200 224 255
200 224 255
200 224 255
200 224 255
200 224 255
200 224 255
200 224 255
200 224 255
200 224 255
200 224 255
200 224 255
200 224 255
200 224 255
200 224 255
200 224 255
200 224 255
200 224 255
200 224 255
201 224 255
201 224 255
201 224 255
201 224 255
201 224 255
201 224 255
201 224 255
201 224 255
201 224 255
201 224 255
201 224 255
201 224 255
201 224 255
201 225 255
201 225 255
201 225 255
201 225 255
201 225 255
202 225 255
202 225 255
202 225 255
202 225 255
202 225 255
202 225 255
202 225 255
202 225 255
202 225 255
202 225 255
202 225 255
202 225 255
202 225 255
202 225 255
202 225 255
202 225 255
202 225 255
203 225 255
203 225 255
203 225 255
203 225 255
203 225 255
203 225 255
203 225 255
203 225 255
203 226 255
203 226 255
203 226 255
203 226 255
203 226 255
203 226 255
203 226 255
204 226 255
204 226 255
204 226 255
204 226 255
204 226 255
204 226 255
204 226 255
204 226 255
204 226 255
204 226 255
204 226 255
204 226 255
204 226 255
204 226 255
204 226 255
204 226 255
205 226 255
205 226 255
205 226 255
205 226 255
205 226 255
205 226 255
205 226 255
205 227 255
205 227 255
205 227 255
205 227 255
205 227 255
205 227 255
205 227 255
205 227 255
205 227 255
206 227 255
206 227 255
206 227 255
206 227 255
206 227 255
206 227 255
206 227 255
206 227 255
206 227 255
206 227 255
206 227 255
206 227 255
206 227 255
206 227 255
206 227 255
206 227 255
206 227 255
207 227 255
207 227 255
207 227 255
207 227 255
207 227 255
207 228 255
207 228 255
207 228 255
207 228 255
207 228 255
207 228 255
207 228 255
207 228 255
207 228 255
207 228 255
207 228 255
207 228 255
207 228 255
207 228 255
208 228 255
208 228 255
208 228 255
208 228 255
208 228 255
208 228 255
208 228 255
208 228 255
208 228 255
208 228 255
208 228 255
208 228 255
208 228 255
208 228 255
208 228 255
208 228 255
208 228 255
208 228 255
208 228 255
208 228 255
208 228 255
209 228 255
209 228 255
209 229 255
209 229 255
209 229 255
209 229 255
209 229 255
209 229 255
209 229 255
209 229 255
209 229 255
209 229 255
209 229 255
209 229 255
209 229 255
209 229 255
209 229 255
209 229 255
209 229 255
209 229 255
209 229 255
209 229 255
209 229 255
209 229 255
209 229 255
209 229 255
209 229 255
209 229 255
209 229 255
209 229 255
209 228 255
208 228 255
208 228 255
208 228 255
208 228 255
208 228 255
208 228 255
208 228 255
208 228 255
208 228 255
208 228 255
208 228 255
208 228 255
208 228 255
208 228 255
208 228 255
208 228 255
208 228 255
208 228 255
208 228 255
208 228 255
208 228 255
207 228 255
207 228 255
207 228 255
207 228 255
207 228 255
207 228 255
207 228 255
207 228 255
207 228 255
207 228 255
207 228 255
207 228 255
207 228 255
207 228 255
207 227 255
207 227 255
207 227 255
207 227 255
206 227 255
206 227 255
206 227 255
206 227 255
206 227 255
206 227 255
206 227 255
206 227 255
206 227 255
206 227 255
206 227 255
206 227 255
206 227 255
206 227 255
206 227 255
206 227 255
206 227 255
206 227 255
205 227 255
205 227 255
205 227 255
205 227 255
205 227 255
205 227 255
205 227 255
205 227 255
205 227 255
205 227 255
205 226 255
205 226 255
205 226 255
205 226 255
205 226 255
205 226 255
204 226 255
204 226 255
204 226 255
204 226 255
204 226 255
204 226 255
204 226 255
204 226 255
204 226 255
204 226 255
204 226 255
204 226 255
204 226 255
204 226 255
204 226 255
204 226 255
203 226 255
203 226 255
203 226 255
203 226 255
203 226 255
203 226 255
203 226 255
203 225 255
203 225 255
203 225 255
203 225 255
203 225 255
203 225 255
203 225 255
203 225 255
203 225 255
202 225 255
202 225 255
202 225 255
202 225 255
202 225 255
202 225 255
202 225 255
202 225 255
202 225 255
202 225 255
202 225 255
202 225 255
202 225 255
202 225 255
202 225 255
202 225 255
201 225 255
201 225 255
201 225 255
201 225 255
201 225 255
201 225 255
201 224 255
201 224 255
201 224 255
201 224 255
201 224 255
201 224 255
201 224 255
201 224 255
201 224 255
201 224 255
201 224 255
201 224 255
201 224 255
200 224 255
200 224 255
200 224 255
200 224 255
200 224 255
200 224 255
200 224 255
200 224 255
200 224 255
200 224 255
200 224 255
200 224 255
200 224 255
200 224 255
200 224 255
200 224 255
200 224 255
200 224 255
200 224 255
200 224 255
200 224 255
200 224 255
200 224 255
200 224 255
200 224 255
200 224 255
200 224 255
200 224 255
200 224 255
200 224 255
200 224 255
200 224 255
200 224 255
200 224 255
199 224 255
199 224 255
199 224 255
199 224 255
199 224 255
199 224 255
199 224 255
199 224 255
199 224 255
199 224 255
199 224 255
199 224 255
199 224 255
199 224 255
199 224 255
199 224 255
199 224 255
199 224 255
200 224 255
200 224 255
200 224 255
200 224 255
200 224 255
200 224 255
200 224 255
200 224 255
200 224 255
200 224 255
200 224 255
200 224 255
200 224 255
200 224 255
200 224 255
200 224 255
200 224 255
200 224 255
200 224 255
200 224 255
200 224 255
200 224 255
200 224 255
200 224 255
200 224 255
200 224 255
200 224 255
200 224 255
200 224 255
200 224 255
200 224 255
200 224 255
200 224 255
200 224 255
201 224 255
201 224 255
201 224 255
201 224 255
201 224 255
201 224 255
201 224 255
201 224 255
201 224 255
201 224 255
201 224 255
201 224 255
201 224 255
201 225 255
201 225 255
201 225 255
201 225 255
201 225 255
201 225 255
202 225 255
202 225 255
202 225 255
202 225 255
202 225 255
202 225 255
202 225 255
202 225 255
202 225 255
202 225 255
202 225 255
202 225 255
202 225 255
202 225 255
202 225 255
202 225 255
203 225 255
203 225 255
203 225 255
203 225 255
203 225 255
203 225 255
203 225 255
203 225 255
203 225 255
203 226 255
203 226 255
203 226 255
203 226 255
203 226 255
203 226 255
203 226 255
204 226 255
204 226 255
204 226 255
204 226 255
204 226 255
204 226 255
204 226 255
204 226 255
204 226 255
204 226 255
204 226 255
204 226 255
204 226 255
204 226 255
204 226 255
204 226 255
205 226 255
205 226 255
205 226 255
205 226 255
205 226 255
205 226 255
205 226 255
205 227 255
205 227 255
205 227 255
205 227 255
205 227 255
205 227 255
205 227 255
205 227 255
205 227 255
206 227 255
206 227 255
206 227 255
206 227 255
206 227 255
206 227 255
206 227 255
206 227 255
206 227 255
206 227 255
206 227 255
206 227 255
206 227 255
206 227 255
206 227 255
206 227 255
206 227 255
207 227 255
207 227 255
207 227 255
207 227 255
207 227 255
207 228 255
207 228 255
207 228 255
207 228 255
207 228 255
207 228 255
207 228 255
207 228 255
207 228 255
207 228 255
207 228 255
207 228 255
207 228 255
207 228 255
208 228 255
208 228 255
208 228 255
208 228 255
208 228 255
208 228 255
208 228 255
208 228 255
208 228 255
208 228 255
208 228 255
208 228 255
208 228 255
208 228 255
208 228 255
208 228 255
208 228 255
208 228 255
208 228 255
208 228 255
208 228 255
209 228 255
209 229 255
209 229 255
209 229 255
209 229 255
209 229 255
209 229 255
209 229 255
209 229 255
209 229 255
209 229 255
209 229 255
209 229 255
209 229 255
209 229 255
209 229 255
209 229 255
209 229 255
209 229 255
209 229 255
209 229 255
209 229 255
209 229 255
209 229 255
209 229 255
209 229 255
209 229 255
209 229 255
209 229 255
209 229 255
209 229 255
209 229 255
209 229 255
209 229 255
209 229 255
209 229 255
209 228 255
209 228 255
208 228 255
208 228 255
208 228 255
208 228 255
208 228 255
208 228 255
208 228 255
208 228 255
208 228 255
208 228 255
208 228 255
208 228 255
208 228 255
208 228 255
208 228 255
208 228 255
208 228 255
208 228 255
208 228 255
208 228 255
207 228 255
207 228 255
207 228 255
207 228 255
207 228 255
207 228 255
207 228 255
207 228 255
207 228 255
207 228 255
207 228 255
207 228 255
207 228 255
207 228 255
207 227 255
207 227 255
207 227 255
207 227 255
207 227 255
206 227 255
206 227 255
206 227 255
206 227 255
206 227 255
206 227 255
206 227 255
206 227 255
206 227 255
206 227 255
206 227 255
206 227 255
206 227 255
206 227 255
206 227 255
206 227 255
206 227 255
205 227 255
205 227 255
205 227 255
205 227 255
205 227 255
205 227 255
205 227 255
205 227 255
205 227 255
205 226 255
205 226 255
205 226 255
205 226 255
205 226 255
205 226 255
205 226 255
204 226 255
204 226 255
204 226 255
204 226 255
204 226 255
204 226 255
204 226 255
204 226 255
204 226 255
204 226 255
204 226 255
204 226 255
204 226 255
204 226 255
204 226 255
204 226 255
203 226 255
203 226 255
203 226 255
203 226 255
203 226 255
203 226 255
203 226 255
203 225 255
203 225 255
203 225 255
203 225 255
203 225 255
203 225 255
203 225 255
203 225 255
203 225 255
202 225 255
202 225 255
202 225 255
202 225 255
202 225 255
202 225 255
202 225 255
202 225 255
202 225 255
202 225 255
202 225 255
202 225 255
202 225 255
202 225 255
202 225 255
202 225 255
202 225 255
201 225 255
201 225 255
201 225 255
201 225 255
201 225 255
201 224 255
201 224 255
201 224 255
201 224 255
201 224 255
201 224 255
201 224 255
201 224 255
201 224 255
201 224 255
201 224 255
201 224 255
201 224 255
201 224 255
201 224 255
200 224 255
200 224 255
200 224 255
200 224 255
200 224 255
200 224 255
200 224 255
200 224 255
200 224 255
200 224 255
200 224 255
200 224 255
200 224 255
200 224 255
200 224 255
200 224 255
200 224 255
200 224 255
200 224 255
200 224 255
200 224 255
200 224 255
200 224 255
200 224 255
200 224 255
200 224 255
200 224 255
200 224 255
200 224 255
200 224 255
200 224 255
200 224 255
200 224 255
200 224 255
200 224 255
200 224 255
200 224 255
200 224 255
200 224 255
200 224 255
200 224 255
200 224 255
200 224 255
200 224 255
200 224 255
200 224 255
200 224 255
200 224 255
200 224 255
200 224 255
200 224 255
200 224 255
200 224 255
200 224 255
200 224 255
200 224 255
200 224 255
200 224 255
200 224 255
200 224 255
200 224 255
200 224 255
200 224 255
200 224 255
200 224 255
200 224 255
200 224 255
200 224 255
200 224 255
200 224 255
200 224 255
200 224 255
200 224 255
200 224 255
200 224 255
200 224 255
201 224 255
201 224 255
201 224 255
201 224 255
201 224 255
201 224 255
201 224 255
201 224 255
201 224 255
201 224 255
201 224 255
201 224 255
201 224 255
201 224 255
201 224 255
201 225 255
201 225 255
201 225 255
201 225 255
201 225 255
202 225 255
202 225 255
202 225 255
202 225 255
202 225 255
202 225 255
202 225 255
202 225 255
202 225 255
202 225 255
202 225 255
202 225 255
202 225 255
202 225 255
202 225 255
202 225 255
202 225 255
203 225 255
203 225 255
203 225 255
203 225 255
203 225 255
203 225 255
203 225 255
203 225 255
203 225 255
203 226 255
203 226 255
203 226 255
203 226 255
203 226 255
203 226 255
203 226 255
204 226 255
204 226 255
204 226 255
204 226 255
204 226 255
204 226 255
204 226 255
204 226 255
204 226 255
204 226 255
204 226 255
204 226 255
204 226 255
204 226 255
204 226 255
204 226 255
205 226 255
205 226 255
205 226 255
205 226 255
205 226 255
205 226 255
205 227 255
205 227 255
205 227 255
205 227 255
205 227 255
205 227 255
205 227 255
205 227 255
205 227 255
205 227 255
206 227 255
206 227 255
206 227 255
206 227 255
206 227 255
206 227 255
206 227 255
206 227 255
206 227 255
206 227 255
206 227 255
206 227 255
206 227 255
206 227 255
206 227 255
206 227 255
206 227 255
207 227 255
207 227 255
207 227 255
207 227 255
207 227 255
207 228 255
207 228 255
207 228 255
207 228 255
207 228 255
207 228 255
207 228 255
207 228 255
207 228 255
207 228 255
207 228 255
207 228 255
207 228 255
207 228 255
208 228 255
208 228 255
208 228 255
208 228 255
208 228 255
208 228 255
208 228 255
208 228 255
208 228 255
208 228 255
208 228 255
208 228 255
208 228 255
208 228 255
208 228 255
208 228 255
208 228 255
208 228 255
208 228 255
208 228 255
209 228 255
209 228 255
209 229 255
209 229 255
209 229 255
209 229 255
209 229 255
209 229 255
209 229 255
209 229 255
209 229 255
209 229 255
209 229 255
209 229 255
209 229 255
209 229 255
209 229 255
209 229 255
209 229 255
209 229 255
209 229 255
210 229 255
209 229 255
209 229 255
209 229 255
209 229 255
209 229 255
209 229 255
209 229 255
209 229 255
209 229 255
209 229 255
209 229 255
209 229 255
209 229 255
209 229 255
209 229 255
209 229 255
209 229 255
209 229 255
209 229 255
209 229 255
209 229 255
209 229 255
209 228 255
208 228 255
208 228 255
208 228 255
208 228 255
208 228 255
208 228 255
208 228 255
208 228 255
208 228 255
208 228 255
208 228 255
208 228 255
208 228 255
208 228 255
208 228 255
208 228 255
208 228 255
208 228 255
208 228 255
208 228 255
207 228 255
207 228 255
207 228 255
207 228 255
207 228 255
207 228 255
207 228 255
207 228 255
207 228 255
207 228 255
207 228 255
207 228 255
207 228 255
207 228 255
207 227 255
207 227 255
207 227 255
207 227 255
207 227 255
206 227 255
206 227 255
206 227 255
206 227 255
206 227 255
206 227 255
206 227 255
206 227 255
206 227 255
206 227 255
206 227 255
206 227 255
206 227 255
206 227 255
206 227 255
206 227 255
206 227 255
205 227 255
205 227 255
205 227 255
205 227 255
205 227 255
205 227 255
205 227 255
205 227 255
205 227 255
205 226 255
205 226 255
205 226 255
205 226 255
205 226 255
205 226 255
205 226 255
204 226 255
204 226 255
204 226 255
204 226 255
204 226 255
204 226 255
204 226 255
204 226 255
204 226 255
204 226 255
204 226 255
204 226 255
204 226 255
204 226 255
204 226 255
204 226 255
203 226 255
203 226 255
203 226 255
203 226 255
203 226 255
203 226 255
203 226 255
203 225 255
203 225 255
203 225 255
203 225 255
203 225 255
203 225 255
203 225 255
203 225 255
203 225 255
202 225 255
202 225 255
202 225 255
202 225 255
202 225 255
202 225 255
202 225 255
202 225 255
202 225 255
202 225 255
202 225 255
202 225 255
202 225 255
202 225 255
202 225 255
202 225 255
202 225 255
202 225 255
201 225 255
201 225 255
201 225 255
201 225 255
201 225 255
201 224 255
201 224 255
201 224 255
201 224 255
201 224 255
201 224 255
201 224 255
201 224 255
201 224 255
201 224 255
201 224 255
201 224 255
201 224 255
201 224 255
201 224 255
201 224 255
200 224 255
200 224 255
200 224 255
200 224 255
200 224 255
200 224 255
200 224 255
200 224 255
200 224 255
200 224 255
200 224 255
200 224 255
200 224 255
200 224 255
200 224 255
200 224 255
200 224 255
200 224 255
200 224 255
200 224 255
200 224 255
200 224 255
200 224 255
200 224 255
200 224 255
200 224 255
200 224 255
200 224 255
200 224 255
200 224 255
200 224 255
200 224 255
200 224 255
200 224 255
200 224 255
200 224 255
200 224 255
200 224 255
200 224 255
200 224 255
200 224 255
200 224 255
200 224 255
200 224 255
200 224 255
200 224 255
200 224 255
200 224 255
200 224 255
200 224 255
200 224 255
200 224 255
200 224 255
200 224 255
200 224 255
200 224 255
200 224 255
200 224 255
200 224 255
200 224 255
200 224 255
200 224 255
200 224 255
200 224 255
200 224 255
200 224 255
201 224 255
201 224 255
201 224 255
201 224 255
201 224 255
201 224 255
201 224 255
201 224 255
201 224 255
201 224 255
201 224 255
201 224 255
201 224 255
201 224 255
201 224 255
201 224 255
201 225 255
201 225 255
201 225 255
201 225 255
201 225 255
201 225 255
202 225 255
202 225 255
202 225 255
202 225 255
202 225 255
202 225 255
202 225 255
202 225 255
202 225 255
202 225 255
202 225 255
202 225 255
202 225 255
202 225 255
202 225 255
202 225 255
202 225 255
203 225 255
203 225 255
203 225 255
203 225 255
203 225 255
203 225 255
203 225 255
203 225 255
203 225 255
203 226 255
203 226 255
203 226 255
203 226 255
203 226 255
203 226 255
203 226 255
204 226 255
204 226 255
204 226 255
204 226 255
204 226 255
204 226 255
204 226 255
204 226 255
204 226 255
204 226 255
204 226 255
204 226 255
204 226 255
204 226 255
204 226 255
204 226 255
205 226 255
205 226 255
205 226 255
205 226 255
205 226 255
205 226 255
205 226 255
205 227 255
205 227 255
205 227 255
205 227 255
205 227 255
205 227 255
205 227 255
205 227 255
205 227 255
206 227 255
206 227 255
206 227 255
206 227 255
206 227 255
206 227 255
206 227 255
206 227 255
206 227 255
206 227 255
206 227 255
206 227 255
206 227 255
206 227 255
206 227 255
206 227 255
206 227 255
207 227 255
207 227 255
207 227 255
207 227 255
207 227 255
207 228 255
207 228 255
207 228 255
207 228 255
207 228 255
207 228 255
207 228 255
207 228 255
207 228 255
207 228 255
207 228 255
207 228 255
207 228 255
207 228 255
208 228 255
208 228 255
208 228 255
208 228 255
208 228 255
208 228 255
208 228 255
208 228 255
208 228 255
208 228 255
208 228 255
208 228 255
208 228 255
208 228 255
208 228 255
208 228 255
208 228 255
208 228 255
208 228 255
208 228 255
209 228 255
209 228 255
209 229 255
209 229 255
209 229 255
209 229 255
209 229 255
209 229 255
209 229 255
209 229 255
209 229 255
209 229 255
209 229 255
209 229 255
209 229 255
209 229 255
209 229 255
209 229 255
209 229 255
209 229 255
209 229 255
209 229 255
209 229 255
210 229 255
210 229 255
210 229 255
210 229 255
210 229 255
210 229 255
209 229 255
209 229 255
209 229 255
209 229 255
209 229 255
209 229 255
209 229 255
209 229 255
209 229 255
209 229 255
209 229 255
209 229 255
209 229 255
209 229 255
209 229 255
209 229 255
209 229 255
209 229 255
209 229 255
209 229 255
209 229 255
209 228 255
208 228 255
208 228 255
208 228 255
208 228 255
208 228 255
208 228 255
208 228 255
208 228 255
208 228 255
208 228 255
208 228 255
208 228 255
208 228 255
208 228 255
208 228 255
208 228 255
208 228 255
208 228 255
208 228 255
208 228 255
207 228 255
207 228 255
207 228 255
207 228 255
207 228 255
207 228 255
207 228 255
207 228 255
207 228 255
207 228 255
207 228 255
207 228 255
207 228 255
207 228 255
207 227 255
207 227 255
207 227 255
207 227 255
207 227 255
206 227 255
206 227 255
206 227 255
206 227 255
206 227 255
206 227 255
206 227 255
206 227 255
206 227 255
206 227 255
206 227 255
206 227 255
206 227 255
206 227 255
206 227 255
206 227 255
206 227 255
205 227 255
205 227 255
205 227 255
205 227 255
205 227 255
205 227 255
205 227 255
205 227 255
205 227 255
205 227 255
205 226 255
205 226 255
205 226 255
205 226 255
205 226 255
205 226 255
204 226 255
204 226 255
204 226 255
204 226 255
204 226 255
204 226 255
204 226 255
204 226 255
204 226 255
204 226 255
204 226 255
204 226 255
204 226 255
204 226 255
204 226 255
204 226 255
203 226 255
203 226 255
203 226 255
203 226 255
203 226 255
203 226 255
203 226 255
203 225 255
203 225 255
203 225 255
203 225 255
203 225 255
203 225 255
203 225 255
203 225 255
203 225 255
202 225 255
202 225 255
202 225 255
202 225 255
202 225 255
202 225 255
202 225 255
202 225 255
202 225 255
202 225 255
202 225 255
202 225 255
202 225 255
202 225 255
202 225 255
202 225 255
202 225 255
202 225 255
201 225 255
201 225 255
201 225 255
201 225 255
201 225 255
201 225 255
201 224 255
201 224 255
201 224 255
201 224 255
201 224 255
201 224 255
201 224 255
201 224 255
201 224 255
201 224 255
201 224 255
201 224 255
201 224 255
201 224 255
201 224 255
201 224 255
201 224 255
201 224 255
200 224 255
200 224 255
200 224 255
200 224 255
200 224 255
200 224 255
200 224 255
200 224 255
200 224 255
200 224 255
200 224 255
200 224 255
200 224 255
200 224 255
200 224 255
200 224 255
200 224 255
200 224 255
200 224 255
200 224 255
200 224 255
200 224 255
200 224 255
200 224 255
200 224 255
200 224 255
200 224 255
200 224 255
200 224 255
200 224 255
200 224 255
200 224 255
200 224 255
200 224 255
200 224 255
200 224 255
200 224 255
200 224 255
200 224 255
200 224 255
200 224 255
200 224 255
200 224 255
200 224 255
200 224 255
200 224 255
200 224 255
200 224 255
200 224 255
200 224 255
200 224 255
200 224 255
200 224 255
201 224 255
201 224 255
201 224 255
201 224 255
201 224 255
201 224 255
201 224 255
201 224 255
201 224 255
201 224 255
201 224 255
201 224 255
201 224 255
201 224 255
201 224 255
201 224 255
201 224 255
201 224 255
201 225 255
201 225 255
201 225 255
201 225 255
201 225 255
201 225 255
202 225 255
202 225 255
202 225 255
202 225 255
202 225 255
202 225 255
202 225 255
202 225 255
202 225 255
202 225 255
202 225 255
202 225 255
202 225 255
202 225 255
202 225 255
202 225 255
202 225 255
202 225 255
203 225 255
203 225 255
203 225 255
203 225 255
203 225 255
203 225 255
203 225 255
203 225 255
203 225 255
203 225 255
203 226 255
203 226 255
203 226 255
203 226 255
203 226 255
203 226 255
203 226 255
204 226 255
204 226 255
204 226 255
204 226 255
204 226 255
204 226 255
204 226 255
204 226 255
204 226 255
204 226 255
204 226 255
204 226 255
204 226 255
204 226 255
204 226 255
204 226 255
205 226 255
205 226 255
205 226 255
205 226 255
205 226 255
205 226 255
205 227 255
205 227 255
205 227 255
205 227 255
205 227 255
205 227 255
205 227 255
205 227 255
205 227 255
205 227 255
206 227 255
206 227 255
206 227 255
206 227 255
206 227 255
206 227 255
206 227 255
206 227 255
206 227 255
206 227 255
206 227 255
206 227 255
206 227 255
206 227 255
206 227 255
206 227 255
206 227 255
207 227 255
207 227 255
207 227 255
207 227 255
207 227 255
207 228 255
207 228 255
207 228 255
207 228 255
207 228 255
207 228 255
207 228 255
207 228 255
207 228 255
207 228 255
207 228 255
207 228 255
207 228 255
208 228 255
208 228 255
208 228 255
208 228 255
208 228 255
208 228 255
208 228 255
208 228 255
208 228 255
208 228 255
208 228 255
208 228 255
208 228 255
208 228 255
208 228 255
208 228 255
208 228 255
208 228 255
208 228 255
208 228 255
208 228 255
209 228 255
209 229 255
209 229 255
209 229 255
209 229 255
209 229 255
209 229 255
209 229 255
209 229 255
209 229 255
209 229 255
209 229 255
209 229 255
209 229 255
209 229 255
209 229 255
209 229 255
209 229 255
209 229 255
209 229 255
209 229 255
209 229 255
210 229 255
210 229 255
210 229 255
210 229 255
210 229 255
210 229 255
210 229 255
210 229 255
210 229 255
210 229 255
210 229 255
210 229 255
210 229 255
209 229 255
209 229 255
209 229 255
209 229 255
209 229 255
209 229 255
209 229 255
209 229 255
209 229 255
209 229 255
209 229 255
209 229 255
209 229 255
209 229 255
209 229 255
209 229 255
209 229 255
209 229 255
209 229 255
209 229 255
209 229 255
209 228 255
209 228 255
208 228 255
208 228 255
208 228 255
208 228 255
208 228 255
208 228 255
208 228 255
208 228 255
208 228 255
208 228 255
208 228 255
208 228 255
208 228 255
208 228 255
208 228 255
208 228 255
208 228 255
208 228 255
208 228 255
208 228 255
207 228 255
207 228 255
207 228 255
207 228 255
207 228 255
207 228 255
207 228 255
207 228 255
207 228 255
207 228 255
207 228 255
207 228 255
207 228 255
207 228 255
207 227 255
207 227 255
207 227 255
207 227 255
206 227 255
206 227 255
206 227 255
206 227 255
206 227 255
206 227 255
206 227 255
206 227 255
206 227 255
206 227 255
206 227 255
206 227 255
206 227 255
206 227 255
206 227 255
206 227 255
206 227 255
205 227 255
205 227 255
205 227 255
205 227 255
205 227 255
205 227 255
205 227 255
205 227 255
205 227 255
205 227 255
205 226 255
205 226 255
205 226 255
205 226 255
205 226 255
205 226 255
204 226 255
204 226 255
204 226 255
204 226 255
204 226 255
204 226 255
204 226 255
204 226 255
204 226 255
204 226 255
204 226 255
204 226 255
204 226 255
204 226 255
204 226 255
204 226 255
203 226 255
203 226 255
203 226 255
203 226 255
203 226 255
203 226 255
203 226 255
203 226 255
203 225 255
203 225 255
203 225 255
203 225 255
203 225 255
203 225 255
203 225 255
203 225 255
203 225 255
202 225 255
202 225 255
202 225 255
202 225 255
202 225 255
202 225 255
202 225 255
202 225 255
202 225 255
202 225 255
202 225 255
202 225 255
202 225 255
202 225 255
202 225 255
202 225 255
202 225 255
202 225 255
202 225 255
201 225 255
201 225 255
201 225 255
201 225 255
201 225 255
201 225 255
201 224 255
201 224 255
201 224 255
201 224 255
201 224 255
201 224 255
201 224 255
201 224 255
201 224 255
201 224 255
201 224 255
201 224 255
201 224 255
201 224 255
201 224 255
201 224 255
201 224 255
201 224 255
201 224 255
201 224 255
201 224 255
201 224 255
200 224 255
200 224 255
200 224 255
200 224 255
200 224 255
200 224 255
200 224 255
200 224 255
200 224 255
200 224 255
200 224 255
200 224 255
200 224 255
200 224 255
200 224 255
200 224 255
200 224 255
200 224 255
200 224 255
200 224 255
200 224 255
200 224 255
200 224 255
200 224 255
200 224 255
200 224 255
200 224 255
200 224 255
200 224 255
200 224 255
200 224 255
200 224 255
200 224 255
200 224 255
200 224 255
200 224 255
201 224 255
201 224 255
201 224 255
201 224 255
201 224 255
201 224 255
201 224 255
201 224 255
201 224 255
201 224 255
201 224 255
201 224 255
201 224 255
201 224 255
201 224 255
201 224 255
201 224 255
201 224 255
201 224 255
201 224 255
201 224 255
201 224 255
201 225 255
201 225 255
201 225 255
201 225 255
201 225 255
201 225 255
202 225 255
202 225 255
202 225 255
202 225 255
202 225 255
202 225 255
202 225 255
202 225 255
202 225 255
202 225 255
202 225 255
202 225 255
202 225 255
202 225 255
202 225 255
202 225 255
202 225 255
202 225 255
202 225 255
203 225 255
203 225 255
203 225 255
203 225 255
203 225 255
203 225 255
203 225 255
203 225 255
203 225 255
203 226 255
203 226 255
203 226 255
203 226 255
203 226 255
203 226 255
203 226 255
203 226 255
204 226 255
204 226 255
204 226 255
204 226 255
204 226 255
204 226 255
204 226 255
204 226 255
204 226 255
204 226 255
204 226 255
204 226 255
204 226 255
204 226 255
204 226 255
204 226 255
205 226 255
205 226 255
205 226 255
205 226 255
205 226 255
205 226 255
205 227 255
205 227 255
205 227 255
205 227 255
205 227 255
205 227 255
205 227 255
205 227 255
205 227 255
205 227 255
206 227 255
206 227 255
206 227 255
206 227 255
206 227 255
206 227 255
206 227 255
206 227 255
206 227 255
206 227 255
206 227 255
206 227 255
206 227 255
206 227 255
206 227 255
206 227 255
206 227 255
207 227 255
207 227 255
207 227 255
207 227 255
207 227 255
207 228 255
207 228 255
207 228 255
207 228 255
207 228 255
207 228 255
207 228 255
207 228 255
207 228 255
207 228 255
207 228 255
207 228 255
207 228 255
208 228 255
208 228 255
208 228 255
208 228 255
208 228 255
208 228 255
208 228 255
208 228 255
208 228 255
208 228 255
208 228 255
208 228 255
208 228 255
208 228 255
208 228 255
208 228 255
208 228 255
208 228 255
208 228 255
208 228 255
209 228 255
209 228 255
209 229 255
209 229 255
209 229 255
209 229 255
209 229 255
209 229 255
209 229 255
209 229 255
209 229 255
209 229 255
209 229 255
209 229 255
209 229 255
209 229 255
209 229 255
209 229 255
209 229 255
209 229 255
209 229 255
209 229 255
209 229 255
210 229 255
210 229 255
210 229 255
210 229 255
210 229 255
210 229 255
210 229 255
210 229 255
210 229 255
210 229 255
210 229 255
210 229 255
210 229 255
210 229 255
210 229 255
210 229 255
210 229 255
210 229 255
210 229 255
210 229 255
209 229 255
209 229 255
209 229 255
209 229 255
209 229 255
209 229 255
209 229 255
209 229 255
209 229 255
209 229 255
209 229 255
209 229 255
209 229 255
209 229 255
209 229 255
209 229 255
209 229 255
209 229 255
209 229 255
209 229 255
209 229 255
209 228 255
208 228 255
208 228 255
208 228 255
208 228 255
208 228 255
208 228 255
208 228 255
208 228 255
208 228 255
208 228 255
208 228 255
208 228 255
208 228 255
208 228 255
208 228 255
208 228 255
208 228 255
208 228 255
208 228 255
208 228 255
207 228 255
207 228 255
207 228 255
207 228 255
207 228 255
207 228 255
207 228 255
207 228 255
207 228 255
207 228 255
207 228 255
207 228 255
207 228 255
207 228 255
207 227 255
207 227 255
207 227 255
207 227 255
206 227 255
206 227 255
206 227 255
206 227 255
206 227 255
206 227 255
206 227 255
206 227 255
206 227 255
206 227 255
206 227 255
206 227 255
206 227 255
206 227 255
206 227 255
206 227 255
206 227 255
205 227 255
205 227 255
205 227 255
205 227 255
205 227 255
205 227 255
205 227 255
205 227 255
205 227 255
205 227 255
205 226 255
205 226 255
205 226 255
205 226 255
205 226 255
205 226 255
204 226 255
204 226 255
204 226 255
204 226 255
204 226 255
204 226 255
204 226 255
204 226 255
204 226 255
204 226 255
204 226 255
204 226 255
204 226 255
204 226 255
204 226 255
204 226 255
204 226 255
203 226 255
203 226 255
203 226 255
203 226 255
203 226 255
203 226 255
203 226 255
203 225 255
203 225 255
203 225 255
203 225 255
203 225 255
203 225 255
203 225 255
203 225 255
203 225 255
203 225 255
202 225 255
202 225 255
202 225 255
202 225 255
202 225 255
202 225 255
202 225 255
202 225 255
202 225 255
202 225 255
202 225 255
202 225 255
202 225 255
202 225 255
202 225 255
202 225 255
202 225 255
202 225 255
202 225 255
202 225 255
201 225 255
201 225 255
201 225 255
201 225 255
201 225 255
201 225 255
201 224 255
201 224 255
201 224 255
201 224 255
201 224 255
201 224 255
201 224 255
201 224 255
201 224 255
201 224 255
201 224 255
201 224 255
201 224 255
201 224 255
201 224 255
201 224 255
201 224 255
201 224 255
201 224 255
201 224 255
201 224 255
201 224 255
201 224 255
201 224 255
201 224 255
201 224 255
201 224 255
201 224 255
201 224 255
201 224 255
201 224 255
201 224 255
201 224 255
201 224 255
201 224 255
201 224 255
201 224 255
201 224 255
201 224 255
201 224 255
201 224 255
201 224 255
201 224 255
201 224 255
201 224 255
201 224 255
201 224 255
201 224 255
201 224 255
201 224 255
201 224 255
201 224 255
201 224 255
201 224 255
201 224 255
201 224 255
201 224 255
201 224 255
201 224 255
201 224 255
201 224 255
201 224 255
201 224 255
201 224 255
201 224 255
201 224 255
201 224 255
201 224 255
201 224 255
201 225 255
201 225 255
201 225 255
201 225 255
201 225 255
201 225 255
201 225 255
202 225 255
202 225 255
202 225 255
202 225 255
202 225 255
202 225 255
202 225 255
202 225 255
202 225 255
202 225 255
202 225 255
202 225 255
202 225 255
202 225 255
202 225 255
202 225 255
202 225 255
202 225 255
202 225 255
202 225 255
203 225 255
203 225 255
203 225 255
203 225 255
203 225 255
203 225 255
203 225 255
203 225 255
203 225 255
203 225 255
203 226 255
203 226 255
203 226 255
203 226 255
203 226 255
203 226 255
203 226 255
204 226 255
204 226 255
204 226 255
204 226 255
204 226 255
204 226 255
204 226 255
204 226 255
204 226 255
204 226 255
204 226 255
204 226 255
204 226 255
204 226 255
204 226 255
204 226 255
205 226 255
205 226 255
205 226 255
205 226 255
205 226 255
205 226 255
205 226 255
205 227 255
205 227 255
205 227 255
205 227 255
205 227 255
205 227 255
205 227 255
205 227 255
205 227 255
205 227 255
206 227 255
206 227 255
206 227 255
206 227 255
206 227 255
206 227 255
206 227 255
206 227 255
206 227 255
206 227 255
206 227 255
206 227 255
206 227 255
206 227 255
206 227 255
206 227 255
206 227 255
207 227 255
207 227 255
207 227 255
207 227 255
207 228 255
207 228 255
207 228 255
207 228 255
207 228 255
207 228 255
207 228 255
207 228 255
207 228 255
207 228 255
207 228 255
207 228 255
207 228 255
207 228 255
208 228 255
208 228 255
208 228 255
208 228 255
208 228 255
208 228 255
208 228 255
208 228 255
208 228 255
208 228 255
208 228 255
208 228 255
208 228 255
208 228 255
208 228 255
208 228 255
208 228 255
208 228 255
208 228 255
208 228 255
209 228 255
209 229 255
209 229 255
209 229 255
209 229 255
209 229 255
209 229 255
209 229 255
209 229 255
209 229 255
209 229 255
209 229 255
209 229 255
209 229 255
209 229 255
209 229 255
209 229 255
209 229 255
209 229 255
209 229 255
209 229 255
209 229 255
210 229 255
210 229 255
210 229 255
210 229 255
210 229 255
210 229 255
210 229 255
210 229 255
210 229 255
210 229 255
210 229 255
210 229 255
210 229 255
210 229 255
210 229 255
210 229 255
210 229 255
210 229 255
210 229 255
210 229 255
210 229 255
210 229 255
210 229 255
210 229 255
210 229 255
210 229 255
210 229 255
210 229 255
209 229 255
209 229 255
209 229 255
209 229 255
209 229 255
209 229 255
209 229 255
209 229 255
209 229 255
209 229 255
209 229 255
209 229 255
209 229 255
209 229 255
209 229 255
209 229 255
209 229 255
209 229 255
209 229 255
209 229 255
209 228 255
209 228 255
208 228 255
208 228 255
208 228 255
208 228 255
208 228 255
208 228 255
208 228 255
208 228 255
208 228 255
208 228 255
208 228 255
208 228 255
208 228 255
208 228 255
208 228 255
208 228 255
208 228 255
208 228 255
208 228 255
207 228 255
207 228 255
207 228 255
207 228 255
207 228 255
207 228 255
207 228 255
207 228 255
207 228 255
207 228 255
207 228 255
207 228 255
207 228 255
207 228 255
207 227 255
207 227 255
207 227 255
207 227 255
206 227 255
206 227 255
206 227 255
206 227 255
206 227 255
206 227 255
206 227 255
206 227 255
206 227 255
206 227 255
206 227 255
206 227 255
206 227 255
206 227 255
206 227 255
206 227 255
206 227 255
205 227 255
205 227 255
205 227 255
205 227 255
205 227 255
205 227 255
205 227 255
205 227 255
205 227 255
205 227 255
205 226 255
205 226 255
205 226 255
205 226 255
205 226 255
205 226 255
205 226 255
204 226 255
204 226 255
204 226 255
204 226 255
204 226 255
204 226 255
204 226 255
204 226 255
204 226 255
204 226 255
204 226 255
204 226 255
204 226 255
204 226 255
204 226 255
204 226 255
203 226 255
203 226 255
203 226 255
203 226 255
203 226 255
203 226 255
203 226 255
203 226 255
203 225 255
203 225 255
203 225 255
203 225 255
203 225 255
203 225 255
203 225 255
203 225 255
203 225 255
203 225 255
202 225 255
202 225 255
202 225 255
202 225 255
202 225 255
202 225 255
202 225 255
202 225 255
202 225 255
202 225 255
202 225 255
202 225 255
202 225 255
202 225 255
202 225 255
202 225 255
202 225 255
202 225 255
202 225 255
202 225 255
202 225 255
201 225 255
201 225 255
201 225 255
201 225 255
201 225 255
201 225 255
201 225 255
201 225 255
201 224 255
201 224 255
201 224 255
201 224 255
201 224 255
201 224 255
201 224 255
201 224 255
201 224 255
201 224 255
201 224 255
201 224 255
201 224 255
201 224 255
201 224 255
201 224 255
201 224 255
201 224 255
201 224 255
201 224 255
201 224 255
201 224 255
201 224 255
201 224 255
201 224 255
201 224 255
201 224 255
201 224 255
201 224 255
201 224 255
201 224 255
201 224 255
201 224 255
201 224 255
201 224 255
201 224 255
201 224 255
201 224 255
201 224 255
201 224 255
201 224 255
201 224 255
201 224 255
201 224 255
201 224 255
201 224 255
201 224 255
201 224 255
201 224 255
201 224 255
201 224 255
201 224 255
201 224 255
201 224 255
201 224 255
201 225 255
201 225 255
201 225 255
201 225 255
201 225 255
201 225 255
201 225 255
201 225 255
201 225 255
201 225 255
202 225 255
202 225 255
202 225 255
202 225 255
202 225 255
202 225 255
202 225 255
202 225 255
202 225 255
202 225 255
202 225 255
202 225 255
202 225 255
202 225 255
202 225 255
202 225 255
202 225 255
202 225 255
202 225 255
202 225 255
203 225 255
203 225 255
203 225 255
203 225 255
203 225 255
203 225 255
203 225 255
203 225 255
203 225 255
203 225 255
203 226 255
203 226 255
203 226 255
203 226 255
203 226 255
203 226 255
203 226 255
203 226 255
204 226 255
204 226 255
204 226 255
204 226 255
204 226 255
204 226 255
204 226 255
204 226 255
204 226 255
204 226 255
204 226 255
204 226 255
204 226 255
204 226 255
204 226 255
204 226 255
205 226 255
205 226 255
205 226 255
205 226 255
205 226 255
205 226 255
205 226 255
205 227 255
205 227 255
205 227 255
205 227 255
205 227 255
205 227 255
205 227 255
205 227 255
205 227 255
205 227 255
206 227 255
206 227 255
206 227 255
206 227 255
206 227 255
206 227 255
206 227 255
206 227 255
206 227 255
206 227 255
206 227 255
206 227 255
206 227 255
206 227 255
206 227 255
206 227 255
206 227 255
207 227 255
207 227 255
207 227 255
207 227 255
207 228 255
207 228 255
207 228 255
207 228 255
207 228 255
207 228 255
207 228 255
207 228 255
207 228 255
207 228 255
207 228 255
207 228 255
207 228 255
207 228 255
208 228 255
208 228 255
208 228 255
208 228 255
208 228 255
208 228 255
208 228 255
208 228 255
208 228 255
208 228 255
208 228 255
208 228 255
208 228 255
208 228 255
208 228 255
208 228 255
208 228 255
208 228 255
208 228 255
209 228 255
209 228 255
209 229 255
209 229 255
209 229 255
209 229 255
209 229 255
209 229 255
209 229 255
209 229 255
209 229 255
209 229 255
209 229 255
209 229 255
209 229 255
209 229 255
209 229 255
209 229 255
209 229 255
209 229 255
209 229 255
209 229 255
209 229 255
210 229 255
210 229 255
210 229 255
210 229 255
210 229 255
210 229 255
210 229 255
210 229 255
210 229 255
210 229 255
210 229 255
210 229 255
210 229 255
210 229 255
210 229 255
210 229 255
210 229 255
210 229 255
210 229 255
210 229 255
210 229 255
210 229 255
210 229 255
210 229 255
210 229 255
210 229 255
210 229 255
210 229 255
210 229 255
210 229 255
210 229 255
210 229 255
210 229 255
210 229 255
209 229 255
209 229 255
209 229 255
209 229 255
209 229 255
209 229 255
209 229 255
209 229 255
209 229 255
209 229 255
209 229 255
209 229 255
209 229 255
209 229 255
209 229 255
209 229 255
209 229 255
209 229 255
209 229 255
209 229 255
209 228 255
209 228 255
208 228 255
208 228 255
208 228 255
208 228 255
208 228 255
208 228 255
208 228 255
208 228 255
208 228 255
208 228 255
208 228 255
208 228 255
208 228 255
208 228 255
208 228 255
208 228 255
208 228 255
208 228 255
208 228 255
208 228 255
207 228 255
207 228 255
207 228 255
207 228 255
207 228 255
207 228 255
207 228 255
207 228 255
207 228 255
207 228 255
207 228 255
207 228 255
207 228 255
207 227 255
207 227 255
207 227 255
207 227 255
206 227 255
206 227 255
206 227 255
206 227 255
206 227 255
206 227 255
206 227 255
206 227 255
206 227 255
206 227 255
206 227 255
206 227 255
206 227 255
206 227 255
206 227 255
206 227 255
206 227 255
205 227 255
205 227 255
205 227 255
205 227 255
205 227 255
205 227 255
205 227 255
205 227 255
205 227 255
205 227 255
205 226 255
205 226 255
205 226 255
205 226 255
205 226 255
205 226 255
205 226 255
204 226 255
204 226 255
204 226 255
204 226 255
204 226 255
204 226 255
204 226 255
204 226 255
204 226 255
204 226 255
204 226 255
204 226 255
204 226 255
204 226 255
204 226 255
204 226 255
204 226 255
203 226 255
203 226 255
203 226 255
203 226 255
203 226 255
203 226 255
203 226 255
203 225 255
203 225 255
203 225 255
203 225 255
203 225 255
203 225 255
203 225 255
203 225 255
203 225 255
203 225 255
202 225 255
202 225 255
202 225 255
202 225 255
202 225 255
202 225 255
202 225 255
202 225 255
202 225 255
202 225 255
202 225 255
202 225 255
202 225 255
202 225 255
202 225 255
202 225 255
202 225 255
202 225 255
202 225 255
202 225 255
202 225 255
202 225 255
202 225 255
202 225 255
201 225 255
201 225 255
201 225 255
201 225 255
201 225 255
201 225 255
201 225 255
201 225 255
201 225 255
201 225 255
201 224 255
201 224 255
201 224 255
201 224 255
201 224 255
201 224 255
201 224 255
201 224 255
201 224 255
201 224 255
201 224 255
201 224 255
201 224 255
201 224 255
201 224 255
201 224 255
201 224 255
201 224 255
201 224 255
201 224 255
201 224 255
201 224 255
201 224 255
201 224 255
201 224 255
201 224 255
201 224 255
201 224 255
201 224 255
201 224 255
201 224 255
201 224 255
201 224 255
201 224 255
201 224 255
201 224 255
201 224 255
201 224 255
201 224 255
201 224 255
201 224 255
201 225 255
201 225 255
201 225 255
201 225 255
201 225 255
201 225 255
201 225 255
201 225 255
201 225 255
202 225 255
202 225 255
202 225 255
202 225 255
202 225 255
202 225 255
202 225 255
202 225 255
202 225 255
202 225 255
202 225 255
202 225 255
202 225 255
202 225 255
202 225 255
202 225 255
202 225 255
202 225 255
202 225 255
202 225 255
202 225 255
202 225 255
202 225 255
202 225 255
203 225 255
203 225 255
203 225 255
203 225 255
203 225 255
203 225 255
203 225 255
203 225 255
203 225 255
203 225 255
203 226 255
203 226 255
203 226 255
203 226 255
203 226 255
203 226 255
203 226 255
204 226 255
204 226 255
204 226 255
204 226 255
204 226 255
204 226 255
204 226 255
204 226 255
204 226 255
204 226 255
204 226 255
204 226 255
204 226 255
204 226 255
204 226 255
204 226 255
204 226 255
205 226 255
205 226 255
205 226 255
205 226 255
205 226 255
205 226 255
205 226 255
205 227 255
205 227 255
205 227 255
205 227 255
205 227 255
205 227 255
205 227 255
205 227 255
205 227 255
205 227 255
206 227 255
206 227 255
206 227 255
206 227 255
206 227 255
206 227 255
206 227 255
206 227 255
206 227 255
206 227 255
206 227 255
206 227 255
206 227 255
206 227 255
206 227 255
206 227 255
207 227 255
207 227 255
207 227 255
207 227 255
207 227 255
207 228 255
207 228 255
207 228 255
207 228 255
207 228 255
207 228 255
207 228 255
207 228 255
207 228 255
207 228 255
207 228 255
207 228 255
207 228 255
208 228 255
208 228 255
208 228 255
208 228 255
208 228 255
208 228 255
208 228 255
208 228 255
208 228 255
208 228 255
208 228 255
208 228 255
208 228 255
208 228 255
208 228 255
208 228 255
208 228 255
208 228 255
208 228 255
208 228 255
209 228 255
209 229 255
209 229 255
209 229 255
209 229 255
209 229 255
209 229 255
209 229 255
209 229 255
209 229 255
209 229 255
209 229 255
209 229 255
209 229 255
209 229 255
209 229 255
209 229 255
209 229 255
209 229 255
209 229 255
209 229 255
209 229 255
210 229 255
210 229 255
210 229 255
210 229 255
210 229 255
210 229 255
210 229 255
210 229 255
210 229 255
210 229 255
210 229 255
210 229 255
210 229 255
210 229 255
210 229 255
210 229 255
210 229 255
210 229 255
210 229 255
210 230 255
210 229 255
210 229 255
210 229 255
210 229 255
210 229 255
210 229 255
210 229 255
210 229 255
210 229 255
210 229 255
210 229 255
210 229 255
210 229 255
210 229 255
210 229 255
210 229 255
210 229 255
210 229 255
210 229 255
210 229 255
210 229 255
210 229 255
209 229 255
209 229 255
209 229 255
209 229 255
209 229 255
209 229 255
209 229 255
209 229 255
209 229 255
209 229 255
209 229 255
209 229 255
209 229 255
209 229 255
209 229 255
209 229 255
209 229 255
209 229 255
209 229 255
209 229 255
209 228 255
209 228 255
208 228 255
208 228 255
208 228 255
208 228 255
208 228 255
208 228 255
208 228 255
208 228 255
208 228 255
208 228 255
208 228 255
208 228 255
208 228 255
208 228 255
208 228 255
208 228 255
208 228 255
208 228 255
208 228 255
207 228 255
207 228 255
207 228 255
207 228 255
207 228 255
207 228 255
207 228 255
207 228 255
207 228 255
207 228 255
207 228 255
207 228 255
207 228 255
207 228 255
207 227 255
207 227 255
207 227 255
207 227 255
206 227 255
206 227 255
206 227 255
206 227 255
206 227 255
206 227 255
206 227 255
206 227 255
206 227 255
206 227 255
206 227 255
206 227 255
206 227 255
206 227 255
206 227 255
206 227 255
206 227 255
205 227 255
205 227 255
205 227 255
205 227 255
205 227 255
205 227 255
205 227 255
205 227 255
205 227 255
205 227 255
205 226 255
205 226 255
205 226 255
205 226 255
205 226 255
205 226 255
204 226 255
204 226 255
204 226 255
204 226 255
204 226 255
204 226 255
204 226 255
204 226 255
204 226 255
204 226 255
204 226 255
204 226 255
204 226 255
204 226 255
204 226 255
204 226 255
204 226 255
203 226 255
203 226 255
203 226 255
203 226 255
203 226 255
203 226 255
203 226 255
203 226 255
203 225 255
203 225 255
203 225 255
203 225 255
203 225 255
203 225 255
203 225 255
203 225 255
203 225 255
203 225 255
203 225 255
202 225 255
202 225 255
202 225 255
202 225 255
202 225 255
202 225 255
202 225 255
202 225 255
202 225 255
202 225 255
202 225 255
202 225 255
202 225 255
202 225 255
202 225 255
202 225 255
202 225 255
202 225 255
202 225 255
202 225 255
202 225 255
202 225 255
202 225 255
202 225 255
202 225 255
202 225 255
201 225 255
201 225 255
201 225 255
201 225 255
201 225 255
201 225 255
201 225 255
201 225 255
201 225 255
201 225 255
201 225 255
201 225 255
201 225 255
201 225 255
201 225 255
201 225 255
201 225 255
201 224 255
201 224 255
201 224 255
201 224 255
201 224 255
201 224 255
201 224 255
201 224 255
201 224 255
201 224 255
201 224 255
201 224 255
201 224 255
201 225 255
201 225 255
201 225 255
201 225 255
201 225 255
201 225 255
201 225 255
201 225 255
201 225 255
201 225 255
201 225 255
201 225 255
201 225 255
201 225 255
201 225 255
201 225 255
202 225 255
202 225 255
202 225 255
202 225 255
202 225 255
202 225 255
202 225 255
202 225 255
202 225 255
202 225 255
202 225 255
202 225 255
202 225 255
202 225 255
202 225 255
202 225 255
202 225 255
202 225 255
202 225 255
202 225 255
202 225 255
202 225 255
202 225 255
202 225 255
202 225 255
202 225 255
203 225 255
203 225 255
203 225 255
203 225 255
203 225 255
203 225 255
203 225 255
203 225 255
203 225 255
203 225 255
203 225 255
203 226 255
203 226 255
203 226 255
203 226 255
203 226 255
203 226 255
203 226 255
203 226 255
204 226 255
204 226 255
204 226 255
204 226 255
204 226 255
204 226 255
204 226 255
204 226 255
204 226 255
204 226 255
204 226 255
204 226 255
204 226 255
204 226 255
204 226 255
204 226 255
204 226 255
205 226 255
205 226 255
205 226 255
205 226 255
205 226 255
205 226 255
205 227 255
205 227 255
205 227 255
205 227 255
205 227 255
205 227 255
205 227 255
205 227 255
205 227 255
205 227 255
206 227 255
206 227 255
206 227 255
206 227 255
206 227 255
206 227 255
206 227 255
206 227 255
206 227 255
206 227 255
206 227 255
206 227 255
206 227 255
206 227 255
206 227 255
206 227 255
206 227 255
207 227 255
207 227 255
207 227 255
207 227 255
207 228 255
207 228 255
207 228 255
207 228 255
207 228 255
207 228 255
207 228 255
207 228 255
207 228 255
207 228 255
207 228 255
207 228 255
207 228 255
207 228 255
208 228 255
208 228 255
208 228 255
208 228 255
208 228 255
208 228 255
208 228 255
208 228 255
208 228 255
208 228 255
208 228 255
208 228 255
208 228 255
208 228 255
208 228 255
208 228 255
208 228 255
208 228 255
208 228 255
208 228 255
209 228 255
209 229 255
209 229 255
209 229 255
209 229 255
209 229 255
209 229 255
209 229 255
209 229 255
209 229 255
209 229 255
209 229 255
209 229 255
209 229 255
209 229 255
209 229 255
209 229 255
209 229 255
209 229 255
209 229 255
209 229 255
210 229 255
210 229 255
210 229 255
210 229 255
210 229 255
210 229 255
210 229 255
210 229 255
210 229 255
210 229 255
210 229 255
210 229 255
210 229 255
210 229 255
210 229 255
210 229 255
210 229 255
210 229 255
210 229 255
210 229 255
210 229 255
210 229 255
210 230 255
211 230 255
211 230 255
210 230 255
210 230 255
210 230 255
210 229 255
210 229 255
210 229 255
210 229 255
210 229 255
210 229 255
210 229 255
210 229 255
210 229 255
210 229 255
210 229 255
210 229 255
210 229 255
210 229 255
210 229 255
210 229 255
210 229 255
210 229 255
210 229 255
210 229 255
210 229 255
210 229 255
209 229 255
209 229 255
209 229 255
209 229 255
209 229 255
209 229 255
209 229 255
209 229 255
209 229 255
209 229 255
209 229 255
209 229 255
209 229 255
209 229 255
209 229 255
209 229 255
209 229 255
209 229 255
209 229 255
209 229 255
209 228 255
208 228 255
208 228 255
208 228 255
208 228 255
208 228 255
208 228 255
208 228 255
208 228 255
208 228 255
208 228 255
208 228 255
208 228 255
208 228 255
208 228 255
208 228 255
208 228 255
208 228 255
208 228 255
208 228 255
207 228 255
207 228 255
207 228 255
207 228 255
207 228 255
207 228 255
207 228 255
207 228 255
207 228 255
207 228 255
207 228 255
207 228 255
207 228 255
207 228 255
207 227 255
207 227 255
207 227 255
207 227 255
206 227 255
206 227 255
206 227 255
206 227 255
206 227 255
206 227 255
206 227 255
206 227 255
206 227 255
206 227 255
206 227 255
206 227 255
206 227 255
206 227 255
206 227 255
206 227 255
206 227 255
205 227 255
205 227 255
205 227 255
205 227 255
205 227 255
205 227 255
205 227 255
205 227 255
205 227 255
205 227 255
205 226 255
205 226 255
205 226 255
205 226 255
205 226 255
205 226 255
205 226 255
204 226 255
204 226 255
204 226 255
204 226 255
204 226 255
204 226 255
204 226 255
204 226 255
204 226 255
204 226 255
204 226 255
204 226 255
204 226 255
204 226 255
204 226 255
204 226 255
204 226 255
203 226 255
203 226 255
203 226 255
203 226 255
203 226 255
203 226 255
203 226 255
203 226 255
203 225 255
203 225 255
203 225 255
203 225 255
203 225 255
203 225 255
203 225 255
203 225 255
203 225 255
203 225 255
203 225 255
203 225 255
202 225 255
202 225 255
202 225 255
202 225 255
202 225 255
202 225 255
202 225 255
202 225 255
202 225 255
202 225 255
202 225 255
202 225 255
202 225 255
202 225 255
202 225 255
202 225 255
202 225 255
202 225 255
202 225 255
202 225 255
202 225 255
202 225 255
202 225 255
202 225 255
202 225 255
202 225 255
202 225 255
202 225 255
202 225 255
202 225 255
202 225 255
202 225 255
201 225 255
201 225 255
201 225 255
201 225 255
201 225 255
201 225 255
201 225 255
201 225 255
201 225 255
201 225 255
201 225 255
201 225 255
201 225 255
201 225 255
201 225 255
201 225 255
201 225 255
201 225 255
201 225 255
201 225 255
201 225 255
201 225 255
201 225 255
201 225 255
201 225 255
202 225 255
202 225 255
202 225 255
202 225 255
202 225 255
202 225 255
202 225 255
202 225 255
202 225 255
202 225 255
202 225 255
202 225 255
202 225 255
202 225 255
202 225 255
202 225 255
202 225 255
202 225 255
202 225 255
202 225 255
202 225 255
202 225 255
202 225 255
202 225 255
202 225 255
202 225 255
202 225 255
202 225 255
202 225 255
202 225 255
202 225 255
203 225 255
203 225 255
203 225 255
203 225 255
203 225 255
203 225 255
203 225 255
203 225 255
203 225 255
203 225 255
203 225 255
203 225 255
203 226 255
203 226 255
203 226 255
203 226 255
203 226 255
203 226 255
203 226 255
203 226 255
204 226 255
204 226 255
204 226 255
204 226 255
204 226 255
204 226 255
204 226 255
204 226 255
204 226 255
204 226 255
204 226 255
204 226 255
204 226 255
204 226 255
204 226 255
204 226 255
204 226 255
205 226 255
205 226 255
205 226 255
205 226 255
205 226 255
205 226 255
205 226 255
205 227 255
205 227 255
205 227 255
205 227 255
205 227 255
205 227 255
205 227 255
205 227 255
205 227 255
205 227 255
206 227 255
206 227 255
206 227 255
206 227 255
206 227 255
206 227 255
206 227 255
206 227 255
206 227 255
206 227 255
206 227 255
206 227 255
206 227 255
206 227 255
206 227 255
206 227 255
206 227 255
207 227 255
207 227 255
207 227 255
207 227 255
207 228 255
207 228 255
207 228 255
207 228 255
207 228 255
207 228 255
207 228 255
207 228 255
207 228 255
207 228 255
207 228 255
207 228 255
207 228 255
207 228 255
208 228 255
208 228 255
208 228 255
208 228 255
208 228 255
208 228 255
208 228 255
208 228 255
208 228 255
208 228 255
208 228 255
208 228 255
208 228 255
208 228 255
208 228 255
208 228 255
208 228 255
208 228 255
208 228 255
209 228 255
209 229 255
209 229 255
209 229 255
209 229 255
209 229 255
209 229 255
209 229 255
209 229 255
209 229 255
209 229 255
209 229 255
209 229 255
209 229 255
209 229 255
209 229 255
209 229 255
209 229 255
209 229 255
209 229 255
209 229 255
210 229 255
210 229 255
210 229 255
210 229 255
210 229 255
210 229 255
210 229 255
210 229 255
210 229 255
210 229 255
210 229 255
210 229 255
210 229 255
210 229 255
210 229 255
210 229 255
210 229 255
210 229 255
210 229 255
210 229 255
210 229 255
210 229 255
210 230 255
210 230 255
210 230 255
211 230 255
211 230 255
211 230 255
211 230 255
211 230 255
211 230 255
211 230 255
211 230 255
211 230 255
210 230 255
210 230 255
210 229 255
210 229 255
210 229 255
210 229 255
210 229 255
210 229 255
210 229 255
210 229 255
210 229 255
210 229 255
210 229 255
210 229 255
210 229 255
210 229 255
210 229 255
210 229 255
210 229 255
210 229 255
210 229 255
210 229 255
210 229 255
209 229 255
209 229 255
209 229 255
209 229 255
209 229 255
209 229 255
209 229 255
209 229 255
209 229 255
209 229 255
209 229 255
209 229 255
209 229 255
209 229 255
209 229 255
209 229 255
209 229 255
209 229 255
209 229 255
209 229 255
209 228 255
208 228 255
208 228 255
208 228 255
208 228 255
208 228 255
208 228 255
208 228 255
208 228 255
208 228 255
208 228 255
208 228 255
208 228 255
208 228 255
208 228 255
208 228 255
208 228 255
208 228 255
208 228 255
208 228 255
208 228 255
207 228 255
207 228 255
207 228 255
207 228 255
207 228 255
207 228 255
207 228 255
207 228 255
207 228 255
207 228 255
207 228 255
207 228 255
207 228 255
207 227 255
207 227 255
207 227 255
207 227 255
206 227 255
206 227 255
206 227 255
206 227 255
206 227 255
206 227 255
206 227 255
206 227 255
206 227 255
206 227 255
206 227 255
206 227 255
206 227 255
206 227 255
206 227 255
206 227 255
206 227 255
206 227 255
205 227 255
205 227 255
205 227 255
205 227 255
205 227 255
205 227 255
205 227 255
205 227 255
205 227 255
205 227 255
205 226 255
205 226 255
205 226 255
205 226 255
205 226 255
205 226 255
204 226 255
204 226 255
204 226 255
204 226 255
204 226 255
204 226 255
204 226 255
204 226 255
204 226 255
204 226 255
204 226 255
204 226 255
204 226 255
204 226 255
204 226 255
204 226 255
204 226 255
204 226 255
203 226 255
203 226 255
203 226 255
203 226 255
203 226 255
203 226 255
203 226 255
203 226 255
203 226 255
203 225 255
203 225 255
203 225 255
203 225 255
203 225 255
203 225 255
203 225 255
203 225 255
203 225 255
203 225 255
203 225 255
203 225 255
202 225 255
202 225 255
202 225 255
202 225 255
202 225 255
202 225 255
202 225 255
202 225 255
202 225 255
202 225 255
202 225 255
202 225 255
202 225 255
202 225 255
202 225 255
202 225 255
202 225 255
202 225 255
202 225 255
202 225 255
202 225 255
202 225 255
202 225 255
202 225 255
202 225 255
202 225 255
202 225 255
202 225 255
202 225 255
202 225 255
202 225 255
202 225 255
202 225 255
202 225 255
202 225 255
202 225 255
202 225 255
202 225 255
202 225 255
202 225 255
202 225 255
202 225 255
202 225 255
202 225 255
202 225 255
202 225 255
202 225 255
202 225 255
202 225 255
202 225 255
202 225 255
202 225 255
202 225 255
202 225 255
202 225 255
202 225 255
202 225 255
202 225 255
202 225 255
202 225 255
202 225 255
202 225 255
202 225 255
202 225 255
202 225 255
202 225 255
202 225 255
202 225 255
202 225 255
202 225 255
202 225 255
202 225 255
202 225 255
202 225 255
202 225 255
202 225 255
202 225 255
202 225 255
203 225 255
203 225 255
203 225 255
203 225 255
203 225 255
203 225 255
203 225 255
203 225 255
203 225 255
203 225 255
203 225 255
203 225 255
203 226 255
203 226 255
203 226 255
203 226 255
203 226 255
203 226 255
203 226 255
203 226 255
203 226 255
204 226 255
204 226 255
204 226 255
204 226 255
204 226 255
204 226 255
204 226 255
204 226 255
204 226 255
204 226 255
204 226 255
204 226 255
204 226 255
204 226 255
204 226 255
204 226 255
204 226 255
204 226 255
205 226 255
205 226 255
205 226 255
205 226 255
205 226 255
205 226 255
205 227 255
205 227 255
205 227 255
205 227 255
205 227 255
205 227 255
205 227 255
205 227 255
205 227 255
205 227 255
206 227 255
206 227 255
206 227 255
206 227 255
206 227 255
206 227 255
206 227 255
206 227 255
206 227 255
206 227 255
206 227 255
206 227 255
206 227 255
206 227 255
206 227 255
206 227 255
206 227 255
206 227 255
207 227 255
207 227 255
207 227 255
207 227 255
207 228 255
207 228 255
207 228 255
207 228 255
207 228 255
207 228 255
207 228 255
207 228 255
207 228 255
207 228 255
207 228 255
207 228 255
207 228 255
208 228 255
208 228 255
208 228 255
208 228 255
208 228 255
208 228 255
208 228 255
208 228 255
208 228 255
208 228 255
208 228 255
208 228 255
208 228 255
208 228 255
208 228 255
208 228 255
208 228 255
208 228 255
208 228 255
209 228 255
209 228 255
209 229 255
209 229 255
209 229 255
209 229 255
209 229 255
209 229 255
209 229 255
209 229 255
209 229 255
209 229 255
209 229 255
209 229 255
209 229 255
209 229 255
209 229 255
209 229 255
209 229 255
209 229 255
209 229 255
209 229 255
210 229 255
210 229 255
210 229 255
210 229 255
210 229 255
210 229 255
210 229 255
210 229 255
210 229 255
210 229 255
210 229 255
210 229 255
210 229 255
210 229 255
210 229 255
210 229 255
210 229 255
210 229 255
210 229 255
210 229 255
210 229 255
210 230 255
210 230 255
210 230 255
211 230 255
211 230 255
211 230 255
211 230 255
211 230 255
211 230 255
211 230 255
211 230 255
211 230 255
211 230 255
211 230 255
211 230 255
211 230 255
211 230 255
211 230 255
211 230 255
210 230 255
210 230 255
210 230 255
210 229 255
210 229 255
210 229 255
210 229 255
210 229 255
210 229 255
210 229 255
210 229 255
210 229 255
210 229 255
210 229 255
210 229 255
210 229 255
210 229 255
210 229 255
210 229 255
210 229 255
210 229 255
210 229 255
210 229 255
210 229 255
209 229 255
209 229 255
209 229 255
209 229 255
209 229 255
209 229 255
209 229 255
209 229 255
208 228 255
208 228 255
208 228 255
207 228 255
207 228 255
207 228 255
207 228 255
207 228 255
206 227 255
206 227 255
206 227 255
207 228 255
207 227 255
207 228 255
207 228 255
208 228 255
208 228 255
208 228 255
208 228 255
208 228 255
208 228 255
208 228 255
208 228 255
208 228 255
208 228 255
208 228 255
208 228 255
208 228 255
208 228 255
208 228 255
208 228 255
208 228 255
207 228 255
207 228 255
207 228 255
207 228 255
207 228 255
207 228 255
207 228 255
207 228 255
207 228 255
207 228 255
207 228 255
207 228 255
207 228 255
207 228 255
207 227 255
207 227 255
207 227 255
207 227 255
206 227 255
206 227 255
206 227 255
206 227 255
206 227 255
206 227 255
206 227 255
206 227 255
206 227 255
206 227 255
206 227 255
206 227 255
206 227 255
206 227 255
206 227 255
206 227 255
206 227 255
205 227 255
205 227 255
205 227 255
205 227 255
205 227 255
205 227 255
205 227 255
205 227 255
205 227 255
205 227 255
205 226 255
205 226 255
205 226 255
205 226 255
205 226 255
205 226 255
205 226 255
204 226 255
204 226 255
204 226 255
204 226 255
204 226 255
204 226 255
204 226 255
204 226 255
204 226 255
204 226 255
204 226 255
204 226 255
204 226 255
204 226 255
204 226 255
204 226 255
204 226 255
204 226 255
203 226 255
203 226 255
203 226 255
203 226 255
203 226 255
203 226 255
203 226 255
203 226 255
203 226 255
203 226 255
203 225 255
203 225 255
203 225 255
203 225 255
203 225 255
203 225 255
203 225 255
203 225 255
203 225 255
203 225 255
203 225 255
203 225 255
203 225 255
202 225 255
202 225 255
202 225 255
202 225 255
202 225 255
202 225 255
202 225 255
202 225 255
202 225 255
202 225 255
202 225 255
202 225 255
202 225 255
202 225 255
202 225 255
202 225 255
202 225 255
202 225 255
202 225 255
202 225 255
202 225 255
202 225 255
202 225 255
202 225 255
202 225 255
202 225 255
202 225 255
202 225 255
202 225 255
202 225 255
202 225 255
202 225 255
202 225 255
202 225 255
202 225 255
202 225 255
202 225 255
202 225 255
202 225 255
202 225 255
202 225 255
202 225 255
202 225 255
202 225 255
202 225 255
202 225 255
202 225 255
202 225 255
202 225 255
202 225 255
202 225 255
202 225 255
202 225 255
202 225 255
202 225 255
202 225 255
202 225 255
202 225 255
202 225 255
202 225 255
202 225 255
202 225 255
202 225 255
202 225 255
202 225 255
202 225 255
203 225 255
203 225 255
203 225 255
203 225 255
203 225 255
203 225 255
203 225 255
203 225 255
203 225 255
203 225 255
203 225 255
203 225 255
203 225 255
203 225 255
203 226 255
203 226 255
203 226 255
203 226 255
203 226 255
203 226 255
203 226 255
203 226 255
204 226 255
204 226 255
204 226 255
204 226 255
204 226 255
204 226 255
204 226 255
204 226 255
204 226 255
204 226 255
204 226 255
204 226 255
204 226 255
204 226 255
204 226 255
204 226 255
204 226 255
204 226 255
204 226 255
205 226 255
205 226 255
205 226 255
205 226 255
205 226 255
205 226 255
205 226 255
205 227 255
205 227 255
205 227 255
205 227 255
205 227 255
205 227 255
205 227 255
205 227 255
205 227 255
205 227 255
206 227 255
206 227 255
206 227 255
206 227 255
206 227 255
206 227 255
206 227 255
206 227 255
206 227 255
206 227 255
206 227 255
206 227 255
206 227 255
206 227 255
206 227 255
206 227 255
206 227 255
207 227 255
207 227 255
207 227 255
207 227 255
207 228 255
207 228 255
207 228 255
207 228 255
207 228 255
207 228 255
207 228 255
207 228 255
207 228 255
207 228 255
207 228 255
207 228 255
207 228 255
207 228 255
208 228 255
208 228 255
208 228 255
208 228 255
208 228 255
208 228 255
208 228 255
208 228 255
208 228 255
208 228 255
208 228 255
208 228 255
207 227 253
204 223 247
191 207 223
196 213 234
193 210 229
189 205 223
191 206 221
177 189 198
185 198 208
181 195 207
174 186 195
182 194 200
171 182 186
178 190 201
182 196 209
180 191 197
185 199 210
178 191 202
190 204 217
192 207 222
195 210 226
199 216 237
201 219 243
208 227 253
209 229 255
209 229 255
209 229 255
209 229 255
210 229 255
210 229 255
210 229 255
210 229 255
210 229 255
210 229 255
210 229 255
210 229 255
210 229 255
210 229 255
210 229 255
210 229 255
210 229 255
210 229 255
210 229 255
210 229 255
210 229 255
210 229 255
210 229 255
210 229 255
210 229 255
210 230 255
210 230 255
210 230 255
211 230 255
211 230 255
211 230 255
211 230 255
211 230 255
211 230 255
211 230 255
211 230 255
211 230 255
211 230 255
211 230 255
211 230 255
211 230 255
211 230 255
211 230 255
211 230 255
211 230 255
211 230 255
211 230 255
211 230 255
211 230 255
211 230 255
211 230 255
211 230 255
210 230 255
210 230 255
210 230 255
210 229 255
210 229 255
210 229 255
210 229 255
210 229 255
210 229 255
210 229 255
210 229 255
210 229 255
210 229 255
210 229 255
210 229 255
210 229 255
209 229 255
209 229 255
208 228 255
207 228 255
207 228 255
206 227 255
205 226 255
204 226 255
203 226 255
203 225 255
202 225 255
202 225 255
202 225 255
201 224 255
201 224 255
200 224 255
200 224 255
200 224 255
200 224 255
199 224 255
199 224 255
199 224 255
199 223 255
199 223 255
199 224 255
199 223 255
199 223 255
200 224 255
200 224 255
200 224 255
200 224 255
201 224 255
202 225 255
202 225 255
203 226 255
204 226 255
205 227 255
206 227 255
207 227 255
207 228 255
208 228 255
208 228 255
208 228 255
208 228 255
208 228 255
208 228 255
208 228 255
208 228 255
207 228 255
207 228 255
207 228 255
207 228 255
207 228 255
207 228 255
207 228 255
207 228 255
207 228 255
207 228 255
207 228 255
207 228 255
207 228 255
207 227 255
207 227 255
207 227 255
207 227 255
206 227 255
206 227 255
206 227 255
206 227 255
206 227 255
206 227 255
206 227 255
206 227 255
206 227 255
206 227 255
206 227 255
206 227 255
206 227 255
206 227 255
206 227 255
206 227 255
206 227 255
206 227 255
205 227 255
205 227 255
205 227 255
205 227 255
205 227 255
205 227 255
205 227 255
205 227 255
205 227 255
205 227 255
205 226 255
205 226 255
205 226 255
205 226 255
205 226 255
205 226 255
205 226 255
204 226 255
204 226 255
204 226 255
204 226 255
204 226 255
204 226 255
204 226 255
204 226 255
204 226 255
204 226 255
204 226 255
204 226 255
204 226 255
204 226 255
204 226 255
204 226 255
204 226 255
204 226 255
204 226 255
203 226 255
203 226 255
203 226 255
203 226 255
203 226 255
203 226 255
203 226 255
203 226 255
203 226 255
203 225 255
203 225 255
203 225 255
203 225 255
203 225 255
203 225 255
203 225 255
203 225 255
203 225 255
203 225 255
203 225 255
203 225 255
203 225 255
203 225 255
203 225 255
203 225 255
202 225 255
202 225 255
202 225 255
202 225 255
202 225 255
202 225 255
202 225 255
202 225 255
202 225 255
202 225 255
202 225 255
202 225 255
202 225 255
202 225 255
202 225 255
202 225 255
202 225 255
202 225 255
202 225 255
202 225 255
202 225 255
202 225 255
202 225 255
202 225 255
202 225 255
202 225 255
202 225 255
202 225 255
202 225 255
202 225 255
202 225 255
202 225 255
202 225 255
202 225 255
202 225 255
202 225 255
202 225 255
202 225 255
202 225 255
202 225 255
202 225 255
202 225 255
202 225 255
202 225 255
202 225 255
202 225 255
202 225 255
202 225 255
202 225 255
202 225 255
202 225 255
202 225 255
203 225 255
203 225 255
203 225 255
203 225 255
203 225 255
203 225 255
203 225 255
203 225 255
203 225 255
203 225 255
203 225 255
203 225 255
203 225 255
203 225 255
203 225 255
203 226 255
203 226 255
203 226 255
203 226 255
203 226 255
203 226 255
203 226 255
203 226 255
203 226 255
203 226 255
204 226 255
204 226 255
204 226 255
204 226 255
204 226 255
204 226 255
204 226 255
204 226 255
204 226 255
204 226 255
204 226 255
204 226 255
204 226 255
204 226 255
204 226 255
204 226 255
204 226 255
204 226 255
204 226 255
205 226 255
205 226 255
205 226 255
205 226 255
205 226 255
205 226 255
205 226 255
205 227 255
205 227 255
205 227 255
205 227 255
205 227 255
205 227 255
205 227 255
205 227 255
205 227 255
205 227 255
206 227 255
206 227 255
206 227 255
206 227 255
206 227 255
206 227 255
206 227 255
206 227 255
206 227 255
206 227 255
206 227 255
206 227 255
206 227 255
206 227 255
206 227 255
206 227 255
206 227 255
206 227 255
207 227 255
207 227 255
207 227 255
207 227 255
207 228 255
207 228 255
207 228 255
207 228 255
207 228 255
207 228 255
207 228 255
207 228 255
207 228 255
207 228 255
207 228 255
207 228 255
207 228 255
208 228 255
208 228 255
208 228 255
208 228 255
208 228 255
208 228 255
208 228 255
206 225 252
193 211 231
192 207 222
178 190 200
177 187 188
160 169 167
146 149 127
132 134 112
128 127 94
131 129 86
117 115 77
136 134 89
136 133 88
127 125 83
133 131 87
131 129 86
128 126 84
129 127 84
133 131 87
135 132 86
138 136 91
142 140 93
139 136 90
136 134 89
140 136 90
120 118 79
127 125 82
129 127 84
128 125 83
135 132 87
126 123 82
129 127 84
133 129 87
143 142 108
152 155 136
157 164 158
143 148 140
168 179 182
177 189 198
184 198 211
196 212 233
205 223 246
210 229 255
210 229 255
210 229 255
210 229 255
210 229 255
210 229 255
210 229 255
210 229 255
210 229 255
210 229 255
210 229 255
210 229 255
210 230 255
210 230 255
210 230 255
211 230 255
211 230 255
211 230 255
211 230 255
211 230 255
211 230 255
211 230 255
211 230 255
211 230 255
211 230 255
211 230 255
211 230 255
211 230 255
211 230 255
211 230 255
211 230 255
211 230 255
211 230 255
211 230 255
211 230 255
211 230 255
211 230 255
211 230 255
211 230 255
211 230 255
211 230 255
211 230 255
211 230 255
211 230 255
211 230 255
211 230 255
211 230 255
210 230 255
210 230 255
210 230 255
210 229 255
210 229 255
210 229 255
209 229 255
208 228 255
207 228 255
206 227 255
205 227 255
204 226 255
203 226 255
203 225 255
202 225 255
201 225 255
201 224 255
200 224 255
200 224 255
199 224 255
199 223 255
198 223 255
198 223 255
198 223 255
198 223 255
197 222 255
197 222 255
197 222 255
196 222 255
196 222 255
196 222 255
196 222 255
196 222 255
196 221 255
196 222 255
196 221 255
195 221 255
195 221 255
196 221 255
195 221 255
195 221 255
195 221 255
196 221 255
196 222 255
196 222 255
196 222 255
197 222 255
197 222 255
197 222 255
198 223 255
198 223 255
199 223 255
200 224 255
202 225 255
203 226 255
204 226 255
205 227 255
206 227 255
208 228 255
208 228 255
208 228 255
208 228 255
208 228 255
207 228 255
207 228 255
207 228 255
207 228 255
207 228 255
207 228 255
207 228 255
207 228 255
207 228 255
207 228 255
207 228 255
207 228 255
207 228 255
207 228 255
207 227 255
207 227 255
207 227 255
207 227 255
206 227 255
206 227 255
206 227 255
206 227 255
206 227 255
206 227 255
206 227 255
206 227 255
206 227 255
206 227 255
206 227 255
206 227 255
206 227 255
206 227 255
206 227 255
206 227 255
206 227 255
205 227 255
205 227 255
205 227 255
205 227 255
205 227 255
205 227 255
205 227 255
205 227 255
205 227 255
205 227 255
205 227 255
205 226 255
205 226 255
205 226 255
205 226 255
205 226 255
205 226 255
205 226 255
204 226 255
204 226 255
204 226 255
204 226 255
204 226 255
204 226 255
204 226 255
204 226 255
204 226 255
204 226 255
204 226 255
204 226 255
204 226 255
204 226 255
204 226 255
204 226 255
204 226 255
204 226 255
204 226 255
204 226 255
203 226 255
203 226 255
203 226 255
203 226 255
203 226 255
203 226 255
203 226 255
203 226 255
203 226 255
203 226 255
203 225 255
203 225 255
203 225 255
203 225 255
203 225 255
203 225 255
203 225 255
203 225 255
203 225 255
203 225 255
203 225 255
203 225 255
203 225 255
203 225 255
203 225 255
203 225 255
203 225 255
203 225 255
203 225 255
203 225 255
202 225 255
202 225 255
202 225 255
202 225 255
202 225 255
202 225 255
202 225 255
202 225 255
202 225 255
202 225 255
202 225 255
202 225 255
202 225 255
202 225 255
202 225 255
202 225 255
202 225 255
202 225 255
202 225 255
202 225 255
202 225 255
202 225 255
202 225 255
202 225 255
202 225 255
202 225 255
202 225 255
202 225 255
202 225 255
202 225 255
202 225 255
202 225 255
203 225 255
203 225 255
203 225 255
203 225 255
203 225 255
203 225 255
203 225 255
203 225 255
203 225 255
203 225 255
203 225 255
203 225 255
203 225 255
203 225 255
203 225 255
203 225 255
203 225 255
203 225 255
203 225 255
203 226 255
203 226 255
203 226 255
203 226 255
203 226 255
203 226 255
203 226 255
203 226 255
203 226 255
203 226 255
203 226 255
204 226 255
204 226 255
204 226 255
204 226 255
204 226 255
204 226 255
204 226 255
204 226 255
204 226 255
204 226 255
204 226 255
204 226 255
204 226 255
204 226 255
204 226 255
204 226 255
204 226 255
204 226 255
204 226 255
204 226 255
205 226 255
205 226 255
205 226 255
205 226 255
205 226 255
205 226 255
205 226 255
205 227 255
205 227 255
205 227 255
205 227 255
205 227 255
205 227 255
205 227 255
205 227 255
205 227 255
205 227 255
206 227 255
206 227 255
206 227 255
206 227 255
206 227 255
206 227 255
206 227 255
206 227 255
206 227 255
206 227 255
206 227 255
206 227 255
206 227 255
206 227 255
206 227 255
206 227 255
206 227 255
206 227 255
207 227 255
207 227 255
207 227 255
207 227 255
207 228 255
207 228 255
207 228 255
207 228 255
207 228 255
207 228 255
207 228 255
207 228 255
207 228 255
207 228 255
207 228 255
207 228 255
207 228 255
207 228 255
208 228 255
208 228 255
208 228 255
208 228 255
204 224 249
191 207 225
178 190 196
168 180 185
164 172 167
148 148 116
134 133 89
127 125 83
128 125 83
136 134 90
126 124 83
129 128 86
128 125 83
129 127 84
134 132 87
127 126 84
130 128 85
124 122 81
139 138 92
138 135 90
131 129 86
132 130 87
138 136 91
136 135 90
135 133 87
137 135 90
133 131 87
130 128 85
135 132 87
143 141 93
135 132 87
139 136 88
134 131 87
138 136 90
135 132 87
143 140 93
140 137 87
133 130 86
132 129 85
143 140 93
122 120 79
129 125 83
138 134 88
136 134 87
137 133 87
124 122 80
131 128 84
127 124 81
146 147 120
165 169 157
164 171 165
187 200 213
195 210 228
202 220 244
210 229 255
210 229 255
210 230 255
210 230 255
210 230 255
211 230 255
211 230 255
211 230 255
211 230 255
211 230 255
211 230 255
211 230 255
211 230 255
211 230 255
211 230 255
211 230 255
211 230 255
211 230 255
211 230 255
211 230 255
211 230 255
211 230 255
211 230 255
211 230 255
211 230 255
211 230 255
211 230 255
211 230 255
211 230 255
211 230 255
211 230 255
211 230 255
211 230 255
211 230 255
211 230 255
211 230 255
211 230 255
211 230 255
211 230 255
211 230 255
211 230 255
210 230 255
210 229 255
209 228 255
208 228 255
206 227 255
204 226 255
204 226 255
203 225 255
202 225 255
201 225 255
201 224 255
200 224 255
200 224 255
199 223 255
199 223 255
198 223 255
198 223 255
197 223 255
197 222 255
197 222 255
196 222 255
196 222 255
196 222 255
195 221 255
195 221 255
195 221 255
195 221 255
194 221 255
194 221 255
194 221 255
194 220 255
193 220 255
193 220 255
193 220 255
193 220 255
193 220 255
193 220 255
193 220 255
193 220 255
193 220 255
193 220 255
193 220 255
193 220 255
193 220 255
193 220 255
193 220 255
193 220 255
193 220 255
193 220 255
194 221 255
194 221 255
194 221 255
195 221 255
195 221 255
196 222 255
196 222 255
197 222 255
198 223 255
199 223 255
201 225 255
203 226 255
205 227 255
206 227 255
207 228 255
208 228 255
208 228 255
208 228 255
207 228 255
207 228 255
207 228 255
207 228 255
207 228 255
207 228 255
207 228 255
207 228 255
207 228 255
207 228 255
207 228 255
207 228 255
207 228 255
207 227 255
207 227 255
207 227 255
207 227 255
207 227 255
206 227 255
206 227 255
206 227 255
206 227 255
206 227 255
206 227 255
206 227 255
206 227 255
206 227 255
206 227 255
206 227 255
206 227 255
206 227 255
206 227 255
206 227 255
206 227 255
206 227 255
205 227 255
205 227 255
205 227 255
205 227 255
205 227 255
205 227 255
205 227 255
205 227 255
205 227 255
205 227 255
205 227 255
205 226 255
205 226 255
205 226 255
205 226 255
205 226 255
205 226 255
205 226 255
204 226 255
204 226 255
204 226 255
204 226 255
204 226 255
204 226 255
204 226 255
204 226 255
204 226 255
204 226 255
204 226 255
204 226 255
204 226 255
204 226 255
204 226 255
204 226 255
204 226 255
204 226 255
204 226 255
204 226 255
204 226 255
203 226 255
203 226 255
203 226 255
203 226 255
203 226 255
203 226 255
203 226 255
203 226 255
203 226 255
203 226 255
203 226 255
203 226 255
203 225 255
203 225 255
203 225 255
203 225 255
203 225 255
203 225 255
203 225 255
203 225 255
203 225 255
203 225 255
203 225 255
203 225 255
203 225 255
203 225 255
203 225 255
203 225 255
203 225 255
203 225 255
203 225 255
203 225 255
203 225 255
203 225 255
203 225 255
203 225 255
203 225 255
203 225 255
203 225 255
203 225 255
203 225 255
203 225 255
203 225 255
203 225 255
203 225 255
203 225 255
203 225 255
203 225 255
203 225 255
203 225 255
203 225 255
203 225 255
203 225 255
203 225 255
203 225 255
203 225 255
203 225 255
203 225 255
203 225 255
203 225 255
203 225 255
203 225 255
203 225 255
203 225 255
203 225 255
203 225 255
203 225 255
203 225 255
203 225 255
203 225 255
203 226 255
203 226 255
203 226 255
203 226 255
203 226 255
203 226 255
203 226 255
203 226 255
203 226 255
203 226 255
203 226 255
203 226 255
204 226 255
204 226 255
204 226 255
204 226 255
204 226 255
204 226 255
204 226 255
204 226 255
204 226 255
204 226 255
204 226 255
204 226 255
204 226 255
204 226 255
204 226 255
204 226 255
204 226 255
204 226 255
204 226 255
204 226 255
204 226 255
205 226 255
205 226 255
205 226 255
205 226 255
205 226 255
205 226 255
205 226 255
205 227 255
205 227 255
205 227 255
205 227 255
205 227 255
205 227 255
205 227 255
205 227 255
205 227 255
205 227 255
205 227 255
206 227 255
206 227 255
206 227 255
206 227 255
206 227 255
206 227 255
206 227 255
206 227 255
206 227 255
206 227 255
206 227 255
206 227 255
206 227 255
206 227 255
206 227 255
206 227 255
206 227 255
207 227 255
207 227 255
207 227 255
207 227 255
207 227 255
207 228 255
207 228 255
207 228 255
207 228 255
207 228 255
207 228 255
207 228 255
207 228 255
207 228 255
207 228 255
207 228 255
207 228 255
207 228 255
208 228 255
208 228 255
208 228 255
202 220 242
188 204 221
182 194 201
152 158 144
132 132 99
120 118 79
130 128 86
139 137 91
136 135 90
134 132 88
128 126 84
138 136 90
138 136 91
141 139 93
133 131 87
141 139 93
140 138 93
136 134 89
125 124 83
141 140 94
134 132 88
134 133 89
139 137 91
137 135 90
134 132 88
132 131 87
139 138 92
137 135 90
137 134 90
136 133 89
138 136 90
134 132 88
132 130 87
137 134 88
138 136 90
138 136 90
143 141 95
144 142 95
138 136 90
138 135 89
143 141 94
143 140 93
136 134 89
143 140 92
132 131 87
142 139 93
151 148 97
121 119 78
127 124 80
131 128 84
131 127 84
135 132 87
141 138 90
131 127 84
139 135 88
126 125 83
138 135 87
131 129 84
132 128 83
134 134 103
157 161 148
180 191 196
193 208 221
205 223 246
211 230 255
211 230 255
211 230 255
211 230 255
211 230 255
211 230 255
211 230 255
211 230 255
211 230 255
211 230 255
211 230 255
211 230 255
211 230 255
211 230 255
211 230 255
211 230 255
211 230 255
211 230 255
211 230 255
211 230 255
211 230 255
211 230 255
211 230 255
211 230 255
211 230 255
211 230 255
211 230 255
211 230 255
211 230 255
211 230 255
211 230 255
211 230 255
211 230 255
210 229 255
208 228 255
207 228 255
206 227 255
205 226 255
204 226 255
203 225 255
202 225 255
201 225 255
201 224 255
200 224 255
200 224 255
199 223 255
199 223 255
198 223 255
198 223 255
197 222 255
197 222 255
196 222 255
196 222 255
196 222 255
195 221 255
195 221 255
195 221 255
194 221 255
194 221 255
194 220 255
193 220 255
193 220 255
193 220 255
193 220 255
192 220 255
192 220 255
192 220 255
192 219 255
192 219 255
191 219 255
191 219 255
191 219 255
191 219 255
191 219 255
191 219 255
191 219 255
191 219 255
190 219 255
190 219 255
190 219 255
190 219 255
190 219 255
191 219 255
191 219 255
191 219 255
191 219 255
191 219 255
191 219 255
191 219 255
192 220 255
192 220 255
192 220 255
193 220 255
193 220 255
194 221 255
195 221 255
195 221 255
196 222 255
198 223 255
199 223 255
201 225 255
203 226 255
205 227 255
207 228 255
208 228 255
208 228 255
208 228 255
207 228 255
207 228 255
207 228 255
207 228 255
207 228 255
207 228 255
207 228 255
207 228 255
207 228 255
207 228 255
207 228 255
207 228 255
207 228 255
207 227 255
207 227 255
207 227 255
207 227 255
206 227 255
206 227 255
206 227 255
206 227 255
206 227 255
206 227 255
206 227 255
206 227 255
206 227 255
206 227 255
206 227 255
206 227 255
206 227 255
206 227 255
206 227 255
206 227 255
206 227 255
206 227 255
205 227 255
205 227 255
205 227 255
205 227 255
205 227 255
205 227 255
205 227 255
205 227 255
205 227 255
205 227 255
205 227 255
205 226 255
205 226 255
205 226 255
205 226 255
205 226 255
205 226 255
205 226 255
204 226 255
204 226 255
204 226 255
204 226 255
204 226 255
204 226 255
204 226 255
204 226 255
204 226 255
204 226 255
204 226 255
204 226 255
204 226 255
204 226 255
204 226 255
204 226 255
204 226 255
204 226 255
204 226 255
204 226 255
204 226 255
204 226 255
204 226 255
203 226 255
203 226 255
203 226 255
203 226 255
203 226 255
203 226 255
203 226 255
203 226 255
203 226 255
203 226 255
203 226 255
203 226 255
203 226 255
203 226 255
203 226 255
203 225 255
203 225 255
203 225 255
203 225 255
203 225 255
203 225 255
203 225 255
203 225 255
203 225 255
203 225 255
203 225 255
203 225 255
203 225 255
203 225 255
203 225 255
203 225 255
203 225 255
203 225 255
203 225 255
203 225 255
203 225 255
203 225 255
203 225 255
203 225 255
203 225 255
203 225 255
203 225 255
203 225 255
203 225 255
203 225 255
203 225 255
203 225 255
203 225 255
203 225 255
203 225 255
203 225 255
203 225 255
203 225 255
203 225 255
203 225 255
203 226 255
203 226 255
203 226 255
203 226 255
203 226 255
203 226 255
203 226 255
203 226 255
203 226 255
203 226 255
203 226 255
203 226 255
203 226 255
203 226 255
204 226 255
204 226 255
204 226 255
204 226 255
204 226 255
204 226 255
204 226 255
204 226 255
204 226 255
204 226 255
204 226 255
204 226 255
204 226 255
204 226 255
204 226 255
204 226 255
204 226 255
204 226 255
204 226 255
204 226 255
204 226 255
204 226 255
204 226 255
205 226 255
205 226 255
205 226 255
205 226 255
205 226 255
205 226 255
205 226 255
205 226 255
205 227 255
205 227 255
205 227 255
205 227 255
205 227 255
205 227 255
205 227 255
205 227 255
205 227 255
205 227 255
205 227 255
206 227 255
206 227 255
206 227 255
206 227 255
206 227 255
206 227 255
206 227 255
206 227 255
206 227 255
206 227 255
206 227 255
206 227 255
206 227 255
206 227 255
206 227 255
206 227 255
206 227 255
206 227 255
207 227 255
207 227 255
207 227 255
207 227 255
207 228 255
207 228 255
207 228 255
207 228 255
207 228 255
207 228 255
207 228 255
207 228 255
207 228 255
207 228 255
207 228 255
207 228 255
207 228 255
207 228 255
208 228 255
208 228 255
203 221 244
179 194 208
160 168 165
138 139 115
127 124 83
132 129 85
125 124 83
132 131 87
131 130 87
139 138 93
122 121 81
134 133 89
138 136 90
142 140 94
131 130 87
135 134 90
140 138 93
140 138 93
136 135 90
140 138 92
139 137 92
135 134 90
137 135 90
144 142 95
129 128 85
130 128 86
140 138 92
139 136 91
129 129 87
136 134 89
133 132 89
139 137 91
144 142 94
141 139 93
131 129 86
136 134 89
139 136 90
141 138 92
139 137 91
145 142 93
144 141 93
141 139 92
135 133 88
134 131 87
141 140 93
128 125 83
128 125 83
142 139 92
138 135 90
141 138 92
145 142 94
134 132 87
130 127 84
140 138 91
138 136 90
137 133 86
150 147 97
140 137 89
138 135 88
141 139 91
140 136 90
135 131 85
124 121 79
136 132 85
127 124 81
134 131 86
130 126 81
135 131 84
141 143 124
162 169 162
178 189 193
203 220 241
210 229 254
211 230 255
211 230 255
211 230 255
211 230 255
211 230 255
211 230 255
211 230 255
211 230 255
211 230 255
211 230 255
211 230 255
211 230 255
211 230 255
212 230 255
212 230 255
212 230 255
212 230 255
211 230 255
211 230 255
211 230 255
211 230 255
211 230 255
211 230 255
211 230 255
210 230 255
209 229 255
208 228 255
206 227 255
205 226 255
204 226 255
203 225 255
202 225 255
201 225 255
201 224 255
200 224 255
200 224 255
199 223 255
199 223 255
198 223 255
198 223 255
197 222 255
197 222 255
196 222 255
196 222 255
196 222 255
195 221 255
195 221 255
195 221 255
194 221 255
194 221 255
194 220 255
193 220 255
193 220 255
193 220 255
192 220 255
192 220 255
192 219 255
192 219 255
191 219 255
191 219 255
191 219 255
191 219 255
190 219 255
190 219 255
190 219 255
190 218 255
190 218 255
189 218 255
189 218 255
189 218 255
189 218 255
189 218 255
189 218 255
189 218 255
189 218 255
189 218 255
189 218 255
189 218 255
189 218 255
189 218 255
189 218 255
189 218 255
189 218 255
189 218 255
189 218 255
190 218 255
190 218 255
190 219 255
190 219 255
191 219 255
191 219 255
192 219 255
192 220 255
193 220 255
194 221 255
194 221 255
196 222 255
197 222 255
198 223 255
201 224 255
204 226 255
206 227 255
207 228 255
208 228 255
208 228 255
207 228 255
207 228 255
207 228 255
207 228 255
207 228 255
207 228 255
207 228 255
207 228 255
207 228 255
207 228 255
207 228 255
207 228 255
207 228 255
207 228 255
207 227 255
207 227 255
207 227 255
207 227 255
206 227 255
206 227 255
206 227 255
206 227 255
206 227 255
206 227 255
206 227 255
206 227 255
206 227 255
206 227 255
206 227 255
206 227 255
206 227 255
206 227 255
206 227 255
206 227 255
206 227 255
206 227 255
205 227 255
205 227 255
205 227 255
205 227 255
205 227 255
205 227 255
205 227 255
205 227 255
205 227 255
205 227 255
205 227 255
205 226 255
205 226 255
205 226 255
205 226 255
205 226 255
205 226 255
205 226 255
205 226 255
204 226 255
204 226 255
204 226 255
204 226 255
204 226 255
204 226 255
204 226 255
204 226 255
204 226 255
204 226 255
204 226 255
204 226 255
204 226 255
204 226 255
204 226 255
204 226 255
204 226 255
204 226 255
204 226 255
204 226 255
204 226 255
204 226 255
204 226 255
204 226 255
204 226 255
204 226 255
203 226 255
203 226 255
203 226 255
203 226 255
203 226 255
203 226 255
203 226 255
203 226 255
203 226 255
203 226 255
203 226 255
203 226 255
203 226 255
203 226 255
203 226 255
203 226 255
203 226 255
203 226 255
203 226 255
203 226 255
203 226 255
203 226 255
203 226 255
203 226 255
203 226 255
203 226 255
203 226 255
203 226 255
203 226 255
203 226 255
203 226 255
203 226 255
203 226 255
203 226 255
203 226 255
203 226 255
203 226 255
203 226 255
203 226 255
203 226 255
203 226 255
203 226 255
203 226 255
203 226 255
203 226 255
203 226 255
203 226 255
203 226 255
203 226 255
203 226 255
203 226 255
203 226 255
203 226 255
203 226 255
204 226 255
204 226 255
204 226 255
204 226 255
204 226 255
204 226 255
204 226 255
204 226 255
204 226 255
204 226 255
204 226 255
204 226 255
204 226 255
204 226 255
204 226 255
204 226 255
204 226 255
204 226 255
204 226 255
204 226 255
204 226 255
204 226 255
204 226 255
204 226 255
204 226 255
204 226 255
205 226 255
205 226 255
205 226 255
205 226 255
205 226 255
205 226 255
205 226 255
205 226 255
205 227 255
205 227 255
205 227 255
205 227 255
205 227 255
205 227 255
205 227 255
205 227 255
205 227 255
205 227 255
205 227 255
206 227 255
206 227 255
206 227 255
206 227 255
206 227 255
206 227 255
206 227 255
206 227 255
206 227 255
206 227 255
206 227 255
206 227 255
206 227 255
206 227 255
206 227 255
206 227 255
206 227 255
206 227 255
207 227 255
207 227 255
207 227 255
207 227 255
207 228 255
207 228 255
207 228 255
207 228 255
207 228 255
207 228 255
207 228 255
207 228 255
207 228 255
207 228 255
207 228 255
207 228 255
207 228 255
207 228 255
208 228 255
208 228 255
202 220 244
178 192 205
169 178 179
145 147 124
126 124 83
131 129 86
135 133 89
136 134 90
137 135 90
136 135 91
131 130 87
140 138 92
138 137 92
122 121 81
144 141 94
134 133 89
138 136 91
139 137 92
134 133 89
133 132 89
132 131 87
137 134 90
142 140 94
134 133 89
137 135 90
138 136 91
143 141 95
139 137 92
139 137 92
151 149 100
137 136 91
142 140 94
142 141 95
128 125 83
139 138 93
142 140 94
140 138 93
133 132 88
135 133 89
146 144 96
138 136 90
141 138 92
150 148 99
138 136 91
145 142 95
133 130 87
141 138 92
148 145 96
143 140 93
135 132 87
142 138 92
148 144 95
144 141 94
141 138 92
137 133 86
132 129 84
145 143 95
141 138 92
146 142 94
138 137 91
137 134 88
136 134 88
131 130 84
133 130 85
142 138 90
143 139 91
131 129 83
138 134 84
132 129 82
136 134 87
124 121 79
135 132 84
141 138 88
123 120 77
136 132 84
133 131 85
141 142 114
161 169 167
188 200 209
209 227 251
211 230 255
211 230 255
211 230 255
211 230 255
211 230 255
211 230 255
212 230 255
212 230 255
212 230 255
212 230 255
212 230 255
212 230 255
212 230 255
212 230 255
212 230 255
212 230 255
212 230 255
211 230 255
210 229 255
208 228 255
207 227 255
205 227 255
205 226 255
204 226 255
203 225 255
202 225 255
202 225 255
201 224 255
200 224 255
200 224 255
199 223 255
199 223 255
198 223 255
198 223 255
197 222 255
197 222 255
196 222 255
196 222 255
196 221 255
195 221 255
195 221 255
194 221 255
194 221 255
194 220 255
193 220 255
193 220 255
193 220 255
192 220 255
192 220 255
192 219 255
191 219 255
191 219 255
191 219 255
191 219 255
190 219 255
190 219 255
190 219 255
190 218 255
189 218 255
189 218 255
189 218 255
189 218 255
189 218 255
188 218 255
188 218 255
188 218 255
188 217 255
188 217 255
188 217 255
188 217 255
188 217 255
187 217 255
187 217 255
187 217 255
187 217 255
187 217 255
187 217 255
187 217 255
187 217 255
187 217 255
187 217 255
187 217 255
188 217 255
188 217 255
188 218 255
188 218 255
188 218 255
189 218 255
189 218 255
189 218 255
190 219 255
190 219 255
191 219 255
192 219 255
193 220 255
193 220 255
194 221 255
195 221 255
197 222 255
198 223 255
202 225 255
205 226 255
207 228 255
208 228 255
208 228 255
208 228 255
207 228 255
207 228 255
207 228 255
207 228 255
207 228 255
207 228 255
207 228 255
207 228 255
207 228 255
207 228 255
207 228 255
207 228 255
207 228 255
207 228 255
207 227 255
207 227 255
207 227 255
207 227 255
206 227 255
206 227 255
206 227 255
206 227 255
206 227 255
206 227 255
206 227 255
206 227 255
206 227 255
206 227 255
206 227 255
206 227 255
206 227 255
206 227 255
206 227 255
206 227 255
206 227 255
206 227 255
206 227 255
205 227 255
205 227 255
205 227 255
205 227 255
205 227 255
205 227 255
205 227 255
205 227 255
205 227 255
205 227 255
205 227 255
205 226 255
205 226 255
205 226 255
205 226 255
205 226 255
205 226 255
205 226 255
205 226 255
204 226 255
204 226 255
204 226 255
204 226 255
204 226 255
204 226 255
204 226 255
204 226 255
204 226 255
204 226 255
204 226 255
204 226 255
204 226 255
204 226 255
204 226 255
204 226 255
204 226 255
204 226 255
204 226 255
204 226 255
204 226 255
204 226 255
204 226 255
204 226 255
204 226 255
204 226 255
204 226 255
204 226 255
204 226 255
204 226 255
203 226 255
203 226 255
203 226 255
203 226 255
203 226 255
203 226 255
203 226 255
203 226 255
203 226 255
203 226 255
203 226 255
203 226 255
203 226 255
203 226 255
203 226 255
203 226 255
203 226 255
203 226 255
203 226 255
203 226 255
203 226 255
203 226 255
203 226 255
203 226 255
203 226 255
203 226 255
203 226 255
203 226 255
203 226 255
203 226 255
203 226 255
203 226 255
203 226 255
203 226 255
203 226 255
203 226 255
204 226 255
204 226 255
204 226 255
204 226 255
204 226 255
204 226 255
204 226 255
204 226 255
204 226 255
204 226 255
204 226 255
204 226 255
204 226 255
204 226 255
204 226 255
204 226 255
204 226 255
204 226 255
204 226 255
204 226 255
204 226 255
204 226 255
204 226 255
204 226 255
204 226 255
204 226 255
204 226 255
204 226 255
204 226 255
205 226 255
205 226 255
205 226 255
205 226 255
205 226 255
205 226 255
205 226 255
205 226 255
205 226 255
205 227 255
205 227 255
205 227 255
205 227 255
205 227 255
205 227 255
205 227 255
205 227 255
205 227 255
205 227 255
205 227 255
205 227 255
206 227 255
206 227 255
206 227 255
206 227 255
206 227 255
206 227 255
206 227 255
206 227 255
206 227 255
206 227 255
206 227 255
206 227 255
206 227 255
206 227 255
206 227 255
206 227 255
206 227 255
206 227 255
207 227 255
207 227 255
207 227 255
207 227 255
207 228 255
207 228 255
207 228 255
207 228 255
207 228 255
207 228 255
207 228 255
207 228 255
207 228 255
207 228 255
207 228 255
207 228 255
207 228 255
207 228 255
208 228 255
208 228 255
207 227 254
203 221 242
167 178 184
144 150 141
133 130 87
138 137 92
137 135 90
128 126 84
125 124 84
135 134 90
144 143 96
135 133 89
140 138 93
137 135 90
134 133 89
142 140 94
143 141 95
132 131 88
142 141 95
144 142 95
141 140 94
132 131 88
137 135 90
144 142 95
139 137 92
143 142 95
147 146 98
142 140 94
150 148 99
144 142 95
145 143 95
142 140 94
140 138 93
146 144 96
140 139 93
142 140 93
142 140 94
141 140 93
139 136 90
152 150 101
139 136 91
147 145 97
142 140 94
143 141 94
147 144 96
144 142 94
135 133 89
146 144 96
150 148 99
145 142 94
150 148 98
142 140 93
142 140 93
138 136 90
139 137 90
137 134 89
139 137 90
128 126 84
149 145 96
142 139 91
141 138 92
153 149 97
143 140 92
145 141 93
130 128 84
142 138 89
136 133 87
150 148 97
141 138 91
119 117 77
139 134 87
138 135 89
139 135 87
131 127 82
140 136 89
136 133 87
135 132 85
136 132 84
141 138 90
141 137 85
143 139 88
128 125 80
136 132 83
130 127 82
151 156 144
173 185 194
197 212 229
212 230 255
212 230 255
212 230 255
212 230 255
212 230 255
212 230 255
212 230 255
212 230 255
212 230 255
212 230 255
212 230 255
211 230 255
210 229 255
208 228 255
207 227 255
206 227 255
204 226 255
204 226 255
203 225 255
202 225 255
202 225 255
201 224 255
200 224 255
200 224 255
199 224 255
199 223 255
198 223 255
198 223 255
197 222 255
197 222 255
197 222 255
196 222 255
196 222 255
195 221 255
195 221 255
195 221 255
194 221 255
194 221 255
193 220 255
193 220 255
193 220 255
192 220 255
192 220 255
192 219 255
191 219 255
191 219 255
191 219 255
191 219 255
190 219 255
190 219 255
190 218 255
190 218 255
189 218 255
189 218 255
189 218 255
189 218 255
188 218 255
188 218 255
188 217 255
188 217 255
187 217 255
187 217 255
187 217 255
187 217 255
187 217 255
187 217 255
187 217 255
186 217 255
186 217 255
186 217 255
186 217 255
186 217 255
186 216 255
186 216 255
186 216 255
186 216 255
186 216 255
186 216 255
186 216 255
186 217 255
186 217 255
186 217 255
186 217 255
187 217 255
187 217 255
187 217 255
187 217 255
188 217 255
188 218 255
188 218 255
189 218 255
189 218 255
190 219 255
191 219 255
192 219 255
192 220 255
194 220 255
194 221 255
196 222 255
198 223 255
201 224 255
205 226 255
207 228 255
208 228 255
208 228 255
208 228 255
208 228 255
207 228 255
207 228 255
207 228 255
207 228 255
207 228 255
207 228 255
207 228 255
207 228 255
207 228 255
207 228 255
207 228 255
207 228 255
207 228 255
207 228 255
207 227 255
207 227 255
207 227 255
207 227 255
206 227 255
206 227 255
206 227 255
206 227 255
206 227 255
206 227 255
206 227 255
206 227 255
206 227 255
206 227 255
206 227 255
206 227 255
206 227 255
206 227 255
206 227 255
206 227 255
206 227 255
206 227 255
206 227 255
205 227 255
205 227 255
205 227 255
205 227 255
205 227 255
205 227 255
205 227 255
205 227 255
205 227 255
205 227 255
205 227 255
205 227 255
205 226 255
205 226 255
205 226 255
205 226 255
205 226 255
205 226 255
205 226 255
205 226 255
205 226 255
204 226 255
204 226 255
204 226 255
204 226 255
204 226 255
204 226 255
204 226 255
204 226 255
204 226 255
204 226 255
204 226 255
204 226 255
204 226 255
204 226 255
204 226 255
204 226 255
204 226 255
204 226 255
204 226 255
204 226 255
204 226 255
204 226 255
204 226 255
204 226 255
204 226 255
204 226 255
204 226 255
204 226 255
204 226 255
204 226 255
204 226 255
204 226 255
204 226 255
204 226 255
204 226 255
204 226 255
204 226 255
204 226 255
204 226 255
204 226 255
204 226 255
204 226 255
204 226 255
204 226 255
204 226 255
204 226 255
204 226 255
204 226 255
204 226 255
204 226 255
204 226 255
204 226 255
204 226 255
204 226 255
204 226 255
204 226 255
204 226 255
204 226 255
204 226 255
204 226 255
204 226 255
204 226 255
204 226 255
204 226 255
204 226 255
204 226 255
204 226 255
204 226 255
204 226 255
204 226 255
204 226 255
204 226 255
204 226 255
204 226 255
204 226 255
204 226 255
204 226 255
204 226 255
204 226 255
204 226 255
204 226 255
204 226 255
204 226 255
204 226 255
205 226 255
205 226 255
205 226 255
205 226 255
205 226 255
205 226 255
205 226 255
205 226 255
205 226 255
205 227 255
205 227 255
205 227 255
205 227 255
205 227 255
205 227 255
205 227 255
205 227 255
205 227 255
205 227 255
205 227 255
205 227 255
206 227 255
206 227 255
206 227 255
206 227 255
206 227 255
206 227 255
206 227 255
206 227 255
206 227 255
206 227 255
206 227 255
206 227 255
206 227 255
206 227 255
206 227 255
206 227 255
206 227 255
206 227 255
206 227 255
207 227 255
207 227 255
207 227 255
207 227 255
207 228 255
207 228 255
207 228 255
207 228 255
207 228 255
207 228 255
207 228 255
207 228 255
207 228 255
207 228 255
207 228 255
207 228 255
207 228 255
207 228 255
208 228 255
208 228 255
208 228 255
208 228 255
201 218 239
167 178 181
148 150 126
131 129 86
133 132 88
129 128 86
138 136 91
132 131 87
135 132 88
143 141 95
130 129 87
136 134 90
137 136 91
139 138 93
140 139 93
138 137 92
146 144 96
145 144 97
149 149 100
135 134 90
143 142 95
139 138 93
144 142 95
130 130 87
149 147 99
150 149 100
141 140 94
141 139 93
137 136 91
145 143 96
141 140 94
146 144 96
145 143 95
138 136 91
155 153 103
142 141 95
145 145 97
141 138 92
147 145 97
147 145 97
136 136 91
135 132 88
145 143 96
136 134 89
156 154 103
145 143 95
156 153 102
159 156 104
137 135 90
150 147 98
145 144 96
141 139 93
147 144 95
138 136 90
140 138 92
147 144 95
147 145 97
138 135 90
147 143 94
144 142 95
145 143 94
142 139 92
142 140 93
140 137 90
148 145 96
140 137 90
147 144 95
140 138 91
147 145 96
143 141 93
140 137 90
144 140 92
144 141 93
141 137 90
142 139 90
142 139 91
143 140 90
126 123 80
134 131 83
138 134 87
144 140 90
137 133 87
145 141 90
125 122 79
140 135 87
136 131 82
141 138 89
134 131 84
143 139 87
147 149 125
180 190 193
195 210 227
212 230 255
212 230 255
212 230 255
212 230 255
212 230 255
212 230 255
211 230 255
209 229 255
207 228 255
206 227 255
205 227 255
204 226 255
203 226 255
203 225 255
202 225 255
201 225 255
201 224 255
200 224 255
200 224 255
199 223 255
199 223 255
198 223 255
198 223 255
197 222 255
197 222 255
196 222 255
196 222 255
196 222 255
195 221 255
195 221 255
194 221 255
194 221 255
194 221 255
193 220 255
193 220 255
193 220 255
192 220 255
192 220 255
192 219 255
191 219 255
191 219 255
191 219 255
191 219 255
190 219 255
190 219 255
190 218 255
189 218 255
189 218 255
189 218 255
189 218 255
188 218 255
188 218 255
188 217 255
188 217 255
187 217 255
187 217 255
187 217 255
187 217 255
187 217 255
186 217 255
186 217 255
186 217 255
186 216 255
186 216 255
186 216 255
185 216 255
185 216 255
185 216 255
185 216 255
185 216 255
185 216 255
185 216 255
185 216 255
185 216 255
185 216 255
185 216 255
185 216 255
185 216 255
185 216 255
185 216 255
185 216 255
185 216 255
186 216 255
186 216 255
186 216 255
186 217 255
186 217 255
187 217 255
187 217 255
188 217 255
188 218 255
189 218 255
189 218 255
190 219 255
191 219 255
192 220 255
193 220 255
194 221 255
196 222 255
198 223 255
201 225 255
205 227 255
207 228 255
208 228 255
208 228 255
208 228 255
208 228 255
208 228 255
207 228 255
207 228 255
207 228 255
207 228 255
207 228 255
207 228 255
207 228 255
207 228 255
207 228 255
207 228 255
207 228 255
207 228 255
207 228 255
207 228 255
207 227 255
207 227 255
207 227 255
207 227 255
206 227 255
206 227 255
206 227 255
206 227 255
206 227 255
206 227 255
206 227 255
206 227 255
206 227 255
206 227 255
206 227 255
206 227 255
206 227 255
206 227 255
206 227 255
206 227 255
206 227 255
206 227 255
206 227 255
205 227 255
205 227 255
205 227 255
205 227 255
205 227 255
205 227 255
205 227 255
205 227 255
205 227 255
205 227 255
205 227 255
205 227 255
205 227 255
205 226 255
205 226 255
205 226 255
205 226 255
205 226 255
205 226 255
205 226 255
205 226 255
205 226 255
205 226 255
204 226 255
204 226 255
204 226 255
204 226 255
204 226 255
204 226 255
204 226 255
204 226 255
204 226 255
204 226 255
204 226 255
204 226 255
204 226 255
204 226 255
204 226 255
204 226 255
204 226 255
204 226 255
204 226 255
204 226 255
204 226 255
204 226 255
204 226 255
204 226 255
204 226 255
204 226 255
204 226 255
204 226 255
204 226 255
204 226 255
204 226 255
204 226 255
204 226 255
204 226 255
204 226 255
204 226 255
204 226 255
204 226 255
204 226 255
204 226 255
204 226 255
204 226 255
204 226 255
204 226 255
204 226 255
204 226 255
204 226 255
204 226 255
204 226 255
204 226 255
204 226 255
204 226 255
204 226 255
204 226 255
204 226 255
204 226 255
204 226 255
204 226 255
204 226 255
204 226 255
204 226 255
204 226 255
204 226 255
204 226 255
204 226 255
204 226 255
204 226 255
204 226 255
204 226 255
204 226 255
204 226 255
204 226 255
205 226 255
205 226 255
205 226 255
205 226 255
205 226 255
205 226 255
205 226 255
205 226 255
205 226 255
205 226 255
205 227 255
205 227 255
205 227 255
205 227 255
205 227 255
205 227 255
205 227 255
205 227 255
205 227 255
205 227 255
205 227 255
205 227 255
206 227 255
206 227 255
206 227 255
206 227 255
206 227 255
206 227 255
206 227 255
206 227 255
206 227 255
206 227 255
206 227 255
206 227 255
206 227 255
206 227 255
206 227 255
206 227 255
206 227 255
206 227 255
206 227 255
206 227 255
207 227 255
207 227 255
207 227 255
207 227 255
207 228 255
207 228 255
207 228 255
207 228 255
207 228 255
207 228 255
207 228 255
207 228 255
207 228 255
207 228 255
207 228 255
207 228 255
207 228 255
207 228 255
208 228 255
208 228 255
208 228 255
208 228 255
208 228 255
199 218 241
158 168 171
141 144 126
122 121 80
130 129 86
134 132 88
141 140 94
140 139 93
127 126 84
134 133 89
140 138 93
139 138 93
139 137 92
138 137 92
144 143 96
146 144 97
144 142 95
144 143 96
142 142 95
137 137 92
139 138 93
142 140 94
141 140 94
142 140 94
136 135 91
148 146 98
148 147 99
135 134 90
151 149 100
146 145 97
145 144 97
142 141 95
142 140 94
136 135 90
140 138 93
145 143 96
148 146 97
146 144 96
148 147 98
145 144 97
145 143 96
143 141 95
152 150 101
144 141 94
150 148 97
147 144 96
137 135 90
158 157 105
149 147 97
147 145 96
149 147 98
156 154 103
146 143 95
137 135 90
147 144 95
145 143 96
149 147 98
139 137 91
136 133 88
149 147 98
136 134 89
145 143 93
154 151 100
150 147 97
145 142 93
155 151 98
149 146 96
147 145 94
134 133 88
138 134 88
134 132 88
142 140 93
147 144 93
150 146 96
141 137 90
145 142 92
134 131 86
148 144 94
148 145 93
141 136 89
134 131 85
137 134 85
137 135 87
147 142 92
135 131 87
129 126 81
128 124 78
142 138 89
140 137 89
138 134 86
134 130 84
125 122 77
130 127 80
133 130 84
139 134 84
141 142 118
172 183 190
201 217 237
212 230 255
210 229 255
208 228 255
207 227 255
205 227 255
205 226 255
204 226 255
203 226 255
203 225 255
202 225 255
201 225 255
201 224 255
200 224 255
200 224 255
199 223 255
199 223 255
198 223 255
198 223 255
197 222 255
197 222 255
197 222 255
196 222 255
196 222 255
195 221 255
195 221 255
195 221 255
194 221 255
194 221 255
193 220 255
193 220 255
193 220 255
192 220 255
192 220 255
192 219 255
191 219 255
191 219 255
191 219 255
191 219 255
190 219 255
190 219 255
190 218 255
189 218 255
189 218 255
189 218 255
189 218 255
188 218 255
188 218 255
188 217 255
188 217 255
187 217 255
187 217 255
187 217 255
187 217 255
186 217 255
186 217 255
186 216 255
186 216 255
186 216 255
185 216 255
185 216 255
185 216 255
185 216 255
185 216 255
185 216 255
185 216 255
184 216 255
184 216 255
184 216 255
184 216 255
184 215 255
184 215 255
184 215 255
184 215 255
184 215 255
184 215 255
184 215 255
184 215 255
184 216 255
184 216 255
184 216 255
184 216 255
185 216 255
185 216 255
185 216 255
185 216 255
186 216 255
186 216 255
186 217 255
187 217 255
187 217 255
188 217 255
188 218 255
189 218 255
190 218 255
191 219 255
192 219 255
193 220 255
194 221 255
196 222 255
198 223 255
202 225 255
206 227 255
208 228 255
208 228 255
208 228 255
208 228 255
208 228 255
208 228 255
208 228 255
207 228 255
207 228 255
207 228 255
207 228 255
207 228 255
207 228 255
207 228 255
207 228 255
207 228 255
207 228 255
207 228 255
207 228 255
207 228 255
207 228 255
207 227 255
207 227 255
207 227 255
207 227 255
206 227 255
206 227 255
206 227 255
206 227 255
206 227 255
206 227 255
206 227 255
206 227 255
206 227 255
206 227 255
206 227 255
206 227 255
206 227 255
206 227 255
206 227 255
206 227 255
206 227 255
206 227 255
206 227 255
206 227 255
205 227 255
205 227 255
205 227 255
205 227 255
205 227 255
205 227 255
205 227 255
205 227 255
205 227 255
205 227 255
205 227 255
205 227 255
205 227 255
205 227 255
205 226 255
205 226 255
205 226 255
205 226 255
205 226 255
205 226 255
205 226 255
205 226 255
205 226 255
205 226 255
205 226 255
205 226 255
204 226 255
204 226 255
204 226 255
204 226 255
204 226 255
204 226 255
204 226 255
204 226 255
204 226 255
204 226 255
204 226 255
204 226 255
204 226 255
204 226 255
204 226 255
204 226 255
204 226 255
204 226 255
204 226 255
204 226 255
204 226 255
204 226 255
204 226 255
204 226 255
204 226 255
204 226 255
204 226 255
204 226 255
204 226 255
204 226 255
204 226 255
204 226 255
204 226 255
204 226 255
204 226 255
204 226 255
204 226 255
204 226 255
204 226 255
204 226 255
204 226 255
204 226 255
204 226 255
204 226 255
204 226 255
204 226 255
204 226 255
204 226 255
204 226 255
204 226 255
204 226 255
204 226 255
204 226 255
204 226 255
204 226 255
204 226 255
205 226 255
205 226 255
205 226 255
205 226 255
205 226 255
205 226 255
205 226 255
205 226 255
205 226 255
205 226 255
205 226 255
205 226 255
205 227 255
205 227 255
205 227 255
205 227 255
205 227 255
205 227 255
205 227 255
205 227 255
205 227 255
205 227 255
205 227 255
205 227 255
205 227 255
206 227 255
206 227 255
206 227 255
206 227 255
206 227 255
206 227 255
206 227 255
206 227 255
206 227 255
206 227 255
206 227 255
206 227 255
206 227 255
206 227 255
206 227 255
206 227 255
206 227 255
206 227 255
206 227 255
206 227 255
207 227 255
207 227 255
207 227 255
207 227 255
207 227 255
207 228 255
207 228 255
207 228 255
207 228 255
207 228 255
207 228 255
207 228 255
207 228 255
207 228 255
207 228 255
207 228 255
207 228 255
207 228 255
207 228 255
208 228 255
208 228 255
208 228 255
208 228 255
208 228 255
208 228 255
203 222 248
182 194 203
140 146 138
138 136 91
128 127 85
142 140 93
124 123 82
130 128 86
126 125 84
140 138 93
141 141 95
143 143 96
136 135 91
143 142 95
137 137 92
144 144 97
142 141 95
144 142 95
138 137 92
142 142 95
152 151 102
155 153 103
149 148 99
137 136 91
143 143 97
143 141 94
151 150 101
144 143 96
150 148 99
144 143 96
147 146 98
149 147 99
145 143 95
153 151 101
153 152 102
144 143 96
146 145 97
146 144 97
144 142 95
141 140 94
148 147 98
141 140 94
149 148 99
150 149 99
143 141 93
148 145 97
150 147 97
151 149 99
149 146 97
148 146 97
152 149 98
152 150 100
150 148 99
146 144 96
149 147 99
148 146 96
147 144 96
146 143 95
142 140 93
142 139 92
144 141 93
148 144 95
143 141 93
148 144 95
150 146 97
153 150 98
150 147 97
143 140 93
146 143 94
148 145 97
153 149 98
143 140 92
145 140 91
146 142 93
136 133 88
147 143 91
147 143 93
141 138 90
144 141 92
145 143 90
149 145 93
148 144 94
122 119 76
140 137 90
140 138 89
143 139 90
142 139 90
136 133 84
132 129 83
134 130 83
133 130 82
131 128 83
130 127 84
135 132 86
135 130 84
131 128 81
125 122 75
130 128 80
139 135 87
130 126 80
145 141 90
153 157 140
206 227 255
205 227 255
204 226 255
204 226 255
203 226 255
202 225 255
202 225 255
201 225 255
201 224 255
200 224 255
200 224 255
199 224 255
199 223 255
198 223 255
198 223 255
197 223 255
197 222 255
197 222 255
196 222 255
196 222 255
195 221 255
195 221 255
195 221 255
194 221 255
194 221 255
194 220 255
193 220 255
193 220 255
193 220 255
192 220 255
192 220 255
192 219 255
191 219 255
191 219 255
191 219 255
190 219 255
190 219 255
190 218 255
190 218 255
189 218 255
189 218 255
189 218 255
188 218 255
188 218 255
188 217 255
188 217 255
187 217 255
187 217 255
187 217 255
187 217 255
186 217 255
186 217 255
186 216 255
186 216 255
186 216 255
185 216 255
185 216 255
185 216 255
185 216 255
185 216 255
184 216 255
184 216 255
184 216 255
184 215 255
184 215 255
184 215 255
184 215 255
184 215 255
183 215 255
183 215 255
183 215 255
183 215 255
183 215 255
183 215 255
183 215 255
183 215 255
183 215 255
183 215 255
183 215 255
183 215 255
184 215 255
184 215 255
184 215 255
184 215 255
184 216 255
184 216 255
185 216 255
185 216 255
185 216 255
186 216 255
186 217 255
187 217 255
187 217 255
188 218 255
189 218 255
190 218 255
191 219 255
192 219 255
193 220 255
195 221 255
197 222 255
200 224 255
204 226 255
207 228 255
208 228 255
208 228 255
208 228 255
208 228 255
208 228 255
208 228 255
208 228 255
208 228 255
207 228 255
207 228 255
207 228 255
207 228 255
207 228 255
207 228 255
207 228 255
207 228 255
207 228 255
207 228 255
207 228 255
207 228 255
207 228 255
207 228 255
207 227 255
207 227 255
207 227 255
207 227 255
207 227 255
206 227 255
206 227 255
206 227 255
206 227 255
206 227 255
206 227 255
206 227 255
206 227 255
206 227 255
206 227 255
206 227 255
206 227 255
206 227 255
206 227 255
206 227 255
206 227 255
206 227 255
206 227 255
206 227 255
206 227 255
206 227 255
205 227 255
205 227 255
205 227 255
205 227 255
205 227 255
205 227 255
205 227 255
205 227 255
205 227 255
205 227 255
205 227 255
205 227 255
205 227 255
205 227 255
205 227 255
205 227 255
205 226 255
205 226 255
205 226 255
205 226 255
205 226 255
205 226 255
205 226 255
205 226 255
205 226 255
205 226 255
205 226 255
205 226 255
205 226 255
205 226 255
204 226 255
204 226 255
204 226 255
204 226 255
204 226 255
204 226 255
204 226 255
204 226 255
204 226 255
204 226 255
204 226 255
204 226 255
204 226 255
204 226 255
204 226 255
204 226 255
204 226 255
204 226 255
204 226 255
204 226 255
204 226 255
204 226 255
204 226 255
204 226 255
204 226 255
204 226 255
204 226 255
204 226 255
204 226 255
204 226 255
204 226 255
204 226 255
204 226 255
204 226 255
204 226 255
205 226 255
205 226 255
205 226 255
205 226 255
205 226 255
205 226 255
205 226 255
205 226 255
205 226 255
205 226 255
205 226 255
205 226 255
205 226 255
205 226 255
205 226 255
205 226 255
205 227 255
205 227 255
205 227 255
205 227 255
205 227 255
205 227 255
205 227 255
205 227 255
205 227 255
205 227 255
205 227 255
205 227 255
205 227 255
205 227 255
205 227 255
206 227 255
206 227 255
206 227 255
206 227 255
206 227 255
206 227 255
206 227 255
206 227 255
206 227 255
206 227 255
206 227 255
206 227 255
206 227 255
206 227 255
206 227 255
206 227 255
206 227 255
206 227 255
206 227 255
206 227 255
206 227 255
207 227 255
207 227 255
207 227 255
207 227 255
207 227 255
207 228 255
207 228 255
207 228 255
207 228 255
207 228 255
207 228 255
207 228 255
207 228 255
207 228 255
207 228 255
207 228 255
207 228 255
207 228 255
207 228 255
208 228 255
208 228 255
208 228 255
208 228 255
208 228 255
208 228 255
208 228 255
208 228 255
189 205 223
161 172 178
133 132 99
133 131 87
133 132 88
143 141 94
134 132 88
128 127 85
144 142 95
132 131 88
130 129 87
143 142 95
147 146 98
140 139 93
146 145 97
139 137 92
140 140 94
147 145 97
139 138 93
147 146 98
140 139 93
145 144 97
136 135 90
141 140 94
144 144 97
149 148 99
150 149 100
147 147 99
140 140 94
146 144 97
147 145 97
140 139 94
153 152 102
158 155 104
146 144 97
157 155 104
143 142 95
148 146 97
140 138 92
152 151 101
147 146 97
147 144 96
154 152 101
148 146 98
154 152 102
150 149 99
152 150 100
155 152 101
147 145 97
133 132 89
145 143 95
142 140 94
151 149 99
149 146 96
156 153 101
153 150 99
148 145 95
150 147 97
158 155 100
138 136 90
144 142 95
142 140 93
143 141 94
151 149 99
145 142 94
151 148 98
146 143 94
154 149 96
145 143 93
153 150 99
155 152 99
151 148 97
149 146 95
145 142 92
143 139 91
147 145 95
149 146 95
149 146 95
143 140 90
140 137 87
145 141 90
152 149 97
145 141 94
141 138 88
150 147 95
141 138 89
154 150 99
144 141 91
144 141 90
146 142 93
134 130 85
142 139 89
146 143 93
143 140 88
138 134 87
142 139 90
144 140 90
138 135 89
144 140 88
127 123 76
133 129 83
141 137 85
138 134 86
134 130 82
205 226 255
204 226 255
203 226 255
203 225 255
202 225 255
202 225 255
201 224 255
201 224 255
200 224 255
200 224 255
199 223 255
199 223 255
198 223 255
198 223 255
197 222 255
197 222 255
197 222 255
196 222 255
196 222 255
195 221 255
195 221 255
195 221 255
194 221 255
194 221 255
194 220 255
193 220 255
193 220 255
193 220 255
192 220 255
192 220 255
192 219 255
191 219 255
191 219 255
191 219 255
190 219 255
190 219 255
190 218 255
189 218 255
189 218 255
189 218 255
189 218 255
188 218 255
188 218 255
188 217 255
188 217 255
187 217 255
187 217 255
187 217 255
187 217 255
186 217 255
186 217 255
186 216 255
186 216 255
185 216 255
185 216 255
185 216 255
185 216 255
185 216 255
184 216 255
184 216 255
184 215 255
184 215 255
184 215 255
184 215 255
183 215 255
183 215 255
183 215 255
183 215 255
183 215 255
183 215 255
183 215 255
183 215 255
183 215 255
183 215 255
182 215 255
182 215 255
182 215 255
182 215 255
183 215 255
183 215 255
183 215 255
183 215 255
183 215 255
183 215 255
183 215 255
183 215 255
184 215 255
184 215 255
184 215 255
184 216 255
185 216 255
185 216 255
186 216 255
186 217 255
187 217 255
187 217 255
188 218 255
189 218 255
190 219 255
191 219 255
193 220 255
194 221 255
196 222 255
198 223 255
202 225 255
206 227 255
208 228 255
208 228 255
208 228 255
208 228 255
208 228 255
208 228 255
208 228 255
208 228 255
208 228 255
208 228 255
207 228 255
207 228 255
207 228 255
207 228 255
207 228 255
207 228 255
207 228 255
207 228 255
207 228 255
207 228 255
207 228 255
207 228 255
207 228 255
207 228 255
207 228 255
207 227 255
207 227 255
207 227 255
207 227 255
207 227 255
206 227 255
206 227 255
206 227 255
206 227 255
206 227 255
206 227 255
206 227 255
206 227 255
206 227 255
206 227 255
206 227 255
206 227 255
206 227 255
206 227 255
206 227 255
206 227 255
206 227 255
206 227 255
206 227 255
206 227 255
206 227 255
206 227 255
205 227 255
205 227 255
205 227 255
205 227 255
205 227 255
205 227 255
205 227 255
205 227 255
205 227 255
205 227 255
205 227 255
205 227 255
205 227 255
205 227 255
205 227 255
205 227 255
205 227 255
205 227 255
205 226 255
205 226 255
205 226 255
205 226 255
205 226 255
205 226 255
205 226 255
205 226 255
205 226 255
205 226 255
205 226 255
205 226 255
205 226 255
205 226 255
205 226 255
205 226 255
205 226 255
205 226 255
205 226 255
205 226 255
205 226 255
205 226 255
205 226 255
205 226 255
205 226 255
205 226 255
205 226 255
205 226 255
205 226 255
205 226 255
205 226 255
205 226 255
205 226 255
205 226 255
205 226 255
205 226 255
205 226 255
205 226 255
205 226 255
205 226 255
205 226 255
205 226 255
205 226 255
205 226 255
205 226 255
205 226 255
205 226 255
205 226 255
205 227 255
205 227 255
205 227 255
205 227 255
205 227 255
205 227 255
205 227 255
205 227 255
205 227 255
205 227 255
205 227 255
205 227 255
205 227 255
205 227 255
205 227 255
205 227 255
205 227 255
205 227 255
206 227 255
206 227 255
206 227 255
206 227 255
206 227 255
206 227 255
206 227 255
206 227 255
206 227 255
206 227 255
206 227 255
206 227 255
206 227 255
206 227 255
206 227 255
206 227 255
206 227 255
206 227 255
206 227 255
206 227 255
206 227 255
206 227 255
207 227 255
207 227 255
207 227 255
207 227 255
207 227 255
207 228 255
207 228 255
207 228 255
207 228 255
207 228 255
207 228 255
207 228 255
207 228 255
207 228 255
207 228 255
207 228 255
207 228 255
207 228 255
207 228 255
207 228 255
208 228 255
208 228 255
208 228 255
208 228 255
208 228 255
208 228 255
208 228 255
208 228 255
208 228 255
208 228 254
188 203 217
150 154 137
120 118 78
136 134 90
141 140 94
143 141 95
137 135 91
131 130 87
138 137 92
133 132 88
128 127 85
144 142 95
138 137 92
142 142 95
138 138 93
141 141 95
136 135 90
149 148 100
141 140 94
146 145 97
144 142 95
150 148 99
145 144 97
132 130 87
147 146 98
149 147 99
149 147 99
139 138 93
143 142 95
144 144 97
152 151 101
144 142 95
148 146 98
148 147 99
154 153 103
145 144 97
148 146 97
151 148 99
154 152 101
155 152 101
148 146 98
141 139 93
143 141 95
152 150 100
140 138 91
147 145 97
152 149 99
148 146 97
153 151 101
155 153 101
156 154 103
155 153 102
152 149 99
138 136 90
146 143 95
147 144 94
152 150 100
148 145 96
147 145 97
145 141 93
153 150 99
147 143 95
150 147 96
154 150 99
149 145 96
147 144 95
148 145 95
145 143 95
139 136 90
146 144 95
148 145 96
149 145 96
144 141 93
153 150 99
148 144 94
146 144 93
152 149 99
150 146 94
145 143 93
143 140 92
152 149 95
154 150 98
147 144 95
141 138 91
146 142 92
152 148 96
151 147 96
146 143 92
147 144 95
136 134 88
143 140 90
140 137 89
143 139 89
150 145 94
150 146 95
141 138 91
136 134 85
134 130 82
128 125 81
145 141 90
146 142 92
134 130 84
136 133 82
126 123 80
123 119 76
125 121 76
203 226 255
203 225 255
202 225 255
202 225 255
201 225 255
201 224 255
200 224 255
200 224 255
199 224 255
199 223 255
199 223 255
198 223 255
198 223 255
197 222 255
197 222 255
197 222 255
196 222 255
196 222 255
195 221 255
195 221 255
195 221 255
194 221 255
194 221 255
194 220 255
193 220 255
193 220 255
193 220 255
192 220 255
192 220 255
192 219 255
191 219 255
191 219 255
191 219 255
190 219 255
190 219 255
190 218 255
190 218 255
189 218 255
189 218 255
189 218 255
188 218 255
188 218 255
188 217 255
188 217 255
187 217 255
187 217 255
187 217 255
187 217 255
186 217 255
186 217 255
186 216 255
186 216 255
185 216 255
185 216 255
185 216 255
185 216 255
185 216 255
184 216 255
184 216 255
184 215 255
184 215 255
184 215 255
183 215 255
183 215 255
183 215 255
183 215 255
183 215 255
183 215 255
183 215 255
182 215 255
182 215 255
182 215 255
182 215 255
182 214 255
182 214 255
182 214 255
182 214 255
182 214 255
182 214 255
182 214 255
182 214 255
182 214 255
182 214 255
182 215 255
182 215 255
182 215 255
183 215 255
183 215 255
183 215 255
183 215 255
184 215 255
184 215 255
184 216 255
185 216 255
185 216 255
186 216 255
186 217 255
187 217 255
188 217 255
188 218 255
189 218 255
190 219 255
192 219 255
193 220 255
195 221 255
198 223 255
202 225 255
207 227 255
208 228 255
208 228 255
208 228 255
208 228 255
208 228 255
208 228 255
208 228 255
208 228 255
208 228 255
208 228 255
208 228 255
208 228 255
208 228 255
207 228 255
207 228 255
207 228 255
207 228 255
207 228 255
207 228 255
207 228 255
207 228 255
207 228 255
207 228 255
207 228 255
207 228 255
207 228 255
207 228 255
207 228 255
207 227 255
207 227 255
207 227 255
207 227 255
207 227 255
206 227 255
206 227 255
206 227 255
206 227 255
206 227 255
206 227 255
206 227 255
206 227 255
206 227 255
206 227 255
206 227 255
206 227 255
206 227 255
206 227 255
206 227 255
206 227 255
206 227 255
206 227 255
206 227 255
206 227 255
206 227 255
206 227 255
206 227 255
205 227 255
205 227 255
205 227 255
205 227 255
205 227 255
205 227 255
205 227 255
205 227 255
205 227 255
205 227 255
205 227 255
205 227 255
205 227 255
205 227 255
205 227 255
205 227 255
205 227 255
205 227 255
205 227 255
205 227 255
205 227 255
205 227 255
205 227 255
205 227 255
205 227 255
205 227 255
205 226 255
205 226 255
205 226 255
205 226 255
205 226 255
205 226 255
205 226 255
205 226 255
205 226 255
205 226 255
205 226 255
205 226 255
205 226 255
205 226 255
205 226 255
205 226 255
205 226 255
205 226 255
205 226 255
205 226 255
205 227 255
205 227 255
205 227 255
205 227 255
205 227 255
205 227 255
205 227 255
205 227 255
205 227 255
205 227 255
205 227 255
205 227 255
205 227 255
205 227 255
205 227 255
205 227 255
205 227 255
205 227 255
205 227 255
205 227 255
205 227 255
205 227 255
205 227 255
205 227 255
205 227 255
205 227 255
206 227 255
206 227 255
206 227 255
206 227 255
206 227 255
206 227 255
206 227 255
206 227 255
206 227 255
206 227 255
206 227 255
206 227 255
206 227 255
206 227 255
206 227 255
206 227 255
206 227 255
206 227 255
206 227 255
206 227 255
206 227 255
206 227 255
206 227 255
207 227 255
207 227 255
207 227 255
207 227 255
207 227 255
207 228 255
207 228 255
207 228 255
207 228 255
207 228 255
207 228 255
207 228 255
207 228 255
207 228 255
207 228 255
207 228 255
207 228 255
207 228 255
207 228 255
207 228 255
208 228 255
208 228 255
208 228 255
208 228 255
208 228 255
208 228 255
208 228 255
208 228 255
208 228 255
208 228 255
208 228 255
208 228 255
205 225 251
178 188 191
150 152 127
127 125 84
141 139 93
133 131 88
143 141 95
134 133 89
149 148 99
145 143 96
144 143 96
145 144 96
141 140 94
146 144 97
145 144 97
143 142 95
133 133 90
151 149 100
142 141 95
146 145 97
146 145 97
149 148 100
146 145 98
147 146 98
142 141 95
145 143 96
144 142 95
152 150 101
149 147 99
146 145 97
142 141 95
149 147 98
145 143 96
155 154 103
147 145 97
151 150 101
152 151 101
151 149 100
152 150 101
142 140 94
152 150 100
145 143 95
142 140 94
148 148 99
146 143 95
145 143 95
151 148 99
143 141 94
151 149 100
153 151 101
151 150 101
160 157 104
147 145 97
151 149 99
155 153 101
152 150 99
140 137 91
149 146 97
156 153 102
147 144 95
146 144 95
158 155 103
149 146 97
155 152 101
148 145 97
153 151 100
154 152 100
155 153 102
151 148 98
143 141 93
146 144 95
147 144 93
149 146 97
144 141 93
153 149 98
146 143 93
146 143 95
144 142 93
144 141 93
143 140 91
143 141 92
161 157 102
146 144 94
156 152 99
146 143 93
144 140 91
154 151 97
146 143 95
155 151 97
144 140 93
147 143 90
154 150 96
135 132 85
144 140 88
141 138 90
141 138 88
140 137 89
138 134 87
146 141 90
146 142 93
136 133 84
137 133 84
140 136 87
137 134 86
141 137 87
138 135 85
140 137 88
145 141 90
132 130 80
203 225 255
202 225 255
202 225 255
201 224 255
201 224 255
200 224 255
200 224 255
199 223 255
199 223 255
198 223 255
198 223 255
198 223 255
197 222 255
197 222 255
197 222 255
196 222 255
196 222 255
195 221 255
195 221 255
195 221 255
194 221 255
194 221 255
194 221 255
193 220 255
193 220 255
193 220 255
192 220 255
192 220 255
192 220 255
191 219 255
191 219 255
191 219 255
191 219 255
190 219 255
190 219 255
190 218 255
189 218 255
189 218 255
189 218 255
189 218 255
188 218 255
188 218 255
188 217 255
187 217 255
187 217 255
187 217 255
187 217 255
186 217 255
186 217 255
186 216 255
186 216 255
185 216 255
185 216 255
185 216 255
185 216 255
185 216 255
184 216 255
184 216 255
184 215 255
184 215 255
184 215 255
183 215 255
183 215 255
183 215 255
183 215 255
183 215 255
183 215 255
182 215 255
182 215 255
182 215 255
182 214 255
182 214 255
182 214 255
182 214 255
182 214 255
182 214 255
182 214 255
182 214 255
181 214 255
181 214 255
181 214 255
182 214 255
182 214 255
182 214 255
182 214 255
182 214 255
182 214 255
182 214 255
182 215 255
182 215 255
183 215 255
183 215 255
183 215 255
183 215 255
184 215 255
184 216 255
185 216 255
185 216 255
186 216 255
187 217 255
187 217 255
188 218 255
189 218 255
190 219 255
191 219 255
193 220 255
195 221 255
197 222 255
201 225 255
206 227 255
208 228 255
208 228 255
208 228 255
208 228 255
208 228 255
208 228 255
208 228 255
208 228 255
208 228 255
208 228 255
208 228 255
208 228 255
208 228 255
208 228 255
208 228 255
207 228 255
207 228 255
207 228 255
207 228 255
207 228 255
207 228 255
207 228 255
207 228 255
207 228 255
207 228 255
207 228 255
207 228 255
207 228 255
207 228 255
207 228 255
207 228 255
207 227 255
207 227 255
207 227 255
207 227 255
207 227 255
206 227 255
206 227 255
206 227 255
206 227 255
206 227 255
206 227 255
206 227 255
206 227 255
206 227 255
206 227 255
206 227 255
206 227 255
206 227 255
206 227 255
206 227 255
206 227 255
206 227 255
206 227 255
206 227 255
206 227 255
206 227 255
206 227 255
206 227 255
206 227 255
206 227 255
206 227 255
206 227 255
205 227 255
205 227 255
205 227 255
205 227 255
205 227 255
205 227 255
205 227 255
205 227 255
205 227 255
205 227 255
205 227 255
205 227 255
205 227 255
205 227 255
205 227 255
205 227 255
205 227 255
205 227 255
205 227 255
205 227 255
205 227 255
205 227 255
205 227 255
205 227 255
204 226 255
201 223 253
202 224 254
201 223 253
198 220 251
204 226 255
205 227 255
205 227 255
205 227 255
205 227 255
205 227 255
205 227 255
205 227 255
205 227 255
205 227 255
205 227 255
205 227 255
205 227 255
205 227 255
205 227 255
205 227 255
205 227 255
205 227 255
205 227 255
205 227 255
205 227 255
205 227 255
205 227 255
205 227 255
205 227 255
206 227 255
206 227 255
206 227 255
206 227 255
206 227 255
206 227 255
206 227 255
206 227 255
206 227 255
206 227 255
206 227 255
206 227 255
206 227 255
206 227 255
206 227 255
206 227 255
206 227 255
206 227 255
206 227 255
206 227 255
206 227 255
206 227 255
206 227 255
206 227 255
206 227 255
206 227 255
206 227 255
207 227 255
207 227 255
207 227 255
207 227 255
207 227 255
207 228 255
207 228 255
207 228 255
207 228 255
207 228 255
207 228 255
207 228 255
207 228 255
207 228 255
207 228 255
207 228 255
207 228 255
207 228 255
207 228 255
207 228 255
207 228 255
208 228 255
208 228 255
208 228 255
208 228 255
208 228 255
208 228 255
208 228 255
208 228 255
208 228 255
208 228 255
208 228 255
208 228 255
208 228 255
208 228 255
206 226 252
174 185 189
139 140 114
130 129 86
135 134 90
133 132 88
138 136 91
134 131 88
134 132 88
131 130 87
135 134 90
141 139 93
142 140 94
139 138 93
150 149 100
146 145 97
142 141 95
143 142 96
141 140 94
149 147 99
147 145 97
151 150 101
156 155 104
152 151 101
148 148 99
153 152 102
143 142 95
153 152 102
155 154 103
150 148 99
152 150 101
154 153 103
151 149 100
144 143 96
150 148 99
161 159 106
142 141 95
147 145 97
154 152 101
147 146 97
157 155 104
152 150 100
152 150 100
152 150 100
157 155 103
143 141 94
153 150 100
153 151 101
149 148 99
153 151 101
149 147 98
157 154 102
153 150 99
152 151 101
150 148 98
159 155 103
148 145 96
152 149 98
152 150 100
154 151 100
155 152 101
159 155 102
149 146 97
154 150 99
145 142 94
157 152 99
155 152 100
156 152 100
148 145 95
144 142 94
149 147 97
154 152 102
158 155 102
160 156 103
152 149 97
152 148 97
155 152 99
143 141 93
157 153 100
145 142 94
144 141 92
149 146 96
153 149 98
158 155 99
157 153 101
156 151 97
148 145 95
152 148 97
152 148 95
148 145 95
146 143 92
142 140 90
140 137 88
139 136 85
152 148 97
148 144 93
143 140 92
140 136 87
141 137 87
147 144 93
137 133 84
147 143 91
145 141 88
146 143 90
140 137 89
138 132 84
138 134 86
135 131 82
139 136 87
141 137 86
147 142 87
202 225 255
202 225 255
201 224 255
201 224 255
200 224 255
200 224 255
199 223 255
199 223 255
199 223 255
198 223 255
198 223 255
197 222 255
197 222 255
197 222 255
196 222 255
196 222 255
196 222 255
195 221 255
195 221 255
195 221 255
194 221 255
194 221 255
194 220 255
193 220 255
193 220 255
193 220 255
192 220 255
192 220 255
192 219 255
191 219 255
191 219 255
191 219 255
191 219 255
190 219 255
190 219 255
190 218 255
189 218 255
189 218 255
189 218 255
189 218 255
188 218 255
188 217 255
188 217 255
187 217 255
187 217 255
187 217 255
187 217 255
186 217 255
186 217 255
186 216 255
186 216 255
185 216 255
185 216 255
185 216 255
185 216 255
185 216 255
184 216 255
184 216 255
184 215 255
184 215 255
183 215 255
183 215 255
183 215 255
183 215 255
183 215 255
183 215 255
182 215 255
182 215 255
182 215 255
182 214 255
182 214 255
182 214 255
182 214 255
182 214 255
181 214 255
181 214 255
181 214 255
181 214 255
181 214 255
181 214 255
181 214 255
181 214 255
181 214 255
181 214 255
181 214 255
181 214 255
181 214 255
181 214 255
182 214 255
182 214 255
182 214 255
182 214 255
182 215 255
183 215 255
183 215 255
183 215 255
184 215 255
184 216 255
184 216 255
185 216 255
186 216 255
186 217 255
187 217 255
188 218 255
189 218 255
190 219 255
191 219 255
193 220 255
195 221 255
197 222 255
201 224 255
206 227 255
208 228 255
208 228 255
208 228 255
208 228 255
208 228 255
208 228 255
208 228 255
208 228 255
208 228 255
208 228 255
208 228 255
208 228 255
208 228 255
208 228 255
208 228 255
208 228 255
208 228 255
208 228 255
207 228 255
207 228 255
207 228 255
207 228 255
207 228 255
207 228 255
207 228 255
207 228 255
207 228 255
207 228 255
207 228 255
207 228 255
207 228 255
207 228 255
207 228 255
207 228 255
207 227 255
207 227 255
207 227 255
207 227 255
207 227 255
207 227 255
206 227 255
206 227 255
206 227 255
206 227 255
206 227 255
206 227 255
206 227 255
206 227 255
206 227 255
206 227 255
206 227 255
206 227 255
206 227 255
206 227 255
206 227 255
206 227 255
206 227 255
206 227 255
206 227 255
206 227 255
206 227 255
206 227 255
206 227 255
206 227 255
206 227 255
206 227 255
206 227 255
206 227 255
206 227 255
206 227 255
206 227 255
206 227 255
206 227 255
205 227 255
205 227 255
205 227 255
205 227 255
204 225 254
195 216 248
166 189 229
148 171 218
131 156 208
117 144 201
88 118 186
83 114 183
62 99 177
62 99 178
62 99 174
62 99 178
62 99 178
62 99 179
68 103 181
104 132 193
116 142 199
122 147 203
145 169 216
166 189 230
182 204 239
205 226 255
205 227 255
205 227 255
205 227 255
205 227 255
206 227 255
206 227 255
206 227 255
206 227 255
206 227 255
206 227 255
206 227 255
206 227 255
206 227 255
206 227 255
206 227 255
206 227 255
206 227 255
206 227 255
206 227 255
206 227 255
206 227 255
206 227 255
206 227 255
206 227 255
206 227 255
206 227 255
206 227 255
206 227 255
206 227 255
206 227 255
206 227 255
206 227 255
206 227 255
206 227 255
206 227 255
206 227 255
206 227 255
207 227 255
207 227 255
207 227 255
207 227 255
207 227 255
207 227 255
207 228 255
207 228 255
207 228 255
207 228 255
207 228 255
207 228 255
207 228 255
207 228 255
207 228 255
207 228 255
207 228 255
207 228 255
207 228 255
207 228 255
207 228 255
207 228 255
208 228 255
208 228 255
208 228 255
208 228 255
208 228 255
208 228 255
208 228 255
208 228 255
208 228 255
208 228 255
208 228 255
208 228 255
208 228 255
208 228 255
208 228 255
208 228 255
208 228 255
208 227 253
172 184 190
123 124 99
142 140 93
138 136 91
135 133 89
140 139 93
141 140 94
132 130 87
139 138 93
144 143 96
148 147 98
139 138 93
141 140 95
152 150 101
147 146 99
144 142 95
143 142 95
149 147 99
155 153 103
145 144 96
151 149 100
144 143 97
146 146 98
152 151 101
152 151 101
148 147 99
151 148 99
145 144 97
153 152 102
151 149 99
154 153 103
153 151 101
152 150 100
143 142 95
154 152 102
149 147 99
146 144 96
149 147 98
145 143 96
158 155 103
145 143 95
154 152 101
156 154 103
151 149 99
150 148 99
148 147 99
153 151 101
152 150 100
154 152 101
161 158 105
153 151 100
157 156 104
160 156 104
149 147 98
154 151 101
151 149 99
149 147 98
158 155 102
159 156 103
152 149 99
146 143 95
156 154 102
158 155 103
144 142 94
157 154 101
147 145 97
156 153 100
160 157 104
152 149 97
158 156 104
155 153 101
150 147 97
141 138 92
151 147 97
151 148 98
156 152 101
154 150 98
150 146 96
155 152 99
153 150 99
146 144 95
153 148 95
154 151 97
153 150 99
147 145 95
151 147 93
144 140 90
148 145 94
150 146 95
150 146 93
147 142 93
154 151 99
140 137 89
153 149 97
152 148 93
148 145 95
151 148 96
150 145 95
138 135 86
151 147 95
135 133 85
147 144 94
154 149 94
137 132 82
146 142 93
134 130 81
131 129 83
143 139 88
138 135 87
145 141 86
147 143 93
139 135 87
202 225 255
201 224 255
201 224 255
200 224 255
200 224 255
199 224 255
199 223 255
199 223 255
198 223 255
198 223 255
198 223 255
197 222 255
197 222 255
196 222 255
196 222 255
196 222 255
195 221 255
195 221 255
195 221 255
194 221 255
194 221 255
194 221 255
193 220 255
193 220 255
193 220 255
193 220 255
192 220 255
192 220 255
192 219 255
191 219 255
191 219 255
191 219 255
190 219 255
190 219 255
190 219 255
190 218 255
189 218 255
189 218 255
189 218 255
189 218 255
188 218 255
188 218 255
188 217 255
187 217 255
187 217 255
187 217 255
187 217 255
186 217 255
186 217 255
186 216 255
186 216 255
185 216 255
185 216 255
185 216 255
185 216 255
185 216 255
184 216 255
184 216 255
184 215 255
184 215 255
184 215 255
183 215 255
183 215 255
183 215 255
183 215 255
183 215 255
182 215 255
182 215 255
182 214 255
182 214 255
182 214 255
182 214 255
182 214 255
181 214 255
181 214 255
181 214 255
181 214 255
181 214 255
181 214 255
181 214 255
181 214 255
181 214 255
181 214 255
181 214 255
181 214 255
181 214 255
181 214 255
181 214 255
181 214 255
181 214 255
181 214 255
182 214 255
182 214 255
182 214 255
182 215 255
182 215 255
183 215 255
183 215 255
183 215 255
184 215 255
184 216 255
185 216 255
186 216 255
186 217 255
187 217 255
188 218 255
189 218 255
190 219 255
191 219 255
193 220 255
195 221 255
197 222 255
202 225 255
207 227 255
209 228 255
208 228 255
208 228 255
208 228 255
208 228 255
208 228 255
208 228 255
208 228 255
208 228 255
208 228 255
208 228 255
208 228 255
208 228 255
208 228 255
208 228 255
208 228 255
208 228 255
208 228 255
208 228 255
208 228 255
208 228 255
207 228 255
207 228 255
207 228 255
207 228 255
207 228 255
207 228 255
207 228 255
207 228 255
207 228 255
207 228 255
207 228 255
207 228 255
207 228 255
207 228 255
207 228 255
207 228 255
207 228 255
207 227 255
207 227 255
207 227 255
207 227 255
207 227 255
207 227 255
207 227 255
206 227 255
206 227 255
206 227 255
206 227 255
206 227 255
206 227 255
206 227 255
206 227 255
206 227 255
206 227 255
206 227 255
206 227 255
206 227 255
206 227 255
206 227 255
206 227 255
206 227 255
206 227 255
206 227 255
206 227 255
206 227 255
206 227 255
206 227 255
206 227 255
206 227 255
206 227 255
204 225 254
174 196 233
143 166 214
100 128 189
76 109 179
63 100 179
62 99 174
62 99 175
62 99 177
63 99 176
62 99 174
62 99 177
62 99 175
62 99 179
62 98 172
62 99 172
62 99 177
63 100 175
62 99 172
62 99 175
62 98 175
62 98 170
62 99 179
61 98 171
62 99 179
76 109 181
106 133 195
153 176 220
185 207 242
206 227 255
206 227 255
206 227 255
206 227 255
206 227 255
206 227 255
206 227 255
206 227 255
206 227 255
206 227 255
206 227 255
206 227 255
206 227 255
206 227 255
206 227 255
206 227 255
206 227 255
206 227 255
206 227 255
206 227 255
206 227 255
206 227 255
206 227 255
206 227 255
206 227 255
206 227 255
206 227 255
206 227 255
207 227 255
207 227 255
207 227 255
207 227 255
207 227 255
207 227 255
207 228 255
207 228 255
207 228 255
207 228 255
207 228 255
207 228 255
207 228 255
207 228 255
207 228 255
207 228 255
207 228 255
207 228 255
207 228 255
207 228 255
207 228 255
207 228 255
207 228 255
208 228 255
208 228 255
208 228 255
208 228 255
208 228 255
208 228 255
208 228 255
208 228 255
208 228 255
208 228 255
208 228 255
208 228 255
208 228 255
208 228 255
208 228 255
208 228 255
208 228 255
208 228 255
208 228 255
208 228 255
207 227 253
180 193 203
140 140 109
129 127 84
139 137 91
140 138 92
132 130 87
136 134 90
136 135 91
144 142 96
137 136 91
138 136 91
144 142 95
138 136 91
146 144 97
143 142 96
148 147 99
139 138 93
150 148 100
153 152 102
147 146 98
148 147 99
145 145 97
151 150 101
152 150 100
152 150 100
152 150 101
147 146 98
147 145 97
148 146 98
153 151 101
146 144 97
152 150 101
150 149 100
159 156 104
153 151 101
148 147 99
151 149 100
151 149 100
154 152 102
157 155 104
149 149 100
156 154 103
152 150 101
159 157 105
148 146 98
150 148 99
155 153 102
152 150 100
147 144 96
158 156 104
163 159 106
157 156 104
157 154 103
158 155 103
154 152 101
153 150 99
156 153 101
148 146 97
154 151 100
153 150 99
153 151 100
158 155 103
153 151 101
148 146 97
159 156 103
165 161 106
152 149 98
147 144 95
155 153 101
149 146 96
155 153 100
154 151 101
159 156 102
158 154 101
148 145 95
150 146 95
147 144 93
153 151 100
147 144 95
149 146 96
148 144 94
151 148 97
149 145 95
149 145 93
151 147 93
147 143 93
143 139 90
156 152 98
147 142 91
157 153 100
155 151 99
150 146 96
147 143 92
150 146 96
151 148 96
145 142 93
150 146 95
144 140 88
148 143 89
144 141 90
152 148 96
148 144 93
143 139 87
151 147 94
143 139 90
142 138 89
143 139 88
146 142 90
152 147 95
146 142 88
140 137 88
142 139 88
147 143 93
141 137 84
201 225 255
201 224 255
200 224 255
200 224 255
200 224 255
199 223 255
199 223 255
198 223 255
198 223 255
198 223 255
197 222 255
197 222 255
197 222 255
196 222 255
196 222 255
196 222 255
195 221 255
195 221 255
195 221 255
194 221 255
194 221 255
194 221 255
193 220 255
193 220 255
193 220 255
193 220 255
192 220 255
192 220 255
192 219 255
191 219 255
191 219 255
191 219 255
191 219 255
190 219 255
190 219 255
190 218 255
189 218 255
189 218 255
189 218 255
189 218 255
188 218 255
188 218 255
188 217 255
188 217 255
187 217 255
187 217 255
187 217 255
187 217 255
186 217 255
186 217 255
186 216 255
186 216 255
185 216 255
185 216 255
185 216 255
185 216 255
184 216 255
184 216 255
184 215 255
184 215 255
184 215 255
183 215 255
183 215 255
183 215 255
183 215 255
183 215 255
182 215 255
182 215 255
182 214 255
182 214 255
182 214 255
182 214 255
182 214 255
181 214 255
181 214 255
181 214 255
181 214 255
181 214 255
181 214 255
181 214 255
181 214 255
181 214 255
181 214 255
181 214 255
181 214 255
181 214 255
181 214 255
181 214 255
181 214 255
181 214 255
181 214 255
181 214 255
181 214 255
181 214 255
182 214 255
182 214 255
182 214 255
182 215 255
183 215 255
183 215 255
183 215 255
184 215 255
184 216 255
185 216 255
186 216 255
186 217 255
187 217 255
188 218 255
189 218 255
190 219 255
192 219 255
193 220 255
196 222 255
199 223 255
203 225 255
207 228 255
209 229 255
209 229 255
209 228 255
209 228 255
208 228 255
208 228 255
208 228 255
208 228 255
208 228 255
208 228 255
208 228 255
208 228 255
208 228 255
208 228 255
208 228 255
208 228 255
208 228 255
208 228 255
208 228 255
208 228 255
208 228 255
208 228 255
208 228 255
208 228 255
207 228 255
207 228 255
207 228 255
207 228 255
207 228 255
207 228 255
207 228 255
207 228 255
207 228 255
207 228 255
207 228 255
207 228 255
207 228 255
207 228 255
207 228 255
207 228 255
207 228 255
207 228 255
207 228 255
207 227 255
207 227 255
207 227 255
207 227 255
207 227 255
207 227 255
207 227 255
206 227 255
206 227 255
206 227 255
206 227 255
206 227 255
206 227 255
206 227 255
206 227 255
206 227 255
206 227 255
206 227 255
206 227 255
206 227 255
206 227 255
206 227 255
206 227 255
205 226 255
186 208 240
121 147 202
71 105 178
63 100 181
61 98 175
62 99 176
61 98 174
62 99 179
62 99 176
63 99 175
61 98 178
62 99 175
62 99 177
62 99 175
62 99 171
62 99 175
62 99 170
62 98 174
62 99 177
61 98 172
62 99 177
62 99 173
61 98 170
62 99 175
62 98 172
63 99 173
62 99 177
62 99 180
62 99 176
62 99 175
62 99 178
70 105 181
140 164 212
163 186 227
205 226 255
206 227 255
206 227 255
206 227 255
206 227 255
206 227 255
206 227 255
206 227 255
206 227 255
206 227 255
206 227 255
206 227 255
206 227 255
206 227 255
206 227 255
206 227 255
206 227 255
207 227 255
207 227 255
207 227 255
207 227 255
207 227 255
207 227 255
207 227 255
207 228 255
207 228 255
207 228 255
207 228 255
207 228 255
207 228 255
207 228 255
207 228 255
207 228 255
207 228 255
207 228 255
207 228 255
207 228 255
207 228 255
207 228 255
207 228 255
207 228 255
207 228 255
207 228 255
208 228 255
208 228 255
208 228 255
208 228 255
208 228 255
208 228 255
208 228 255
208 228 255
208 228 255
208 228 255
208 228 255
208 228 255
208 228 255
208 228 255
208 228 255
208 228 255
208 228 255
208 228 255
208 228 255
208 228 255
209 228 255
209 228 255
209 229 255
209 229 255
185 199 211
152 158 144
130 128 85
134 131 87
137 134 90
134 133 90
148 146 97
137 136 91
133 131 87
139 137 92
147 146 98
142 141 95
147 145 97
148 146 97
139 138 93
148 147 99
147 145 97
147 146 98
145 144 97
146 145 97
154 153 103
146 145 98
148 146 98
153 152 102
145 144 97
149 147 99
148 147 99
153 151 101
149 147 99
153 151 101
150 149 100
143 142 95
153 151 101
155 153 102
154 152 102
151 148 99
151 149 99
150 147 98
154 152 102
155 153 103
142 140 93
154 152 102
152 150 101
154 152 101
158 157 106
151 148 99
155 152 101
151 149 100
155 153 102
157 154 102
157 154 102
159 156 104
157 155 103
156 153 101
165 162 108
157 154 102
148 146 97
148 145 96
149 148 99
148 146 97
151 149 99
155 152 101
154 151 101
155 152 99
155 153 99
152 150 100
154 152 100
162 158 103
149 145 95
156 153 99
159 155 101
151 148 97
149 147 97
158 155 101
155 152 99
155 152 101
150 146 97
158 153 100
154 152 99
157 153 99
154 150 98
152 149 98
143 138 88
159 153 100
148 145 95
147 143 92
153 148 97
153 149 98
154 150 97
148 144 95
145 141 92
148 144 91
152 148 94
156 152 98
148 144 93
154 150 98
146 143 93
142 138 89
138 135 87
149 146 94
156 152 97
158 153 97
155 151 98
150 145 92
145 141 90
147 144 91
147 144 93
156 151 95
143 139 88
158 153 96
150 145 92
147 143 93
140 136 85
140 135 87
138 134 84
135 131 80
201 224 255
201 224 255
200 224 255
200 224 255
199 224 255
199 223 255
199 223 255
198 223 255
198 223 255
198 223 255
197 222 255
197 222 255
197 222 255
196 222 255
196 222 255
196 222 255
195 221 255
195 221 255
195 221 255
194 221 255
194 221 255
194 221 255
194 220 255
193 220 255
193 220 255
193 220 255
192 220 255
192 220 255
192 219 255
191 219 255
191 219 255
191 219 255
191 219 255
190 219 255
190 219 255
190 218 255
190 218 255
189 218 255
189 218 255
189 218 255
188 218 255
188 218 255
188 217 255
188 217 255
187 217 255
187 217 255
187 217 255
187 217 255
186 217 255
186 217 255
186 216 255
186 216 255
185 216 255
185 216 255
185 216 255
185 216 255
185 216 255
184 216 255
184 216 255
184 215 255
184 215 255
184 215 255
183 215 255
183 215 255
183 215 255
183 215 255
183 215 255
182 215 255
182 215 255
182 214 255
182 214 255
182 214 255
182 214 255
181 214 255
181 214 255
181 214 255
181 214 255
181 214 255
181 214 255
181 214 255
181 214 255
181 214 255
181 214 255
181 214 255
181 214 255
181 214 255
181 214 255
181 214 255
181 214 255
181 214 255
181 214 255
181 214 255
181 214 255
181 214 255
181 214 255
181 214 255
182 214 255
182 214 255
182 214 255
182 215 255
183 215 255
183 215 255
184 215 255
184 215 255
185 216 255
185 216 255
186 216 255
187 217 255
187 217 255
188 218 255
189 218 255
191 219 255
192 220 255
194 221 255
196 222 255
199 223 255
205 227 255
209 228 255
209 229 255
209 229 255
209 229 255
209 229 255
209 229 255
209 228 255
209 228 255
208 228 255
208 228 255
208 228 255
208 228 255
208 228 255
208 228 255
208 228 255
208 228 255
208 228 255
208 228 255
208 228 255
208 228 255
208 228 255
208 228 255
208 228 255
208 228 255
208 228 255
208 228 255
208 228 255
208 228 255
208 228 255
207 228 255
207 228 255
207 228 255
207 228 255
207 228 255
207 228 255
207 228 255
207 228 255
207 228 255
207 228 255
207 228 255
207 228 255
207 228 255
207 228 255
207 228 255
207 228 255
207 228 255
207 228 255
207 228 255
207 228 255
207 228 255
207 227 255
207 227 255
207 227 255
207 227 255
207 227 255
207 227 255
207 227 255
207 227 255
206 227 255
206 227 255
206 227 255
206 227 255
206 227 255
183 205 240
140 164 210
71 105 176
62 99 179
62 99 174
62 99 174
62 99 173
63 100 175
63 99 172
62 99 171
62 99 175
62 99 171
62 99 171
62 99 171
62 99 173
62 98 170
61 98 168
62 99 173
62 99 174
62 98 168
62 98 173
62 99 172
62 99 171
62 98 171
62 98 170
62 99 169
63 99 176
62 98 168
63 99 173
62 98 172
63 99 173
61 98 175
62 98 174
62 99 175
62 99 176
62 99 175
62 99 175
76 109 179
136 160 210
185 206 240
205 226 255
206 227 255
206 227 255
206 227 255
206 227 255
207 227 255
207 227 255
207 227 255
207 227 255
207 227 255
207 227 255
207 227 255
207 227 255
207 228 255
207 228 255
207 228 255
207 228 255
207 228 255
207 228 255
207 228 255
207 228 255
207 228 255
207 228 255
207 228 255
207 228 255
207 228 255
207 228 255
207 228 255
207 228 255
207 228 255
207 228 255
207 228 255
207 228 255
207 228 255
208 228 255
208 228 255
208 228 255
208 228 255
208 228 255
208 228 255
208 228 255
208 228 255
208 228 255
208 228 255
208 228 255
208 228 255
208 228 255
208 228 255
208 228 255
208 228 255
208 228 255
208 228 255
208 228 255
208 228 255
208 228 255
208 228 255
209 228 255
209 229 255
209 229 255
209 229 255
209 229 255
209 229 255
207 225 248
157 163 155
134 131 88
131 130 87
135 133 89
145 143 95
143 141 94
150 148 99
143 142 95
143 141 94
147 145 97
139 138 93
140 138 93
133 131 88
142 140 94
143 142 95
137 136 91
149 148 99
150 149 101
148 147 99
150 149 100
144 143 96
155 154 103
149 147 98
156 154 103
155 153 103
152 150 101
158 157 105
153 152 102
152 151 101
149 148 99
159 157 104
161 158 106
141 140 94
162 159 106
154 152 101
155 154 103
151 149 99
160 157 105
159 157 105
156 154 103
159 157 104
154 152 101
160 157 104
154 151 101
150 148 99
148 145 97
154 151 100
157 155 103
157 154 103
155 152 101
150 147 98
153 151 101
157 154 103
158 155 103
149 148 99
160 156 103
151 149 98
156 153 100
153 150 99
157 154 101
149 146 95
163 160 106
159 156 102
154 151 98
162 158 104
157 154 101
154 151 100
158 155 101
152 149 97
153 150 99
155 152 101
156 153 101
151 149 97
151 147 97
147 144 95
164 160 104
152 149 97
153 149 97
159 156 102
162 158 103
161 157 103
151 148 97
154 150 97
158 154 101
151 147 93
159 155 98
157 154 101
161 158 103
153 150 97
154 151 98
158 153 97
151 148 96
150 147 96
152 148 97
152 148 94
145 143 91
159 154 101
155 151 97
139 136 88
156 151 97
153 148 94
153 149 97
153 148 95
153 148 95
146 142 93
144 140 90
146 142 91
148 145 93
142 138 87
151 146 90
147 142 91
157 152 95
155 149 92
145 141 89
136 131 81
146 142 91
135 131 83
201 224 255
200 224 255
200 224 255
200 224 255
199 223 255
199 223 255
199 223 255
198 223 255
198 223 255
198 223 255
197 222 255
197 222 255
197 222 255
196 222 255
196 222 255
196 222 255
195 221 255
195 221 255
195 221 255
194 221 255
194 221 255
194 221 255
194 220 255
193 220 255
193 220 255
193 220 255
192 220 255
192 220 255
192 220 255
192 219 255
191 219 255
191 219 255
191 219 255
191 219 255
190 219 255
190 219 255
190 218 255
189 218 255
189 218 255
189 218 255
189 218 255
188 218 255
188 218 255
188 217 255
188 217 255
187 217 255
187 217 255
187 217 255
187 217 255
186 217 255
186 217 255
186 216 255
186 216 255
185 216 255
185 216 255
185 216 255
185 216 255
185 216 255
184 216 255
184 216 255
184 215 255
184 215 255
184 215 255
183 215 255
183 215 255
183 215 255
183 215 255
183 215 255
182 215 255
182 215 255
182 214 255
182 214 255
182 214 255
182 214 255
182 214 255
181 214 255
181 214 255
181 214 255
181 214 255
181 214 255
181 214 255
181 214 255
181 214 255
181 214 255
181 214 255
181 214 255
181 214 255
181 214 255
181 214 255
181 214 255
181 214 255
181 214 255
181 214 255
181 214 255
181 214 255
181 214 255
181 214 255
181 214 255
182 214 255
182 214 255
182 215 255
182 215 255
183 215 255
183 215 255
184 215 255
184 216 255
185 216 255
185 216 255
186 217 255
187 217 255
188 217 255
189 218 255
190 219 255
191 219 255
193 220 255
195 221 255
197 222 255
201 225 255
206 227 255
209 229 255
209 229 255
209 229 255
209 229 255
209 229 255
209 229 255
209 229 255
209 229 255
209 229 255
209 228 255
209 228 255
208 228 255
208 228 255
208 228 255
208 228 255
208 228 255
208 228 255
208 228 255
208 228 255
208 228 255
208 228 255
208 228 255
208 228 255
208 228 255
208 228 255
208 228 255
208 228 255
208 228 255
208 228 255
208 228 255
208 228 255
208 228 255
208 228 255
208 228 255
207 228 255
207 228 255
207 228 255
207 228 255
207 228 255
207 228 255
207 228 255
207 228 255
207 228 255
207 228 255
207 228 255
207 228 255
207 228 255
207 228 255
207 228 255
207 228 255
207 228 255
207 228 255
207 228 255
207 228 255
207 228 255
207 228 255
207 228 255
207 227 255
206 227 255
164 186 225
104 132 193
62 99 174
63 99 177
62 99 176
62 99 173
62 99 174
62 98 171
61 98 176
62 99 175
63 99 174
62 98 166
63 99 173
61 98 172
62 98 167
62 98 171
62 98 171
62 98 172
61 98 168
62 99 173
62 98 173
63 99 175
63 99 171
62 98 171
63 99 174
63 99 178
62 98 170
61 97 170
62 99 172
62 99 171
62 99 175
61 98 174
61 98 169
62 99 172
62 98 170
62 98 173
62 98 170
62 99 174
62 99 178
62 99 175
61 98 173
62 98 173
113 139 199
168 190 228
206 227 255
207 228 255
207 228 255
207 228 255
207 228 255
207 228 255
207 228 255
207 228 255
207 228 255
207 228 255
207 228 255
207 228 255
207 228 255
207 228 255
207 228 255
207 228 255
207 228 255
207 228 255
207 228 255
207 228 255
207 228 255
207 228 255
207 228 255
207 228 255
207 228 255
208 228 255
208 228 255
208 228 255
208 228 255
208 228 255
208 228 255
208 228 255
208 228 255
208 228 255
208 228 255
208 228 255
208 228 255
208 228 255
208 228 255
208 228 255
208 228 255
208 228 255
208 228 255
208 228 255
208 228 255
208 228 255
208 228 255
208 228 255
209 228 255
209 228 255
209 229 255
209 229 255
209 229 255
209 229 255
209 229 255
209 229 255
209 229 255
209 229 255
209 229 255
174 186 194
135 134 102
138 136 91
144 141 94
138 136 91
144 142 96
144 142 95
148 146 97
144 143 96
135 134 90
133 131 88
145 144 97
147 146 98
156 155 104
143 142 95
141 140 95
152 151 101
152 150 101
149 148 100
139 138 93
149 147 98
151 150 101
151 149 100
154 152 101
146 144 97
156 154 104
149 148 99
151 149 100
160 158 106
149 147 99
153 151 101
153 151 101
153 151 101
156 154 103
151 149 100
157 155 104
161 159 106
165 162 108
162 161 108
157 154 103
152 150 101
155 154 103
156 153 102
158 156 104
162 160 106
159 156 104
159 156 104
159 157 104
155 152 101
157 155 103
155 152 101
162 159 105
160 158 105
168 165 109
151 147 97
148 146 98
157 154 101
151 148 98
155 153 102
156 153 103
155 152 101
161 158 104
153 150 99
152 149 96
157 154 102
159 154 101
159 156 102
156 151 99
157 154 101
152 148 95
151 149 98
165 161 105
152 148 96
164 160 106
144 142 93
155 151 99
152 148 96
159 156 101
159 155 101
152 148 96
150 146 94
147 143 91
151 147 96
159 156 99
151 148 96
154 151 99
149 146 96
155 151 97
155 152 101
156 152 98
155 151 97
155 151 95
156 152 98
145 142 90
157 152 97
156 151 96
152 149 95
150 145 93
156 151 97
148 145 93
158 153 97
155 152 100
157 153 98
136 133 86
156 151 94
150 146 95
150 145 93
148 145 93
149 146 94
142 139 87
141 137 87
138 134 84
140 136 85
143 139 89
146 142 92
148 144 90
148 143 90
148 145 93
141 136 85
201 224 255
200 224 255
200 224 255
200 224 255
199 223 255
199 223 255
199 223 255
198 223 255
198 223 255
198 223 255
197 222 255
197 222 255
197 222 255
196 222 255
196 222 255
196 222 255
196 221 255
195 221 255
195 221 255
195 221 255
194 221 255
194 221 255
194 221 255
193 220 255
193 220 255
193 220 255
193 220 255
192 220 255
192 220 255
192 220 255
192 219 255
191 219 255
191 219 255
191 219 255
190 219 255
190 219 255
190 219 255
190 218 255
189 218 255
189 218 255
189 218 255
189 218 255
188 218 255
188 218 255
188 217 255
188 217 255
187 217 255
187 217 255
187 217 255
187 217 255
186 217 255
186 217 255
186 216 255
186 216 255
186 216 255
185 216 255
185 216 255
185 216 255
185 216 255
184 216 255
184 216 255
184 215 255
184 215 255
184 215 255
183 215 255
183 215 255
183 215 255
183 215 255
183 215 255
182 215 255
182 215 255
182 214 255
182 214 255
182 214 255
182 214 255
182 214 255
181 214 255
181 214 255
181 214 255
181 214 255
181 214 255
181 214 255
181 214 255
181 214 255
181 214 255
181 214 255
181 214 255
181 214 255
181 214 255
181 214 255
181 214 255
181 214 255
181 214 255
181 214 255
181 214 255
181 214 255
181 214 255
181 214 255
181 214 255
182 214 255
182 214 255
182 214 255
182 215 255
183 215 255
183 215 255
184 215 255
184 215 255
184 216 255
185 216 255
186 216 255
187 217 255
187 217 255
188 218 255
189 218 255
191 219 255
192 220 255
194 221 255
196 222 255
199 223 255
203 226 255
208 228 255
209 229 255
209 229 255
209 229 255
209 229 255
209 229 255
209 229 255
209 229 255
209 229 255
209 229 255
209 229 255
209 229 255
209 229 255
209 228 255
209 228 255
208 228 255
208 228 255
208 228 255
208 228 255
208 228 255
208 228 255
208 228 255
208 228 255
208 228 255
208 228 255
208 228 255
208 228 255
208 228 255
208 228 255
208 228 255
208 228 255
208 228 255
208 228 255
208 228 255
208 228 255
208 228 255
208 228 255
208 228 255
208 228 255
208 228 255
207 228 255
207 228 255
207 228 255
207 228 255
207 228 255
207 228 255
207 228 255
207 228 255
207 228 255
207 228 255
207 228 255
207 228 255
207 228 255
207 228 255
207 228 255
205 226 254
168 190 230
104 131 191
62 99 176
63 100 178
62 99 171
63 100 176
62 98 172
63 99 175
63 99 169
62 99 173
62 99 172
62 99 173
63 99 171
62 99 176
62 98 170
62 99 175
62 98 165
62 99 171
62 98 167
62 98 171
62 98 172
62 99 172
63 99 174
62 98 170
61 98 162
62 98 169
62 98 166
61 98 165
63 100 174
61 98 169
61 97 161
62 99 175
62 99 173
62 98 171
62 98 171
62 98 171
61 98 169
61 98 166
62 99 171
62 98 166
62 98 171
62 98 173
61 98 169
61 97 172
62 98 174
62 98 174
88 118 183
160 182 221
202 223 252
207 228 255
207 228 255
207 228 255
207 228 255
207 228 255
207 228 255
207 228 255
207 228 255
207 228 255
207 228 255
207 228 255
207 228 255
207 228 255
207 228 255
207 228 255
208 228 255
208 228 255
208 228 255
208 228 255
208 228 255
208 228 255
208 228 255
208 228 255
208 228 255
208 228 255
208 228 255
208 228 255
208 228 255
208 228 255
208 228 255
208 228 255
208 228 255
208 228 255
208 228 255
208 228 255
208 228 255
208 228 255
208 228 255
208 228 255
208 228 255
209 228 255
209 229 255
209 229 255
209 229 255
209 229 255
209 229 255
209 229 255
209 229 255
209 229 255
209 229 255
209 229 255
209 229 255
209 229 255
209 229 255
195 212 232
143 146 123
129 127 84
135 133 89
125 123 82
139 136 91
139 138 93
131 131 88
148 147 99
138 136 91
145 143 96
145 144 97
150 148 99
148 146 98
141 141 95
142 141 96
150 148 99
151 149 99
151 149 100
146 144 97
154 152 102
150 149 100
150 149 100
146 145 98
150 148 99
150 148 100
156 154 103
149 148 99
151 149 100
156 155 104
161 158 105
153 151 101
152 150 100
160 158 106
157 155 104
157 155 103
145 143 96
151 149 99
152 150 101
156 154 103
162 159 106
156 153 101
159 156 104
157 154 103
151 149 100
153 150 100
145 143 95
153 151 101
168 164 109
160 157 105
160 157 105
157 155 103
154 152 101
163 159 103
161 158 105
159 156 104
161 158 104
154 151 99
157 154 103
154 150 99
164 160 106
160 156 102
154 151 98
158 155 103
152 150 98
152 149 99
162 158 104
160 157 103
160 156 101
165 161 105
163 159 104
163 160 106
153 149 97
163 159 104
158 154 101
150 147 98
163 160 103
160 156 99
153 151 99
160 155 101
168 164 108
155 151 99
153 149 97
157 154 101
161 157 101
157 153 99
155 151 97
162 158 103
146 142 94
155 150 95
154 150 97
147 144 91
148 144 92
154 150 93
155 153 100
149 145 92
148 144 95
151 147 93
148 145 95
145 142 92
150 147 94
158 154 98
154 149 95
148 144 93
158 154 99
150 145 90
149 145 93
153 150 94
149 144 93
153 149 93
146 141 92
155 150 96
145 141 88
146 142 89
147 142 87
142 138 87
149 145 89
139 135 84
145 142 90
137 134 84
147 143 93
201 224 255
200 224 255
200 224 255
200 224 255
199 223 255
199 223 255
199 223 255
198 223 255
198 223 255
198 223 255
197 222 255
197 222 255
197 222 255
197 222 255
196 222 255
196 222 255
196 222 255
195 221 255
195 221 255
195 221 255
195 221 255
194 221 255
194 221 255
194 220 255
193 220 255
193 220 255
193 220 255
193 220 255
192 220 255
192 220 255
192 219 255
192 219 255
191 219 255
191 219 255
191 219 255
190 219 255
190 219 255
190 219 255
190 218 255
189 218 255
189 218 255
189 218 255
189 218 255
188 218 255
188 218 255
188 217 255
188 217 255
187 217 255
187 217 255
187 217 255
187 217 255
187 217 255
186 217 255
186 217 255
186 216 255
186 216 255
185 216 255
185 216 255
185 216 255
185 216 255
184 216 255
184 216 255
184 215 255
184 215 255
184 215 255
183 215 255
183 215 255
183 215 255
183 215 255
183 215 255
183 215 255
182 215 255
182 214 255
182 214 255
182 214 255
182 214 255
182 214 255
181 214 255
181 214 255
181 214 255
181 214 255
181 214 255
181 214 255
181 214 255
181 214 255
181 214 255
181 214 255
181 214 255
181 214 255
181 214 255
181 214 255
181 214 255
181 214 255
181 214 255
181 214 255
181 214 255
181 214 255
181 214 255
181 214 255
181 214 255
182 214 255
182 214 255
182 214 255
182 215 255
183 215 255
183 215 255
183 215 255
184 215 255
184 216 255
185 216 255
186 216 255
186 217 255
187 217 255
188 217 255
189 218 255
190 219 255
191 219 255
193 220 255
195 221 255
197 222 255
201 224 255
206 227 255
209 229 255
209 229 255
209 229 255
209 229 255
209 229 255
209 229 255
209 229 255
209 229 255
209 229 255
209 229 255
209 229 255
209 229 255
209 229 255
209 229 255
209 229 255
209 229 255
209 229 255
209 228 255
209 228 255
208 228 255
208 228 255
208 228 255
208 228 255
208 228 255
208 228 255
208 228 255
208 228 255
208 228 255
208 228 255
208 228 255
208 228 255
208 228 255
208 228 255
208 228 255
208 228 255
208 228 255
208 228 255
208 228 255
208 228 255
208 228 255
208 228 255
208 228 255
208 228 255
208 228 255
208 228 255
208 228 255
207 228 255
207 228 255
207 228 255
207 228 255
207 228 255
207 228 255
183 205 240
101 129 190
63 100 175
62 98 169
62 98 172
62 99 174
62 99 173
61 98 169
62 99 170
62 99 173
62 98 167
61 98 171
62 99 171
61 98 167
62 99 172
62 98 167
62 99 177
62 98 170
61 98 169
62 99 172
62 99 169
62 99 170
62 98 172
62 99 175
62 99 172
62 99 171
62 99 172
63 99 172
63 99 171
62 98 169
62 99 173
62 98 169
61 97 164
62 99 169
62 99 169
61 98 168
62 98 168
63 99 172
62 99 173
62 98 170
62 98 172
61 97 163
62 99 171
61 97 167
62 98 170
62 98 172
60 96 162
61 97 170
61 97 171
61 97 172
88 118 180
176 197 234
207 228 255
207 228 255
207 228 255
207 228 255
207 228 255
208 228 255
208 228 255
208 228 255
208 228 255
208 228 255
208 228 255
208 228 255
208 228 255
208 228 255
208 228 255
208 228 255
208 228 255
208 228 255
208 228 255
208 228 255
208 228 255
208 228 255
208 228 255
208 228 255
208 228 255
208 228 255
208 228 255
208 228 255
208 228 255
208 228 255
208 228 255
208 228 255
208 228 255
209 228 255
209 228 255
209 229 255
209 229 255
209 229 255
209 229 255
209 229 255
209 229 255
209 229 255
209 229 255
209 229 255
209 229 255
209 229 255
209 229 255
209 229 255
209 229 255
209 229 255
209 229 255
207 227 252
172 184 193
131 130 96
137 135 90
141 138 91
129 127 84
139 137 92
137 135 91
137 136 91
145 144 97
147 145 97
148 146 98
133 132 89
141 139 93
150 149 100
146 145 98
147 146 98
153 153 103
142 140 94
145 143 96
158 157 105
149 147 98
155 153 103
147 146 98
146 145 97
149 147 98
159 157 105
151 149 100
159 155 103
146 145 98
151 149 99
149 148 99
159 157 105
154 152 102
158 156 104
157 156 105
155 152 101
164 161 107
156 154 103
157 155 103
151 149 99
161 158 105
160 157 105
159 157 105
157 154 103
159 156 104
163 159 106
155 153 103
163 159 106
162 158 104
156 153 101
160 156 104
154 151 100
162 158 104
160 158 105
164 161 106
162 159 103
157 154 103
159 156 103
159 155 102
158 155 103
156 152 100
159 155 103
159 157 103
154 151 100
159 156 104
160 157 104
163 160 105
160 156 102
157 154 101
163 159 103
152 149 99
153 150 99
161 157 103
154 150 97
153 150 97
169 163 106
161 157 101
163 160 104
166 163 108
157 153 99
164 161 105
158 155 101
155 151 98
155 152 99
155 151 97
158 154 98
147 143 92
152 149 97
160 156 101
159 155 100
153 150 98
158 154 97
159 155 99
152 148 98
159 154 99
162 158 101
150 146 95
159 154 99
155 151 98
161 156 99
152 148 95
145 141 90
157 153 97
157 152 97
149 145 90
153 150 95
158 153 97
148 144 93
152 147 96
152 148 95
164 159 104
148 144 93
147 142 91
152 147 93
152 148 95
144 140 86
157 152 95
138 134 87
152 146 91
149 144 90
149 145 91
149 144 87
201 224 255
200 224 255
200 224 255
200 224 255
199 224 255
199 223 255
199 223 255
198 223 255
198 223 255
198 223 255
198 223 255
197 222 255
197 222 255
197 222 255
196 222 255
196 222 255
196 222 255
196 221 255
195 221 255
195 221 255
195 221 255
194 221 255
194 221 255
194 221 255
194 220 255
193 220 255
193 220 255
193 220 255
193 220 255
192 220 255
192 220 255
192 220 255
192 219 255
191 219 255
191 219 255
191 219 255
191 219 255
190 219 255
190 219 255
190 218 255
190 218 255
189 218 255
189 218 255
189 218 255
189 218 255
188 218 255
188 218 255
188 217 255
188 217 255
187 217 255
187 217 255
187 217 255
186 217 255
186 217 255
186 217 255
186 216 255
186 216 255
186 216 255
186 216 255
186 216 255
185 216 255
185 216 255
185 216 255
185 216 255
185 216 255
185 216 255
185 216 255
184 216 255
184 216 255
184 216 255
184 215 255
184 215 255
184 215 255
183 215 255
183 215 255
183 215 255
183 215 255
183 215 255
182 215 255
182 214 255
182 214 255
182 214 255
181 214 255
181 214 255
181 214 255
181 214 255
181 214 255
181 214 255
181 214 255
181 214 255
181 214 255
181 214 255
181 214 255
181 214 255
181 214 255
181 214 255
181 214 255
181 214 255
181 214 255
181 214 255
182 214 255
182 214 255
182 214 255
182 215 255
182 215 255
183 215 255
183 215 255
183 215 255
184 215 255
184 216 255
185 216 255
185 216 255
186 217 255
187 217 255
188 217 255
189 218 255
190 218 255
191 219 255
192 220 255
194 221 255
196 222 255
199 224 255
204 226 255
209 229 255
209 229 255
209 229 255
209 229 255
209 229 255
209 229 255
209 229 255
209 229 255
209 229 255
209 229 255
209 229 255
209 229 255
209 229 255
209 229 255
209 229 255
209 229 255
209 229 255
209 229 255
209 229 255
209 229 255
209 229 255
209 229 255
209 229 255
209 228 255
208 228 255
208 228 255
208 228 255
208 228 255
208 228 255
208 228 255
208 228 255
208 228 255
208 228 255
208 228 255
208 228 255
208 228 255
208 228 255
208 228 255
208 228 255
208 228 255
208 228 255
208 228 255
208 228 255
208 228 255
208 228 255
208 228 255
208 228 255
208 228 255
208 228 255
190 211 241
125 150 203
62 99 174
63 99 174
62 99 172
61 98 174
63 99 170
62 98 167
63 99 173
62 99 173
63 99 170
62 99 173
62 99 172
63 99 172
62 98 166
62 99 170
62 99 174
63 99 168
62 98 162
62 99 175
62 98 167
62 98 167
63 99 173
62 98 167
62 99 168
62 99 170
63 99 173
62 98 166
62 99 172
63 99 169
62 98 168
62 99 169
62 98 165
62 99 172
62 98 163
62 99 171
62 99 172
62 99 172
62 98 166
62 98 173
62 98 167
62 98 168
61 98 170
62 98 167
61 98 169
62 98 168
62 97 169
62 98 170
62 98 170
62 98 174
62 98 170
62 98 173
61 97 171
62 98 169
134 158 204
198 218 248
208 228 255
208 228 255
208 228 255
208 228 255
208 228 255
208 228 255
208 228 255
208 228 255
208 228 255
208 228 255
208 228 255
208 228 255
208 228 255
208 228 255
208 228 255
208 228 255
208 228 255
208 228 255
208 228 255
208 228 255
208 228 255
208 228 255
208 228 255
208 228 255
208 228 255
209 228 255
209 228 255
209 229 255
209 229 255
209 229 255
209 229 255
209 229 255
209 229 255
209 229 255
209 229 255
209 229 255
209 229 255
209 229 255
209 229 255
209 229 255
209 229 255
209 229 255
209 229 255
209 229 255
209 229 255
209 229 255
209 229 255
209 229 255
196 213 232
145 146 123
142 139 93
140 138 93
143 141 94
131 129 86
140 137 92
136 135 91
145 143 96
140 139 93
142 141 94
144 142 96
147 145 97
142 141 95
134 133 90
142 141 95
156 155 104
142 142 96
148 147 99
144 143 96
142 141 95
156 155 104
155 153 103
154 153 103
154 152 102
155 154 103
157 155 104
154 151 101
153 151 101
155 153 102
156 154 103
162 159 106
153 150 100
159 157 105
158 157 105
160 157 105
158 155 103
160 157 105
160 158 105
152 149 99
155 153 103
158 154 103
156 153 102
163 159 106
163 160 107
160 158 105
161 158 105
161 159 106
159 156 104
165 161 106
159 156 104
167 163 108
163 160 107
166 163 109
162 159 106
160 157 104
156 153 101
157 153 101
164 161 107
161 157 104
162 159 104
155 152 100
160 157 102
160 156 103
161 158 104
156 152 101
160 158 103
158 155 101
162 158 105
163 159 104
158 155 101
163 159 104
163 159 103
161 157 101
155 151 99
160 155 102
160 155 100
166 162 106
160 156 101
155 151 97
161 157 101
156 152 97
164 159 103
154 151 99
157 152 97
156 152 98
154 152 97
161 157 101
159 155 100
156 151 97
152 148 95
161 156 102
160 156 102
154 150 95
154 150 96
156 151 93
155 151 97
161 156 103
160 154 96
158 152 96
157 153 97
162 158 101
162 157 97
160 156 102
155 152 97
160 155 98
154 148 93
148 144 90
157 152 97
160 155 97
152 148 94
148 144 91
157 152 95
152 147 95
160 156 99
154 149 97
160 155 97
145 140 90
155 150 93
147 144 91
151 147 93
146 142 88
142 138 85
155 150 94
201 224 255
200 224 255
200 224 255
200 224 255
199 224 255
199 223 255
199 223 255
199 223 255
198 223 255
198 223 255
198 223 255
197 222 255
197 222 255
197 222 255
197 222 255
196 222 255
196 222 255
196 222 255
196 221 255
195 221 255
195 221 255
195 221 255
194 221 255
194 221 255
194 221 255
194 220 255
193 220 255
193 220 255
193 220 255
193 220 255
192 220 255
192 220 255
192 220 255
192 219 255
191 219 255
191 219 255
191 219 255
191 219 255
190 219 255
190 219 255
190 219 255
190 218 255
189 218 255
189 218 255
189 218 255
189 218 255
188 218 255
188 218 255
188 217 255
188 217 255
188 217 255
187 217 255
187 217 255
187 217 255
187 217 255
187 217 255
187 217 255
187 217 255
187 217 255
187 217 255
187 217 255
187 217 255
187 217 255
186 217 255
186 217 255
186 217 255
186 217 255
186 216 255
186 216 255
186 216 255
186 216 255
185 216 255
185 216 255
185 216 255
185 216 255
185 216 255
185 216 255
184 216 255
184 215 255
184 215 255
184 215 255
183 215 255
183 215 255
183 215 255
183 215 255
182 215 255
182 214 255
181 214 255
181 214 255
181 214 255
181 214 255
181 214 255
181 214 255
181 214 255
181 214 255
181 214 255
181 214 255
181 214 255
181 214 255
181 214 255
182 214 255
182 214 255
182 214 255
182 214 255
182 215 255
183 215 255
183 215 255
183 215 255
184 215 255
184 215 255
184 216 255
185 216 255
185 216 255
186 217 255
187 217 255
188 217 255
189 218 255
190 218 255
191 219 255
192 220 255
194 220 255
196 222 255
198 223 255
202 225 255
208 228 255
210 229 255
210 229 255
210 229 255
210 229 255
210 229 255
209 229 255
209 229 255
209 229 255
209 229 255
209 229 255
209 229 255
209 229 255
209 229 255
209 229 255
209 229 255
209 229 255
209 229 255
209 229 255
209 229 255
209 229 255
209 229 255
209 229 255
209 229 255
209 229 255
209 229 255
209 229 255
209 229 255
209 229 255
209 228 255
208 228 255
208 228 255
208 228 255
208 228 255
208 228 255
208 228 255
208 228 255
208 228 255
208 228 255
208 228 255
208 228 255
208 228 255
208 228 255
208 228 255
208 228 255
208 228 255
207 227 255
152 174 217
71 105 177
62 99 167
62 98 169
62 99 172
62 99 175
62 99 171
62 98 168
62 99 172
62 98 171
63 100 174
62 98 168
62 98 167
62 98 169
63 99 171
62 99 174
62 98 169
62 99 169
62 99 172
62 98 164
62 99 165
62 99 168
61 98 165
61 97 169
61 98 165
62 98 166
63 99 171
63 99 167
62 99 170
63 99 168
62 98 166
62 98 167
61 98 160
63 99 173
63 99 170
62 98 162
62 99 168
62 99 172
62 99 171
61 97 162
61 97 162
61 97 162
61 98 168
61 97 163
61 98 164
61 98 174
63 99 173
62 98 169
62 98 172
62 98 170
62 98 172
62 98 176
61 97 166
62 98 168
61 97 165
61 98 171
62 98 169
158 180 223
207 227 255
208 228 255
208 228 255
208 228 255
208 228 255
208 228 255
208 228 255
208 228 255
208 228 255
208 228 255
208 228 255
208 228 255
208 228 255
208 228 255
208 228 255
208 228 255
209 228 255
209 228 255
209 228 255
209 229 255
209 229 255
209 229 255
209 229 255
209 229 255
209 229 255
209 229 255
209 229 255
209 229 255
209 229 255
209 229 255
209 229 255
209 229 255
209 229 255
209 229 255
209 229 255
209 229 255
209 229 255
209 229 255
209 229 255
209 229 255
209 229 255
210 229 255
210 229 255
210 229 255
210 229 255
210 229 255
190 202 210
140 138 100
130 127 84
136 135 91
135 133 88
143 141 94
132 130 88
145 143 95
143 141 95
144 142 95
146 145 97
142 141 96
151 149 100
143 141 94
150 149 101
140 139 94
150 149 100
152 150 101
150 148 99
148 146 98
149 148 100
147 146 98
148 146 98
153 151 102
148 146 98
149 147 99
149 147 99
154 152 101
151 148 99
149 148 99
156 153 102
150 148 99
156 153 102
166 163 109
153 151 101
158 155 104
159 156 104
155 152 101
158 155 104
152 150 100
165 161 107
161 159 106
155 153 102
156 154 103
158 156 104
152 149 100
162 159 106
159 156 104
162 160 106
161 158 105
162 159 106
163 159 105
164 160 106
162 159 105
157 154 102
168 164 108
157 153 101
164 161 106
160 156 103
163 159 103
163 160 106
160 157 104
161 158 104
162 158 104
164 160 105
161 159 104
160 156 103
156 152 100
167 163 106
168 164 108
159 155 99
165 161 105
164 160 105
152 149 97
151 148 97
159 155 99
160 156 102
163 159 104
157 153 99
157 153 101
157 153 100
155 151 95
160 156 100
161 157 99
154 151 98
158 154 101
162 158 103
158 153 99
150 147 94
150 147 94
163 159 103
160 156 102
155 150 94
157 151 95
160 154 99
156 152 97
159 156 101
163 159 102
151 148 95
156 152 94
158 155 96
156 152 96
154 150 93
157 153 99
151 147 94
146 142 88
145 141 88
146 142 93
157 152 98
150 146 93
157 152 96
155 151 97
156 152 95
156 151 95
152 148 90
158 153 97
152 149 95
157 153 98
144 141 87
150 147 91
156 151 96
155 151 95
150 145 88
144 139 84
151 147 93
201 224 255
201 224 255
200 224 255
200 224 255
200 224 255
199 223 255
199 223 255
199 223 255
198 223 255
198 223 255
198 223 255
198 223 255
197 222 255
197 222 255
197 222 255
197 222 255
196 222 255
196 222 255
196 222 255
196 221 255
195 221 255
195 221 255
195 221 255
194 221 255
194 221 255
194 221 255
194 221 255
193 220 255
193 220 255
193 220 255
193 220 255
192 220 255
192 220 255
192 220 255
192 219 255
191 219 255
191 219 255
191 219 255
191 219 255
191 219 255
190 219 255
190 219 255
190 218 255
189 218 255
189 218 255
189 218 255
189 218 255
189 218 255
189 218 255
189 218 255
189 218 255
189 218 255
189 218 255
189 218 255
189 218 255
189 218 255
189 218 255
188 218 255
188 218 255
188 218 255
188 218 255
188 218 255
188 218 255
188 217 255
188 217 255
188 217 255
188 217 255
187 217 255
187 217 255
187 217 255
187 217 255
187 217 255
187 217 255
187 217 255
186 217 255
186 217 255
186 217 255
186 216 255
186 216 255
185 216 255
185 216 255
185 216 255
185 216 255
184 216 255
184 216 255
184 215 255
184 215 255
183 215 255
183 215 255
182 215 255
182 215 255
182 214 255
182 214 255
181 214 255
181 214 255
181 214 255
181 214 255
181 214 255
181 214 255
182 214 255
182 214 255
182 214 255
182 214 255
182 214 255
182 215 255
182 215 255
183 215 255
183 215 255
183 215 255
184 215 255
184 215 255
184 216 255
185 216 255
186 216 255
186 217 255
187 217 255
188 217 255
188 218 255
189 218 255
191 219 255
192 220 255
194 220 255
195 221 255
197 222 255
201 224 255
206 227 255
210 229 255
210 229 255
210 229 255
210 229 255
210 229 255
210 229 255
210 229 255
210 229 255
210 229 255
210 229 255
209 229 255
209 229 255
209 229 255
209 229 255
209 229 255
209 229 255
209 229 255
209 229 255
209 229 255
209 229 255
209 229 255
209 229 255
209 229 255
209 229 255
209 229 255
209 229 255
209 229 255
209 229 255
209 229 255
209 229 255
209 229 255
209 229 255
209 229 255
209 229 255
209 228 255
209 228 255
209 228 255
208 228 255
208 228 255
208 228 255
208 228 255
208 228 255
208 228 255
198 218 247
105 132 193
62 99 174
62 99 175
61 98 172
61 97 168
62 98 166
63 99 172
63 99 173
63 100 177
62 98 166
62 98 167
63 99 172
63 99 171
63 99 168
61 97 160
62 98 165
62 98 168
62 99 170
62 98 160
62 98 166
62 98 163
62 98 167
63 100 174
62 99 169
61 97 162
63 99 172
61 98 164
62 99 170
62 98 166
63 100 174
62 98 167
62 98 162
62 98 164
61 97 164
62 98 166
62 98 169
61 98 169
62 99 172
62 98 165
61 97 165
61 97 167
61 97 154
62 98 166
62 98 170
61 97 165
63 99 171
61 98 164
62 99 173
62 98 168
62 98 164
61 97 167
62 98 168
62 98 166
62 99 170
62 97 164
62 98 170
61 97 167
60 96 162
60 95 164
116 141 197
200 220 250
208 228 255
208 228 255
208 228 255
208 228 255
208 228 255
208 228 255
208 228 255
209 228 255
209 229 255
209 229 255
209 229 255
209 229 255
209 229 255
209 229 255
209 229 255
209 229 255
209 229 255
209 229 255
209 229 255
209 229 255
209 229 255
209 229 255
209 229 255
209 229 255
209 229 255
209 229 255
209 229 255
209 229 255
209 229 255
209 229 255
209 229 255
209 229 255
209 229 255
210 229 255
210 229 255
210 229 255
210 229 255
210 229 255
210 229 255
210 229 255
210 229 255
210 229 255
208 228 253
156 162 158
126 124 82
142 139 92
134 132 89
134 133 90
137 135 90
139 139 93
147 145 98
140 139 94
137 136 91
144 143 97
149 148 100
147 146 99
139 138 93
142 140 94
147 145 98
151 149 100
144 144 97
153 150 101
149 148 99
148 147 99
153 151 102
153 151 101
149 147 98
148 147 99
149 148 100
154 152 101
156 154 103
152 150 101
152 151 101
154 151 101
153 151 102
158 156 105
161 157 104
156 154 103
153 150 100
157 154 102
154 152 102
167 163 108
159 157 105
166 162 108
162 160 107
161 158 105
165 162 108
160 158 105
164 161 107
161 158 104
164 160 106
166 163 108
161 159 106
163 160 107
165 161 106
160 157 104
162 159 104
161 158 105
164 161 106
159 156 103
165 161 106
157 154 101
158 155 103
166 162 106
163 159 104
158 155 103
166 162 105
160 157 103
157 153 100
160 155 101
161 158 104
161 158 102
163 159 104
164 160 104
157 154 102
152 148 95
160 155 99
166 162 107
157 153 99
161 157 101
159 155 101
162 157 101
163 159 104
163 159 104
158 154 99
159 155 101
152 148 95
158 155 102
151 148 96
163 159 103
160 156 102
162 158 101
157 153 97
160 156 100
155 150 95
156 152 98
160 155 100
161 157 101
158 154 99
156 152 96
156 153 97
158 153 100
163 158 102
164 160 104
153 149 97
156 152 96
154 149 96
156 151 95
153 149 96
152 148 95
160 155 99
153 149 91
158 153 97
156 151 93
158 153 96
159 155 95
160 155 98
150 146 94
149 145 89
147 143 87
154 149 95
149 144 90
150 145 91
148 145 91
145 141 85
149 145 92
158 154 95
154 148 92
146 142 86
201 224 255
201 224 255
200 224 255
200 224 255
200 224 255
200 224 255
199 223 255
199 223 255
199 223 255
198 223 255
198 223 255
198 223 255
198 223 255
197 222 255
197 222 255
197 222 255
197 222 255
196 222 255
196 222 255
196 222 255
196 222 255
195 221 255
195 221 255
195 221 255
195 221 255
194 221 255
194 221 255
194 221 255
194 220 255
193 220 255
193 220 255
193 220 255
193 220 255
192 220 255
192 220 255
192 220 255
192 219 255
191 219 255
191 219 255
191 219 255
190 219 255
190 219 255
190 219 255
190 219 255
190 219 255
190 219 255
190 219 255
190 219 255
190 219 255
190 219 255
190 219 255
190 219 255
190 219 255
190 219 255
190 218 255
190 218 255
190 218 255
190 218 255
190 218 255
190 218 255
190 218 255
189 218 255
189 218 255
189 218 255
189 218 255
189 218 255
189 218 255
189 218 255
189 218 255
189 218 255
188 218 255
188 218 255
188 218 255
188 218 255
188 217 255
188 217 255
187 217 255
187 217 255
187 217 255
187 217 255
187 217 255
186 217 255
186 217 255
186 216 255
186 216 255
186 216 255
185 216 255
185 216 255
185 216 255
184 216 255
184 215 255
184 215 255
183 215 255
183 215 255
182 215 255
182 215 255
182 214 255
181 214 255
182 214 255
182 214 255
182 214 255
182 214 255
182 214 255
182 215 255
182 215 255
183 215 255
183 215 255
183 215 255
183 215 255
184 215 255
184 215 255
184 216 255
185 216 255
185 216 255
186 216 255
186 217 255
187 217 255
188 217 255
189 218 255
190 218 255
191 219 255
192 219 255
193 220 255
195 221 255
197 222 255
200 224 255
205 226 255
210 229 255
210 229 255
210 229 255
210 229 255
210 229 255
210 229 255
210 229 255
210 229 255
210 229 255
210 229 255
210 229 255
210 229 255
210 229 255
210 229 255
210 229 255
209 229 255
209 229 255
209 229 255
209 229 255
209 229 255
209 229 255
209 229 255
209 229 255
209 229 255
209 229 255
209 229 255
209 229 255
209 229 255
209 229 255
209 229 255
209 229 255
209 229 255
209 229 255
209 229 255
209 229 255
209 229 255
209 229 255
209 229 255
209 229 255
209 229 255
209 229 255
182 203 236
77 109 177
62 99 171
62 99 173
62 99 171
63 99 170
63 99 171
62 99 166
62 98 171
62 99 169
62 98 167
63 99 168
62 98 166
62 99 169
63 99 172
63 100 174
62 98 171
62 99 167
62 99 173
62 98 163
62 99 173
62 98 163
62 98 162
62 99 166
62 98 163
62 98 164
61 97 159
62 98 167
63 99 169
62 99 172
62 98 167
62 98 166
62 98 164
62 99 169
62 99 170
61 98 164
62 98 169
62 98 163
61 97 158
62 99 173
63 99 170
61 97 164
63 99 169
63 99 173
61 98 164
62 98 167
62 98 162
63 99 170
61 97 164
62 98 166
61 97 167
62 97 165
62 98 168
61 97 164
62 98 164
61 96 159
61 97 171
61 97 164
61 95 157
62 98 165
60 96 164
61 97 168
78 109 174
175 196 232
209 229 255
209 229 255
209 229 255
209 229 255
209 229 255
209 229 255
209 229 255
209 229 255
209 229 255
209 229 255
209 229 255
209 229 255
209 229 255
209 229 255
209 229 255
209 229 255
209 229 255
209 229 255
209 229 255
209 229 255
209 229 255
209 229 255
209 229 255
209 229 255
209 229 255
209 229 255
210 229 255
210 229 255
210 229 255
210 229 255
210 229 255
210 229 255
210 229 255
210 229 255
210 229 255
210 229 255
210 229 255
210 229 255
210 229 255
210 229 255
200 218 241
154 155 131
131 127 84
135 134 90
144 142 95
135 134 90
134 132 88
143 141 94
144 142 95
144 143 97
145 144 97
145 143 96
152 150 101
141 141 95
144 143 96
133 132 90
147 146 98
144 143 96
155 153 103
142 141 96
151 149 100
155 153 102
153 152 102
153 152 102
152 151 102
152 150 101
153 151 101
154 152 102
152 151 102
146 145 98
157 155 104
166 163 108
158 155 103
159 157 105
161 158 106
154 151 101
164 161 107
157 155 104
157 155 104
160 157 105
165 162 107
162 159 106
166 163 109
156 154 103
160 156 103
159 157 105
161 158 104
164 161 106
162 159 105
156 153 99
158 155 103
162 158 103
162 159 105
166 162 108
164 161 106
164 161 106
157 154 101
163 159 105
165 162 106
163 160 106
160 157 103
155 152 100
165 161 106
167 163 106
161 157 104
168 164 108
168 164 108
161 157 104
165 162 106
168 163 107
165 161 104
159 156 102
162 157 103
157 153 100
162 159 101
160 159 105
161 158 104
161 156 101
160 156 101
155 150 97
156 152 99
159 157 103
154 150 98
162 159 103
160 156 101
161 157 101
165 161 104
162 158 99
152 149 97
162 157 103
162 157 99
167 162 102
158 154 101
161 157 102
155 151 95
160 156 99
156 152 98
157 153 95
161 156 98
158 155 99
153 148 93
156 153 94
152 148 94
156 151 95
162 158 102
163 158 101
158 154 95
150 147 94
156 151 93
154 149 95
158 154 97
156 151 98
159 153 95
161 157 99
155 151 95
159 155 98
152 148 94
152 148 93
157 153 97
154 149 94
153 149 94
151 147 92
155 150 93
160 153 93
151 146 90
149 146 92
148 143 87
150 145 90
201 224 255
201 224 255
201 224 255
200 224 255
200 224 255
200 224 255
200 224 255
199 223 255
199 223 255
199 223 255
198 223 255
198 223 255
198 223 255
198 223 255
197 222 255
197 222 255
197 222 255
197 222 255
196 222 255
196 222 255
196 222 255
196 222 255
195 221 255
195 221 255
195 221 255
195 221 255
194 221 255
194 221 255
194 221 255
194 221 255
194 220 255
193 220 255
193 220 255
193 220 255
193 220 255
192 220 255
192 220 255
192 219 255
191 219 255
191 219 255
191 219 255
191 219 255
191 219 255
191 219 255
191 219 255
191 219 255
191 219 255
191 219 255
191 219 255
191 219 255
191 219 255
191 219 255
191 219 255
191 219 255
191 219 255
191 219 255
191 219 255
191 219 255
191 219 255
191 219 255
191 219 255
191 219 255
191 219 255
190 219 255
190 219 255
190 219 255
190 219 255
190 219 255
190 219 255
190 218 255
190 218 255
190 218 255
190 218 255
189 218 255
189 218 255
189 218 255
189 218 255
189 218 255
188 218 255
188 218 255
188 218 255
188 217 255
188 217 255
187 217 255
187 217 255
187 217 255
187 217 255
186 217 255
186 217 255
186 216 255
186 216 255
185 216 255
185 216 255
185 216 255
184 216 255
184 215 255
184 215 255
183 215 255
183 215 255
182 215 255
182 214 255
182 214 255
182 215 255
182 215 255
183 215 255
183 215 255
183 215 255
183 215 255
183 215 255
184 215 255
184 215 255
184 216 255
185 216 255
185 216 255
185 216 255
186 216 255
187 217 255
187 217 255
188 217 255
189 218 255
190 218 255
191 219 255
192 220 255
193 220 255
195 221 255
197 222 255
200 224 255
204 226 255
210 229 255
210 229 255
210 229 255
210 229 255
210 229 255
210 229 255
210 229 255
210 229 255
210 229 255
210 229 255
210 229 255
210 229 255
210 229 255
210 229 255
210 229 255
210 229 255
210 229 255
210 229 255
210 229 255
210 229 255
210 229 255
209 229 255
209 229 255
209 229 255
209 229 255
209 229 255
209 229 255
209 229 255
209 229 255
209 229 255
209 229 255
209 229 255
209 229 255
209 229 255
209 229 255
209 229 255
209 229 255
209 229 255
207 227 254
147 170 214
62 99 175
62 99 174
62 99 172
62 98 165
62 98 168
62 98 169
61 98 165
61 98 164
61 97 166
62 99 171
62 99 170
63 99 168
62 98 171
61 98 160
62 98 166
62 98 170
62 99 169
62 98 163
62 98 168
62 98 167
62 98 163
62 98 163
62 98 167
62 98 163
62 98 165
62 98 165
62 98 166
62 98 168
62 98 163
62 99 168
61 98 172
61 98 164
62 98 163
61 98 161
63 99 170
62 98 164
62 98 168
61 97 156
62 98 166
62 99 167
62 98 163
61 98 164
62 98 170
62 98 163
62 97 161
62 98 159
62 98 156
62 98 163
62 98 169
62 98 166
62 98 168
61 97 162
60 96 163
61 97 159
61 98 172
61 96 165
62 98 169
62 97 167
62 97 165
60 95 160
61 97 165
62 97 169
62 98 170
60 95 164
143 166 212
209 229 255
209 229 255
209 229 255
209 229 255
209 229 255
209 229 255
209 229 255
209 229 255
209 229 255
209 229 255
209 229 255
209 229 255
209 229 255
209 229 255
209 229 255
209 229 255
209 229 255
209 229 255
210 229 255
210 229 255
210 229 255
210 229 255
210 229 255
210 229 255
210 229 255
210 229 255
210 229 255
210 229 255
210 229 255
210 229 255
210 229 255
210 229 255
210 229 255
210 229 255
210 229 255
210 229 255
210 229 255
210 229 255
190 205 219
135 134 104
137 134 89
141 138 92
131 128 86
135 132 88
143 141 95
139 138 94
146 145 98
144 142 96
140 138 93
147 145 97
149 147 99
139 139 94
141 140 95
145 144 98
142 141 95
145 144 97
139 138 93
145 143 97
141 140 95
153 151 101
148 146 99
149 148 99
152 150 100
148 146 98
158 155 103
162 159 107
154 152 102
147 146 99
156 153 102
164 162 108
161 159 105
159 156 104
157 155 103
166 163 109
160 157 105
159 156 103
158 155 104
160 157 104
157 155 104
158 155 104
159 156 105
161 160 108
163 159 106
153 150 99
164 160 105
160 158 106
165 162 108
161 158 104
165 161 106
161 158 106
167 163 107
164 160 105
164 160 104
162 159 104
164 160 106
165 161 104
165 162 107
165 162 106
163 160 107
165 161 106
167 163 106
162 158 103
165 161 106
160 157 102
165 159 103
164 161 105
167 163 106
169 165 107
163 160 103
166 161 104
164 160 106
165 161 106
165 161 102
168 165 108
161 158 103
161 156 100
163 159 102
166 161 104
162 158 103
163 160 104
163 158 103
161 157 101
163 159 103
163 158 102
166 162 104
169 164 106
162 156 99
164 159 103
162 158 101
164 160 101
165 161 104
158 154 99
158 154 101
159 155 97
162 157 101
158 154 99
159 156 101
155 150 95
152 148 93
163 158 99
164 159 101
167 162 103
156 151 93
162 157 100
151 147 94
154 150 96
155 150 94
155 151 95
150 146 92
144 140 88
157 152 97
156 152 92
156 151 96
151 147 94
159 155 98
155 150 94
154 149 93
153 148 93
161 156 95
148 143 88
156 150 93
150 146 86
145 142 93
148 143 90
148 143 88
155 150 91
145 140 85
201 225 255
201 224 255
201 224 255
201 224 255
200 224 255
200 224 255
200 224 255
200 224 255
199 223 255
199 223 255
199 223 255
199 223 255
198 223 255
198 223 255
198 223 255
198 223 255
197 222 255
197 222 255
197 222 255
197 222 255
196 222 255
196 222 255
196 222 255
196 222 255
195 221 255
195 221 255
195 221 255
195 221 255
194 221 255
194 221 255
194 221 255
194 221 255
194 220 255
193 220 255
193 220 255
193 220 255
193 220 255
193 220 255
192 220 255
193 220 255
193 220 255
193 220 255
192 220 255
192 220 255
193 220 255
192 220 255
193 220 255
192 220 255
192 220 255
192 220 255
192 220 255
192 220 255
192 220 255
192 220 255
192 220 255
192 220 255
192 220 255
192 220 255
192 220 255
192 220 255
192 220 255
192 220 255
192 220 255
192 219 255
192 219 255
192 219 255
191 219 255
191 219 255
191 219 255
191 219 255
191 219 255
191 219 255
191 219 255
191 219 255
190 219 255
190 219 255
190 219 255
190 219 255
190 218 255
190 218 255
190 218 255
189 218 255
189 218 255
189 218 255
189 218 255
188 218 255
188 218 255
188 218 255
188 217 255
187 217 255
187 217 255
187 217 255
186 217 255
186 217 255
186 216 255
185 216 255
185 216 255
185 216 255
184 216 255
184 215 255
183 215 255
183 215 255
183 215 255
183 215 255
183 215 255
183 215 255
183 215 255
183 215 255
184 215 255
184 215 255
184 215 255
184 216 255
185 216 255
185 216 255
185 216 255
186 216 255
186 217 255
187 217 255
187 217 255
188 218 255
189 218 255
190 218 255
191 219 255
192 220 255
193 220 255
195 221 255
197 222 255
199 223 255
203 226 255
209 229 255
211 230 255
210 230 255
210 230 255
210 229 255
210 229 255
210 229 255
210 229 255
210 229 255
210 229 255
210 229 255
210 229 255
210 229 255
210 229 255
210 229 255
210 229 255
210 229 255
210 229 255
210 229 255
210 229 255
210 229 255
210 229 255
210 229 255
210 229 255
210 229 255
210 229 255
210 229 255
210 229 255
209 229 255
209 229 255
209 229 255
209 229 255
209 229 255
209 229 255
209 229 255
209 229 255
203 223 252
126 150 203
62 99 170
62 98 169
63 99 170
62 99 172
62 99 172
63 99 170
62 98 169
62 98 169
62 98 165
62 98 172
63 99 170
62 99 171
62 98 162
61 98 167
62 98 165
62 98 163
62 98 166
62 98 166
62 98 163
62 98 166
62 98 161
62 98 160
63 99 163
61 98 162
63 99 163
62 99 164
62 98 163
62 98 163
63 99 168
63 99 169
62 99 167
61 98 163
62 98 160
62 98 169
61 97 159
62 97 163
62 98 163
62 98 162
62 98 166
62 98 164
61 96 152
61 97 165
63 99 166
61 98 163
62 99 170
61 98 160
63 99 165
62 98 162
63 99 170
63 99 165
61 97 158
61 98 165
62 98 167
61 98 167
63 98 164
61 97 164
61 98 169
63 99 167
62 97 166
61 96 161
61 97 164
62 97 171
61 97 167
60 95 159
60 94 163
62 98 170
123 146 190
208 228 255
209 229 255
209 229 255
209 229 255
209 229 255
209 229 255
209 229 255
209 229 255
209 229 255
210 229 255
210 229 255
210 229 255
210 229 255
210 229 255
210 229 255
210 229 255
210 229 255
210 229 255
210 229 255
210 229 255
210 229 255
210 229 255
210 229 255
210 229 255
210 229 255
210 229 255
210 229 255
210 229 255
210 229 255
210 229 255
210 229 255
210 229 255
210 229 255
210 230 255
210 230 255
210 230 255
186 198 206
133 130 90
134 132 88
130 127 85
132 129 85
143 141 95
142 140 94
139 137 92
139 137 93
134 133 91
144 142 95
145 144 96
139 138 93
145 144 97
145 143 97
154 153 103
143 142 96
148 147 99
144 143 97
150 148 99
147 146 99
156 154 103
154 152 102
157 155 104
151 150 102
159 156 104
155 154 103
162 160 108
157 155 104
157 155 104
154 152 101
158 155 102
155 152 101
157 154 103
159 156 104
154 152 102
156 153 103
156 155 104
159 157 105
164 161 107
160 157 104
153 151 100
158 155 103
158 155 101
163 160 105
163 159 104
165 162 106
158 155 103
163 160 107
165 162 106
161 157 104
167 164 108
162 158 103
162 158 104
159 156 104
165 161 105
166 162 107
164 161 106
161 157 104
168 163 106
163 160 104
171 165 106
156 153 100
167 164 109
167 163 106
163 159 104
164 159 104
161 157 101
164 160 104
166 162 104
166 161 104
166 161 103
162 158 103
164 160 104
163 158 101
163 159 103
166 162 104
159 154 99
152 149 96
157 153 100
158 155 99
164 160 104
161 157 104
161 157 101
162 158 101
168 163 106
163 158 102
160 156 100
162 158 100
160 156 98
166 160 104
169 164 104
159 155 98
160 156 101
159 154 95
154 151 95
167 162 104
158 153 99
154 151 93
164 160 101
168 163 103
154 150 94
154 151 97
149 145 90
152 147 90
160 156 97
160 155 97
167 162 102
158 154 97
157 153 97
163 158 99
162 156 98
158 153 97
161 156 99
152 148 93
151 147 92
154 150 95
151 146 90
158 153 95
146 142 88
150 146 90
152 148 90
158 153 94
153 148 92
155 150 94
148 144 90
152 148 93
151 146 91
147 141 90
146 141 89
202 225 255
201 225 255
201 224 255
201 224 255
201 224 255
200 224 255
200 224 255
200 224 255
200 224 255
199 224 255
199 223 255
199 223 255
199 223 255
198 223 255
198 223 255
198 223 255
198 223 255
197 222 255
197 222 255
197 222 255
197 222 255
197 222 255
196 222 255
196 222 255
196 222 255
196 221 255
195 221 255
195 221 255
195 221 255
195 221 255
194 221 255
194 221 255
194 221 255
194 220 255
194 220 255
194 220 255
194 220 255
194 220 255
194 220 255
194 220 255
194 220 255
194 220 255
194 220 255
194 220 255
194 220 255
194 220 255
194 220 255
194 220 255
194 220 255
194 220 255
193 220 255
194 220 255
193 220 255
193 220 255
193 220 255
193 220 255
193 220 255
193 220 255
193 220 255
193 220 255
193 220 255
193 220 255
193 220 255
193 220 255
193 220 255
193 220 255
193 220 255
192 220 255
192 220 255
192 220 255
192 220 255
192 220 255
192 220 255
192 220 255
192 219 255
191 219 255
191 219 255
191 219 255
191 219 255
191 219 255
191 219 255
191 219 255
190 219 255
190 219 255
190 219 255
190 218 255
190 218 255
189 218 255
189 218 255
189 218 255
189 218 255
188 218 255
188 218 255
188 217 255
188 217 255
187 217 255
187 217 255
186 217 255
186 216 255
186 216 255
185 216 255
185 216 255
184 216 255
184 215 255
183 215 255
183 215 255
183 215 255
184 215 255
184 215 255
184 215 255
184 216 255
184 216 255
185 216 255
185 216 255
185 216 255
186 216 255
186 217 255
187 217 255
187 217 255
188 217 255
189 218 255
189 218 255
190 219 255
191 219 255
192 220 255
193 220 255
195 221 255
197 222 255
199 224 255
203 225 255
209 229 255
211 230 255
211 230 255
211 230 255
211 230 255
211 230 255
211 230 255
210 230 255
210 230 255
210 230 255
210 229 255
210 229 255
210 229 255
210 229 255
210 229 255
210 229 255
210 229 255
210 229 255
210 229 255
210 229 255
210 229 255
210 229 255
210 229 255
210 229 255
210 229 255
210 229 255
210 229 255
210 229 255
210 229 255
210 229 255
210 229 255
210 229 255
210 229 255
210 229 255
203 222 251
116 141 196
63 99 174
62 98 165
61 98 167
62 99 168
62 98 169
63 99 170
62 98 166
62 98 160
62 99 167
62 99 169
62 98 166
62 98 166
62 98 167
62 98 166
63 99 171
63 99 171
62 98 168
61 97 158
61 98 163
62 98 159
62 98 165
62 98 162
63 99 167
62 99 167
62 98 167
61 97 160
62 98 160
62 99 168
62 98 162
62 98 167
62 98 163
61 98 162
64 100 168
62 99 168
63 99 167
62 98 163
62 98 158
62 98 159
62 98 164
61 97 157
62 98 165
62 98 156
62 99 168
63 99 169
62 98 165
61 98 166
62 98 165
62 97 160
62 98 165
61 97 160
61 97 163
61 97 162
62 98 166
62 98 166
62 98 165
62 98 168
61 97 164
60 96 164
61 96 159
61 97 164
60 96 162
61 97 167
62 98 167
60 96 157
61 96 160
61 96 165
59 94 157
60 96 164
112 137 189
202 221 250
210 229 255
210 229 255
210 229 255
210 229 255
210 229 255
210 229 255
210 229 255
210 229 255
210 229 255
210 229 255
210 229 255
210 229 255
210 229 255
210 229 255
210 229 255
210 229 255
210 229 255
210 229 255
210 229 255
210 229 255
210 229 255
210 229 255
210 229 255
210 229 255
210 230 255
210 230 255
210 230 255
211 230 255
211 230 255
211 230 255
211 230 255
211 230 255
211 230 255
181 192 198
125 122 80
125 123 83
129 127 84
130 128 86
138 136 92
137 136 91
141 140 95
137 137 93
128 128 88
142 141 94
140 139 94
146 144 97
139 137 93
135 134 91
142 141 96
141 140 95
139 137 92
144 143 97
146 145 98
150 149 101
146 144 97
153 151 102
148 146 98
151 149 101
148 147 98
148 146 97
153 151 101
154 151 101
156 153 103
153 150 100
153 151 101
166 163 108
156 154 104
164 162 108
161 157 104
162 159 106
158 156 104
161 158 104
153 151 101
165 162 108
167 163 108
161 158 104
158 155 101
162 159 106
161 157 103
167 164 109
165 162 108
163 160 105
165 161 106
162 158 104
165 161 105
167 163 107
167 164 107
160 157 102
169 164 108
169 165 108
158 155 102
170 167 108
168 164 107
171 166 110
166 162 108
168 162 106
167 162 106
172 168 110
164 161 106
168 164 104
165 159 102
169 164 108
169 165 106
167 164 106
168 163 105
161 157 103
165 160 103
164 160 104
158 154 100
166 161 105
163 158 103
162 158 103
164 161 106
171 166 106
166 163 105
162 158 102
168 163 106
168 164 101
167 162 104
166 162 103
163 158 101
166 161 102
161 156 100
163 158 99
157 153 97
161 156 99
157 154 97
164 160 102
161 156 98
160 156 98
157 153 97
156 151 95
157 152 96
160 155 97
165 160 103
165 160 102
159 155 99
164 159 102
157 152 95
163 158 101
162 157 97
151 147 89
160 155 97
167 162 101
159 155 98
159 154 95
155 152 97
158 153 96
160 155 98
154 150 95
146 142 90
151 147 89
155 152 97
161 156 97
155 150 93
150 146 93
154 150 93
158 153 94
159 154 96
161 154 93
154 149 93
152 148 92
148 143 85
146 141 87
202 225 255
202 225 255
201 225 255
201 224 255
201 224 255
201 224 255
200 224 255
200 224 255
200 224 255
200 224 255
199 224 255
199 223 255
199 223 255
199 223 255
199 223 255
198 223 255
198 223 255
198 223 255
198 223 255
197 222 255
197 222 255
197 222 255
197 222 255
196 222 255
196 222 255
196 222 255
196 222 255
196 222 255
195 221 255
195 221 255
195 221 255
195 221 255
195 221 255
195 221 255
195 221 255
195 221 255
195 221 255
195 221 255
195 221 255
195 221 255
195 221 255
195 221 255
195 221 255
195 221 255
195 221 255
195 221 255
195 221 255
195 221 255
195 221 255
195 221 255
195 221 255
195 221 255
194 221 255
194 221 255
194 221 255
194 221 255
194 221 255
194 221 255
194 221 255
194 221 255
194 221 255
194 221 255
194 221 255
194 221 255
194 221 255
194 221 255
194 220 255
194 220 255
193 220 255
193 220 255
193 220 255
193 220 255
193 220 255
193 220 255
193 220 255
193 220 255
193 220 255
192 220 255
192 220 255
192 220 255
192 220 255
192 219 255
192 219 255
191 219 255
191 219 255
191 219 255
191 219 255
191 219 255
190 219 255
190 219 255
190 219 255
190 218 255
189 218 255
189 218 255
189 218 255
189 218 255
188 218 255
188 218 255
188 217 255
187 217 255
187 217 255
187 217 255
186 217 255
186 216 255
185 216 255
185 216 255
184 216 255
184 215 255
184 215 255
184 216 255
184 216 255
185 216 255
185 216 255
185 216 255
186 216 255
186 216 255
186 217 255
187 217 255
187 217 255
188 217 255
188 218 255
189 218 255
190 218 255
191 219 255
191 219 255
192 220 255
194 221 255
195 221 255
197 222 255
199 223 255
202 225 255
209 229 255
211 230 255
211 230 255
211 230 255
211 230 255
211 230 255
211 230 255
211 230 255
211 230 255
211 230 255
211 230 255
211 230 255
211 230 255
210 230 255
210 230 255
210 230 255
210 229 255
210 229 255
210 229 255
210 229 255
210 229 255
210 229 255
210 229 255
210 229 255
210 229 255
210 229 255
210 229 255
210 229 255
210 229 255
210 229 255
210 229 255
210 229 255
199 219 247
109 135 192
61 98 169
62 98 171
62 98 168
62 98 168
62 98 169
63 99 169
62 99 170
62 99 169
62 98 166
62 98 167
62 98 160
62 98 166
62 98 165
62 98 162
61 96 157
62 99 169
61 98 161
62 98 166
62 98 165
62 98 159
62 98 162
62 98 159
62 98 163
62 98 164
61 98 163
62 98 161
62 97 159
62 98 164
61 97 148
62 99 170
62 98 168
62 98 160
62 98 165
61 97 153
61 97 152
63 99 171
61 96 157
62 98 163
63 99 164
61 97 157
62 98 156
61 97 160
62 98 163
62 98 163
62 98 164
62 97 159
62 98 166
63 99 164
62 98 167
61 97 162
62 97 160
61 96 159
62 98 163
62 98 161
61 97 162
62 97 163
62 97 159
62 98 163
61 97 164
63 98 167
62 98 163
62 98 170
62 98 167
62 97 164
61 97 163
61 96 164
62 98 170
60 95 157
60 95 162
62 97 168
102 128 184
202 222 250
210 229 255
210 229 255
210 229 255
210 229 255
210 229 255
210 229 255
210 229 255
210 229 255
210 229 255
210 229 255
210 229 255
210 229 255
210 229 255
210 229 255
210 229 255
210 229 255
210 230 255
210 230 255
210 230 255
211 230 255
211 230 255
211 230 255
211 230 255
211 230 255
211 230 255
211 230 255
211 230 255
211 230 255
211 230 255
211 230 255
211 230 255
170 180 184
136 132 87
142 139 91
136 134 90
137 135 90
144 142 96
138 137 93
138 136 92
142 140 94
144 142 95
140 138 93
135 134 92
144 142 96
151 150 102
141 140 95
142 141 96
144 142 95
149 148 100
146 145 98
147 146 99
155 153 103
155 153 103
152 151 102
145 143 96
154 152 103
147 146 98
149 148 99
159 158 107
151 149 100
151 149 100
159 157 105
153 151 102
159 156 104
160 158 106
160 156 103
162 160 106
164 161 107
158 156 105
162 160 108
159 156 103
159 156 104
157 154 101
161 157 103
163 160 106
157 154 102
165 161 107
168 166 109
163 159 105
161 157 104
163 159 104
167 162 106
161 157 102
165 161 106
164 161 105
165 160 104
166 162 105
169 165 108
166 162 105
164 160 105
169 165 108
172 168 109
162 158 103
164 161 102
170 165 106
162 158 104
169 165 106
170 166 109
165 161 103
163 160 104
158 155 101
169 166 107
163 159 104
166 161 104
164 159 103
162 156 100
165 161 103
166 162 106
168 164 106
168 163 104
164 160 103
167 162 103
170 166 107
169 164 106
165 161 105
160 156 99
168 163 103
171 165 105
161 156 99
166 161 100
164 160 102
167 163 101
159 156 99
164 159 101
164 159 99
155 150 93
157 151 97
157 152 96
164 160 101
163 159 101
163 158 101
154 149 95
158 153 98
162 157 98
164 160 102
156 151 97
163 158 99
160 155 97
164 160 99
157 153 97
147 143 91
156 152 97
154 150 95
167 162 101
155 151 97
155 150 92
152 147 91
158 153 94
159 154 94
152 148 96
153 149 92
154 150 94
154 150 92
160 155 99
159 154 95
155 151 95
157 152 95
156 152 93
151 147 90
154 150 90
154 150 93
149 144 89
157 152 92
202 225 255
202 225 255
202 225 255
201 225 255
201 225 255
201 224 255
201 224 255
201 224 255
200 224 255
200 224 255
200 224 255
200 224 255
199 224 255
199 223 255
199 223 255
199 223 255
199 223 255
198 223 255
198 223 255
198 223 255
198 223 255
197 222 255
197 222 255
197 222 255
197 222 255
197 222 255
196 222 255
196 222 255
196 222 255
196 221 255
196 221 255
196 221 255
196 221 255
196 222 255
196 222 255
196 222 255
196 222 255
196 222 255
196 222 255
196 222 255
196 222 255
196 222 255
196 222 255
196 222 255
196 222 255
196 222 255
196 222 255
196 222 255
196 222 255
196 222 255
196 222 255
196 221 255
196 221 255
196 221 255
195 221 255
195 221 255
195 221 255
195 221 255
195 221 255
195 221 255
195 221 255
195 221 255
195 221 255
195 221 255
195 221 255
195 221 255
195 221 255
195 221 255
195 221 255
194 221 255
194 221 255
194 221 255
194 221 255
194 221 255
194 221 255
194 221 255
194 220 255
194 220 255
193 220 255
193 220 255
193 220 255
193 220 255
193 220 255
193 220 255
192 220 255
192 220 255
192 220 255
192 220 255
192 219 255
191 219 255
191 219 255
191 219 255
191 219 255
191 219 255
190 219 255
190 219 255
190 218 255
189 218 255
189 218 255
189 218 255
188 218 255
188 218 255
188 217 255
187 217 255
187 217 255
186 217 255
186 216 255
185 216 255
185 216 255
185 216 255
185 216 255
185 216 255
185 216 255
185 216 255
186 216 255
186 216 255
186 217 255
187 217 255
187 217 255
188 217 255
188 218 255
189 218 255
189 218 255
190 219 255
191 219 255
192 220 255
193 220 255
194 221 255
196 222 255
197 222 255
199 224 255
203 225 255
208 228 255
211 230 255
211 230 255
211 230 255
211 230 255
211 230 255
211 230 255
211 230 255
211 230 255
211 230 255
211 230 255
211 230 255
211 230 255
211 230 255
211 230 255
211 230 255
211 230 255
211 230 255
211 230 255
211 230 255
210 230 255
210 230 255
210 230 255
210 230 255
210 229 255
210 229 255
210 229 255
210 229 255
210 229 255
210 229 255
205 225 252
112 138 190
62 99 170
61 98 167
63 99 172
62 99 174
62 98 167
61 97 164
62 98 169
61 97 162
62 99 167
62 98 163
62 98 161
62 98 163
62 99 169
62 98 167
63 99 172
61 98 161
62 98 165
63 99 166
62 98 161
61 97 156
62 99 168
62 98 163
62 98 163
61 97 157
62 98 164
62 98 165
61 97 161
62 98 159
62 98 164
61 97 158
62 98 169
62 99 166
62 98 159
62 98 161
63 99 163
62 98 164
62 98 157
62 98 159
61 97 156
62 98 158
62 98 165
63 99 170
61 97 152
62 98 162
62 98 159
62 98 161
61 97 161
60 96 155
62 98 162
62 99 168
61 97 160
62 98 160
61 96 154
61 97 156
61 97 160
61 97 165
62 98 164
62 97 161
62 98 164
61 97 165
62 97 160
62 97 159
61 96 159
60 95 160
61 96 164
61 97 165
60 95 158
61 96 161
61 97 164
60 94 160
60 95 160
59 94 161
97 124 184
205 225 252
210 229 255
210 229 255
210 229 255
210 229 255
210 229 255
210 229 255
210 230 255
210 230 255
210 230 255
210 230 255
211 230 255
211 230 255
211 230 255
211 230 255
211 230 255
211 230 255
211 230 255
211 230 255
211 230 255
211 230 255
211 230 255
211 230 255
211 230 255
211 230 255
211 230 255
211 230 255
211 230 255
211 230 255
211 230 255
170 179 179
131 128 84
140 136 89
136 134 90
134 133 89
136 135 90
144 142 96
144 142 97
144 142 96
137 136 92
137 136 93
141 141 96
140 139 94
142 141 95
142 142 97
156 155 105
140 139 94
142 142 96
150 149 100
144 143 97
145 144 96
151 150 102
148 146 99
153 151 102
149 147 98
152 151 102
153 151 100
152 150 101
157 155 103
159 156 104
164 160 107
156 154 102
160 157 104
162 160 107
163 160 108
164 161 107
157 153 102
160 158 104
158 154 101
164 160 103
163 160 106
162 159 107
165 161 107
164 160 106
168 164 108
164 160 104
162 159 106
165 161 106
169 165 108
162 158 103
163 158 103
165 161 105
168 164 107
164 160 105
164 160 104
165 161 106
165 161 105
163 159 103
164 160 105
167 162 105
169 165 106
167 162 105
156 152 99
166 161 103
165 161 105
169 165 108
169 163 103
169 164 106
171 166 108
164 159 102
166 162 106
169 164 104
170 164 105
164 160 101
163 159 101
166 162 104
165 161 104
162 157 101
167 163 104
167 162 104
165 159 100
169 165 104
167 162 102
172 166 106
167 162 104
165 160 101
159 154 97
157 153 95
169 163 104
165 161 101
161 157 101
157 151 94
171 166 104
157 153 98
162 157 98
164 159 99
166 160 101
167 162 101
165 161 103
159 153 99
158 154 95
166 160 99
148 144 92
166 161 100
156 152 93
153 148 93
157 153 97
158 154 95
157 154 95
156 152 94
159 153 95
150 147 92
161 156 99
161 156 99
155 151 95
155 151 95
158 152 95
163 157 98
156 151 93
151 146 90
163 158 97
162 157 97
166 161 103
155 150 90
156 151 95
153 149 92
147 142 86
152 147 89
146 142 85
140 136 84
156 151 92
149 144 90
159 153 90
203 225 255
202 225 255
202 225 255
202 225 255
202 225 255
201 225 255
201 224 255
201 224 255
201 224 255
200 224 255
200 224 255
200 224 255
200 224 255
200 224 255
199 224 255
199 223 255
199 223 255
199 223 255
199 223 255
198 223 255
198 223 255
198 223 255
198 223 255
197 222 255
197 222 255
197 222 255
197 222 255
196 222 255
196 222 255
196 222 255
197 222 255
197 222 255
197 222 255
197 222 255
197 222 255
197 222 255
197 222 255
197 222 255
197 222 255
197 222 255
197 222 255
197 222 255
197 222 255
197 222 255
197 222 255
197 222 255
197 222 255
197 222 255
197 222 255
197 222 255
197 222 255
197 222 255
197 222 255
196 222 255
196 222 255
196 222 255
196 222 255
196 222 255
196 222 255
196 222 255
196 222 255
196 222 255
196 222 255
196 222 255
196 222 255
196 222 255
196 222 255
196 222 255
196 221 255
195 221 255
195 221 255
195 221 255
195 221 255
195 221 255
195 221 255
195 221 255
195 221 255
195 221 255
195 221 255
194 221 255
194 221 255
194 221 255
194 221 255
194 221 255
194 220 255
193 220 255
193 220 255
193 220 255
193 220 255
193 220 255
192 220 255
192 220 255
192 220 255
192 220 255
192 219 255
191 219 255
191 219 255
191 219 255
191 219 255
190 219 255
190 219 255
190 218 255
189 218 255
189 218 255
189 218 255
188 218 255
188 217 255
187 217 255
187 217 255
186 217 255
186 216 255
185 216 255
186 216 255
186 216 255
186 217 255
186 217 255
187 217 255
187 217 255
187 217 255
188 217 255
188 218 255
189 218 255
189 218 255
190 219 255
191 219 255
191 219 255
192 220 255
193 220 255
195 221 255
196 222 255
198 223 255
200 224 255
203 226 255
209 229 255
211 230 255
211 230 255
211 230 255
211 230 255
211 230 255
211 230 255
211 230 255
211 230 255
211 230 255
211 230 255
211 230 255
211 230 255
211 230 255
211 230 255
211 230 255
211 230 255
211 230 255
211 230 255
211 230 255
211 230 255
211 230 255
211 230 255
211 230 255
211 230 255
211 230 255
211 230 255
211 230 255
204 223 251
93 122 185
62 98 170
62 99 169
62 98 169
62 99 171
61 97 167
62 98 167
63 99 170
63 99 170
61 97 161
61 97 158
62 98 166
62 98 166
62 98 164
62 98 160
61 97 158
62 98 165
62 98 162
62 98 161
62 99 167
62 99 166
62 98 160
63 99 171
61 97 160
61 96 155
62 98 165
61 97 161
62 98 164
61 98 164
63 99 167
62 98 161
62 98 161
63 98 160
62 98 163
62 99 167
62 98 164
61 97 163
62 98 163
62 98 166
62 98 163
62 98 164
62 97 155
62 98 165
62 98 162
62 99 164
61 97 162
62 98 163
63 99 167
62 98 160
63 99 169
62 97 157
62 98 160
62 97 160
61 97 158
62 98 162
61 97 159
61 97 161
62 98 163
61 97 160
61 97 165
61 97 165
62 98 165
62 97 160
61 96 159
62 98 170
61 96 162
62 98 167
62 97 162
62 98 164
61 96 160
60 96 160
62 97 159
60 95 155
60 95 159
60 95 162
107 132 185
204 223 250
211 230 255
211 230 255
211 230 255
211 230 255
211 230 255
211 230 255
211 230 255
211 230 255
211 230 255
211 230 255
211 230 255
211 230 255
211 230 255
211 230 255
211 230 255
211 230 255
211 230 255
211 230 255
211 230 255
211 230 255
211 230 255
211 230 255
211 230 255
211 230 255
211 230 255
211 230 255
211 230 255
172 181 183
118 116 78
130 128 85
140 136 90
135 133 90
128 126 86
130 130 89
127 126 85
132 131 89
144 142 96
142 140 94
140 140 96
141 139 94
142 142 97
141 140 94
141 139 94
149 147 100
140 140 96
140 139 94
147 146 100
142 140 94
150 148 100
149 148 99
145 145 100
148 146 97
152 150 101
152 151 101
162 160 107
158 157 104
157 155 105
149 148 100
155 153 101
158 155 103
152 150 100
164 161 107
161 158 105
157 154 100
159 156 104
161 159 106
159 156 103
160 157 103
164 160 104
162 159 105
160 157 103
164 160 104
166 162 105
171 166 109
165 162 105
160 157 102
167 163 107
166 162 105
162 159 105
164 160 105
164 160 105
166 163 104
157 153 101
167 162 105
168 163 104
168 164 108
167 162 103
171 167 108
168 164 106
162 158 100
168 165 108
168 164 107
172 167 107
165 161 104
166 161 104
173 168 108
169 164 103
168 163 106
171 167 108
170 166 106
166 162 103
165 161 104
166 161 103
165 161 104
166 161 101
168 163 103
170 165 107
164 160 104
164 159 103
160 156 97
163 158 101
168 163 103
162 158 98
168 162 103
162 157 101
163 159 103
160 157 99
159 154 97
164 159 100
167 163 104
162 158 99
156 152 96
166 161 102
171 165 104
163 160 97
161 157 98
154 150 94
159 154 97
161 157 98
165 161 99
165 159 101
162 158 96
166 160 99
160 155 98
167 162 101
152 147 95
154 149 91
156 152 95
155 150 95
160 155 96
148 143 87
157 153 97
151 147 90
162 157 97
161 156 99
150 147 89
157 152 94
149 144 89
155 150 92
155 150 93
151 145 88
151 146 84
167 161 99
161 156 97
156 152 93
160 154 94
160 154 96
152 147 87
158 153 94
150 145 88
157 151 93
203 225 255
203 225 255
202 225 255
202 225 255
202 225 255
202 225 255
202 225 255
201 225 255
201 224 255
201 224 255
201 224 255
200 224 255
200 224 255
200 224 255
200 224 255
200 224 255
199 224 255
199 223 255
199 223 255
199 223 255
199 223 255
198 223 255
198 223 255
198 223 255
198 223 255
197 222 255
197 222 255
197 222 255
197 222 255
197 223 255
197 223 255
198 223 255
198 223 255
198 223 255
198 223 255
198 223 255
198 223 255
198 223 255
198 223 255
198 223 255
198 223 255
198 223 255
198 223 255
198 223 255
198 223 255
198 223 255
198 223 255
198 223 255
198 223 255
198 223 255
198 223 255
198 223 255
198 223 255
197 222 255
197 222 255
197 222 255
197 222 255
197 222 255
197 222 255
197 222 255
197 222 255
197 222 255
197 222 255
197 222 255
197 222 255
197 222 255
197 222 255
197 222 255
197 222 255
196 222 255
196 222 255
196 222 255
196 222 255
196 222 255
196 222 255
196 222 255
196 222 255
196 222 255
196 221 255
195 221 255
195 221 255
195 221 255
195 221 255
195 221 255
195 221 255
195 221 255
194 221 255
194 221 255
194 221 255
194 221 255
194 221 255
193 220 255
193 220 255
193 220 255
193 220 255
193 220 255
192 220 255
192 220 255
192 220 255
192 219 255
191 219 255
191 219 255
191 219 255
190 219 255
190 219 255
190 218 255
189 218 255
189 218 255
188 218 255
188 217 255
187 217 255
187 217 255
186 217 255
186 217 255
186 217 255
187 217 255
187 217 255
187 217 255
188 217 255
188 218 255
188 218 255
189 218 255
189 218 255
190 218 255
191 219 255
191 219 255
192 220 255
193 220 255
194 221 255
195 221 255
197 222 255
198 223 255
201 224 255
204 226 255
210 229 255
212 230 255
212 230 255
212 230 255
212 230 255
211 230 255
211 230 255
211 230 255
211 230 255
211 230 255
211 230 255
211 230 255
211 230 255
211 230 255
211 230 255
211 230 255
211 230 255
211 230 255
211 230 255
211 230 255
211 230 255
211 230 255
211 230 255
211 230 255
211 230 255
211 230 255
210 229 255
116 141 192
62 99 170
62 98 170
62 98 162
62 99 167
61 98 161
61 97 155
62 98 166
61 97 157
63 99 168
62 97 159
62 98 162
62 98 167
62 98 167
61 97 161
62 98 163
61 97 158
62 98 163
60 96 153
62 98 157
62 98 165
62 97 156
63 99 167
62 99 165
62 97 156
62 98 161
62 98 166
62 98 159
62 98 161
62 97 154
62 98 157
61 97 156
63 99 167
62 98 157
61 97 158
62 98 164
61 97 162
62 98 159
62 98 164
61 97 161
62 98 162
62 98 166
62 98 160
61 97 153
61 97 156
62 98 160
63 99 162
62 98 164
63 99 170
62 98 162
62 98 157
63 99 169
61 96 159
61 97 163
61 97 157
61 97 162
62 98 159
60 95 154
63 98 166
60 95 156
62 97 165
61 97 158
61 97 161
63 98 166
61 96 158
61 97 159
61 98 165
63 98 165
63 98 165
60 96 162
61 95 158
60 96 162
60 94 159
62 97 163
60 94 157
59 94 152
60 94 153
114 138 187
210 229 254
211 230 255
211 230 255
211 230 255
211 230 255
211 230 255
211 230 255
211 230 255
211 230 255
211 230 255
211 230 255
211 230 255
211 230 255
211 230 255
211 230 255
211 230 255
211 230 255
211 230 255
211 230 255
211 230 255
211 230 255
211 230 255
212 230 255
212 230 255
212 230 255
212 230 255
167 174 171
133 131 87
137 134 88
124 123 82
134 132 89
135 135 92
135 133 90
141 139 94
131 130 90
139 138 94
127 127 87
141 140 94
151 149 101
140 140 96
137 136 93
140 139 94
143 142 97
148 147 99
145 144 97
150 148 100
151 150 102
144 143 97
150 148 100
145 143 96
156 154 104
149 148 100
144 142 95
149 147 99
161 157 104
144 142 96
156 155 104
163 160 107
161 158 106
157 155 103
169 164 109
153 150 99
156 152 101
163 160 106
161 158 104
158 156 104
160 158 104
162 159 106
165 161 105
166 162 107
160 156 102
171 166 110
163 160 106
166 162 105
168 164 107
170 165 107
169 165 109
169 165 106
169 165 107
169 165 107
163 160 103
168 163 107
167 164 108
171 167 108
165 160 105
165 162 107
166 162 106
168 164 106
172 167 107
167 162 103
169 165 106
165 161 104
168 163 105
167 163 104
168 163 106
176 170 110
169 163 103
167 163 104
166 162 102
161 156 99
167 162 104
168 163 104
169 164 105
165 160 99
165 161 103
170 166 104
165 160 99
168 163 104
161 156 97
167 164 104
165 160 101
165 161 103
166 161 104
170 165 106
165 162 103
165 161 105
168 163 102
166 162 103
167 162 103
165 160 97
163 159 101
167 162 101
164 159 100
162 157 99
160 156 97
167 162 102
167 162 103
163 157 99
164 158 97
165 160 102
165 159 100
160 156 95
168 163 101
160 155 99
156 152 94
158 152 94
158 153 95
153 149 94
164 160 100
155 151 94
164 159 98
160 155 95
158 153 93
158 152 94
160 155 97
157 153 93
166 160 98
157 153 95
152 148 86
161 156 96
155 150 89
155 151 95
157 152 93
158 153 96
157 152 93
157 151 90
155 150 94
155 150 90
160 154 94
149 145 87
153 148 90
203 226 255
203 225 255
203 225 255
203 225 255
202 225 255
202 225 255
202 225 255
202 225 255
202 225 255
201 225 255
201 224 255
201 224 255
201 224 255
201 224 255
200 224 255
200 224 255
200 224 255
200 224 255
199 224 255
199 223 255
199 223 255
199 223 255
199 223 255
198 223 255
198 223 255
198 223 255
198 223 255
198 223 255
198 223 255
198 223 255
198 223 255
198 223 255
199 223 255
199 223 255
199 223 255
199 223 255
199 223 255
199 223 255
199 223 255
199 223 255
199 223 255
199 223 255
199 223 255
199 223 255
199 223 255
199 223 255
199 223 255
199 223 255
199 223 255
199 223 255
198 223 255
198 223 255
198 223 255
198 223 255
198 223 255
198 223 255
198 223 255
198 223 255
198 223 255
198 223 255
198 223 255
198 223 255
198 223 255
198 223 255
198 223 255
198 223 255
198 223 255
198 223 255
197 223 255
197 222 255
197 222 255
197 222 255
197 222 255
197 222 255
197 222 255
197 222 255
197 222 255
197 222 255
197 222 255
196 222 255
196 222 255
196 222 255
196 222 255
196 222 255
196 222 255
196 222 255
195 221 255
195 221 255
195 221 255
195 221 255
195 221 255
195 221 255
194 221 255
194 221 255
194 221 255
194 221 255
194 220 255
193 220 255
193 220 255
193 220 255
193 220 255
192 220 255
192 220 255
192 219 255
191 219 255
191 219 255
191 219 255
190 219 255
190 218 255
189 218 255
189 218 255
189 218 255
188 217 255
187 217 255
187 217 255
187 217 255
187 217 255
188 217 255
188 218 255
188 218 255
189 218 255
189 218 255
189 218 255
190 219 255
191 219 255
191 219 255
192 220 255
193 220 255
194 220 255
195 221 255
196 222 255
197 222 255
199 223 255
201 224 255
204 226 255
210 229 255
212 230 255
212 230 255
212 230 255
212 230 255
212 230 255
212 230 255
212 230 255
212 230 255
212 230 255
212 230 255
212 230 255
212 230 255
211 230 255
211 230 255
211 230 255
211 230 255
211 230 255
211 230 255
211 230 255
211 230 255
211 230 255
211 230 255
211 230 255
211 230 255
140 163 209
62 98 165
62 99 172
62 98 167
62 98 165
62 98 166
62 99 170
62 98 166
62 98 164
61 98 159
62 98 164
62 98 164
61 97 156
62 98 166
63 99 170
62 98 159
62 98 167
62 98 162
61 97 159
62 98 158
62 97 158
63 99 161
62 98 159
63 99 160
60 96 150
62 98 163
62 98 161
61 97 152
63 99 162
62 98 166
62 98 166
62 98 162
62 98 160
63 99 164
62 97 159
62 98 159
61 97 158
62 98 163
62 98 160
62 98 166
62 98 162
62 98 161
62 99 164
61 97 159
61 97 157
62 98 161
62 98 158
61 97 164
62 98 157
62 97 159
61 97 159
61 97 157
62 98 165
61 97 155
61 97 155
61 96 157
62 98 160
61 96 151
62 97 158
61 97 158
62 97 161
62 98 164
61 96 154
61 97 159
61 95 154
61 96 158
61 97 160
61 96 158
61 96 158
61 96 153
60 95 151
61 97 166
62 97 163
61 96 154
60 95 161
61 96 159
60 94 156
59 94 159
60 95 161
133 155 197
211 230 255
211 230 255
211 230 255
211 230 255
211 230 255
211 230 255
211 230 255
211 230 255
211 230 255
211 230 255
211 230 255
211 230 255
211 230 255
212 230 255
212 230 255
212 230 255
212 230 255
212 230 255
212 230 255
212 230 255
212 230 255
212 230 255
212 230 255
212 230 255
173 184 192
130 127 84
134 131 86
141 138 92
131 129 87
118 117 80
136 134 90
132 132 90
140 139 94
132 132 90
131 131 90
146 145 98
136 136 93
140 140 95
143 142 97
145 143 97
147 146 100
137 137 93
148 146 99
149 148 101
150 149 100
148 147 100
141 140 95
150 148 98
149 147 98
151 150 102
155 153 103
151 150 101
156 153 103
155 153 102
160 158 106
159 158 105
158 155 102
161 158 105
153 150 97
158 155 103
155 153 101
166 163 108
160 157 104
165 161 106
156 153 101
163 160 105
158 156 103
164 161 105
161 157 102
168 164 108
162 159 104
158 155 102
163 160 104
161 158 101
168 163 107
165 161 104
167 163 105
170 166 109
167 163 105
166 162 107
163 160 105
161 157 100
166 162 104
170 166 108
164 160 104
168 165 107
167 162 104
168 164 106
169 164 105
171 166 107
168 163 104
167 162 105
164 160 101
170 165 105
164 160 103
171 166 107
167 162 105
166 160 101
171 167 108
164 160 103
166 161 102
173 167 105
165 160 103
166 161 100
167 162 103
166 161 103
168 163 100
164 159 101
167 163 104
169 164 104
166 161 99
163 158 97
168 164 103
168 163 105
165 160 99
164 160 101
167 161 99
165 160 100
167 162 103
164 159 100
168 163 102
165 160 102
163 158 97
161 157 99
164 157 95
155 152 93
165 160 99
168 164 103
165 159 98
167 161 99
163 157 95
162 158 97
160 155 97
160 156 97
161 156 98
165 160 101
159 155 96
160 155 98
160 156 95
161 155 95
159 153 97
160 155 97
150 146 89
156 151 91
164 159 100
164 158 97
153 148 87
154 150 94
159 153 91
159 153 95
152 147 88
159 153 95
157 151 92
148 144 89
151 146 87
156 151 96
158 154 95
155 151 93
154 149 91
145 141 82
204 226 255
203 226 255
203 226 255
203 225 255
203 225 255
203 225 255
202 225 255
202 225 255
202 225 255
202 225 255
202 225 255
201 225 255
201 225 255
201 224 255
201 224 255
201 224 255
200 224 255
200 224 255
200 224 255
200 224 255
200 224 255
199 223 255
199 223 255
199 223 255
199 223 255
199 223 255
199 223 255
199 223 255
199 223 255
199 223 255
199 224 255
199 224 255
199 224 255
199 224 255
199 224 255
200 224 255
199 224 255
200 224 255
200 224 255
200 224 255
200 224 255
199 224 255
199 224 255
199 224 255
199 224 255
200 224 255
199 224 255
199 224 255
199 224 255
199 224 255
199 224 255
199 224 255
199 223 255
199 223 255
199 223 255
199 223 255
199 223 255
199 223 255
199 223 255
199 223 255
199 223 255
199 223 255
199 223 255
199 223 255
199 223 255
199 223 255
199 223 255
199 223 255
198 223 255
198 223 255
198 223 255
198 223 255
198 223 255
198 223 255
198 223 255
198 223 255
198 223 255
198 223 255
198 223 255
197 222 255
197 222 255
197 222 255
197 222 255
197 222 255
197 222 255
197 222 255
197 222 255
196 222 255
196 222 255
196 222 255
196 222 255
196 222 255
196 221 255
195 221 255
195 221 255
195 221 255
195 221 255
195 221 255
194 221 255
194 221 255
194 221 255
194 220 255
193 220 255
193 220 255
193 220 255
192 220 255
192 220 255
192 219 255
191 219 255
191 219 255
191 219 255
190 219 255
190 218 255
189 218 255
189 218 255
188 218 255
188 217 255
188 218 255
188 218 255
189 218 255
189 218 255
189 218 255
190 218 255
190 219 255
191 219 255
191 219 255
192 220 255
193 220 255
193 220 255
194 221 255
195 221 255
196 222 255
198 223 255
200 224 255
202 225 255
205 227 255
211 230 255
212 230 255
212 230 255
212 230 255
212 230 255
212 230 255
212 230 255
212 230 255
212 230 255
212 230 255
212 230 255
212 230 255
212 230 255
212 230 255
212 230 255
212 230 255
212 230 255
212 230 255
212 230 255
212 230 255
212 230 255
212 230 255
211 230 255
165 185 224
62 98 166
62 99 171
62 98 165
61 97 163
61 97 163
63 99 165
62 98 166
63 99 164
62 98 163
62 98 164
62 98 163
61 97 156
61 97 158
61 97 161
61 97 160
62 98 162
62 98 164
63 98 159
61 97 159
62 98 163
61 97 160
62 98 163
62 98 161
62 98 162
60 96 142
62 98 160
61 97 160
62 98 158
61 97 157
62 98 158
62 98 163
61 97 154
62 98 158
62 97 155
61 97 154
61 97 159
62 97 155
61 97 157
63 99 162
62 98 164
61 97 155
63 99 164
62 97 158
61 97 156
61 96 150
62 97 153
61 97 159
61 97 158
61 98 160
62 98 159
61 97 155
61 97 156
62 98 163
61 97 156
62 98 159
62 97 159
61 96 159
61 96 157
61 97 158
63 98 166
61 96 152
61 97 161
60 95 151
61 97 163
62 98 165
62 98 163
60 95 151
60 95 153
60 94 149
60 95 156
61 97 162
59 93 155
59 93 152
60 96 162
60 96 162
60 94 155
59 94 156
59 93 154
58 91 142
59 93 157
166 185 218
211 230 255
211 230 255
212 230 255
212 230 255
212 230 255
212 230 255
212 230 255
212 230 255
212 230 255
212 230 255
212 230 255
212 230 255
212 230 255
212 230 255
212 230 255
212 230 255
212 230 255
212 230 255
212 230 255
212 230 255
212 230 255
212 230 255
189 202 215
130 127 85
137 134 87
130 129 86
129 128 87
128 127 85
134 134 91
125 125 86
128 128 89
142 141 96
135 133 90
143 142 96
137 136 92
139 137 92
140 139 95
139 140 97
141 140 96
151 150 101
130 130 90
148 146 99
149 147 100
141 140 95
149 148 99
145 144 98
150 149 101
154 152 101
155 153 103
159 156 105
159 157 105
155 152 102
162 159 106
153 150 100
159 156 105
156 153 101
162 160 105
159 156 102
160 158 104
160 158 104
161 158 103
164 160 105
156 153 101
164 161 106
168 164 107
165 160 104
160 156 103
168 164 106
164 160 105
167 163 106
169 165 107
162 158 103
169 164 106
158 155 102
164 159 103
168 163 104
169 164 106
165 161 104
170 166 107
170 165 107
166 161 101
163 160 103
167 163 102
168 163 104
164 161 103
170 166 106
169 164 104
167 163 106
169 165 104
172 166 106
170 166 105
169 165 107
169 165 105
172 168 108
166 161 103
169 164 104
170 165 108
173 167 106
168 164 106
167 162 101
167 163 104
165 160 101
170 165 107
166 162 100
164 159 103
166 161 101
167 163 103
167 162 103
168 163 100
167 161 103
169 164 103
165 160 101
166 161 101
168 163 100
172 167 106
165 161 101
166 161 98
166 161 100
161 156 99
161 156 96
165 160 101
151 147 90
167 161 103
165 161 99
162 157 96
168 162 99
168 162 101
164 159 97
164 158 96
160 156 96
164 158 95
168 162 99
166 160 99
161 155 95
157 153 92
161 155 95
164 158 99
162 158 97
165 159 98
160 155 97
161 156 97
162 157 95
159 155 98
162 156 96
156 151 92
158 153 92
161 155 94
153 148 85
162 157 98
152 147 91
151 146 83
159 153 94
157 153 95
157 152 94
154 148 90
158 152 89
153 147 87
155 151 90
154 148 86
204 226 255
204 226 255
204 226 255
203 226 255
203 226 255
203 226 255
203 225 255
203 225 255
203 225 255
202 225 255
202 225 255
202 225 255
202 225 255
202 225 255
201 225 255
201 224 255
201 224 255
201 224 255
201 224 255
200 224 255
200 224 255
200 224 255
200 224 255
200 224 255
200 224 255
200 224 255
200 224 255
200 224 255
200 224 255
200 224 255
200 224 255
200 224 255
200 224 255
200 224 255
200 224 255
200 224 255
200 224 255
200 224 255
200 224 255
200 224 255
200 224 255
200 224 255
200 224 255
200 224 255
200 224 255
200 224 255
200 224 255
200 224 255
200 224 255
200 224 255
200 224 255
200 224 255
200 224 255
200 224 255
200 224 255
200 224 255
200 224 255
200 224 255
200 224 255
200 224 255
200 224 255
200 224 255
200 224 255
200 224 255
200 224 255
200 224 255
199 224 255
199 224 255
199 224 255
199 223 255
199 223 255
199 223 255
199 223 255
199 223 255
199 223 255
199 223 255
199 223 255
199 223 255
198 223 255
198 223 255
198 223 255
198 223 255
198 223 255
198 223 255
198 223 255
198 223 255
198 223 255
197 222 255
197 222 255
197 222 255
197 222 255
197 222 255
197 222 255
196 222 255
196 222 255
196 222 255
196 222 255
196 222 255
196 222 255
195 221 255
195 221 255
195 221 255
195 221 255
194 221 255
194 221 255
194 221 255
193 220 255
193 220 255
193 220 255
192 220 255
192 220 255
192 219 255
191 219 255
191 219 255
190 219 255
190 218 255
189 218 255
189 218 255
189 218 255
189 218 255
189 218 255
190 218 255
190 219 255
191 219 255
191 219 255
191 219 255
192 220 255
193 220 255
193 220 255
194 221 255
195 221 255
196 222 255
197 222 255
199 223 255
200 224 255
203 225 255
207 227 255
212 230 255
212 231 255
212 231 255
212 231 255
212 231 255
212 230 255
212 230 255
212 230 255
212 230 255
212 230 255
212 230 255
212 230 255
212 230 255
212 230 255
212 230 255
212 230 255
212 230 255
212 230 255
212 230 255
212 230 255
212 230 255
187 206 238
65 101 168
61 97 164
62 99 168
61 98 163
61 98 165
61 98 166
61 98 165
61 96 157
62 98 160
62 99 169
62 98 159
62 98 161
62 98 160
61 97 160
62 98 156
62 98 163
61 98 159
61 97 159
61 97 155
61 97 156
62 98 159
62 98 161
62 98 157
63 99 164
61 97 154
61 97 156
61 97 157
62 98 158
61 97 156
62 98 159
61 97 157
62 98 161
62 98 157
62 98 155
62 98 164
61 97 159
61 97 158
62 98 161
62 98 159
63 99 166
61 97 153
62 98 163
61 97 156
63 98 161
62 98 165
62 97 154
62 98 162
62 98 157
61 96 152
62 98 160
61 97 160
62 99 165
61 96 149
62 98 162
60 96 153
61 97 155
62 97 163
61 97 157
61 97 160
61 97 152
61 96 154
61 97 152
62 97 160
61 96 158
61 96 156
61 96 154
61 97 167
62 98 163
60 95 155
60 95 160
61 96 156
62 96 159
62 97 160
60 93 159
59 94 158
61 95 161
59 92 149
60 94 160
59 94 160
61 96 162
60 95 156
65 97 158
185 204 234
212 230 255
212 230 255
212 230 255
212 230 255
212 230 255
212 230 255
212 230 255
212 230 255
212 230 255
212 230 255
212 230 255
212 230 255
212 230 255
212 230 255
212 230 255
212 231 255
212 231 255
212 231 255
212 231 255
212 231 255
199 214 230
136 134 98
126 123 83
132 130 87
134 133 88
123 122 84
140 139 93
129 129 87
139 138 93
139 137 94
124 124 86
139 140 97
130 130 90
137 136 93
138 138 96
135 135 92
133 133 91
140 140 95
148 147 100
140 139 95
144 143 98
138 138 94
144 143 97
149 148 100
142 141 96
153 151 101
158 156 105
148 147 100
156 154 102
159 155 103
150 148 100
146 144 97
156 153 99
158 155 103
154 152 101
148 145 97
163 161 107
164 161 106
157 154 102
165 161 106
169 164 108
159 156 103
168 165 108
165 161 107
161 157 103
163 160 103
159 156 102
165 162 105
166 162 103
160 157 104
172 167 108
165 161 104
172 167 108
163 160 104
163 159 104
172 167 107
170 166 107
166 161 101
169 165 108
167 162 103
165 160 103
169 164 104
167 163 102
166 162 103
170 165 105
167 162 105
167 162 103
166 160 101
173 169 108
171 166 107
169 164 104
163 159 102
168 164 103
169 164 104
168 162 101
170 165 105
173 167 105
167 162 101
167 162 103
173 168 108
165 160 101
166 162 101
166 162 101
168 163 101
171 165 104
165 160 100
165 160 100
167 161 101
168 163 101
165 161 102
167 162 101
166 161 100
165 160 99
170 165 104
166 161 100
169 165 105
172 167 108
165 159 98
166 160 99
168 163 101
164 159 94
160 155 96
162 157 97
163 159 97
157 151 95
160 156 96
166 161 101
160 156 95
163 157 99
160 156 95
160 156 95
149 145 89
154 149 92
166 161 99
168 162 102
159 154 95
168 163 98
162 157 95
164 158 96
161 156 95
154 150 90
157 152 93
160 155 96
164 159 99
155 151 92
157 153 95
158 153 93
155 150 91
158 153 95
160 154 94
157 153 94
153 149 91
158 152 93
153 149 91
154 149 89
159 154 93
156 151 93
158 152 87
204 226 255
204 226 255
204 226 255
204 226 255
204 226 255
204 226 255
203 226 255
203 226 255
203 225 255
203 225 255
203 225 255
202 225 255
202 225 255
202 225 255
202 225 255
202 225 255
201 225 255
201 225 255
201 224 255
201 224 255
201 224 255
201 224 255
201 224 255
201 224 255
201 224 255
201 224 255
201 224 255
201 224 255
201 224 255
201 224 255
201 224 255
201 224 255
201 224 255
201 224 255
201 224 255
201 225 255
201 225 255
201 225 255
201 225 255
201 224 255
201 225 255
201 225 255
201 225 255
201 225 255
201 224 255
201 224 255
201 224 255
201 224 255
201 224 255
201 224 255
201 224 255
201 224 255
201 224 255
201 224 255
201 224 255
201 224 255
201 224 255
201 224 255
201 224 255
201 224 255
201 224 255
201 224 255
201 224 255
201 224 255
200 224 255
200 224 255
200 224 255
200 224 255
200 224 255
200 224 255
200 224 255
200 224 255
200 224 255
200 224 255
200 224 255
200 224 255
200 224 255
199 224 255
199 224 255
199 223 255
199 223 255
199 223 255
199 223 255
199 223 255
199 223 255
199 223 255
199 223 255
198 223 255
198 223 255
198 223 255
198 223 255
198 223 255
198 223 255
198 223 255
197 222 255
197 222 255
197 222 255
197 222 255
197 222 255
196 222 255
196 222 255
196 222 255
196 222 255
196 221 255
195 221 255
195 221 255
195 221 255
194 221 255
194 221 255
194 221 255
193 220 255
193 220 255
193 220 255
192 220 255
192 219 255
191 219 255
191 219 255
190 219 255
190 218 255
190 218 255
190 219 255
190 219 255
191 219 255
191 219 255
191 219 255
192 220 255
192 220 255
193 220 255
193 220 255
194 221 255
195 221 255
196 222 255
197 222 255
198 223 255
199 224 255
201 225 255
204 226 255
208 228 255
212 230 255
213 231 255
213 231 255
213 231 255
212 231 255
212 231 255
212 231 255
212 231 255
212 231 255
212 231 255
212 231 255
212 231 255
212 231 255
212 231 255
212 231 255
212 230 255
212 230 255
212 230 255
212 230 255
204 223 250
87 117 180
62 99 171
62 99 173
62 98 168
61 97 165
62 98 163
62 98 163
61 97 162
62 98 157
61 97 155
63 99 167
62 98 161
60 96 150
60 96 153
62 98 160
62 98 164
63 99 166
61 98 160
61 97 154
61 97 158
63 99 166
62 98 159
62 98 153
62 97 161
62 98 155
61 97 154
62 98 159
62 98 158
62 99 164
62 98 160
62 97 156
61 97 159
62 97 155
62 98 160
62 97 158
61 97 157
63 99 165
61 96 152
60 96 148
62 98 160
61 97 158
61 97 156
61 96 149
61 97 155
62 97 157
63 99 162
61 97 160
63 99 162
61 97 153
61 96 154
62 98 164
63 99 164
61 97 155
62 98 155
61 97 148
61 97 156
61 96 158
61 97 157
61 96 158
62 97 160
63 98 161
61 97 158
61 96 152
61 97 157
60 95 149
62 97 156
61 96 161
62 97 163
61 96 156
61 96 158
61 96 157
62 97 158
61 96 154
61 95 152
61 96 160
59 94 150
60 95 152
60 94 158
59 93 151
60 94 161
61 96 163
58 91 149
59 93 157
95 120 169
206 225 251
212 230 255
212 230 255
212 230 255
212 230 255
212 230 255
212 231 255
212 231 255
212 231 255
212 231 255
212 231 255
212 231 255
212 231 255
212 231 255
212 231 255
212 231 255
213 231 255
213 231 255
213 231 255
203 220 240
130 130 96
127 126 85
125 123 83
124 123 84
136 135 92
115 115 79
119 119 82
139 139 96
136 135 91
125 125 87
126 126 86
131 130 89
140 139 95
132 131 90
143 142 96
138 137 93
139 138 93
138 137 93
142 141 96
147 147 99
134 134 93
144 143 98
151 149 99
152 151 103
157 154 102
150 148 100
153 151 100
156 153 102
149 147 96
154 152 101
158 156 105
158 155 102
157 154 100
159 156 102
158 156 103
156 153 101
161 157 103
157 154 103
158 155 103
160 157 104
165 161 104
162 158 104
167 164 108
164 161 105
163 159 103
164 160 103
170 166 109
161 157 101
163 160 104
167 162 105
168 163 104
170 165 106
164 161 104
169 164 105
168 164 105
171 166 107
166 162 102
169 165 104
172 167 108
173 167 107
169 164 105
166 162 106
169 165 101
168 163 106
171 166 106
173 168 107
166 161 104
164 160 100
167 163 101
168 163 105
171 167 104
172 166 105
172 166 106
164 160 96
176 169 108
166 161 100
165 161 100
175 169 110
172 166 104
168 162 98
172 166 100
172 167 106
165 160 101
169 163 103
161 157 99
168 162 100
169 164 101
169 164 102
161 157 100
164 159 98
168 164 100
173 167 102
166 160 99
169 164 103
166 161 97
166 161 102
165 160 99
166 161 102
162 157 98
169 163 99
158 153 92
166 160 98
172 166 104
160 155 93
167 161 99
161 156 93
158 153 97
165 160 99
161 156 94
163 159 96
167 162 94
169 164 102
162 156 98
165 159 97
161 156 93
162 157 93
162 156 95
159 154 97
160 155 94
161 157 94
164 159 98
162 157 94
166 161 98
159 154 93
160 154 95
158 153 91
166 160 99
153 149 90
152 147 88
160 155 95
153 148 92
153 148 90
156 151 85
148 144 86
155 150 90
153 149 90
161 156 94
158 152 95
205 227 255
205 226 255
205 226 255
204 226 255
204 226 255
204 226 255
204 226 255
204 226 255
203 226 255
203 226 255
203 226 255
203 225 255
203 225 255
203 225 255
202 225 255
202 225 255
202 225 255
202 225 255
202 225 255
202 225 255
202 225 255
202 225 255
202 225 255
202 225 255
202 225 255
202 225 255
202 225 255
202 225 255
202 225 255
202 225 255
202 225 255
202 225 255
202 225 255
202 225 255
202 225 255
202 225 255
202 225 255
202 225 255
202 225 255
202 225 255
202 225 255
202 225 255
202 225 255
202 225 255
202 225 255
202 225 255
202 225 255
202 225 255
202 225 255
202 225 255
202 225 255
202 225 255
202 225 255
202 225 255
202 225 255
202 225 255
202 225 255
202 225 255
202 225 255
202 225 255
202 225 255
201 225 255
201 225 255
201 225 255
201 225 255
201 225 255
201 224 255
201 224 255
201 224 255
201 224 255
201 224 255
201 224 255
201 224 255
201 224 255
201 224 255
201 224 255
201 224 255
200 224 255
200 224 255
200 224 255
200 224 255
200 224 255
200 224 255
200 224 255
200 224 255
200 224 255
200 224 255
199 224 255
199 223 255
199 223 255
199 223 255
199 223 255
199 223 255
198 223 255
198 223 255
198 223 255
198 223 255
198 223 255
198 223 255
198 223 255
197 222 255
197 222 255
197 222 255
197 222 255
196 222 255
196 222 255
196 222 255
196 222 255
195 221 255
195 221 255
195 221 255
194 221 255
194 221 255
194 221 255
193 220 255
193 220 255
192 220 255
192 220 255
191 219 255
191 219 255
190 219 255
191 219 255
191 219 255
191 219 255
192 220 255
192 220 255
193 220 255
193 220 255
194 220 255
194 221 255
195 221 255
196 222 255
197 222 255
198 223 255
199 223 255
200 224 255
202 225 255
205 226 255
210 229 255
213 231 255
213 231 255
213 231 255
213 231 255
213 231 255
213 231 255
213 231 255
213 231 255
213 231 255
213 231 255
213 231 255
213 231 255
213 231 255
212 231 255
212 231 255
212 231 255
212 231 255
212 231 255
152 173 212
61 97 161
62 98 166
62 99 167
62 98 166
62 98 163
61 97 158
61 98 162
61 97 162
62 98 162
61 97 152
61 97 155
62 97 154
62 98 160
61 97 152
61 97 163
62 98 158
62 98 162
62 98 156
61 97 152
61 96 148
61 97 153
61 96 152
63 98 162
61 97 153
62 98 158
62 98 158
61 96 157
61 96 157
62 98 162
61 98 159
62 98 161
61 97 159
62 98 155
62 98 163
61 96 155
61 98 160
62 98 164
62 98 158
62 98 160
61 97 156
61 97 157
61 97 159
61 97 156
61 96 150
62 97 154
62 98 160
62 98 161
61 97 155
63 98 158
61 97 156
61 97 152
62 98 159
62 98 156
61 97 158
62 98 156
62 98 160
62 98 161
62 97 155
62 98 162
61 96 158
61 96 154
60 96 151
61 97 155
61 96 152
61 96 154
61 97 151
62 97 163
60 95 154
61 96 154
61 95 151
61 97 160
62 97 156
60 95 153
60 95 153
60 94 148
61 95 152
61 96 160
61 96 157
60 94 159
61 95 156
60 94 154
59 93 157
59 93 151
59 92 151
121 143 184
212 231 255
212 231 255
212 231 255
212 231 255
213 231 255
213 231 255
213 231 255
213 231 255
213 231 255
213 231 255
213 231 255
213 231 255
213 231 255
213 231 255
213 231 255
213 231 255
213 231 255
213 231 255
153 156 141
129 126 84
127 125 85
123 122 84
128 126 83
128 128 87
138 137 92
127 126 86
129 129 89
129 129 89
138 137 93
138 138 94
128 128 89
137 137 94
124 125 87
137 137 93
144 144 99
135 135 93
139 139 96
144 143 98
143 142 96
146 145 97
148 147 100
146 145 96
141 141 97
157 155 104
151 149 100
150 148 100
150 149 100
164 161 108
150 149 99
157 154 103
160 158 103
147 146 98
161 159 107
150 148 96
156 153 99
153 151 100
159 157 103
162 159 103
162 160 105
164 160 105
157 153 101
167 163 103
170 166 106
164 160 105
160 157 100
164 160 101
172 167 106
170 166 108
166 161 105
165 162 104
164 161 103
163 159 102
170 165 106
168 163 106
174 169 106
168 164 106
166 161 105
169 165 106
170 165 104
166 161 103
170 165 104
172 167 106
168 164 101
170 165 104
172 166 104
165 160 100
161 157 100
170 165 103
175 169 107
167 162 102
169 165 104
171 166 104
167 162 103
168 163 105
174 169 109
173 167 106
171 166 107
170 164 106
173 166 105
167 162 103
164 159 100
168 163 103
170 163 101
172 166 105
172 167 105
174 169 104
172 166 103
165 160 98
168 162 97
169 164 103
169 163 101
168 163 100
167 161 99
169 163 99
167 163 102
167 161 101
170 165 103
164 159 99
161 156 99
163 158 98
169 163 100
162 157 99
158 154 96
165 159 97
161 156 93
163 157 97
163 157 97
161 155 88
161 155 93
169 164 101
157 152 93
163 157 100
165 159 97
160 155 93
161 156 95
161 155 95
159 154 94
160 154 91
161 156 95
163 158 97
157 152 91
168 162 97
160 155 93
164 159 93
160 154 95
156 150 90
157 152 89
161 154 95
159 152 92
162 157 96
155 149 90
153 149 86
157 151 90
151 146 87
146 141 84
156 150 90
158 153 94
205 227 255
205 227 255
205 227 255
205 226 255
205 226 255
205 226 255
204 226 255
204 226 255
204 226 255
204 226 255
204 226 255
203 226 255
203 226 255
203 226 255
203 225 255
203 225 255
202 225 255
202 225 255
202 225 255
202 225 255
202 225 255
202 225 255
203 225 255
203 225 255
203 225 255
203 225 255
203 225 255
203 225 255
203 225 255
203 225 255
203 225 255
203 225 255
203 225 255
203 225 255
203 225 255
203 225 255
203 225 255
203 225 255
203 225 255
203 225 255
203 225 255
203 225 255
203 225 255
203 225 255
203 225 255
203 225 255
203 225 255
203 225 255
203 225 255
203 225 255
203 225 255
203 225 255
203 225 255
203 225 255
203 225 255
203 225 255
203 225 255
202 225 255
202 225 255
202 225 255
202 225 255
202 225 255
202 225 255
202 225 255
202 225 255
202 225 255
202 225 255
202 225 255
202 225 255
202 225 255
202 225 255
202 225 255
202 225 255
202 225 255
201 225 255
201 225 255
201 225 255
201 225 255
201 224 255
201 224 255
201 224 255
201 224 255
201 224 255
201 224 255
201 224 255
201 224 255
200 224 255
200 224 255
200 224 255
200 224 255
200 224 255
200 224 255
200 224 255
200 224 255
199 224 255
199 223 255
199 223 255
199 223 255
199 223 255
199 223 255
198 223 255
198 223 255
198 223 255
198 223 255
198 223 255
197 222 255
197 222 255
197 222 255
197 222 255
196 222 255
196 222 255
196 222 255
195 221 255
195 221 255
195 221 255
194 221 255
194 221 255
193 220 255
193 220 255
192 220 255
192 219 255
191 219 255
192 219 255
192 220 255
192 220 255
193 220 255
193 220 255
194 220 255
194 221 255
195 221 255
195 221 255
196 222 255
197 222 255
198 223 255
199 223 255
200 224 255
201 225 255
203 226 255
206 227 255
211 230 255
213 231 255
213 231 255
213 231 255
213 231 255
213 231 255
213 231 255
213 231 255
213 231 255
213 231 255
213 231 255
213 231 255
213 231 255
213 231 255
213 231 255
213 231 255
213 231 255
176 196 229
62 98 166
62 99 168
62 98 165
61 97 159
62 98 164
61 97 156
61 97 157
61 97 160
61 97 162
62 98 160
62 98 165
61 98 162
62 98 158
60 96 147
62 98 161
62 98 159
61 97 160
61 96 155
61 97 154
62 98 160
61 97 154
61 97 159
62 98 161
62 98 160
62 98 158
62 97 156
60 96 153
61 96 153
62 98 156
62 98 164
61 97 155
61 97 159
62 97 159
61 96 148
62 98 155
61 97 156
61 97 155
61 96 153
62 97 155
61 97 157
62 98 157
61 97 158
61 97 156
61 97 158
61 96 156
61 97 152
62 98 157
62 98 161
62 97 152
61 97 161
61 96 154
61 96 144
62 97 151
62 98 161
61 97 154
60 95 148
62 97 155
62 97 154
62 97 160
61 97 151
61 96 152
62 97 161
60 96 153
62 97 161
61 96 156
61 96 152
62 97 158
61 96 161
61 96 150
60 95 146
61 95 148
61 95 155
61 96 156
61 96 161
61 96 151
60 94 152
60 95 158
62 97 160
60 94 158
61 95 151
61 96 162
58 91 145
60 92 147
60 94 154
59 92 150
59 92 153
185 203 230
213 231 255
213 231 255
213 231 255
213 231 255
213 231 255
213 231 255
213 231 255
213 231 255
213 231 255
213 231 255
213 231 255
213 231 255
213 231 255
213 231 255
213 231 255
213 231 255
175 186 193
130 127 83
115 114 78
130 128 86
119 118 80
117 116 79
122 123 86
128 128 88
119 120 83
125 125 86
132 132 91
139 138 94
134 133 91
137 136 92
146 146 100
136 135 93
125 125 86
139 138 94
145 144 98
150 149 100
151 149 99
142 141 95
140 139 94
147 146 97
152 150 98
147 145 97
154 152 101
152 150 100
151 149 98
153 152 101
156 153 101
143 141 94
160 157 104
158 156 103
163 160 106
152 150 98
156 154 102
163 159 104
164 160 104
161 157 103
163 159 105
164 161 105
157 154 101
157 155 102
163 159 103
158 155 101
170 166 106
163 159 101
169 165 107
166 162 104
172 167 106
163 159 103
169 165 106
164 160 103
171 166 107
168 164 103
168 163 105
166 161 103
172 168 108
170 165 104
170 165 103
172 166 103
168 163 103
172 166 105
173 167 107
170 167 107
166 160 102
172 167 103
165 161 101
170 165 102
163 159 99
169 164 103
173 168 104
170 165 104
170 164 103
171 167 104
171 166 104
170 165 104
175 168 103
170 164 102
169 164 103
171 165 99
169 165 104
166 161 98
171 166 103
170 166 104
166 161 102
167 163 102
171 165 103
168 163 101
169 164 101
171 165 103
169 164 100
167 163 104
168 163 98
167 162 98
167 162 101
157 153 91
172 167 104
164 160 97
166 161 100
166 161 99
165 160 101
166 160 99
161 155 94
168 164 101
160 154 95
167 162 99
164 158 96
165 160 97
162 157 93
163 159 95
162 157 97
165 160 99
157 153 92
168 162 95
166 161 97
160 154 93
161 157 97
158 153 93
164 158 93
161 155 92
165 159 95
161 156 95
158 153 93
167 160 91
160 154 90
161 157 94
158 154 93
157 152 90
157 152 89
159 153 90
162 156 93
156 151 92
156 151 89
161 156 93
157 152 90
156 150 90
159 154 92
153 148 87
206 227 255
206 227 255
205 227 255
205 227 255
205 227 255
205 227 255
205 226 255
205 226 255
204 226 255
204 226 255
204 226 255
204 226 255
204 226 255
204 226 255
203 226 255
203 226 255
203 226 255
203 226 255
203 226 255
203 226 255
203 226 255
203 226 255
203 226 255
203 226 255
203 226 255
203 226 255
204 226 255
204 226 255
204 226 255
204 226 255
204 226 255
204 226 255
204 226 255
204 226 255
204 226 255
204 226 255
204 226 255
204 226 255
204 226 255
204 226 255
204 226 255
204 226 255
204 226 255
204 226 255
204 226 255
204 226 255
204 226 255
204 226 255
203 226 255
204 226 255
204 226 255
203 226 255
203 226 255
203 226 255
203 226 255
203 226 255
203 226 255
203 226 255
203 226 255
203 226 255
203 226 255
203 226 255
203 226 255
203 225 255
203 225 255
203 225 255
203 225 255
203 225 255
203 225 255
203 225 255
203 225 255
203 225 255
202 225 255
202 225 255
202 225 255
202 225 255
202 225 255
202 225 255
202 225 255
202 225 255
202 225 255
202 225 255
202 225 255
202 225 255
202 225 255
201 225 255
201 225 255
201 224 255
201 224 255
201 224 255
201 224 255
201 224 255
201 224 255
200 224 255
200 224 255
200 224 255
200 224 255
200 224 255
200 224 255
200 224 255
199 224 255
199 223 255
199 223 255
199 223 255
199 223 255
198 223 255
198 223 255
198 223 255
198 223 255
198 223 255
197 222 255
197 222 255
197 222 255
196 222 255
196 222 255
196 222 255
195 221 255
195 221 255
194 221 255
194 221 255
193 220 255
193 220 255
192 220 255
193 220 255
193 220 255
193 220 255
194 220 255
194 221 255
195 221 255
195 221 255
196 221 255
196 222 255
197 222 255
198 223 255
199 223 255
200 224 255
201 224 255
202 225 255
204 226 255
207 228 255
213 231 255
213 231 255
213 231 255
213 231 255
213 231 255
213 231 255
213 231 255
213 231 255
213 231 255
213 231 255
213 231 255
213 231 255
213 231 255
213 231 255
213 231 255
204 222 248
93 121 175
62 99 170
61 97 161
61 97 158
61 97 154
61 97 160
61 96 156
62 98 165
62 98 159
62 98 158
61 98 162
61 97 159
61 96 155
62 98 160
62 98 159
61 97 155
62 98 156
62 98 160
62 98 156
61 97 154
62 98 164
63 99 164
62 98 157
61 97 155
62 98 159
61 97 161
62 98 155
61 97 156
61 97 152
62 97 155
62 97 154
62 97 152
62 98 157
62 97 159
60 96 151
61 97 154
62 98 155
61 97 158
61 97 156
62 98 158
61 96 149
61 97 158
61 96 149
61 97 152
62 97 157
62 98 160
61 97 150
61 96 148
61 96 151
62 98 162
61 97 150
62 98 159
61 97 157
61 97 155
62 98 158
61 96 155
62 97 157
62 98 162
62 97 160
61 96 150
62 97 159
61 97 159
61 96 144
61 97 159
61 96 155
62 97 154
62 98 156
61 97 155
61 96 155
61 97 154
59 93 147
61 96 149
61 96 152
62 97 157
61 96 153
59 94 153
60 95 154
59 94 143
60 95 155
61 95 156
60 94 149
61 96 157
59 93 148
61 95 158
58 91 151
60 94 158
57 90 145
91 116 167
211 229 254
213 231 255
213 231 255
213 231 255
213 231 255
213 231 255
213 231 255
213 231 255
213 231 255
213 231 255
213 231 255
213 231 255
213 231 255
213 231 255
213 231 255
200 216 234
136 133 90
127 124 83
126 124 84
121 121 83
121 120 82
124 124 85
119 119 83
133 132 90
129 129 90
121 123 85
131 131 90
134 133 91
136 137 94
142 141 96
130 131 92
141 140 96
118 118 81
140 139 95
133 133 92
144 143 97
138 137 92
144 143 98
149 148 99
145 144 98
143 142 96
148 147 98
149 147 99
140 138 91
147 146 98
150 148 98
149 147 99
156 153 99
155 152 99
159 156 103
154 152 98
160 156 97
162 159 103
159 155 100
150 148 97
163 160 103
156 154 99
165 162 105
156 154 100
170 166 107
170 165 106
164 160 103
166 163 105
169 165 104
163 159 104
168 163 102
171 166 104
168 164 105
173 168 106
164 159 102
171 166 108
171 166 106
170 165 105
167 162 102
170 165 105
167 163 101
167 162 100
171 166 104
165 161 103
177 172 110
170 165 106
171 165 103
171 165 103
171 166 104
169 165 103
173 167 105
168 163 99
172 165 102
168 164 103
168 164 102
169 163 103
172 167 103
170 164 101
169 164 104
169 164 103
170 165 104
175 169 101
171 166 101
166 162 102
173 167 106
173 167 104
169 163 103
168 163 100
164 160 99
167 162 97
172 167 103
168 164 101
162 157 99
165 160 98
172 166 104
166 161 98
170 164 103
168 161 99
168 162 103
169 165 104
165 160 98
164 158 99
164 160 97
161 156 93
166 161 97
166 160 94
163 160 97
170 164 102
164 159 99
166 161 101
162 157 98
166 161 99
159 154 93
168 162 98
158 152 92
172 165 101
165 159 95
162 157 98
161 156 92
167 162 99
167 162 97
169 163 100
165 160 97
165 159 98
152 147 87
163 157 95
162 156 95
157 151 89
164 157 95
161 155 93
161 156 92
161 155 94
162 157 94
163 158 97
157 151 90
163 156 92
160 154 94
158 153 93
152 146 84
157 152 87
158 152 90
206 227 255
206 227 255
206 227 255
206 227 255
206 227 255
206 227 255
205 227 255
205 227 255
205 227 255
205 226 255
205 226 255
205 226 255
204 226 255
204 226 255
204 226 255
204 226 255
204 226 255
204 226 255
204 226 255
204 226 255
204 226 255
204 226 255
204 226 255
204 226 255
204 226 255
204 226 255
204 226 255
204 226 255
204 226 255
204 226 255
204 226 255
204 226 255
204 226 255
204 226 255
204 226 255
204 226 255
204 226 255
204 226 255
204 226 255
204 226 255
204 226 255
204 226 255
204 226 255
204 226 255
204 226 255
204 226 255
204 226 255
204 226 255
204 226 255
204 226 255
204 226 255
204 226 255
204 226 255
204 226 255
204 226 255
204 226 255
204 226 255
204 226 255
204 226 255
204 226 255
204 226 255
204 226 255
204 226 255
204 226 255
204 226 255
204 226 255
204 226 255
204 226 255
204 226 255
203 226 255
203 226 255
203 226 255
203 226 255
203 226 255
203 226 255
203 226 255
203 225 255
203 225 255
203 225 255
203 225 255
203 225 255
203 225 255
203 225 255
202 225 255
202 225 255
202 225 255
202 225 255
202 225 255
202 225 255
202 225 255
202 225 255
202 225 255
202 225 255
201 225 255
201 225 255
201 224 255
201 224 255
201 224 255
201 224 255
201 224 255
200 224 255
200 224 255
200 224 255
200 224 255
200 224 255
200 224 255
199 223 255
199 223 255
199 223 255
199 223 255
198 223 255
198 223 255
198 223 255
198 223 255
197 222 255
197 222 255
197 222 255
196 222 255
196 222 255
195 221 255
195 221 255
194 221 255
194 221 255
193 220 255
194 220 255
194 221 255
194 221 255
195 221 255
195 221 255
195 221 255
196 222 255
197 222 255
197 222 255
198 223 255
199 223 255
200 224 255
201 224 255
202 225 255
204 226 255
206 227 255
209 229 255
213 231 255
214 231 255
214 231 255
214 231 255
214 231 255
214 231 255
214 231 255
213 231 255
213 231 255
213 231 255
213 231 255
213 231 255
213 231 255
213 231 255
143 164 207
62 98 163
62 99 169
62 98 160
61 97 160
61 97 156
61 97 160
61 97 158
62 98 163
61 97 155
61 97 154
63 99 165
62 97 154
62 98 158
62 97 155
61 97 150
61 97 158
61 97 159
62 98 158
61 97 155
61 96 145
61 97 157
62 98 159
61 97 154
62 98 159
61 97 154
62 98 159
61 96 152
62 97 155
61 97 151
61 97 157
62 98 160
62 98 161
63 99 162
62 97 161
61 96 148
62 98 153
63 99 160
62 98 153
62 98 152
62 98 156
61 96 145
61 96 147
62 97 152
60 96 149
62 97 157
62 98 158
61 96 148
62 97 155
62 97 157
62 98 162
60 94 146
62 97 152
61 97 155
61 97 158
60 94 145
61 97 152
61 97 157
62 97 157
61 97 151
61 97 155
62 98 158
60 96 149
61 97 155
61 96 153
61 96 151
62 97 164
60 95 145
59 94 152
61 96 151
60 95 151
60 94 145
61 96 148
61 95 147
61 96 152
61 96 158
60 95 152
61 95 152
61 96 157
60 94 150
60 95 159
60 94 151
59 93 146
58 89 136
59 92 135
60 94 156
60 94 152
58 90 140
57 90 150
148 167 196
213 231 255
213 231 255
213 231 255
213 231 255
213 231 255
213 231 255
213 231 255
213 231 255
214 231 255
214 231 255
214 231 255
214 231 255
214 231 255
212 229 252
123 126 106
136 135 90
121 120 82
122 121 82
131 130 88
113 114 79
129 129 88
118 118 82
129 129 88
123 123 84
129 129 90
124 124 85
130 130 89
128 128 88
128 128 89
128 130 90
140 139 95
136 135 91
138 137 94
141 141 96
134 133 91
132 133 92
147 146 98
144 143 96
146 144 97
145 144 96
156 154 103
148 146 94
143 143 94
151 149 99
156 154 103
149 148 99
161 159 101
156 154 100
151 149 97
159 156 99
162 158 103
160 158 101
160 156 100
162 159 103
154 152 96
161 158 101
162 159 103
164 161 103
161 158 101
169 164 107
165 161 105
162 158 99
165 161 105
163 159 101
165 161 103
171 166 104
170 166 107
167 162 104
167 163 105
168 163 103
166 161 102
170 166 103
164 160 100
175 170 109
170 165 105
171 166 105
173 168 104
167 162 101
172 167 106
170 163 101
172 167 105
173 168 104
171 165 103
172 166 103
168 163 101
161 158 95
169 164 103
177 171 108
173 167 105
169 164 101
170 165 102
171 166 98
168 163 104
169 164 100
173 168 103
167 162 99
166 161 97
168 163 102
172 166 104
165 160 101
168 163 99
172 166 99
166 161 97
162 157 93
172 166 103
166 161 97
168 162 98
172 167 99
172 166 104
167 162 97
169 164 101
160 155 95
169 163 100
169 162 99
174 167 103
172 166 100
172 166 103
162 157 95
163 157 94
159 155 89
168 163 99
161 156 95
155 151 91
163 157 95
164 160 95
163 158 97
165 160 97
165 160 96
165 160 97
173 166 97
166 161 99
161 155 94
160 156 95
159 154 93
163 158 98
161 154 93
163 157 90
166 160 97
158 153 92
160 154 94
158 153 88
154 148 90
160 155 93
155 150 90
158 153 93
160 153 93
156 150 88
160 155 95
149 143 80
146 141 83
156 150 84
151 144 86
156 150 87
155 150 84
156 149 90
207 228 255
207 227 255
207 227 255
206 227 255
206 227 255
206 227 255
206 227 255
206 227 255
206 227 255
205 227 255
205 227 255
205 227 255
205 227 255
205 226 255
205 226 255
205 226 255
205 226 255
205 226 255
205 226 255
205 226 255
205 226 255
205 227 255
205 227 255
205 227 255
205 227 255
205 227 255
205 227 255
205 227 255
205 227 255
205 227 255
205 227 255
205 227 255
205 227 255
205 227 255
205 227 255
205 227 255
205 227 255
205 227 255
205 227 255
205 227 255
205 227 255
205 227 255
205 227 255
205 227 255
205 227 255
205 227 255
205 227 255
205 227 255
205 227 255
205 227 255
205 227 255
205 227 255
205 227 255
205 227 255
205 226 255
205 226 255
205 226 255
205 226 255
205 226 255
205 226 255
205 226 255
205 226 255
205 226 255
205 226 255
204 226 255
204 226 255
204 226 255
204 226 255
204 226 255
204 226 255
204 226 255
204 226 255
204 226 255
204 226 255
204 226 255
204 226 255
204 226 255
204 226 255
204 226 255
204 226 255
204 226 255
203 226 255
203 226 255
203 226 255
203 226 255
203 226 255
203 226 255
203 225 255
203 225 255
203 225 255
203 225 255
203 225 255
202 225 255
202 225 255
202 225 255
202 225 255
202 225 255
202 225 255
202 225 255
202 225 255
201 225 255
201 225 255
201 224 255
201 224 255
201 224 255
201 224 255
200 224 255
200 224 255
200 224 255
200 224 255
200 224 255
199 224 255
199 223 255
199 223 255
199 223 255
198 223 255
198 223 255
198 223 255
197 222 255
197 222 255
196 222 255
196 222 255
195 221 255
195 221 255
194 221 255
195 221 255
195 221 255
195 221 255
196 222 255
196 222 255
196 222 255
197 222 255
197 223 255
198 223 255
199 223 255
200 224 255
201 224 255
202 225 255
203 225 255
205 226 255
207 228 255
212 230 255
214 231 255
214 231 255
214 231 255
214 231 255
214 231 255
214 231 255
214 231 255
214 231 255
214 231 255
214 231 255
214 231 255
214 231 255
199 218 245
68 102 169
61 97 159
62 98 163
63 99 168
62 97 155
62 99 165
61 97 153
62 98 161
62 98 155
61 97 157
61 97 158
62 97 157
61 97 160
61 97 152
61 97 151
61 97 154
61 96 152
61 97 154
61 97 152
61 97 155
62 98 159
61 96 147
61 98 159
62 97 156
62 98 159
62 98 156
62 97 152
62 98 162
61 97 153
63 99 162
62 98 159
61 97 157
61 97 151
61 96 154
62 97 155
60 96 149
61 96 154
61 97 160
61 97 150
63 98 155
62 98 160
62 97 154
62 98 162
62 98 160
62 97 150
62 98 157
61 97 159
61 97 149
62 98 157
61 97 150
62 98 159
62 98 162
61 96 153
60 96 148
62 98 157
61 96 151
59 94 142
62 97 155
60 95 150
61 97 153
61 97 157
61 97 159
61 96 156
60 94 146
61 95 147
60 95 150
61 96 146
61 96 151
62 98 161
62 97 152
60 95 147
61 95 145
62 97 156
62 97 156
61 95 154
60 94 144
60 95 148
59 93 143
61 95 150
61 95 143
59 92 142
61 96 156
59 93 146
59 92 150
58 92 141
58 91 148
57 89 137
59 92 148
56 87 132
67 96 154
195 213 240
214 231 255
214 231 255
214 231 255
214 231 255
214 231 255
214 231 255
214 231 255
214 231 255
214 231 255
214 231 255
214 231 255
214 231 255
163 171 169
108 108 74
129 128 85
120 119 80
107 108 75
123 124 86
114 114 79
123 124 86
123 123 84
123 124 85
121 121 84
119 120 84
128 128 87
137 137 96
128 129 90
129 130 89
131 131 89
137 136 92
135 135 93
138 137 93
120 120 80
132 131 90
146 145 97
136 136 93
143 141 93
144 142 96
152 150 99
153 151 101
149 146 98
150 148 97
150 147 97
154 152 100
147 146 99
154 153 101
157 154 98
161 158 101
157 154 102
158 154 102
165 162 104
167 164 107
164 160 103
158 156 99
169 165 106
159 156 100
168 165 105
168 163 106
162 158 102
162 158 97
167 163 102
169 164 104
167 161 102
171 166 105
166 162 99
173 168 106
172 167 106
171 166 106
171 166 103
169 165 106
173 167 106
173 167 107
167 162 99
175 169 107
171 166 103
166 162 100
165 160 100
170 164 103
175 169 105
167 163 104
170 165 102
172 166 103
171 166 103
168 163 104
173 167 105
171 166 101
171 166 104
170 165 101
172 166 102
169 164 101
171 166 106
168 163 98
171 165 101
173 168 103
175 169 103
172 167 101
173 167 103
172 165 103
165 160 99
172 168 104
168 163 101
173 168 104
173 166 101
171 166 104
169 164 104
170 165 101
174 168 106
168 162 99
169 163 102
168 163 99
171 164 101
166 159 97
171 165 97
168 163 99
170 165 103
167 161 101
170 165 103
170 164 99
166 160 96
174 168 103
167 162 97
165 159 95
163 159 95
164 159 97
163 158 95
166 160 97
164 158 95
162 157 93
163 158 95
157 152 94
170 165 97
170 163 99
163 157 92
161 156 96
158 153 90
172 165 101
164 158 93
162 155 93
165 159 95
169 163 97
162 156 93
155 150 93
161 155 93
160 154 91
161 155 94
158 152 93
155 149 87
156 151 88
156 151 88
152 146 87
154 148 90
155 150 90
154 150 88
157 151 86
207 228 255
207 228 255
207 228 255
207 228 255
207 228 255
207 227 255
206 227 255
206 227 255
206 227 255
206 227 255
206 227 255
206 227 255
205 227 255
205 227 255
205 227 255
205 227 255
205 227 255
206 227 255
206 227 255
206 227 255
206 227 255
206 227 255
206 227 255
206 227 255
206 227 255
206 227 255
206 227 255
206 227 255
206 227 255
206 227 255
206 227 255
206 227 255
206 227 255
206 227 255
206 227 255
206 227 255
206 227 255
206 227 255
206 227 255
206 227 255
206 227 255
206 227 255
206 227 255
206 227 255
206 227 255
206 227 255
206 227 255
206 227 255
206 227 255
206 227 255
206 227 255
206 227 255
206 227 255
206 227 255
206 227 255
206 227 255
206 227 255
206 227 255
206 227 255
205 227 255
205 227 255
205 227 255
205 227 255
205 227 255
205 227 255
205 227 255
205 227 255
205 227 255
205 227 255
205 227 255
205 227 255
205 226 255
205 226 255
205 226 255
205 226 255
205 226 255
205 226 255
205 226 255
205 226 255
204 226 255
204 226 255
204 226 255
204 226 255
204 226 255
204 226 255
204 226 255
204 226 255
204 226 255
204 226 255
204 226 255
204 226 255
203 226 255
203 226 255
203 226 255
203 226 255
203 225 255
203 225 255
203 225 255
203 225 255
202 225 255
202 225 255
202 225 255
202 225 255
202 225 255
202 225 255
202 225 255
201 225 255
201 225 255
201 224 255
201 224 255
201 224 255
200 224 255
200 224 255
200 224 255
200 224 255
199 224 255
199 223 255
199 223 255
198 223 255
198 223 255
198 223 255
197 222 255
197 222 255
196 222 255
196 222 255
195 221 255
196 222 255
196 222 255
196 222 255
197 222 255
197 222 255
197 222 255
198 223 255
199 223 255
199 223 255
200 224 255
201 224 255
202 225 255
203 225 255
204 226 255
206 227 255
209 229 255
214 231 255
214 232 255
214 232 255
214 232 255
214 232 255
214 232 255
214 232 255
214 232 255
214 232 255
214 231 255
214 231 255
214 231 255
145 166 205
61 97 163
61 97 157
62 99 169
60 96 160
61 97 157
62 98 162
62 98 159
62 98 162
61 97 153
61 96 153
62 97 155
62 98 157
61 97 159
61 97 154
61 97 150
61 97 156
61 96 152
60 96 151
61 97 151
63 99 160
63 99 162
62 98 160
61 97 151
62 98 158
61 97 157
62 98 156
62 98 158
62 98 161
63 99 166
60 96 153
63 98 158
62 97 147
60 96 142
62 98 166
61 97 155
62 97 153
62 98 160
61 97 154
59 94 136
61 97 150
62 97 156
60 96 151
61 96 143
62 98 160
61 97 155
62 98 158
62 98 158
62 98 154
62 98 161
61 96 150
62 97 153
62 98 159
62 97 156
62 98 162
62 98 159
61 96 151
62 98 156
61 97 155
62 97 153
60 95 148
61 96 147
60 96 148
61 95 149
61 96 148
61 97 154
61 95 144
61 95 149
61 96 154
61 97 158
60 95 145
61 96 154
61 96 151
61 96 156
60 95 153
60 95 149
61 96 153
61 97 158
60 94 150
61 96 161
61 95 157
61 95 155
60 94 147
60 94 152
59 93 146
59 93 142
58 91 141
58 92 146
58 91 145
58 90 148
57 89 146
127 148 187
214 231 255
214 231 255
214 231 255
214 231 255
214 232 255
214 232 255
214 232 255
214 232 255
214 232 255
214 232 255
214 232 255
201 216 232
125 122 83
121 120 81
106 106 73
101 101 68
117 118 81
121 121 83
112 113 79
133 131 89
123 124 86
121 122 85
120 121 83
126 127 87
120 120 83
129 129 89
134 134 92
130 131 90
139 140 96
134 134 92
133 133 90
138 139 94
133 133 91
141 140 95
140 140 96
139 139 95
141 139 92
146 144 95
148 147 96
142 142 94
152 150 99
149 146 96
155 152 102
150 148 96
151 150 99
146 145 93
160 157 101
159 157 103
151 149 95
158 156 102
170 165 107
165 161 103
152 150 97
169 164 101
166 162 102
162 158 99
164 160 102
161 157 98
167 162 103
167 164 104
165 161 104
164 160 100
161 157 101
167 162 103
167 162 103
170 165 100
172 167 107
169 163 103
166 162 103
168 163 99
168 163 102
172 167 104
175 169 105
174 168 104
168 164 101
170 166 103
169 164 103
172 166 102
175 169 103
172 167 102
176 170 105
168 164 103
172 166 104
170 165 103
173 168 106
169 164 100
171 166 101
175 170 108
173 168 104
173 167 103
170 164 102
170 164 98
171 166 99
170 165 99
175 168 104
174 168 104
175 169 102
174 168 103
166 161 100
170 165 101
168 163 99
172 166 101
167 163 100
165 160 96
168 163 101
166 161 94
167 162 100
167 163 99
170 165 101
169 162 98
168 162 97
165 160 97
168 162 97
168 162 101
169 164 99
164 159 96
163 158 93
164 159 95
161 156 95
165 160 98
167 161 99
164 158 96
164 159 94
166 160 95
166 161 97
165 159 95
164 159 98
159 153 87
162 156 94
164 158 93
166 161 93
164 158 93
161 156 90
163 157 95
167 162 98
155 150 88
159 153 91
162 156 93
162 157 91
163 157 93
158 154 90
158 152 90
159 153 90
167 161 96
156 150 90
155 150 87
157 152 87
153 148 85
165 159 99
162 155 90
158 152 90
153 148 88
161 155 89
155 150 88
208 228 255
208 228 255
208 228 255
207 228 255
207 228 255
207 228 255
207 228 255
207 228 255
207 228 255
207 227 255
206 227 255
206 227 255
206 227 255
206 227 255
206 227 255
206 227 255
206 227 255
206 227 255
206 227 255
206 227 255
206 227 255
206 227 255
206 227 255
207 227 255
207 227 255
207 227 255
207 227 255
207 227 255
207 227 255
207 227 255
207 227 255
207 227 255
207 227 255
207 227 255
207 227 255
207 227 255
207 227 255
207 227 255
207 227 255
207 227 255
207 227 255
207 227 255
207 227 255
207 227 255
207 227 255
207 227 255
207 227 255
207 227 255
207 227 255
206 227 255
206 227 255
206 227 255
206 227 255
206 227 255
206 227 255
206 227 255
206 227 255
206 227 255
206 227 255
206 227 255
206 227 255
206 227 255
206 227 255
206 227 255
206 227 255
206 227 255
206 227 255
206 227 255
206 227 255
206 227 255
206 227 255
206 227 255
206 227 255
206 227 255
206 227 255
205 227 255
205 227 255
205 227 255
205 227 255
205 227 255
205 227 255
205 227 255
205 227 255
205 227 255
205 226 255
205 226 255
205 226 255
205 226 255
205 226 255
204 226 255
204 226 255
204 226 255
204 226 255
204 226 255
204 226 255
204 226 255
204 226 255
204 226 255
204 226 255
203 226 255
203 226 255
203 226 255
203 225 255
203 225 255
203 225 255
203 225 255
202 225 255
202 225 255
202 225 255
202 225 255
202 225 255
201 225 255
201 225 255
201 224 255
201 224 255
201 224 255
200 224 255
200 224 255
200 224 255
199 223 255
199 223 255
199 223 255
198 223 255
198 223 255
197 222 255
197 222 255
196 222 255
197 222 255
197 222 255
197 222 255
198 223 255
198 223 255
199 223 255
199 223 255
200 224 255
200 224 255
201 224 255
202 225 255
203 225 255
204 226 255
205 227 255
208 228 255
211 230 255
214 232 255
214 232 255
214 232 255
214 232 255
214 232 255
214 232 255
214 232 255
214 232 255
214 232 255
214 232 255
198 216 243
65 100 163
61 98 164
60 97 159
62 98 162
61 97 161
61 97 153
62 98 161
60 95 151
61 97 153
61 97 155
61 97 150
61 96 147
61 97 158
61 96 151
61 97 154
62 97 158
61 96 153
61 96 152
61 97 153
61 97 150
61 97 155
61 97 154
61 97 155
61 96 145
61 97 156
61 97 153
62 98 154
62 97 157
61 97 154
60 96 153
61 96 151
62 97 155
61 97 151
61 96 153
62 99 164
60 96 140
62 98 161
62 98 159
61 97 149
60 96 147
61 97 153
61 97 156
61 97 152
62 98 159
61 96 155
62 97 152
61 97 153
61 97 154
61 96 153
62 98 155
61 97 153
61 97 157
61 96 151
62 97 154
62 98 153
60 96 144
62 97 151
61 97 153
61 97 153
62 98 154
62 97 157
61 97 157
61 95 150
61 97 155
60 95 145
61 96 148
59 94 142
60 95 151
61 96 157
60 95 148
60 95 147
60 95 149
59 94 148
60 94 147
62 97 157
60 94 143
59 93 139
59 93 146
60 95 148
60 95 149
60 94 143
60 94 151
59 94 153
61 96 156
61 95 149
59 92 139
58 91 145
59 91 135
58 91 145
57 90 146
58 91 149
60 90 140
201 218 241
214 232 255
214 232 255
214 232 255
214 232 255
214 232 255
214 232 255
214 232 255
214 232 255
214 232 255
214 231 254
144 146 129
111 110 70
104 104 70
112 111 77
110 110 74
111 111 77
118 120 85
118 119 84
129 130 91
115 116 80
129 130 90
131 132 92
126 127 87
125 126 86
131 130 88
133 133 90
142 142 96
132 132 89
129 130 89
134 135 94
135 134 91
135 134 90
129 129 88
139 139 94
136 135 89
138 137 93
152 149 97
156 153 100
147 145 96
147 146 98
151 149 100
153 152 101
148 146 97
153 151 99
151 148 97
146 144 96
159 157 102
167 162 102
152 149 96
161 158 101
165 161 100
159 156 100
156 153 96
161 157 101
165 161 104
166 162 102
160 157 100
160 157 97
163 160 104
163 160 102
168 163 102
169 165 105
168 163 101
164 159 99
163 160 98
171 166 106
165 161 102
172 166 106
172 167 107
171 166 103
167 162 98
169 165 103
164 160 100
168 163 100
171 166 102
165 161 102
174 169 106
168 164 103
172 167 103
172 167 100
174 168 103
172 166 102
170 165 101
169 163 99
174 168 104
171 165 101
172 165 103
171 166 101
171 165 101
172 166 102
172 166 99
168 163 101
171 165 101
173 167 103
171 165 101
170 165 102
167 162 95
171 166 103
170 165 103
169 164 100
171 165 100
169 164 97
168 162 96
169 163 97
169 163 99
172 166 98
173 166 102
167 162 99
171 166 98
169 163 97
167 161 99
169 164 101
168 162 97
171 165 99
171 164 99
168 163 96
170 164 96
165 159 97
170 164 100
167 161 98
168 163 98
168 161 99
166 160 94
170 165 98
164 158 90
169 163 96
169 162 99
161 155 93
164 159 95
166 160 97
163 157 93
164 158 93
165 159 97
164 159 98
155 151 85
163 157 91
159 154 91
166 160 91
157 152 87
157 152 90
156 151 90
159 153 90
159 153 93
154 149 91
159 154 94
162 156 92
165 159 93
163 157 89
162 157 92
158 151 87
160 154 93
155 150 89
160 155 90
208 228 255
208 228 255
208 228 255
208 228 255
208 228 255
208 228 255
208 228 255
207 228 255
207 228 255
207 228 255
207 228 255
207 228 255
207 228 255
207 228 255
207 228 255
207 228 255
207 228 255
207 228 255
207 228 255
207 228 255
207 228 255
207 228 255
207 228 255
207 228 255
207 228 255
207 228 255
207 228 255
207 228 255
207 228 255
207 228 255
207 228 255
207 228 255
207 228 255
207 228 255
207 228 255
207 228 255
207 228 255
207 228 255
207 228 255
207 228 255
207 228 255
207 228 255
207 228 255
207 228 255
207 228 255
207 228 255
207 228 255
207 228 255
207 228 255
207 228 255
207 228 255
207 228 255
207 228 255
207 228 255
207 228 255
207 228 255
207 228 255
207 228 255
207 228 255
207 228 255
207 228 255
207 228 255
207 228 255
207 228 255
207 228 255
207 227 255
207 227 255
207 227 255
207 227 255
207 227 255
206 227 255
206 227 255
206 227 255
206 227 255
206 227 255
206 227 255
206 227 255
206 227 255
206 227 255
206 227 255
206 227 255
206 227 255
206 227 255
206 227 255
206 227 255
206 227 255
205 227 255
205 227 255
205 227 255
205 227 255
205 227 255
205 227 255
205 227 255
205 227 255
205 226 255
205 226 255
205 226 255
204 226 255
204 226 255
204 226 255
204 226 255
204 226 255
204 226 255
204 226 255
204 226 255
204 226 255
203 226 255
203 226 255
203 225 255
203 225 255
203 225 255
203 225 255
202 225 255
202 225 255
202 225 255
202 225 255
202 225 255
201 224 255
201 224 255
201 224 255
200 224 255
200 224 255
200 224 255
199 223 255
199 223 255
198 223 255
198 223 255
197 222 255
198 223 255
198 223 255
198 223 255
199 223 255
199 223 255
200 224 255
200 224 255
201 224 255
201 225 255
202 225 255
203 225 255
204 226 255
205 227 255
207 228 255
209 229 255
214 231 255
215 232 255
215 232 255
215 232 255
215 232 255
215 232 255
215 232 255
215 232 255
215 232 255
215 232 255
138 159 201
61 96 160
61 98 165
61 97 162
61 97 161
61 97 156
61 96 152
61 96 150
61 96 145
60 96 157
61 97 155
61 96 147
62 97 155
61 97 151
62 98 157
61 97 153
61 97 156
62 98 156
62 98 159
62 98 157
61 96 145
62 98 161
62 97 151
63 99 158
62 97 149
62 97 154
61 96 151
62 98 161
62 98 156
62 97 154
61 96 148
60 95 139
61 97 150
61 96 145
60 96 143
62 98 153
61 97 144
63 98 163
62 97 154
61 97 152
61 97 155
61 97 154
62 98 155
61 97 151
61 96 150
62 97 151
61 97 150
61 96 150
61 97 148
62 97 153
61 96 144
63 98 149
61 96 149
61 96 149
60 96 150
61 97 156
62 98 158
61 96 152
60 94 145
62 97 156
61 97 154
60 94 142
61 96 154
61 96 152
62 97 153
61 97 153
60 94 148
61 96 146
61 97 158
62 97 148
61 96 149
59 94 151
60 95 149
61 95 151
61 95 142
59 93 144
61 96 149
61 95 153
59 94 142
61 94 155
60 95 154
62 96 154
61 96 151
59 93 150
59 93 147
59 93 146
58 92 142
60 94 149
59 93 145
59 91 149
58 91 142
58 90 147
57 88 139
135 155 191
215 232 255
215 232 255
215 232 255
215 232 255
215 232 255
215 232 255
215 232 255
215 232 255
215 232 255
180 190 198
116 114 76
132 130 83
117 115 77
118 118 80
113 114 78
113 113 79
123 123 84
115 118 83
113 116 82
120 121 82
114 116 81
132 132 89
119 120 83
119 121 85
113 116 84
134 135 93
132 132 90
136 135 90
136 135 92
135 135 92
146 145 97
146 144 95
144 142 98
140 138 91
146 144 96
149 148 98
147 145 98
144 143 95
145 144 92
156 153 99
156 153 101
150 148 98
156 153 100
151 149 98
156 153 98
156 154 101
157 154 97
162 158 101
159 157 100
155 152 96
161 158 101
162 158 103
161 158 99
166 162 103
163 159 99
165 161 102
164 160 100
164 160 103
172 167 104
163 159 100
166 162 102
170 165 104
170 165 103
170 165 105
170 165 101
169 164 102
172 167 106
166 162 103
166 162 100
168 163 100
172 168 103
172 167 99
170 165 102
172 168 105
176 169 104
173 169 106
169 165 104
171 166 100
168 163 99
176 170 107
172 166 104
174 168 104
171 166 104
175 169 101
169 163 98
165 160 96
171 166 100
174 168 103
171 166 101
173 167 100
169 164 98
171 166 97
174 168 103
174 168 101
172 167 103
166 160 93
168 163 98
171 164 100
172 167 102
168 163 100
172 166 101
168 162 99
172 165 101
166 160 99
171 167 100
172 166 100
169 164 99
171 165 103
168 162 96
172 167 98
167 161 99
167 161 98
169 164 97
169 163 99
169 163 97
171 165 97
164 159 95
166 161 95
169 165 97
165 159 90
154 149 85
167 161 95
165 160 97
160 155 92
160 155 90
164 158 91
162 157 93
157 152 90
165 160 94
161 156 88
162 158 92
161 155 94
162 156 95
167 161 98
159 154 91
160 155 87
157 153 92
163 157 87
158 152 88
158 152 88
164 158 96
160 153 89
162 156 96
163 157 96
159 153 92
160 154 89
155 149 87
160 155 90
161 155 90
158 153 91
161 156 95
157 152 89
155 148 88
209 229 255
209 229 255
209 229 255
209 228 255
208 228 255
208 228 255
208 228 255
208 228 255
208 228 255
208 228 255
207 228 255
208 228 255
208 228 255
208 228 255
208 228 255
208 228 255
208 228 255
208 228 255
208 228 255
208 228 255
208 228 255
208 228 255
208 228 255
208 228 255
208 228 255
208 228 255
208 228 255
208 228 255
208 228 255
208 228 255
208 228 255
208 228 255
208 228 255
208 228 255
208 228 255
208 228 255
208 228 255
208 228 255
208 228 255
208 228 255
208 228 255
208 228 255
208 228 255
208 228 255
208 228 255
208 228 255
208 228 255
208 228 255
208 228 255
208 228 255
208 228 255
208 228 255
208 228 255
208 228 255
208 228 255
208 228 255
208 228 255
208 228 255
208 228 255
208 228 255
208 228 255
208 228 255
208 228 255
208 228 255
207 228 255
207 228 255
207 228 255
207 228 255
207 228 255
207 228 255
207 228 255
207 228 255
207 228 255
207 228 255
207 228 255
207 228 255
207 228 255
207 228 255
207 228 255
207 227 255
207 227 255
207 227 255
207 227 255
206 227 255
206 227 255
206 227 255
206 227 255
206 227 255
206 227 255
206 227 255
206 227 255
206 227 255
206 227 255
206 227 255
206 227 255
206 227 255
205 227 255
205 227 255
205 227 255
205 227 255
205 227 255
205 227 255
205 226 255
205 226 255
205 226 255
204 226 255
204 226 255
204 226 255
204 226 255
204 226 255
204 226 255
204 226 255
203 226 255
203 226 255
203 225 255
203 225 255
203 225 255
202 225 255
202 225 255
202 225 255
201 225 255
201 224 255
201 224 255
200 224 255
200 224 255
200 224 255
199 223 255
199 223 255
194 219 252
162 187 230
151 176 223
150 175 223
155 180 224
178 202 239
195 219 252
201 225 255
202 225 255
202 225 255
203 226 255
204 226 255
205 227 255
207 227 255
208 228 255
212 230 255
215 232 255
215 232 255
215 232 255
215 232 255
215 232 255
215 232 255
215 232 255
215 232 255
204 221 247
60 96 155
62 98 166
61 97 158
61 96 149
61 97 162
60 96 147
60 96 151
61 97 158
62 97 157
62 97 158
61 97 151
62 98 154
61 97 157
62 98 153
62 97 155
60 96 150
61 97 154
61 97 154
62 98 157
61 97 154
60 96 145
62 98 162
62 97 154
61 96 145
61 97 148
62 97 152
61 96 147
60 95 147
61 97 153
61 97 145
62 97 149
62 98 159
61 96 152
62 97 155
60 95 142
61 96 151
61 97 151
61 96 147
60 95 149
62 97 151
61 96 151
61 97 149
61 97 152
61 96 152
61 97 153
61 96 143
61 97 157
61 96 145
61 96 142
61 97 156
62 98 155
61 96 150
60 95 140
62 97 152
61 97 154
61 96 155
62 97 152
61 97 154
62 97 155
62 98 156
60 94 142
60 96 147
61 96 146
60 95 146
61 97 155
61 97 153
61 96 150
61 97 151
61 96 155
62 97 159
61 96 158
60 94 142
60 95 146
60 94 139
60 95 152
61 96 146
61 95 150
61 96 156
61 95 152
58 92 133
61 95 152
59 92 138
59 93 143
61 95 152
61 95 153
59 92 145
60 93 148
59 92 143
59 91 145
58 90 142
57 88 135
55 85 132
58 89 143
57 84 124
201 218 241
215 232 255
215 232 255
215 232 255
215 232 255
215 232 255
215 232 255
215 232 255
215 232 255
135 137 112
114 113 73
107 106 71
109 109 76
101 102 70
110 112 79
107 108 75
120 120 83
118 119 82
99 103 75
107 110 79
122 124 86
116 119 83
131 131 90
119 119 83
120 123 86
120 120 82
131 132 93
117 118 81
135 135 91
140 139 92
123 124 85
134 133 91
147 145 95
142 140 89
142 141 91
137 137 91
144 143 96
146 144 96
150 149 101
150 148 96
144 142 94
156 153 97
151 150 98
154 151 94
147 146 95
159 156 102
157 155 97
165 162 102
151 148 93
159 156 100
159 155 99
161 158 100
161 157 98
165 162 103
167 162 102
162 159 97
168 164 104
165 161 103
171 166 104
166 162 99
165 162 102
168 163 104
171 165 105
168 164 103
168 162 100
173 167 103
171 166 102
172 166 103
166 161 99
161 158 97
172 167 103
168 164 103
174 168 102
170 165 100
170 164 100
171 165 102
170 165 101
172 167 102
174 168 107
174 168 103
168 163 95
173 167 101
172 166 100
173 167 103
172 166 102
174 167 101
171 164 97
169 164 98
173 168 100
169 163 99
173 168 104
167 161 96
169 163 99
172 167 103
171 165 97
172 165 100
168 163 96
169 163 97
169 163 95
168 163 99
167 162 97
170 164 98
173 167 104
176 169 101
162 156 89
169 163 94
174 168 104
168 164 96
170 164 98
166 160 99
169 163 95
171 164 96
167 161 99
164 159 90
163 157 94
167 161 97
169 163 95
168 162 96
164 157 93
166 160 95
170 164 99
174 167 100
167 160 94
163 158 90
170 165 101
165 159 95
163 158 96
167 161 94
166 161 97
161 156 91
165 159 93
166 159 95
161 155 92
166 160 96
168 162 97
160 154 93
158 153 90
162 155 93
168 162 95
158 152 90
162 157 90
159 153 93
166 159 97
160 154 93
160 154 87
161 155 90
155 150 80
161 154 87
155 149 82
152 147 84
157 151 89
157 151 87
158 152 89
209 229 255
209 229 255
209 229 255
209 229 255
209 229 255
209 229 255
209 229 255
209 229 255
208 228 255
208 228 255
208 228 255
208 228 255
208 228 255
208 228 255
208 228 255
208 228 255
208 228 255
209 228 255
209 228 255
209 228 255
209 228 255
209 229 255
209 229 255
209 229 255
209 229 255
209 229 255
209 229 255
209 229 255
209 229 255
209 229 255
209 229 255
209 229 255
209 229 255
209 229 255
209 229 255
209 229 255
209 229 255
209 229 255
209 229 255
209 229 255
209 229 255
209 229 255
209 229 255
209 229 255
209 229 255
209 229 255
209 229 255
209 229 255
209 229 255
209 229 255
209 229 255
209 228 255
209 228 255
209 228 255
209 228 255
209 228 255
208 228 255
208 228 255
208 228 255
208 228 255
208 228 255
208 228 255
208 228 255
208 228 255
208 228 255
208 228 255
208 228 255
208 228 255
208 228 255
208 228 255
208 228 255
208 228 255
208 228 255
208 228 255
208 228 255
208 228 255
208 228 255
208 228 255
208 228 255
208 228 255
207 228 255
207 228 255
207 228 255
207 228 255
207 228 255
207 228 255
207 228 255
207 228 255
207 228 255
207 228 255
207 228 255
207 227 255
207 227 255
207 227 255
206 227 255
206 227 255
206 227 255
206 227 255
206 227 255
206 227 255
206 227 255
206 227 255
206 227 255
206 227 255
205 227 255
205 227 255
205 227 255
205 227 255
205 227 255
205 226 255
205 226 255
205 226 255
204 226 255
204 226 255
204 226 255
204 226 255
204 226 255
203 226 255
203 226 255
203 225 255
203 225 255
202 225 255
202 225 255
202 225 255
201 225 255
201 224 255
201 224 255
200 224 255
200 224 255
118 145 199
61 99 177
62 98 172
61 99 177
62 99 176
80 112 183
128 154 208
175 198 237
203 225 255
204 226 255
204 226 255
205 227 255
206 227 255
208 228 255
210 229 255
214 232 255
215 232 255
215 232 255
215 232 255
215 232 255
215 232 255
215 232 255
215 232 255
162 181 214
61 97 155
60 96 154
62 98 156
62 98 161
62 97 156
62 97 162
61 96 147
62 98 158
62 97 156
61 96 151
63 98 160
60 96 152
61 97 158
61 96 154
62 98 161
62 98 159
61 97 153
62 98 156
62 97 154
62 97 152
62 98 157
62 97 155
62 98 155
61 97 155
60 95 147
62 97 152
63 98 157
61 97 149
61 96 145
61 96 154
61 97 154
62 97 149
62 98 155
62 97 152
62 97 148
62 97 156
61 97 158
61 96 151
62 97 152
61 97 145
60 96 149
60 95 143
61 96 153
62 97 144
61 96 153
61 96 142
61 96 145
60 96 150
62 98 161
61 97 155
61 97 152
61 96 149
61 96 145
62 97 157
60 94 141
61 97 151
62 97 140
61 96 145
61 96 152
61 97 158
62 97 153
60 95 148
60 95 141
62 97 153
61 96 147
60 95 145
61 96 152
60 95 144
60 94 145
59 94 143
61 96 152
60 94 149
61 96 147
60 94 149
60 95 149
62 97 156
60 95 148
60 95 149
58 92 136
60 94 146
60 94 142
61 96 154
60 94 148
60 94 151
60 94 152
60 94 140
58 92 145
59 92 141
60 94 148
58 89 140
57 89 142
56 87 135
56 87 136
54 84 136
143 160 186
215 232 255
215 232 255
215 232 255
215 232 255
215 232 255
215 232 255
215 232 255
176 186 193
113 112 73
116 114 74
105 104 70
112 113 78
118 118 81
119 120 81
104 106 76
111 113 81
117 119 84
120 121 84
111 113 80
117 118 83
115 116 83
121 123 87
120 121 85
112 115 83
123 124 85
113 116 82
130 131 89
140 138 93
138 136 91
132 132 89
141 140 94
140 139 93
137 136 90
139 137 91
140 140 94
146 145 97
152 149 96
149 147 94
142 141 94
155 151 98
144 142 92
149 147 95
159 155 100
147 145 93
157 154 98
152 149 96
156 153 98
159 156 98
163 160 104
152 149 92
161 157 98
165 161 100
164 161 100
167 163 104
161 157 98
167 162 99
168 162 103
162 159 93
159 154 95
170 165 101
169 165 101
162 158 97
170 165 100
170 165 101
171 165 103
169 164 101
168 164 103
167 162 99
173 167 104
166 161 98
174 168 103
173 168 105
174 168 106
173 168 103
170 164 99
172 167 103
170 166 100
176 170 103
168 164 100
170 164 101
170 165 99
174 169 100
175 169 103
168 163 97
175 168 101
172 166 99
175 169 101
172 166 99
171 166 99
167 162 97
173 167 97
169 163 99
173 167 99
174 168 100
175 168 101
171 165 99
172 166 101
164 159 95
172 167 99
171 165 97
170 165 99
175 168 99
169 163 96
170 164 94
171 164 98
167 162 96
168 162 97
163 157 91
169 162 98
165 159 95
171 165 97
172 166 96
168 162 92
169 163 97
171 166 99
167 162 97
170 164 99
163 158 93
165 159 92
165 160 92
165 159 93
170 164 99
167 161 99
162 157 92
163 158 96
170 165 99
169 162 99
162 157 95
164 158 90
161 156 88
164 159 93
164 158 91
169 163 99
161 156 90
158 152 90
165 159 95
155 149 87
164 158 91
162 156 90
167 161 92
164 158 90
159 153 90
160 154 90
163 156 91
157 152 87
162 156 93
153 148 83
157 150 90
159 153 90
161 155 92
155 150 84
159 153 87
210 229 255
210 229 255
210 229 255
210 229 255
210 229 255
209 229 255
209 229 255
209 229 255
209 229 255
209 229 255
209 229 255
209 229 255
209 229 255
209 229 255
209 229 255
209 229 255
209 229 255
209 229 255
209 229 255
209 229 255
209 229 255
209 229 255
209 229 255
209 229 255
209 229 255
209 229 255
209 229 255
209 229 255
209 229 255
209 229 255
209 229 255
209 229 255
209 229 255
209 229 255
209 229 255
209 229 255
209 229 255
209 229 255
209 229 255
209 229 255
209 229 255
209 229 255
209 229 255
209 229 255
209 229 255
209 229 255
209 229 255
209 229 255
209 229 255
209 229 255
209 229 255
209 229 255
209 229 255
209 229 255
209 229 255
209 229 255
209 229 255
209 229 255
209 229 255
209 229 255
209 229 255
209 229 255
209 229 255
209 229 255
209 229 255
209 229 255
209 229 255
209 229 255
209 229 255
209 229 255
209 229 255
209 229 255
209 228 255
209 228 255
209 228 255
208 228 255
208 228 255
208 228 255
208 228 255
208 228 255
208 228 255
208 228 255
208 228 255
208 228 255
208 228 255
208 228 255
208 228 255
208 228 255
208 228 255
208 228 255
208 228 255
208 228 255
207 228 255
207 228 255
207 228 255
207 228 255
207 228 255
207 228 255
207 228 255
207 228 255
207 228 255
207 227 255
207 227 255
206 227 255
206 227 255
206 227 255
206 227 255
206 227 255
206 227 255
206 227 255
206 227 255
205 227 255
205 227 255
205 227 255
205 227 255
205 226 255
205 226 255
204 226 255
204 226 255
204 226 255
204 226 255
204 226 255
203 226 255
203 225 255
203 225 255
202 225 255
202 225 255
201 225 255
201 224 255
188 211 245
73 107 177
62 98 172
62 99 175
61 98 173
62 98 171
62 99 175
62 99 176
108 135 196
186 208 242
205 226 255
206 227 255
207 227 255
208 228 255
210 229 255
212 231 255
216 232 255
216 232 255
216 232 255
216 232 255
216 232 255
215 232 255
215 232 255
82 112 171
60 96 156
62 98 165
62 97 158
60 96 157
61 97 154
62 98 161
62 98 159
62 97 155
62 98 159
60 96 151
61 97 149
62 98 157
62 99 165
62 97 149
61 96 150
63 99 161
61 96 147
61 97 148
61 96 144
62 98 154
61 96 155
61 97 153
62 97 151
61 96 148
61 97 152
62 97 149
62 97 153
61 96 147
61 96 143
61 96 142
62 97 156
61 96 144
61 96 144
62 98 154
61 96 147
60 95 141
61 97 156
62 98 157
61 96 145
61 97 149
61 97 152
62 97 148
61 96 142
60 96 149
61 97 153
60 95 145
61 96 148
61 97 152
61 96 141
61 96 147
61 97 145
61 97 145
60 95 153
62 97 154
62 98 154
60 95 152
61 97 152
61 96 149
60 94 145
61 96 147
61 96 141
61 96 148
60 96 146
62 97 152
60 94 143
61 96 150
61 95 152
61 96 154
60 95 146
60 94 141
61 96 145
61 95 147
61 96 151
60 94 151
59 94 147
59 93 144
60 94 149
60 94 152
59 93 140
62 96 152
58 92 143
60 94 147
58 91 135
60 94 149
61 95 152
59 92 141
59 92 148
59 92 144
59 94 145
59 91 139
58 90 138
57 90 145
58 90 140
56 87 137
82 104 146
214 231 255
215 232 255
215 232 255
216 232 255
216 232 255
216 232 255
215 232 254
130 130 98
109 108 72
109 109 76
103 103 69
108 109 76
97 98 67
111 112 78
107 109 76
118 120 84
103 107 76
109 111 77
103 106 75
115 117 83
120 121 83
121 122 85
109 111 78
125 126 87
129 130 89
129 129 88
122 122 83
127 128 88
139 139 93
129 128 87
127 127 86
140 138 91
146 143 93
140 139 90
138 137 89
146 144 92
146 143 93
146 145 95
146 145 96
152 148 93
149 146 95
148 146 95
156 152 94
153 151 95
152 149 97
160 156 100
160 157 99
168 163 103
155 152 96
166 161 102
164 160 101
160 156 96
164 160 101
160 155 94
165 160 100
157 155 97
164 160 99
161 157 96
166 161 100
169 164 100
164 160 97
168 164 102
168 164 101
168 164 100
168 163 99
171 165 101
168 162 101
168 163 100
165 161 97
169 164 97
171 166 105
171 165 100
173 167 101
168 161 95
170 165 101
172 166 102
175 169 104
171 166 101
165 161 99
174 168 103
171 165 99
172 167 100
171 166 95
172 167 103
171 166 99
174 169 101
171 165 97
171 165 97
173 167 99
169 164 97
170 164 98
170 165 97
168 163 99
168 164 96
170 165 99
170 163 93
172 166 97
165 160 93
172 167 101
169 163 99
172 167 99
166 160 88
170 164 94
167 162 97
169 163 98
170 164 99
170 164 96
177 171 103
174 166 102
166 160 95
175 169 104
168 162 95
169 162 98
169 163 97
167 161 89
168 163 96
166 160 95
173 166 101
165 159 92
168 162 95
163 158 94
160 153 87
166 160 93
162 157 92
165 160 91
169 163 95
165 158 92
154 148 83
156 150 88
166 159 95
156 151 86
164 158 90
162 156 92
163 157 92
169 163 96
166 161 94
157 151 86
168 162 93
163 156 92
158 152 85
155 150 84
165 160 96
157 151 87
158 151 87
159 154 91
162 157 90
158 152 84
159 153 89
155 149 86
162 156 92
161 155 87
142 138 81
211 230 255
210 230 255
210 229 255
210 229 255
210 229 255
210 229 255
210 229 255
210 229 255
210 229 255
210 229 255
210 229 255
210 229 255
210 229 255
210 229 255
210 229 255
210 229 255
210 229 255
210 229 255
210 229 255
210 229 255
210 229 255
210 229 255
210 229 255
210 229 255
210 229 255
210 229 255
210 229 255
210 229 255
210 229 255
210 229 255
210 229 255
210 229 255
210 229 255
210 229 255
210 229 255
210 229 255
210 229 255
210 229 255
210 229 255
210 229 255
210 229 255
210 229 255
210 229 255
210 229 255
210 229 255
210 229 255
210 229 255
210 229 255
210 229 255
210 229 255
210 229 255
210 229 255
210 229 255
210 229 255
210 229 255
210 229 255
210 229 255
210 229 255
210 229 255
210 229 255
210 229 255
210 229 255
210 229 255
210 229 255
210 229 255
210 229 255
210 229 255
210 229 255
209 229 255
209 229 255
209 229 255
209 229 255
209 229 255
209 229 255
209 229 255
209 229 255
209 229 255
209 229 255
209 229 255
209 229 255
209 229 255
209 229 255
209 229 255
209 229 255
209 229 255
209 229 255
209 229 255
209 228 255
209 228 255
208 228 255
208 228 255
208 228 255
208 228 255
208 228 255
208 228 255
208 228 255
208 228 255
208 228 255
208 228 255
208 228 255
208 228 255
208 228 255
207 228 255
207 228 255
207 228 255
207 228 255
207 228 255
207 228 255
207 227 255
207 227 255
207 227 255
206 227 255
206 227 255
206 227 255
206 227 255
206 227 255
206 227 255
205 227 255
205 227 255
205 227 255
205 226 255
205 226 255
204 226 255
204 226 255
204 226 255
203 226 255
203 226 255
203 225 255
202 225 255
202 225 255
139 164 211
61 98 170
62 99 174
62 99 174
61 98 173
61 98 171
61 98 174
61 98 169
78 110 178
168 191 229
206 227 255
207 228 255
208 228 255
209 229 255
211 230 255
215 232 255
216 233 255
216 233 255
216 232 255
216 232 255
216 232 255
183 201 230
61 97 154
62 98 157
61 97 156
61 97 155
61 97 153
61 97 155
62 97 154
61 97 157
61 96 156
60 95 142
61 96 152
62 97 156
61 97 155
61 96 149
62 98 154
62 97 154
61 96 149
61 96 145
62 97 151
62 97 151
61 96 147
62 97 152
62 98 155
62 98 158
61 97 155
60 95 135
62 98 152
60 96 151
61 96 150
61 97 150
62 97 152
61 96 143
61 96 150
61 96 147
61 97 144
62 98 158
61 97 153
63 98 158
61 96 148
62 97 152
61 97 155
61 97 151
62 97 157
61 96 147
60 95 150
61 96 145
62 97 150
61 97 152
60 95 136
61 97 148
61 97 152
62 97 150
61 97 148
60 95 148
60 96 155
61 97 154
61 97 155
60 95 145
60 95 142
60 95 145
62 97 148
60 95 142
60 95 142
60 95 146
62 97 153
62 96 147
61 96 149
61 96 149
60 94 144
59 93 140
62 97 157
62 97 154
61 96 147
61 96 152
61 96 148
60 95 153
62 97 157
61 95 145
61 95 149
60 94 146
60 95 151
61 95 153
60 93 145
59 92 141
61 95 148
62 96 154
60 93 143
60 93 148
58 91 138
58 90 142
57 89 125
57 89 138
55 86 122
57 90 145
54 84 133
53 81 123
189 206 231
216 232 255
216 232 255
216 233 255
216 233 255
216 233 255
187 198 207
127 124 78
115 114 76
108 108 73
113 113 79
109 110 78
100 103 74
97 99 70
99 102 74
101 105 76
106 108 77
111 113 80
112 114 79
109 112 79
118 120 83
111 114 80
123 123 86
130 130 86
118 120 82
126 127 87
119 122 83
135 134 92
131 130 85
134 134 90
134 133 88
141 140 94
124 124 85
133 131 87
143 142 92
140 138 90
150 148 95
142 140 91
148 146 92
147 144 92
148 146 95
157 154 98
154 151 94
152 150 98
155 153 95
159 155 96
162 157 100
159 157 99
157 154 93
161 157 99
161 157 97
161 156 97
166 162 98
163 160 97
163 159 98
164 159 98
160 157 98
166 161 99
166 163 102
171 166 101
166 162 102
163 159 94
172 166 101
169 165 102
175 169 105
167 163 99
166 161 94
168 163 101
165 161 96
169 164 101
167 162 102
171 166 101
174 167 99
172 167 99
174 168 103
173 168 97
175 169 106
173 167 101
173 167 97
169 164 93
178 171 104
173 167 102
170 164 98
173 166 98
175 169 104
172 166 98
173 167 99
171 165 97
174 168 98
171 166 102
171 165 97
173 167 97
175 167 95
174 167 103
170 165 94
169 163 93
171 166 98
171 165 100
174 168 103
172 166 96
170 164 95
167 161 97
169 163 94
173 166 97
172 166 97
171 165 95
169 164 96
169 164 99
171 165 99
166 161 91
168 162 95
175 167 97
166 161 93
167 161 95
169 164 97
166 160 95
172 166 100
169 164 97
170 164 99
168 161 96
165 159 93
170 163 95
163 157 92
165 158 95
161 156 91
164 159 90
164 158 92
168 162 90
163 157 90
169 162 94
166 160 90
162 157 95
153 148 80
164 158 95
166 160 93
163 156 88
165 159 94
162 157 90
157 152 89
161 155 93
164 158 93
155 151 88
157 151 85
161 155 87
157 152 90
151 146 80
166 159 90
156 150 85
151 147 78
156 150 83
156 150 85
155 150 81
211 230 255
211 230 255
211 230 255
211 230 255
211 230 255
211 230 255
211 230 255
210 229 255
210 229 255
210 229 255
210 229 255
210 230 255
210 230 255
210 230 255
211 230 255
211 230 255
211 230 255
211 230 255
211 230 255
211 230 255
211 230 255
211 230 255
211 230 255
211 230 255
211 230 255
211 230 255
211 230 255
211 230 255
211 230 255
211 230 255
211 230 255
211 230 255
211 230 255
211 230 255
211 230 255
211 230 255
211 230 255
211 230 255
211 230 255
211 230 255
211 230 255
211 230 255
211 230 255
211 230 255
211 230 255
211 230 255
211 230 255
211 230 255
211 230 255
211 230 255
211 230 255
211 230 255
211 230 255
211 230 255
211 230 255
211 230 255
211 230 255
210 230 255
210 230 255
210 230 255
210 229 255
210 229 255
210 229 255
210 229 255
210 229 255
210 229 255
210 229 255
210 229 255
210 229 255
210 229 255
210 229 255
210 229 255
210 229 255
210 229 255
210 229 255
210 229 255
210 229 255
210 229 255
210 229 255
210 229 255
210 229 255
210 229 255
210 229 255
210 229 255
209 229 255
209 229 255
209 229 255
209 229 255
209 229 255
209 229 255
209 229 255
209 229 255
209 229 255
209 229 255
209 229 255
209 229 255
209 229 255
209 229 255
209 229 255
209 228 255
208 228 255
208 228 255
208 228 255
208 228 255
208 228 255
208 228 255
208 228 255
208 228 255
208 228 255
208 228 255
207 228 255
207 228 255
207 228 255
207 228 255
207 228 255
207 227 255
207 227 255
206 227 255
206 227 255
206 227 255
206 227 255
206 227 255
205 227 255
205 227 255
205 226 255
205 226 255
204 226 255
204 226 255
204 226 255
203 226 255
185 207 243
64 100 172
61 98 169
61 97 162
61 98 171
61 98 171
61 98 173
60 97 166
61 98 173
62 99 175
148 171 215
207 228 255
208 228 255
209 229 255
211 230 255
214 232 255
216 233 255
216 233 255
216 233 255
216 233 255
216 233 255
136 157 200
62 98 160
61 97 162
61 96 150
62 97 155
61 97 158
62 98 158
62 98 159
61 96 153
61 96 147
62 97 159
62 98 159
61 97 150
62 97 155
60 95 145
61 97 155
61 96 152
60 96 153
62 97 156
62 97 155
60 96 142
61 96 152
61 96 155
60 95 137
62 97 152
61 97 152
61 96 140
61 97 147
61 97 151
61 96 147
60 95 145
61 97 148
60 96 145
62 97 150
60 96 147
61 96 148
61 96 148
61 96 144
61 96 143
61 96 147
60 95 144
61 97 155
61 97 150
62 98 154
62 97 147
61 96 150
60 95 148
61 96 151
61 97 147
60 95 137
62 96 145
61 96 149
61 96 147
61 96 149
61 96 148
62 98 160
61 97 147
60 95 150
61 95 147
60 95 141
61 96 151
59 94 148
60 95 148
60 95 148
60 94 148
61 96 148
61 96 148
61 97 147
60 95 149
60 95 147
60 94 143
61 96 145
61 96 151
60 95 148
61 96 152
60 94 147
60 93 140
61 95 156
60 94 147
60 95 144
60 93 149
60 94 144
59 93 139
60 93 140
59 93 149
58 91 133
60 95 150
58 92 139
61 96 151
60 94 147
59 92 141
56 88 130
58 91 138
57 89 134
55 86 131
56 87 132
53 83 126
122 140 169
216 233 255
216 233 255
216 233 255
216 233 255
216 233 255
154 159 152
107 105 66
90 90 61
106 107 76
106 106 73
96 97 69
85 87 61
104 106 75
106 109 78
93 97 71
97 101 73
111 113 79
102 105 75
109 112 79
118 120 83
108 110 77
118 120 84
120 121 82
127 127 87
132 133 89
128 129 87
136 135 89
128 127 83
139 138 90
138 138 91
139 138 89
140 140 92
142 140 91
147 145 94
141 139 89
142 141 92
147 145 94
155 152 96
136 135 87
149 146 95
155 152 96
159 156 99
152 150 98
153 150 93
156 154 100
155 152 96
161 157 96
165 160 96
160 156 97
163 159 98
159 155 97
170 165 101
164 158 98
165 161 99
156 153 92
170 165 100
162 158 94
166 162 97
164 160 98
165 161 100
168 164 99
167 163 95
164 160 96
166 161 100
171 165 102
171 165 100
170 164 97
172 167 102
171 166 100
172 168 101
177 171 104
172 167 101
173 167 103
175 169 105
170 165 97
168 163 96
172 166 97
169 164 96
173 167 101
172 167 100
167 161 95
175 168 99
170 164 95
170 164 93
176 170 102
174 168 102
170 165 98
175 168 101
172 166 99
172 166 102
169 164 97
171 166 95
171 165 99
169 163 98
171 165 97
172 165 100
174 167 98
175 169 101
168 163 97
173 167 96
172 166 97
168 162 94
167 163 93
169 163 91
167 161 90
171 166 97
171 165 96
167 162 95
171 164 92
169 163 97
167 161 92
170 164 93
170 163 95
170 163 95
167 162 95
168 162 91
167 162 93
165 159 94
161 157 86
162 157 93
166 159 93
171 165 99
162 157 87
162 156 90
162 156 95
168 161 87
159 154 85
164 158 94
160 155 86
163 157 87
164 158 93
158 153 89
163 156 90
166 160 93
164 158 93
160 154 93
158 152 84
164 158 91
167 161 93
157 151 85
163 157 90
161 156 94
168 162 97
157 151 87
155 150 83
160 153 88
162 156 88
151 147 84
157 152 87
152 146 85
152 146 80
212 230 255
212 230 255
212 230 255
211 230 255
211 230 255
211 230 255
211 230 255
211 230 255
211 230 255
211 230 255
211 230 255
211 230 255
211 230 255
211 230 255
211 230 255
211 230 255
211 230 255
211 230 255
211 230 255
211 230 255
211 230 255
211 230 255
211 230 255
211 230 255
211 230 255
211 230 255
211 230 255
211 230 255
211 230 255
211 230 255
211 230 255
211 230 255
211 230 255
211 230 255
211 230 255
211 230 255
211 230 255
211 230 255
211 230 255
211 230 255
211 230 255
211 230 255
211 230 255
211 230 255
211 230 255
211 230 255
211 230 255
211 230 255
211 230 255
211 230 255
211 230 255
211 230 255
211 230 255
211 230 255
211 230 255
211 230 255
211 230 255
211 230 255
211 230 255
211 230 255
211 230 255
211 230 255
211 230 255
211 230 255
211 230 255
211 230 255
211 230 255
211 230 255
211 230 255
211 230 255
211 230 255
211 230 255
211 230 255
211 230 255
211 230 255
211 230 255
211 230 255
211 230 255
210 230 255
210 230 255
210 230 255
210 229 255
210 229 255
210 229 255
210 229 255
210 229 255
210 229 255
210 229 255
210 229 255
210 229 255
210 229 255
210 229 255
210 229 255
210 229 255
210 229 255
210 229 255
209 229 255
209 229 255
209 229 255
209 229 255
209 229 255
209 229 255
209 229 255
209 229 255
209 229 255
209 229 255
209 229 255
209 229 255
209 228 255
208 228 255
208 228 255
208 228 255
208 228 255
208 228 255
208 228 255
208 228 255
208 228 255
207 228 255
207 228 255
207 228 255
207 228 255
207 227 255
207 227 255
206 227 255
206 227 255
206 227 255
205 227 255
205 227 255
205 226 255
204 226 255
204 226 255
117 143 198
62 98 166
61 97 167
61 97 161
61 98 167
60 97 166
61 97 169
61 98 173
61 97 169
61 98 171
154 177 219
209 228 255
209 229 255
211 230 255
213 231 255
216 233 255
216 233 255
216 233 255
216 233 255
211 228 252
73 105 157
61 96 156
60 96 154
61 97 156
60 96 149
60 95 150
62 97 158
62 97 157
61 96 150
60 96 152
62 97 155
61 97 153
62 98 157
62 97 149
62 97 152
61 96 151
62 97 154
61 96 149
61 96 145
60 95 144
61 97 149
60 96 148
61 96 152
61 97 147
62 97 150
60 96 142
61 96 147
62 97 150
61 96 150
60 96 145
61 96 145
61 97 150
61 96 153
60 96 143
61 96 147
61 96 145
61 96 150
60 95 144
61 96 145
60 95 139
61 96 144
61 96 144
61 96 145
61 96 142
62 97 151
60 95 136
61 97 149
61 96 142
61 96 147
61 96 150
61 96 150
62 97 153
61 95 142
61 96 142
62 97 150
62 97 157
61 97 149
62 97 158
62 97 147
62 97 154
60 94 141
61 96 148
60 95 139
63 98 162
60 95 149
61 95 145
61 96 145
61 96 145
61 97 154
59 94 138
61 95 146
60 96 148
59 94 145
61 96 151
61 96 147
60 94 146
60 95 152
61 96 153
59 93 137
60 94 143
60 95 144
59 93 145
58 92 136
60 94 142
60 94 153
58 91 139
59 92 142
58 92 138
59 93 142
59 93 147
59 92 146
56 88 129
57 90 141
56 88 140
58 89 138
54 85 127
54 83 124
67 92 136
212 229 251
216 233 255
216 233 255
216 233 255
205 220 239
113 111 70
101 100 67
93 94 65
88 89 62
92 95 67
100 103 74
92 94 67
94 97 69
97 101 74
105 107 76
107 109 76
111 113 81
100 104 76
107 109 77
107 110 79
102 104 72
114 116 78
124 126 87
120 120 79
123 124 85
119 119 79
133 133 88
129 129 87
129 129 89
137 136 90
141 140 93
144 142 92
142 141 90
146 144 89
142 140 91
138 138 88
143 143 91
151 148 94
146 145 89
139 138 88
145 142 91
153 150 95
156 152 94
158 154 97
155 152 96
156 152 93
156 153 96
160 156 96
163 158 95
159 156 95
164 160 96
164 159 98
167 162 98
163 159 98
161 157 99
158 155 94
166 162 95
161 157 98
167 162 98
164 159 95
170 165 97
167 162 101
168 163 97
164 160 94
165 160 90
169 163 96
170 164 95
171 165 99
174 168 105
172 167 100
169 165 98
171 166 100
173 167 98
175 169 103
175 169 101
169 164 97
174 168 101
174 168 102
175 169 100
173 167 98
172 165 95
175 167 98
171 165 97
170 163 93
171 164 95
170 165 101
172 165 93
174 168 101
171 165 98
171 166 97
171 164 92
173 167 101
171 165 96
169 164 94
167 162 93
168 163 93
173 167 97
169 163 95
169 164 95
174 168 99
173 166 98
168 162 97
169 163 97
170 164 97
175 168 97
173 166 95
167 162 88
165 159 92
166 159 97
167 161 87
161 156 85
173 166 97
171 166 95
166 160 91
167 160 90
169 162 94
170 164 95
167 162 92
168 162 95
170 163 95
161 155 86
167 162 95
160 155 88
163 157 93
167 161 92
161 156 85
161 155 90
165 159 90
164 159 89
165 159 91
163 156 87
161 156 85
171 164 93
167 161 92
161 155 87
162 155 87
158 153 84
163 157 90
155 149 84
154 149 83
156 151 88
160 154 84
165 158 93
164 157 92
157 153 83
154 148 85
161 155 87
157 152 84
154 148 84
158 151 87
153 148 82
212 231 255
212 230 255
212 230 255
212 230 255
212 230 255
212 230 255
212 230 255
212 230 255
212 230 255
212 230 255
212 230 255
212 230 255
212 230 255
212 230 255
212 230 255
212 230 255
212 230 255
212 230 255
212 230 255
212 230 255
212 230 255
212 230 255
212 230 255
212 230 255
212 230 255
212 230 255
212 230 255
212 230 255
212 230 255
212 230 255
212 230 255
212 230 255
212 230 255
212 230 255
212 230 255
212 230 255
212 230 255
212 230 255
212 230 255
212 230 255
212 230 255
212 230 255
212 230 255
212 230 255
212 230 255
212 230 255
212 230 255
212 230 255
212 230 255
212 230 255
212 230 255
212 230 255
212 230 255
212 230 255
212 230 255
212 230 255
212 230 255
212 230 255
212 230 255
212 230 255
212 230 255
212 230 255
212 230 255
212 230 255
212 230 255
212 230 255
212 230 255
212 230 255
211 230 255
211 230 255
211 230 255
211 230 255
211 230 255
211 230 255
211 230 255
211 230 255
211 230 255
211 230 255
211 230 255
211 230 255
211 230 255
211 230 255
211 230 255
211 230 255
211 230 255
211 230 255
211 230 255
211 230 255
211 230 255
211 230 255
211 230 255
211 230 255
211 230 255
211 230 255
210 230 255
210 229 255
210 229 255
210 229 255
210 229 255
210 229 255
210 229 255
210 229 255
210 229 255
210 229 255
210 229 255
210 229 255
210 229 255
209 229 255
209 229 255
209 229 255
209 229 255
209 229 255
209 229 255
209 229 255
209 229 255
209 229 255
208 228 255
208 228 255
208 228 255
208 228 255
208 228 255
208 228 255
207 228 255
207 228 255
207 228 255
207 228 255
207 227 255
206 227 255
206 227 255
206 227 255
205 227 255
170 193 229
62 99 171
62 98 170
61 97 169
60 96 160
61 98 171
60 96 165
60 97 164
60 97 170
61 97 169
60 97 174
155 177 221
210 229 255
211 230 255
213 231 255
216 232 255
217 233 255
217 233 255
217 233 255
184 202 230
60 95 154
60 95 150
62 98 158
61 96 149
61 97 150
62 97 151
62 98 161
60 96 148
61 96 153
60 96 143
61 96 147
60 96 147
62 97 152
62 97 154
61 96 147
61 96 148
61 95 142
62 98 151
60 96 148
62 98 156
61 95 141
61 97 151
60 96 147
61 96 149
61 97 149
60 96 143
62 97 148
61 97 151
61 96 143
62 97 148
61 96 140
60 96 144
61 96 150
60 96 142
61 97 150
61 96 145
61 96 150
61 96 144
62 97 153
61 95 141
61 96 147
61 97 147
61 96 145
61 96 143
61 97 148
62 98 153
61 97 147
61 97 148
62 98 156
60 95 147
61 96 149
62 97 153
60 96 145
60 95 139
61 97 155
60 95 144
60 95 145
62 98 155
62 97 155
61 96 152
60 95 141
60 95 143
61 96 150
61 96 147
61 96 143
61 96 148
60 94 145
61 96 145
62 97 153
61 96 151
61 96 146
60 94 138
60 94 145
60 95 143
60 94 134
59 93 137
61 96 150
60 95 140
60 94 147
60 94 147
61 95 147
59 92 139
61 96 155
58 92 139
57 90 124
59 92 147
58 91 140
60 93 147
60 93 146
58 91 137
59 92 142
59 92 138
59 91 144
56 86 136
56 87 128
55 84 124
57 89 133
52 79 118
175 192 218
217 233 255
217 233 255
217 233 255
164 173 179
100 98 60
92 92 60
101 100 69
99 101 70
95 97 68
84 87 63
98 100 70
98 100 72
90 93 67
98 102 74
89 93 67
112 115 81
114 114 76
113 114 75
105 108 78
119 120 84
110 112 78
124 124 81
113 115 80
121 122 79
117 120 83
131 131 86
110 111 70
139 138 89
132 131 84
136 135 88
139 137 89
142 141 89
142 141 93
150 148 91
140 138 87
140 139 89
152 149 93
145 142 88
149 147 94
144 142 91
158 155 98
157 153 97
143 142 89
162 158 101
152 150 93
155 152 96
159 155 96
162 157 96
168 162 101
156 153 97
169 163 97
165 160 97
160 156 96
164 159 95
164 160 97
170 165 100
161 157 94
170 165 98
167 162 96
162 158 96
165 160 99
168 163 96
170 164 97
171 165 102
172 166 98
173 168 101
172 166 99
172 166 99
171 166 98
170 165 95
176 170 104
169 164 98
169 164 98
168 164 95
170 165 94
172 167 97
174 168 102
170 164 98
170 164 93
171 165 97
174 167 99
167 163 90
175 169 101
173 166 95
168 163 92
171 165 94
171 165 95
174 167 95
176 169 96
173 166 95
170 165 95
172 166 97
171 165 100
171 166 96
171 165 99
174 168 97
171 164 96
171 165 95
172 166 96
172 166 93
171 164 97
169 162 94
171 165 97
174 167 97
168 162 93
169 162 94
169 163 92
165 159 90
169 162 92
164 158 87
167 161 97
168 161 88
165 160 89
172 166 95
166 159 93
162 157 87
164 158 89
169 163 95
169 163 95
169 163 95
171 165 99
165 159 93
164 158 84
163 156 90
170 164 90
166 160 93
163 158 89
161 156 84
164 158 90
162 156 88
165 159 93
163 157 90
159 154 85
168 162 93
163 157 88
159 153 80
155 151 87
166 160 87
157 151 84
164 157 91
156 150 85
166 160 90
150 144 78
156 151 87
163 157 90
158 153 87
152 145 79
151 146 80
165 158 93
154 148 84
213 231 255
213 231 255
213 231 255
213 231 255
213 231 255
212 231 255
212 231 255
212 231 255
212 231 255
212 231 255
212 231 255
212 231 255
212 231 255
212 231 255
213 231 255
213 231 255
213 231 255
213 231 255
213 231 255
213 231 255
213 231 255
213 231 255
213 231 255
213 231 255
213 231 255
213 231 255
213 231 255
213 231 255
213 231 255
213 231 255
213 231 255
213 231 255
213 231 255
213 231 255
213 231 255
213 231 255
213 231 255
213 231 255
213 231 255
213 231 255
213 231 255
213 231 255
213 231 255
213 231 255
213 231 255
213 231 255
213 231 255
213 231 255
213 231 255
213 231 255
213 231 255
213 231 255
213 231 255
213 231 255
213 231 255
212 231 255
213 231 255
213 231 255
212 231 255
212 231 255
212 231 255
212 231 255
212 231 255
212 231 255
212 231 255
212 231 255
212 231 255
212 231 255
212 231 255
212 230 255
212 230 255
212 230 255
212 230 255
212 230 255
212 230 255
212 230 255
212 230 255
212 230 255
212 230 255
212 230 255
212 230 255
212 230 255
212 230 255
212 230 255
212 230 255
212 230 255
212 230 255
212 230 255
211 230 255
211 230 255
211 230 255
211 230 255
211 230 255
211 230 255
211 230 255
211 230 255
211 230 255
211 230 255
211 230 255
211 230 255
211 230 255
211 230 255
211 230 255
211 230 255
211 230 255
210 230 255
210 229 255
210 229 255
210 229 255
210 229 255
210 229 255
210 229 255
210 229 255
210 229 255
210 229 255
210 229 255
209 229 255
209 229 255
209 229 255
209 229 255
209 229 255
209 229 255
209 228 255
208 228 255
208 228 255
208 228 255
208 228 255
207 228 255
207 228 255
207 228 255
207 227 255
201 222 250
67 101 170
61 97 165
61 98 170
60 97 163
60 97 163
60 97 165
60 96 164
60 97 160
61 98 174
60 97 165
72 105 176
188 208 240
211 230 255
213 231 255
215 232 255
217 233 255
217 233 255
217 233 255
140 160 197
61 96 156
61 97 156
62 97 153
62 98 164
61 97 155
60 95 149
60 96 150
60 96 147
61 96 147
60 95 145
62 97 154
61 97 152
61 97 152
62 97 153
61 96 150
62 98 155
62 97 147
62 98 153
60 95 145
61 97 151
61 97 151
60 96 144
61 96 141
62 97 156
61 96 148
61 96 150
62 97 153
62 97 151
61 96 135
60 95 144
60 95 149
61 96 149
60 95 135
61 96 147
62 97 148
62 98 154
61 97 153
60 96 148
60 95 140
61 96 142
61 96 139
61 96 147
60 96 143
61 96 141
60 95 139
60 95 140
60 95 140
61 96 151
61 96 156
62 97 151
60 95 143
61 96 145
61 96 149
60 95 141
61 96 146
60 94 146
61 97 151
61 96 145
61 96 144
61 97 154
61 96 144
59 93 130
61 96 151
61 95 142
61 96 148
61 96 146
61 96 148
60 94 140
61 96 150
61 96 151
60 95 146
60 95 144
62 97 152
61 95 139
60 95 140
60 95 145
60 93 143
60 93 137
61 95 149
60 94 147
60 94 145
60 94 144
60 94 141
61 94 142
57 89 134
59 91 138
58 91 136
60 94 143
57 90 139
59 93 143
58 91 137
58 90 134
57 89 125
56 87 126
56 87 130
54 83 129
53 81 121
53 80 119
133 151 176
217 233 255
217 233 255
217 233 255
143 146 128
106 105 69
90 91 63
95 96 64
94 95 66
84 86 60
95 97 68
85 88 64
97 100 70
87 91 66
92 95 67
90 94 69
88 92 63
102 106 75
110 112 78
102 105 77
94 97 67
120 120 81
115 116 77
117 118 77
107 110 75
135 134 88
133 133 88
136 135 90
133 133 85
140 139 89
141 140 91
150 147 91
146 144 96
141 140 91
141 138 84
145 142 89
148 146 95
144 142 90
145 143 91
158 154 96
143 141 83
146 144 92
148 146 90
154 151 95
156 152 97
148 146 90
156 153 97
154 151 90
157 154 93
154 151 94
164 160 100
161 158 98
161 156 95
157 154 95
165 161 94
165 161 96
166 162 98
164 159 93
159 156 90
161 157 90
163 159 88
169 163 96
166 161 91
167 163 97
168 163 101
170 164 99
172 166 102
167 162 94
167 163 93
171 165 98
171 165 95
173 167 95
169 163 96
171 166 100
170 164 96
176 169 104
172 166 94
169 163 99
171 165 93
170 165 98
170 165 93
173 166 99
172 165 99
172 166 99
173 166 95
171 164 95
172 167 98
172 166 96
174 168 99
173 167 95
170 164 93
170 164 91
172 166 93
167 160 87
169 164 92
173 166 99
173 167 97
168 162 92
167 162 94
168 162 96
170 165 94
174 168 99
169 163 97
170 164 95
171 165 97
168 162 92
169 163 99
164 159 87
173 166 97
167 160 93
168 162 96
170 163 95
166 161 88
167 162 93
163 156 89
172 166 97
164 158 89
165 160 90
164 157 92
168 161 92
161 154 89
164 159 87
166 161 91
170 164 93
166 160 89
157 153 83
163 156 84
160 155 87
163 157 85
161 155 92
155 150 84
156 151 87
158 152 86
165 159 88
161 155 89
160 154 82
160 155 89
159 154 87
162 157 88
160 155 84
159 153 84
161 156 88
155 151 82
154 149 84
159 154 87
163 158 89
153 146 80
153 148 84
162 156 90
157 151 85
151 145 82
213 231 255
213 231 255
213 231 255
213 231 255
213 231 255
213 231 255
213 231 255
213 231 255
213 231 255
213 231 255
213 231 255
213 231 255
213 231 255
213 231 255
213 231 255
213 231 255
213 231 255
213 231 255
213 231 255
213 231 255
213 231 255
213 231 255
213 231 255
213 231 255
213 231 255
213 231 255
213 231 255
213 231 255
213 231 255
213 231 255
213 231 255
213 231 255
213 231 255
213 231 255
213 231 255
213 231 255
213 231 255
213 231 255
213 231 255
213 231 255
213 231 255
213 231 255
213 231 255
213 231 255
213 231 255
213 231 255
213 231 255
213 231 255
213 231 255
213 231 255
213 231 255
213 231 255
213 231 255
213 231 255
213 231 255
213 231 255
213 231 255
213 231 255
213 231 255
213 231 255
213 231 255
213 231 255
213 231 255
213 231 255
213 231 255
213 231 255
213 231 255
213 231 255
213 231 255
213 231 255
213 231 255
213 231 255
213 231 255
213 231 255
213 231 255
213 231 255
213 231 255
213 231 255
213 231 255
213 231 255
213 231 255
212 231 255
212 231 255
212 231 255
212 231 255
212 231 255
212 231 255
212 231 255
212 230 255
212 230 255
212 230 255
212 230 255
212 230 255
212 230 255
212 230 255
212 230 255
212 230 255
212 230 255
212 230 255
212 230 255
212 230 255
212 230 255
211 230 255
211 230 255
211 230 255
211 230 255
211 230 255
211 230 255
211 230 255
211 230 255
211 230 255
211 230 255
211 230 255
211 230 255
211 230 255
210 230 255
210 229 255
210 229 255
210 229 255
210 229 255
210 229 255
210 229 255
210 229 255
209 229 255
209 229 255
209 229 255
209 229 255
209 228 255
208 228 255
208 228 255
208 228 255
207 228 255
113 139 193
60 96 160
60 96 161
61 97 168
61 98 169
60 96 161
60 96 160
61 97 167
61 98 170
60 96 162
59 95 165
96 124 181
210 228 254
213 231 255
214 232 255
217 233 255
217 233 255
217 233 255
95 122 177
61 97 159
61 97 155
60 96 144
62 98 153
62 97 149
61 96 152
60 96 149
60 95 150
61 96 155
60 95 147
61 97 156
61 96 152
61 96 149
61 97 151
61 96 148
60 96 144
61 97 150
61 96 149
62 97 152
62 97 148
61 97 153
62 98 155
60 96 143
61 96 142
61 96 145
61 96 147
62 97 153
61 96 150
61 96 148
60 95 142
60 95 148
61 96 143
60 95 144
61 96 148
59 93 134
61 97 152
62 98 155
61 96 143
60 95 140
61 96 143
60 95 144
61 96 147
60 95 137
61 96 144
60 96 148
61 96 137
61 97 149
60 96 146
62 97 151
60 95 143
61 96 147
61 96 135
62 97 152
61 96 147
62 97 152
60 95 141
61 96 152
60 94 142
62 97 149
61 96 144
62 98 157
62 97 147
61 96 146
59 94 140
60 95 146
59 93 133
61 96 146
61 96 150
60 94 148
61 96 147
60 94 138
61 96 150
62 97 151
61 96 145
61 96 149
59 93 138
60 95 146
58 91 141
60 94 142
60 95 149
59 92 142
60 94 146
59 93 139
60 94 145
59 92 134
60 93 141
60 94 145
57 90 138
59 93 143
59 92 140
59 92 141
56 87 125
59 91 138
56 87 127
56 88 130
57 88 129
56 86 131
54 82 122
86 105 134
215 231 253
217 233 255
205 219 235
110 109 67
106 106 71
93 94 64
88 89 62
84 86 61
74 79 59
103 105 74
93 97 71
86 90 63
84 88 65
98 102 74
90 94 68
99 102 73
109 112 77
101 104 73
111 112 75
117 118 79
117 118 78
113 114 78
123 124 83
116 118 80
125 125 80
120 121 82
123 122 81
124 125 85
126 128 85
129 128 79
138 137 89
142 141 90
141 140 91
138 136 84
151 148 93
142 141 89
145 144 90
151 149 93
142 141 92
150 147 91
153 150 93
150 147 94
155 151 92
156 152 93
160 156 99
152 150 89
155 152 94
154 150 91
158 154 92
163 158 100
164 159 95
163 159 98
166 161 99
164 160 97
164 160 96
166 161 98
167 162 96
168 164 97
167 163 96
163 159 92
169 164 99
173 166 99
172 167 102
171 166 101
171 165 95
166 162 96
166 162 91
168 163 96
166 161 93
173 167 97
174 168 100
164 159 93
167 163 91
171 166 94
171 166 99
171 165 95
172 166 96
167 162 90
170 165 93
175 168 100
177 170 102
171 166 97
171 165 93
172 166 99
173 167 94
171 165 96
170 164 90
175 169 97
175 168 100
168 162 92
170 164 90
170 164 94
168 163 94
171 164 95
174 168 98
167 161 92
167 161 88
169 164 93
170 164 93
169 163 93
172 165 89
173 166 99
167 161 94
171 165 94
164 158 90
169 163 93
176 169 103
174 166 96
168 162 94
170 164 95
169 162 92
170 164 98
167 161 95
165 159 87
168 162 90
165 159 85
171 165 92
166 160 90
158 152 79
167 161 94
161 155 88
168 161 90
163 156 84
168 161 93
163 158 87
164 158 87
163 156 85
170 163 92
157 152 87
159 154 87
162 156 88
170 164 91
164 158 91
160 154 88
167 160 87
164 157 93
154 148 87
160 154 88
168 162 93
165 157 90
163 157 88
166 160 95
161 155 87
162 156 89
159 154 84
166 159 93
159 153 85
152 147 80
163 157 89
152 147 86
214 232 255
214 231 255
214 231 255
214 231 255
214 231 255
214 231 255
214 231 255
214 231 255
214 231 255
214 231 255
214 231 255
214 231 255
214 231 255
214 231 255
214 231 255
214 231 255
214 231 255
214 231 255
214 231 255
214 231 255
214 231 255
214 231 255
214 231 255
214 231 255
214 231 255
214 231 255
214 231 255
214 231 255
214 231 255
214 231 255
214 231 255
214 231 255
214 231 255
214 231 255
214 231 255
214 231 255
214 231 255
214 231 255
214 231 255
214 231 255
214 231 255
214 231 255
214 231 255
214 231 255
214 231 255
214 231 255
214 231 255
214 231 255
214 231 255
214 231 255
214 231 255
214 231 255
214 231 255
214 231 255
214 231 255
214 231 255
214 231 255
214 231 255
214 231 255
214 231 255
214 231 255
214 231 255
214 231 255
214 231 255
214 231 255
214 231 255
214 231 255
214 231 255
214 231 255
214 231 255
214 231 255
213 231 255
213 231 255
213 231 255
213 231 255
213 231 255
213 231 255
213 231 255
213 231 255
213 231 255
213 231 255
213 231 255
213 231 255
213 231 255
213 231 255
213 231 255
213 231 255
213 231 255
213 231 255
213 231 255
213 231 255
213 231 255
213 231 255
213 231 255
213 231 255
213 231 255
213 231 255
213 231 255
213 231 255
212 231 255
212 231 255
212 231 255
212 231 255
212 230 255
212 230 255
212 230 255
212 230 255
212 230 255
212 230 255
212 230 255
212 230 255
212 230 255
212 230 255
211 230 255
211 230 255
211 230 255
211 230 255
211 230 255
211 230 255
211 230 255
211 230 255
211 230 255
210 230 255
210 229 255
210 229 255
210 229 255
210 229 255
210 229 255
209 229 255
209 229 255
209 229 255
209 229 255
156 178 218
61 97 167
61 97 163
61 97 162
60 97 165
60 97 163
61 97 167
61 97 169
61 98 168
60 96 166
60 96 171
60 96 164
160 180 220
213 231 255
214 232 255
217 233 255
218 234 255
204 220 246
60 96 149
61 97 159
62 98 160
61 96 152
61 97 151
60 96 145
60 95 141
61 96 150
63 98 157
61 96 149
61 97 154
61 97 155
61 97 152
61 96 150
61 96 143
59 94 137
60 96 147
61 96 148
61 96 140
61 96 141
61 96 143
60 95 136
61 97 150
61 97 144
60 94 136
61 97 154
61 96 144
62 97 147
62 97 155
61 96 139
61 97 153
60 95 141
62 97 150
60 95 135
61 97 152
62 97 150
61 96 147
61 96 152
62 97 149
60 95 143
61 96 145
61 96 145
61 97 152
60 95 140
60 95 140
61 96 142
60 94 134
61 97 148
61 97 148
60 95 140
61 96 137
61 96 141
61 96 150
61 96 144
61 96 145
62 97 145
61 96 145
60 95 143
60 95 142
61 96 144
59 94 145
62 97 151
61 96 148
62 96 151
61 96 147
60 95 143
60 95 143
60 95 140
60 94 135
60 95 142
60 94 137
61 96 150
61 95 142
61 96 143
60 95 141
61 96 149
57 90 127
60 93 141
61 95 147
59 93 137
60 94 144
60 93 140
59 93 145
59 94 146
58 91 130
60 94 142
60 94 147
59 92 134
58 91 133
59 92 142
58 91 131
59 91 135
57 89 126
57 90 133
56 87 133
58 90 134
54 84 133
55 85 129
54 83 117
53 81 114
196 212 235
218 234 255
185 195 200
97 96 62
92 91 60
92 92 62
86 88 63
82 85 60
89 92 66
75 80 58
84 89 66
84 88 61
81 84 62
94 98 68
93 95 68
108 110 76
103 106 74
112 114 78
103 106 73
114 116 81
113 114 75
117 118 79
109 111 75
122 123 81
125 124 79
127 127 86
137 136 84
134 131 84
131 131 86
134 132 84
134 133 86
133 132 85
131 131 85
142 141 88
148 146 95
140 138 86
147 146 93
144 142 87
148 144 87
159 155 95
154 152 92
152 150 87
151 148 93
151 149 88
153 149 92
147 145 83
156 153 89
158 154 95
160 156 93
156 152 87
166 161 97
169 164 98
163 158 92
165 160 95
164 160 94
166 161 94
165 160 95
165 161 95
165 161 94
171 166 98
166 162 95
170 165 103
168 163 97
166 162 96
174 167 101
167 162 95
171 166 95
172 166 100
169 164 94
169 163 96
171 166 94
170 164 96
169 163 98
171 165 91
175 168 98
172 166 94
170 165 94
170 165 94
176 169 97
176 169 99
174 168 99
173 167 99
170 164 95
170 164 94
172 166 94
174 168 97
174 167 95
166 160 93
173 167 97
170 163 90
171 164 96
171 165 95
170 164 93
171 165 95
166 161 92
166 161 92
173 167 98
170 163 90
169 163 88
175 168 98
168 163 91
171 165 92
170 163 97
167 162 90
168 163 92
168 162 90
167 161 93
169 163 93
171 164 93
171 164 93
174 167 99
168 162 93
165 159 89
169 162 93
164 159 86
166 160 90
165 160 89
166 160 90
159 153 80
167 160 93
169 162 94
170 163 94
162 157 92
164 157 83
158 152 83
168 161 95
165 159 91
162 156 83
164 158 85
162 156 87
164 157 90
164 158 91
166 159 93
157 151 85
165 159 87
162 156 87
163 156 94
162 156 87
160 154 81
159 154 86
162 156 86
155 150 75
161 155 88
162 156 87
159 153 84
158 151 89
159 153 88
156 151 86
150 145 79
163 157 92
215 232 255
215 232 255
214 232 255
214 232 255
214 232 255
214 232 255
214 232 255
214 232 255
214 232 255
214 232 255
214 232 255
214 232 255
214 232 255
214 232 255
214 232 255
214 232 255
215 232 255
214 232 255
215 232 255
215 232 255
215 232 255
215 232 255
215 232 255
215 232 255
215 232 255
215 232 255
215 232 255
215 232 255
215 232 255
215 232 255
215 232 255
215 232 255
215 232 255
215 232 255
215 232 255
215 232 255
215 232 255
215 232 255
215 232 255
215 232 255
215 232 255
215 232 255
215 232 255
215 232 255
215 232 255
215 232 255
215 232 255
215 232 255
215 232 255
215 232 255
215 232 255
214 232 255
214 232 255
214 232 255
214 232 255
214 232 255
214 232 255
214 232 255
214 232 255
214 232 255
214 232 255
214 232 255
214 232 255
214 232 255
214 232 255
214 232 255
214 232 255
214 232 255
214 232 255
214 232 255
214 232 255
214 232 255
214 232 255
214 232 255
214 232 255
214 232 255
214 232 255
214 232 255
214 231 255
214 231 255
214 231 255
214 231 255
214 231 255
214 231 255
214 231 255
214 231 255
214 231 255
214 231 255
214 231 255
214 231 255
214 231 255
214 231 255
213 231 255
213 231 255
213 231 255
213 231 255
213 231 255
213 231 255
213 231 255
213 231 255
213 231 255
213 231 255
213 231 255
213 231 255
213 231 255
213 231 255
213 231 255
213 231 255
213 231 255
213 231 255
213 231 255
212 231 255
212 231 255
212 231 255
212 231 255
212 230 255
212 230 255
212 230 255
212 230 255
212 230 255
212 230 255
212 230 255
211 230 255
211 230 255
211 230 255
211 230 255
211 230 255
211 230 255
210 230 255
210 229 255
210 229 255
210 229 255
182 202 234
60 97 171
60 95 156
61 97 163
60 96 159
61 97 160
60 96 163
61 97 166
60 97 167
60 96 164
61 97 164
60 97 173
75 106 171
207 225 251
214 232 255
216 233 255
218 234 255
182 199 227
61 96 153
62 98 152
60 96 154
60 95 150
61 97 155
60 95 144
61 96 142
61 96 152
61 96 144
61 97 145
60 95 143
62 97 152
60 95 141
61 96 150
61 96 145
61 96 147
61 97 150
62 97 153
61 97 145
61 96 143
63 99 158
61 96 148
61 96 149
61 96 150
61 97 145
61 96 145
60 95 145
60 95 139
60 95 135
61 96 145
61 96 147
60 95 141
61 96 151
61 96 149
61 96 149
61 97 145
61 96 144
62 97 152
61 96 137
60 96 145
62 97 148
61 96 145
62 97 152
61 96 147
62 98 151
61 96 143
61 96 143
62 97 148
60 95 141
61 96 144
61 95 140
62 97 144
61 96 143
59 94 133
61 96 149
61 97 148
61 96 145
61 96 141
61 97 150
60 94 130
62 97 146
61 96 145
61 96 146
61 96 146
61 95 143
61 96 143
60 95 142
60 95 142
61 96 147
61 96 144
60 94 139
61 96 143
61 97 146
60 95 143
59 93 142
61 96 153
60 94 147
59 93 137
59 92 137
60 94 144
59 92 140
60 94 143
58 91 133
60 94 148
59 93 144
59 92 141
59 93 140
58 91 139
58 90 129
57 89 131
60 93 148
58 90 133
58 91 136
57 90 129
58 89 133
59 91 138
57 88 131
56 87 137
52 79 109
53 81 118
165 180 201
218 234 255
140 146 137
95 94 60
104 102 67
91 91 63
77 79 58
81 84 60
89 91 64
92 95 67
91 94 66
78 81 58
88 91 64
84 87 60
105 109 76
95 99 70
100 103 70
104 107 76
108 109 74
100 103 71
115 117 75
107 109 76
113 114 72
117 117 76
116 118 79
122 122 79
130 129 85
123 124 82
121 122 78
130 130 82
144 141 89
135 134 79
138 136 84
142 141 90
143 142 86
135 133 82
146 144 90
155 151 90
150 148 88
143 140 83
150 148 90
152 149 91
152 149 88
162 158 96
155 151 89
159 155 93
157 153 90
156 151 91
149 147 90
158 155 90
159 156 96
167 162 97
168 163 98
153 150 92
162 157 90
161 156 92
163 159 93
165 160 94
167 162 102
169 163 94
161 157 93
170 165 95
165 160 93
169 165 96
175 168 99
171 166 93
169 164 94
167 162 94
174 166 100
171 165 98
169 164 96
167 162 92
174 168 100
172 166 97
166 161 92
171 165 94
175 169 100
172 166 99
170 164 94
169 164 92
174 168 97
171 165 96
173 166 93
168 163 90
174 168 95
172 165 92
176 169 99
173 167 98
174 167 95
172 166 96
169 164 90
173 167 90
168 162 90
172 166 94
176 169 100
169 163 89
171 165 94
168 162 92
166 160 92
167 160 90
167 162 93
170 164 93
172 166 96
171 165 96
168 162 94
172 165 98
167 161 92
168 162 93
174 167 95
163 158 82
159 154 81
164 159 88
165 159 90
163 158 87
168 161 89
168 163 92
165 160 90
166 160 90
163 158 89
165 159 93
160 155 84
171 163 93
164 159 90
163 157 89
165 159 88
162 156 88
165 158 89
165 158 87
162 157 84
156 150 84
160 155 85
164 157 85
158 152 83
166 159 86
163 157 90
162 157 87
168 161 90
158 152 84
161 155 86
155 149 82
161 156 82
160 154 84
158 152 83
166 160 95
159 153 88
158 152 86
157 151 84
160 155 82
152 147 80
155 149 82
215 232 255
215 232 255
215 232 255
215 232 255
215 232 255
215 232 255
215 232 255
215 232 255
215 232 255
215 232 255
215 232 255
215 232 255
215 232 255
215 232 255
215 232 255
215 232 255
215 232 255
215 232 255
215 232 255
215 232 255
215 232 255
215 232 255
215 232 255
215 232 255
215 232 255
215 232 255
215 232 255
215 232 255
215 232 255
215 232 255
215 232 255
215 232 255
215 232 255
215 232 255
215 232 255
215 232 255
215 232 255
215 232 255
215 232 255
215 232 255
215 232 255
215 232 255
215 232 255
215 232 255
215 232 255
215 232 255
215 232 255
215 232 255
215 232 255
215 232 255
215 232 255
215 232 255
215 232 255
215 232 255
215 232 255
215 232 255
215 232 255
215 232 255
215 232 255
215 232 255
215 232 255
215 232 255
215 232 255
215 232 255
215 232 255
215 232 255
215 232 255
215 232 255
215 232 255
215 232 255
215 232 255
215 232 255
215 232 255
215 232 255
215 232 255
215 232 255
215 232 255
215 232 255
215 232 255
215 232 255
215 232 255
215 232 255
214 232 255
215 232 255
214 232 255
214 232 255
214 232 255
214 232 255
214 232 255
214 232 255
214 232 255
214 232 255
214 232 255
214 232 255
214 232 255
214 232 255
214 232 255
214 232 255
214 231 255
214 231 255
214 231 255
214 231 255
214 231 255
214 231 255
214 231 255
214 231 255
214 231 255
214 231 255
213 231 255
213 231 255
213 231 255
213 231 255
213 231 255
213 231 255
213 231 255
213 231 255
213 231 255
213 231 255
213 231 255
213 231 255
213 231 255
212 231 255
212 231 255
212 231 255
212 230 255
212 230 255
212 230 255
212 230 255
212 230 255
211 230 255
211 230 255
211 230 255
208 227 254
68 102 172
60 97 164
61 96 160
61 97 161
60 96 160
60 96 159
60 96 166
60 96 161
61 97 165
61 96 163
59 95 167
58 94 162
158 178 217
215 232 255
216 233 255
218 234 255
140 160 197
61 96 152
62 98 160
61 96 150
61 96 151
60 95 145
61 97 156
62 97 154
62 97 154
61 96 148
61 96 143
61 97 159
61 97 150
62 98 157
61 96 151
60 96 143
62 97 152
62 97 150
61 96 147
61 96 147
61 96 149
60 95 141
61 96 149
61 96 151
61 97 149
61 96 148
60 95 140
61 96 141
60 95 133
61 96 141
60 95 141
62 97 150
60 95 134
60 95 140
61 97 149
61 96 147
60 94 125
61 96 153
61 96 143
61 96 143
59 94 133
60 95 143
61 96 145
60 95 135
61 96 141
62 98 156
60 94 137
62 97 145
61 95 143
61 96 148
60 95 136
61 96 139
60 95 143
61 96 143
61 96 137
61 96 144
60 95 146
59 94 135
61 95 146
60 95 134
60 95 136
61 95 142
60 95 146
60 95 148
61 96 142
60 94 136
61 96 149
60 96 143
59 94 133
60 95 144
62 96 143
60 94 134
59 94 140
58 92 134
61 96 146
60 94 136
60 95 143
61 95 145
60 95 143
59 93 139
60 94 148
60 94 144
60 94 144
59 93 142
59 93 127
58 91 132
58 91 134
59 93 141
58 92 140
58 91 140
60 94 142
60 93 141
57 88 120
56 88 134
56 87 128
58 89 131
57 88 128
55 84 125
56 87 127
53 83 117
53 81 118
151 167 190
215 230 251
102 101 61
90 90 59
67 70 49
72 74 51
61 64 44
72 76 56
83 85 61
74 78 57
75 80 56
92 95 66
74 79 58
89 93 67
82 86 60
95 98 69
91 95 67
111 113 77
108 110 75
103 106 71
102 105 73
111 113 75
114 115 77
115 116 74
123 122 79
123 123 79
127 126 78
121 122 80
130 129 78
131 130 84
139 137 85
133 132 80
141 139 88
134 133 79
145 143 88
137 136 83
142 140 87
149 146 89
146 144 87
155 151 93
155 151 92
150 148 89
148 146 88
152 150 90
153 149 94
156 152 94
158 153 89
164 159 93
156 152 87
162 157 90
150 147 90
165 159 96
163 158 90
161 156 90
161 156 90
163 158 90
163 159 88
161 157 92
170 164 93
169 163 92
166 160 91
172 166 95
164 159 93
170 164 97
167 161 93
167 163 94
172 166 94
167 162 96
167 162 92
171 165 94
167 162 88
169 163 94
167 162 87
172 166 97
172 166 88
166 161 88
170 164 91
167 161 90
173 167 99
172 166 93
173 167 97
172 166 93
172 166 94
169 164 91
172 166 93
167 161 85
170 164 88
171 164 92
172 165 93
168 163 90
171 166 94
172 166 97
168 161 91
167 162 90
170 164 95
175 168 96
170 163 89
172 165 92
170 164 92
175 168 95
170 165 94
165 160 85
171 165 92
170 164 92
170 164 89
167 161 86
170 164 90
173 167 96
165 159 85
170 162 97
166 159 91
166 160 87
169 162 91
167 160 91
167 162 90
165 159 87
167 161 91
169 163 95
167 160 88
165 158 86
172 164 91
163 158 79
167 160 94
159 154 83
168 162 92
169 163 90
161 155 84
164 158 85
164 157 85
167 160 91
158 153 79
165 158 87
153 147 83
162 156 88
160 154 92
165 158 91
160 154 82
158 152 81
170 164 95
161 155 85
160 154 86
161 156 87
163 157 87
156 150 82
154 149 80
160 152 85
162 156 85
152 147 85
151 146 82
157 151 87
216 232 255
216 232 255
216 232 255
216 232 255
216 232 255
216 232 255
216 232 255
216 232 255
216 232 255
216 232 255
216 232 255
216 232 255
216 232 255
216 232 255
216 232 255
216 232 255
216 232 255
216 232 255
216 232 255
216 232 255
216 233 255
216 232 255
216 233 255
216 233 255
216 233 255
216 233 255
216 233 255
216 233 255
216 233 255
216 232 255
216 233 255
216 233 255
216 233 255
216 233 255
216 233 255
216 233 255
216 232 255
216 233 255
216 232 255
216 233 255
216 232 255
216 232 255
216 233 255
216 232 255
216 232 255
216 232 255
216 233 255
216 232 255
216 232 255
216 232 255
216 232 255
216 232 255
216 232 255
216 232 255
216 232 255
216 232 255
216 232 255
216 232 255
216 232 255
216 232 255
216 232 255
216 232 255
216 232 255
216 232 255
216 232 255
216 232 255
216 232 255
216 232 255
216 232 255
216 232 255
216 232 255
215 232 255
215 232 255
215 232 255
215 232 255
215 232 255
215 232 255
215 232 255
215 232 255
215 232 255
215 232 255
215 232 255
215 232 255
215 232 255
215 232 255
215 232 255
215 232 255
215 232 255
215 232 255
215 232 255
215 232 255
215 232 255
215 232 255
215 232 255
215 232 255
215 232 255
215 232 255
215 232 255
215 232 255
215 232 255
215 232 255
215 232 255
215 232 255
215 232 255
215 232 255
214 232 255
214 232 255
214 232 255
214 232 255
214 232 255
214 232 255
214 232 255
214 232 255
214 231 255
214 231 255
214 231 255
214 231 255
214 231 255
214 231 255
214 231 255
214 231 255
213 231 255
213 231 255
213 231 255
213 231 255
213 231 255
213 231 255
213 231 255
213 231 255
212 231 255
212 231 255
212 230 255
212 230 255
101 128 186
59 94 154
61 97 162
61 96 156
60 95 153
60 96 161
61 97 164
60 95 156
60 96 158
60 96 162
60 96 162
61 97 168
93 120 178
215 232 255
216 233 255
218 234 255
130 152 196
61 97 152
62 97 153
60 95 143
61 96 150
60 96 151
61 97 150
62 98 153
61 97 149
61 96 149
61 96 144
61 96 143
60 96 147
62 97 150
61 96 145
62 97 152
61 96 142
61 96 143
61 96 149
60 96 137
61 96 141
61 96 142
62 97 155
61 96 151
61 96 155
61 97 148
62 98 149
60 95 139
61 96 147
60 95 134
62 97 150
61 97 150
61 96 144
61 96 141
61 96 145
62 97 151
61 97 151
60 95 137
61 95 130
61 96 143
60 95 143
62 97 150
59 93 135
61 96 149
62 97 145
61 95 139
60 95 140
61 96 148
60 95 151
60 94 134
60 94 139
61 97 150
60 95 130
60 94 130
61 96 142
61 96 149
60 95 142
61 96 147
60 95 142
60 96 147
60 94 140
61 96 135
61 96 142
61 96 151
60 95 143
61 96 150
59 94 128
60 95 138
60 94 144
58 92 138
60 95 142
60 94 147
59 94 143
59 93 133
60 94 146
60 94 140
60 95 143
60 94 135
61 95 149
61 96 143
60 94 141
58 92 137
58 92 136
60 94 133
59 93 142
60 94 147
60 93 136
59 94 142
61 95 151
58 91 126
58 90 133
59 91 138
58 91 130
59 92 134
58 90 134
56 86 125
59 92 146
57 87 133
56 86 125
54 82 120
52 80 114
111 129 158
200 212 225
100 97 60
91 90 59
81 82 57
90 92 61
72 75 52
71 75 54
76 80 56
81 85 62
69 74 53
79 84 60
72 76 54
87 90 62
79 83 59
89 92 64
90 94 65
90 94 67
104 107 74
100 103 71
110 113 75
113 114 76
121 121 80
119 120 76
121 121 77
119 120 81
121 121 78
124 125 80
131 132 84
139 138 87
121 122 73
140 138 90
138 136 86
146 144 88
140 137 79
138 136 87
138 136 79
149 146 88
145 142 85
146 144 86
150 147 88
157 153 86
156 152 91
157 152 92
157 153 94
157 153 93
162 157 92
156 152 92
158 154 91
157 152 86
156 152 91
166 161 94
163 158 88
163 158 90
166 160 91
159 156 87
161 156 89
163 159 89
159 155 90
166 161 95
166 161 90
171 165 97
166 161 93
170 164 89
168 163 92
165 159 93
171 165 97
172 166 96
167 161 92
168 163 93
168 162 94
174 168 100
169 162 88
169 162 89
173 166 93
174 167 96
170 163 93
165 160 87
172 167 93
173 168 98
169 164 89
173 167 95
172 166 93
174 167 92
168 162 92
166 160 85
171 165 94
161 156 84
168 163 89
176 168 97
174 166 91
171 164 90
176 169 98
171 165 92
173 166 96
172 165 98
170 163 90
167 160 88
172 166 95
169 162 87
171 165 91
163 158 87
165 160 87
169 163 89
164 157 86
164 159 84
171 164 95
167 161 89
168 161 85
170 165 89
166 161 91
172 165 92
161 156 84
166 160 87
169 163 91
165 159 89
163 158 89
165 158 84
164 158 80
166 159 89
167 161 87
168 161 87
163 158 84
166 160 88
169 163 91
166 160 85
162 157 84
166 160 87
163 157 87
168 161 85
166 161 90
164 158 85
161 155 89
165 158 89
165 159 86
157 151 80
163 156 90
166 160 88
161 155 80
166 159 91
158 152 84
149 144 75
154 150 80
156 150 80
152 147 80
158 152 84
166 158 88
160 154 86
151 145 75
159 154 84
216 233 255
216 233 255
216 233 255
216 233 255
216 233 255
216 233 255
216 233 255
216 233 255
216 233 255
216 233 255
216 233 255
216 233 255
216 233 255
216 233 255
216 233 255
216 233 255
216 233 255
216 233 255
216 233 255
216 233 255
216 233 255
216 233 255
216 233 255
216 233 255
216 233 255
216 233 255
216 233 255
216 233 255
216 233 255
216 233 255
216 233 255
216 233 255
216 233 255
216 233 255
216 233 255
216 233 255
216 233 255
216 233 255
216 233 255
216 233 255
216 233 255
216 233 255
216 233 255
216 233 255
216 233 255
216 233 255
216 233 255
216 233 255
216 233 255
216 233 255
216 233 255
216 233 255
216 233 255
216 233 255
216 233 255
216 233 255
216 233 255
216 233 255
216 233 255
216 233 255
216 233 255
216 233 255
216 233 255
216 233 255
216 233 255
216 233 255
216 233 255
216 233 255
216 233 255
216 233 255
216 233 255
216 233 255
216 233 255
216 233 255
216 233 255
216 233 255
216 233 255
216 233 255
216 233 255
216 233 255
216 233 255
216 233 255
216 233 255
216 233 255
216 233 255
216 233 255
216 233 255
216 232 255
216 232 255
216 232 255
216 232 255
216 232 255
216 232 255
216 232 255
216 232 255
216 232 255
216 232 255
215 232 255
215 232 255
215 232 255
215 232 255
215 232 255
215 232 255
215 232 255
215 232 255
215 232 255
215 232 255
215 232 255
215 232 255
215 232 255
215 232 255
215 232 255
215 232 255
215 232 255
215 232 255
215 232 255
215 232 255
215 232 255
215 232 255
214 232 255
214 232 255
214 232 255
214 232 255
214 232 255
214 232 255
214 231 255
214 231 255
214 231 255
214 231 255
213 231 255
213 231 255
213 231 255
213 231 255
141 163 203
59 95 161
60 96 154
60 96 158
60 96 156
61 97 159
61 97 163
60 96 155
60 96 162
60 95 153
60 95 161
61 96 161
60 96 163
186 204 236
217 233 255
218 234 255
77 107 160
61 97 157
60 96 151
60 96 154
60 96 144
60 96 147
60 95 145
60 95 142
59 94 139
62 98 153
61 96 140
61 96 143
62 97 148
60 95 139
60 96 144
60 95 144
61 97 145
60 95 140
61 96 134
61 97 147
61 96 147
61 96 143
61 96 143
62 98 149
61 96 144
60 95 139
62 97 150
61 96 143
61 97 152
61 96 148
59 94 135
61 96 148
61 96 145
59 94 136
60 95 143
60 94 134
61 96 142
60 95 135
60 95 141
61 97 147
62 98 151
60 95 143
61 96 144
59 93 131
61 96 140
60 95 145
61 96 148
60 95 134
61 95 140
61 96 148
60 95 139
60 94 136
60 95 136
60 95 135
62 97 149
61 95 144
61 96 143
59 93 129
60 95 141
60 95 140
61 96 150
60 95 145
60 94 139
61 95 144
60 94 140
60 95 144
61 96 150
60 95 136
61 96 149
59 94 143
61 96 144
59 93 134
60 95 135
60 95 139
61 95 138
61 95 143
59 93 136
60 94 132
60 94 143
59 93 136
61 96 146
58 92 133
59 92 128
61 95 147
60 94 142
58 90 131
57 90 130
56 87 124
58 91 139
59 91 139
58 90 135
56 88 125
58 91 137
58 90 127
57 89 124
58 91 144
55 85 122
55 85 121
56 86 125
55 85 119
52 80 121
78 97 119
175 184 186
91 91 55
75 76 54
84 85 59
73 76 53
56 61 46
59 64 46
73 77 55
66 72 52
77 81 60
81 86 60
79 83 61
72 78 58
88 92 65
97 99 65
90 94 61
92 96 66
85 90 64
107 108 70
106 109 75
111 112 73
117 117 77
123 123 80
120 119 77
120 120 76
128 126 76
121 122 75
119 119 70
133 132 79
135 134 85
140 137 82
129 129 83
143 139 87
141 138 87
140 139 79
147 145 85
148 145 86
141 138 84
149 146 84
151 148 87
148 145 84
153 150 90
154 151 87
155 151 87
152 149 91
151 148 85
155 150 88
159 155 96
154 151 88
160 156 89
162 158 92
161 155 86
162 157 90
160 156 86
161 157 89
169 163 97
161 157 89
165 160 88
163 159 92
165 160 87
162 158 89
169 164 93
173 167 100
168 163 91
166 160 93
167 161 84
166 161 93
162 157 81
169 163 92
170 164 91
173 166 96
168 162 86
170 164 88
167 162 90
168 162 89
172 165 91
172 165 93
172 165 91
168 162 93
170 164 89
166 161 88
173 165 93
171 165 86
172 166 93
172 165 92
174 167 95
174 167 94
173 167 92
171 165 91
171 165 95
172 166 93
170 164 89
171 165 87
172 165 93
173 166 95
168 162 83
170 164 90
169 162 88
168 162 87
164 158 84
171 165 92
169 163 90
172 165 93
172 166 91
172 166 90
169 162 86
167 161 87
172 165 92
170 163 93
165 161 87
169 163 91
166 159 88
165 159 87
167 160 89
170 163 93
167 161 84
172 166 95
167 160 86
164 158 87
164 159 87
165 159 84
160 154 81
163 156 84
166 160 90
162 157 84
159 154 83
162 156 86
162 155 87
164 158 88
164 157 84
159 153 84
159 154 83
158 152 83
162 156 89
161 155 85
156 149 78
160 154 84
163 156 85
161 155 89
160 152 86
167 161 89
151 146 73
158 152 79
157 151 81
161 154 84
164 157 87
159 153 83
157 152 81
157 153 82
217 233 255
217 233 255
217 233 255
217 233 255
217 233 255
217 233 255
217 233 255
217 233 255
217 233 255
217 233 255
217 233 255
217 233 255
217 233 255
217 233 255
217 233 255
217 233 255
217 233 255
217 233 255
217 233 255
217 233 255
217 233 255
217 233 255
217 233 255
217 233 255
217 233 255
217 233 255
217 233 255
217 233 255
217 233 255
217 233 255
217 233 255
217 233 255
217 233 255
217 233 255
217 233 255
217 233 255
217 233 255
217 233 255
217 233 255
217 233 255
217 233 255
217 233 255
217 233 255
217 233 255
217 233 255
217 233 255
217 233 255
217 233 255
217 233 255
217 233 255
217 233 255
217 233 255
217 233 255
217 233 255
217 233 255
217 233 255
217 233 255
217 233 255
217 233 255
217 233 255
217 233 255
217 233 255
217 233 255
217 233 255
217 233 255
217 233 255
217 233 255
217 233 255
217 233 255
217 233 255
217 233 255
217 233 255
217 233 255
217 233 255
217 233 255
217 233 255
217 233 255
217 233 255
217 233 255
217 233 255
217 233 255
217 233 255
217 233 255
217 233 255
217 233 255
217 233 255
216 233 255
216 233 255
216 233 255
216 233 255
216 233 255
216 233 255
216 233 255
216 233 255
216 233 255
216 233 255
216 233 255
216 233 255
216 233 255
216 233 255
216 233 255
216 233 255
216 233 255
216 233 255
216 233 255
216 233 255
216 233 255
216 233 255
216 233 255
216 233 255
216 232 255
216 232 255
216 232 255
216 232 255
216 232 255
216 232 255
215 232 255
215 232 255
215 232 255
215 232 255
215 232 255
215 232 255
215 232 255
215 232 255
215 232 255
215 232 255
215 232 255
215 232 255
215 232 255
214 232 255
214 232 255
214 232 255
214 231 255
148 169 212
60 97 168
59 94 157
61 97 161
60 96 154
61 97 162
61 97 156
60 95 157
60 96 162
59 95 160
60 96 158
60 96 164
61 97 172
160 180 217
217 233 255
214 230 252
62 97 161
62 97 156
61 97 152
61 96 153
61 97 150
62 97 147
60 95 141
61 96 148
61 96 148
61 96 149
60 95 136
60 96 140
61 96 144
61 96 148
60 95 142
61 96 144
61 97 145
62 97 145
62 98 153
61 97 140
57 92 133
60 95 140
60 94 139
61 95 147
61 96 145
60 95 144
61 96 141
61 96 145
61 96 147
60 95 140
61 96 141
60 95 139
61 97 142
60 94 134
61 96 145
61 95 134
60 95 140
60 95 136
61 96 141
60 95 140
60 95 144
61 96 147
60 95 142
61 96 137
60 94 134
61 96 143
61 96 141
61 96 142
61 96 139
62 97 153
62 97 149
58 92 129
58 92 121
61 96 142
61 96 142
60 94 138
59 94 139
60 95 140
60 95 140
60 95 141
61 95 136
60 94 137
60 94 135
60 95 143
59 94 135
59 93 135
59 92 124
60 95 136
61 96 142
59 93 138
60 94 140
59 93 135
59 94 135
59 93 135
59 93 128
60 94 133
58 92 129
58 90 130
58 91 128
60 94 137
60 94 139
59 93 138
60 94 134
59 93 138
59 92 135
59 93 144
58 92 134
57 90 131
60 94 147
55 86 120
57 89 124
58 90 134
59 92 136
57 89 135
55 86 127
57 89 127
58 88 133
56 86 124
55 85 111
53 81 118
52 80 118
51 79 109
136 144 149
97 96 58
70 70 46
72 72 47
75 76 53
63 65 44
62 65 47
67 71 49
62 68 49
72 76 53
69 74 55
69 74 51
75 81 59
75 81 54
89 93 65
88 91 63
103 106 70
96 99 68
99 101 68
103 105 65
120 120 78
112 113 71
120 120 76
113 115 77
113 116 74
120 121 74
120 121 74
130 129 80
121 122 75
129 129 83
131 130 83
141 139 83
141 138 81
133 132 76
134 133 72
139 138 84
145 142 84
145 143 81
149 146 84
145 143 83
156 152 89
138 137 83
154 151 92
157 153 89
150 147 83
155 152 86
149 145 80
157 154 89
153 150 81
162 157 90
158 155 88
162 157 92
167 160 92
164 159 89
165 160 92
163 158 89
168 162 95
165 159 92
163 159 91
162 157 84
167 161 93
163 157 87
168 162 87
165 160 85
171 166 101
170 164 97
167 162 93
167 162 90
171 165 95
169 164 96
171 165 90
169 163 92
166 161 89
167 162 88
170 164 86
174 168 94
173 167 95
173 165 94
171 164 94
169 163 90
172 166 95
168 163 95
171 165 91
169 164 90
169 163 87
172 166 93
164 159 84
173 167 95
168 162 89
170 164 87
170 163 91
167 162 84
169 163 90
171 164 90
172 164 90
169 162 91
167 162 82
167 162 89
169 164 91
170 164 88
169 163 94
168 161 90
169 162 89
163 158 85
174 168 97
169 164 93
171 165 91
165 159 87
170 163 90
170 164 88
169 162 87
171 165 90
167 160 84
164 159 83
168 161 92
168 161 87
165 160 84
166 160 92
164 159 87
164 157 83
165 158 78
164 157 88
162 157 84
166 160 90
166 159 85
157 151 83
163 157 81
160 155 84
170 164 90
167 160 89
163 158 84
164 158 85
160 154 86
160 154 80
163 157 86
158 152 84
163 157 87
158 152 81
156 150 76
158 152 85
153 148 77
159 153 84
156 150 82
163 156 90
157 152 85
159 153 84
162 156 83
154 148 81
155 150 79
218 233 255
218 233 255
218 233 255
217 233 255
217 233 255
217 233 255
217 233 255
218 233 255
217 233 255
218 233 255
218 233 255
218 233 255
218 233 255
218 233 255
218 233 255
218 234 255
218 234 255
218 234 255
218 234 255
218 234 255
218 234 255
218 234 255
218 234 255
218 234 255
218 234 255
218 234 255
218 234 255
218 234 255
218 234 255
218 234 255
218 234 255
218 234 255
218 234 255
218 234 255
218 234 255
218 234 255
218 234 255
218 234 255
218 234 255
218 234 255
218 234 255
218 234 255
218 234 255
218 234 255
218 233 255
218 234 255
218 234 255
218 233 255
218 233 255
218 233 255
218 233 255
218 234 255
218 233 255
218 233 255
218 233 255
218 233 255
218 233 255
218 233 255
218 233 255
218 233 255
218 233 255
218 233 255
217 233 255
217 233 255
217 233 255
217 233 255
217 233 255
217 233 255
217 233 255
217 233 255
217 233 255
217 233 255
217 233 255
217 233 255
217 233 255
217 233 255
217 233 255
217 233 255
217 233 255
217 233 255
217 233 255
217 233 255
217 233 255
217 233 255
217 233 255
217 233 255
217 233 255
217 233 255
217 233 255
217 233 255
217 233 255
217 233 255
217 233 255
217 233 255
217 233 255
217 233 255
217 233 255
217 233 255
217 233 255
217 233 255
217 233 255
217 233 255
217 233 255
217 233 255
217 233 255
217 233 255
217 233 255
217 233 255
217 233 255
217 233 255
217 233 255
217 233 255
217 233 255
216 233 255
216 233 255
216 233 255
216 233 255
216 233 255
216 233 255
216 233 255
216 233 255
216 233 255
216 233 255
216 233 255
216 233 255
216 233 255
216 232 255
216 232 255
216 232 255
215 232 255
215 232 255
215 232 255
215 232 255
179 198 231
61 96 167
61 97 159
61 97 162
60 95 154
60 95 155
59 94 158
59 95 159
60 96 158
60 95 161
58 93 156
60 95 158
59 93 158
94 120 172
217 233 255
195 211 238
62 98 159
61 96 149
60 95 150
61 97 148
60 95 147
61 96 144
61 97 158
60 95 140
60 94 137
60 95 141
61 96 140
60 95 144
59 93 129
61 96 153
61 96 147
61 96 143
61 96 144
61 96 150
60 95 139
61 96 142
61 96 147
60 94 127
61 96 135
61 97 148
61 96 143
61 96 141
61 96 147
59 94 127
60 95 140
61 96 142
60 94 131
61 96 143
61 96 150
60 95 141
61 96 145
60 95 141
60 95 142
59 94 130
60 95 140
62 97 150
61 96 143
61 97 147
60 95 129
59 94 129
61 96 139
60 95 135
61 96 140
61 96 147
61 96 148
60 95 137
61 96 145
59 94 138
60 95 137
60 95 139
61 96 144
61 95 140
61 96 145
59 94 129
61 96 148
61 96 144
60 95 141
59 94 139
61 97 147
58 92 130
60 95 134
61 96 140
60 94 144
59 94 137
59 93 130
61 96 143
60 94 137
61 95 142
61 96 150
60 94 135
59 93 136
61 96 142
60 94 136
61 95 140
59 93 140
60 94 142
60 94 146
60 93 134
58 91 130
59 93 140
59 92 138
59 93 134
60 93 143
58 90 130
56 88 130
58 91 130
58 90 132
58 91 135
58 90 133
60 93 138
57 90 131
58 91 135
56 87 121
56 88 121
52 81 114
51 78 111
51 78 103
49 75 102
89 89 61
82 83 52
74 75 50
51 54 37
61 63 42
67 70 48
62 64 45
58 62 44
73 78 56
59 66 48
62 67 45
69 73 53
73 78 55
99 101 72
94 97 64
89 92 60
104 106 72
89 93 66
96 99 66
93 97 65
112 114 75
107 109 68
113 115 76
113 115 72
114 115 68
125 124 75
129 128 82
119 120 75
121 121 71
127 127 84
139 135 78
142 140 85
142 139 86
146 143 83
133 132 77
147 145 87
139 138 82
145 142 83
140 138 84
147 143 81
150 147 87
151 146 81
152 148 85
148 146 85
144 142 83
155 151 88
154 151 89
157 152 86
157 153 82
157 152 87
157 153 90
166 161 95
160 155 87
163 159 89
171 165 90
163 159 90
164 159 92
166 161 91
168 162 88
168 162 91
169 163 87
166 161 93
165 160 90
168 162 88
164 160 89
168 162 90
169 164 90
168 162 92
173 167 94
169 163 88
170 164 96
170 164 91
167 162 88
172 165 90
171 165 95
170 163 90
170 163 93
169 163 91
167 162 86
171 165 88
172 166 92
173 167 95
167 162 89
170 164 96
166 161 85
169 164 90
167 161 88
172 166 89
167 161 90
169 164 87
167 161 84
168 161 90
172 166 95
167 160 90
173 166 93
166 160 87
168 162 87
172 165 90
170 163 91
170 164 89
171 164 92
165 158 87
170 164 89
166 160 87
176 168 95
165 160 83
166 160 84
165 160 85
168 162 85
171 164 90
168 162 84
164 158 86
169 162 90
162 155 84
170 163 87
170 163 90
169 163 94
169 162 89
161 155 81
167 161 87
163 156 88
166 160 84
168 162 91
155 150 81
160 154 83
167 160 90
164 159 88
161 156 84
161 156 84
162 156 86
155 150 80
165 157 89
164 157 83
169 162 87
157 151 78
164 157 84
164 158 84
162 156 80
163 156 84
152 147 75
167 161 88
158 151 86
162 156 86
161 155 87
163 156 77
157 151 85
155 149 80
160 154 88
160 153 82
218 234 255
218 234 255
218 234 255
218 234 255
218 234 255
218 234 255
218 234 255
218 234 255
218 234 255
218 234 255
218 234 255
218 234 255
218 234 255
218 234 255
218 234 255
218 234 255
218 234 255
218 234 255
218 234 255
218 234 255
218 234 255
218 234 255
218 234 255
218 234 255
218 234 255
218 234 255
218 234 255
218 234 255
218 234 255
218 234 255
218 234 255
218 234 255
218 234 255
218 234 255
218 234 255
218 234 255
218 234 255
218 234 255
218 234 255
218 234 255
218 234 255
218 234 255
218 234 255
218 234 255
218 234 255
218 234 255
218 234 255
218 234 255
218 234 255
218 234 255
218 234 255
218 234 255
218 234 255
218 234 255
218 234 255
218 234 255
218 234 255
218 234 255
218 234 255
218 234 255
218 234 255
218 234 255
218 234 255
218 234 255
218 234 255
218 234 255
218 234 255
218 234 255
218 234 255
218 234 255
218 234 255
218 234 255
218 234 255
218 234 255
218 234 255
218 234 255
218 234 255
218 234 255
218 234 255
218 234 255
218 234 255
218 234 255
218 234 255
218 234 255
218 234 255
218 234 255
218 234 255
218 234 255
218 234 255
218 234 255
218 234 255
218 234 255
218 234 255
218 234 255
218 234 255
218 234 255
218 234 255
218 234 255
218 234 255
218 234 255
218 233 255
218 233 255
218 233 255
218 233 255
217 233 255
217 233 255
217 233 255
217 233 255
217 233 255
217 233 255
217 233 255
217 233 255
217 233 255
217 233 255
217 233 255
217 233 255
217 233 255
217 233 255
217 233 255
217 233 255
217 233 255
217 233 255
217 233 255
217 233 255
217 233 255
217 233 255
217 233 255
217 233 255
216 233 255
216 233 255
216 233 255
216 233 255
216 233 255
192 210 240
61 96 166
60 96 159
61 96 156
58 93 141
60 95 151
61 96 155
61 97 163
59 94 154
60 95 156
59 94 149
57 92 154
60 95 164
59 94 159
213 229 251
186 203 230
62 97 158
60 95 142
61 96 151
60 95 143
61 97 153
61 97 153
61 96 147
61 96 144
61 96 144
60 95 140
59 94 133
62 98 153
60 95 134
60 95 142
61 96 141
61 97 143
61 96 143
61 96 144
61 96 147
61 96 140
61 96 147
60 96 142
62 97 151
61 96 144
61 96 147
61 96 147
61 96 141
60 95 135
60 94 141
60 96 141
60 95 137
59 93 124
60 95 141
60 95 136
60 94 137
61 96 140
60 94 137
60 94 135
60 95 136
61 96 145
61 96 145
60 94 137
60 95 144
60 95 137
61 96 137
60 95 137
60 95 143
61 96 148
60 95 136
61 96 146
61 96 141
60 94 139
61 95 139
61 96 141
60 95 136
59 92 130
60 95 139
61 95 141
61 95 136
60 95 135
59 93 139
59 94 140
59 93 129
60 95 143
59 92 136
60 94 143
60 95 141
59 94 140
59 93 131
61 95 144
58 92 129
59 94 139
61 96 144
60 93 133
58 91 130
60 93 138
59 92 133
60 94 142
59 92 136
60 93 129
59 93 133
59 93 145
59 93 139
59 92 127
58 92 132
59 93 147
58 91 128
59 92 134
58 91 133
59 93 136
58 91 129
58 91 133
56 87 133
55 85 114
56 86 129
58 91 130
56 87 122
54 84 115
53 82 121
52 79 114
53 82 119
49 74 96
80 86 79
65 66 40
69 69 45
60 61 40
67 70 49
57 62 46
54 60 44
58 63 42
66 72 53
65 70 51
65 70 51
68 73 51
82 86 61
79 83 61
77 81 55
90 94 62
98 99 63
87 91 62
95 98 64
101 104 68
96 99 61
106 107 68
116 117 76
111 112 69
110 110 65
111 112 70
118 117 70
120 120 74
123 123 77
125 125 79
133 132 79
134 133 78
128 127 74
138 136 78
132 130 72
135 134 74
137 135 83
145 142 85
142 140 76
158 154 89
157 153 91
154 151 81
153 150 88
152 148 88
150 147 85
155 151 92
156 153 87
157 152 86
153 149 85
162 157 88
154 150 82
159 154 89
164 159 88
158 154 90
161 156 86
159 155 85
162 157 87
164 158 80
166 161 91
161 156 84
160 156 87
167 162 87
169 163 89
170 164 92
167 162 85
169 163 93
170 164 90
172 166 92
166 161 88
167 161 85
166 161 85
171 165 93
171 164 86
173 166 93
171 165 98
168 163 85
172 166 95
167 162 89
168 161 89
169 163 86
172 165 92
170 164 90
170 164 90
172 166 92
168 162 88
170 164 87
171 164 91
169 164 85
174 166 90
171 165 87
174 167 96
167 161 88
170 164 87
170 164 95
167 161 85
170 163 87
169 163 92
174 167 90
172 165 90
166 161 84
171 164 91
169 162 87
166 159 87
168 161 87
170 162 89
165 159 85
166 159 89
168 162 84
163 157 92
164 159 83
169 162 93
168 162 89
167 161 84
167 161 84
167 160 83
172 165 91
159 154 77
163 158 89
166 160 87
166 160 85
167 160 86
167 161 88
163 157 85
166 159 87
169 162 87
159 152 80
166 160 83
170 162 89
160 153 82
165 158 88
162 156 87
162 155 80
157 151 84
161 155 89
152 146 75
160 154 83
157 150 80
160 153 81
157 152 75
157 152 86
163 157 88
161 154 85
159 154 80
146 141 72
159 153 87
158 152 79
156 150 76
157 150 83
156 150 82
219 234 255
219 234 255
219 234 255
219 234 255
219 234 255
219 234 255
219 234 255
219 234 255
219 234 255
219 234 255
219 234 255
219 234 255
219 234 255
219 234 255
219 234 255
219 234 255
219 234 255
219 234 255
219 234 255
219 234 255
219 234 255
219 234 255
219 234 255
219 234 255
219 234 255
219 234 255
219 234 255
219 234 255
219 234 255
219 234 255
219 234 255
219 234 255
219 234 255
219 234 255
219 234 255
219 234 255
219 234 255
219 234 255
219 234 255
219 234 255
219 234 255
219 234 255
219 234 255
219 234 255
219 234 255
219 234 255
219 234 255
219 234 255
219 234 255
219 234 255
219 234 255
219 234 255
219 234 255
219 234 255
219 234 255
219 234 255
219 234 255
219 234 255
219 234 255
219 234 255
219 234 255
219 234 255
219 234 255
219 234 255
219 234 255
219 234 255
219 234 255
219 234 255
219 234 255
219 234 255
219 234 255
219 234 255
219 234 255
219 234 255
219 234 255
219 234 255
219 234 255
219 234 255
219 234 255
219 234 255
219 234 255
219 234 255
219 234 255
219 234 255
219 234 255
219 234 255
219 234 255
219 234 255
219 234 255
218 234 255
219 234 255
218 234 255
218 234 255
218 234 255
218 234 255
218 234 255
218 234 255
218 234 255
218 234 255
218 234 255
218 234 255
218 234 255
218 234 255
218 234 255
218 234 255
218 234 255
218 234 255
218 234 255
218 234 255
218 234 255
218 234 255
218 234 255
218 234 255
218 234 255
218 234 255
218 234 255
218 234 255
218 234 255
218 234 255
218 234 255
218 234 255
218 234 255
218 234 255
218 234 255
218 234 255
218 233 255
218 233 255
218 233 255
217 233 255
217 233 255
217 233 255
217 233 255
217 233 255
196 213 240
60 96 164
59 94 150
60 95 156
59 94 143
60 95 153
60 95 151
60 95 149
60 94 151
61 97 159
62 97 159
60 95 157
58 92 153
56 90 150
188 205 231
166 184 215
61 96 154
61 96 147
61 96 143
60 95 134
62 97 154
61 96 143
61 96 147
61 96 145
61 97 147
61 97 149
60 95 143
63 99 158
61 96 140
61 96 148
59 94 136
60 95 144
60 95 131
61 96 140
60 95 142
60 95 135
61 96 144
61 95 144
62 97 149
60 95 139
59 93 133
60 94 140
60 94 135
61 96 140
61 96 144
60 95 143
61 97 144
59 94 135
59 94 137
60 94 141
60 94 131
60 96 148
61 95 144
60 95 140
60 95 136
60 96 142
61 95 143
61 96 144
60 95 136
61 96 147
60 94 137
60 95 134
61 95 137
60 95 142
62 97 141
60 95 140
60 94 139
59 93 136
60 94 135
60 95 148
60 95 139
60 94 133
60 94 136
60 95 140
60 95 136
60 94 135
61 96 147
60 95 141
60 95 141
60 95 140
61 95 140
61 95 139
60 94 133
59 93 135
59 94 141
60 95 133
61 96 143
60 93 136
59 94 131
59 93 124
59 93 130
59 94 134
60 94 133
59 93 134
60 94 140
59 92 133
60 94 145
59 93 135
60 93 135
58 91 132
58 92 127
61 94 144
58 92 136
57 88 119
58 90 126
58 90 130
58 90 128
54 85 125
59 91 127
58 90 128
57 87 122
57 88 124
57 88 128
56 86 120
54 84 113
52 80 112
53 81 105
48 73 99
77 83 79
73 73 41
65 67 43
42 46 27
60 63 45
47 53 38
50 57 41
57 62 43
58 64 48
53 57 39
63 69 51
69 75 56
69 75 54
79 82 53
80 85 54
93 96 63
87 90 56
92 95 61
107 108 62
108 109 69
110 111 68
102 105 70
110 111 71
110 111 64
119 118 69
109 110 68
122 122 71
120 121 69
138 135 83
129 128 70
129 129 80
140 138 83
147 144 86
135 133 80
137 135 77
146 142 81
132 131 75
153 149 90
141 139 77
138 137 74
148 145 82
151 148 85
160 155 89
149 146 82
148 145 82
154 151 86
155 151 88
155 151 83
158 153 86
159 156 84
157 152 82
154 150 80
158 153 86
166 161 92
164 159 89
164 158 87
160 156 88
158 154 81
163 158 89
167 161 85
165 159 86
160 156 85
170 165 91
169 163 91
165 160 90
164 158 83
164 159 86
168 163 84
170 163 87
167 162 89
171 165 91
168 163 89
168 162 88
170 164 93
172 165 96
168 163 88
168 161 87
167 161 92
173 166 88
171 164 92
170 163 87
173 166 93
169 162 85
171 165 89
171 165 93
175 168 92
167 162 82
174 167 92
170 163 88
172 165 93
166 160 83
170 163 91
171 164 85
170 164 93
170 162 84
166 160 82
171 165 84
171 164 86
168 161 81
165 160 80
165 159 83
167 161 84
171 164 84
170 163 93
166 158 85
169 162 87
166 159 86
174 167 96
164 159 80
163 157 84
167 160 86
176 168 92
167 162 87
164 158 86
164 158 83
168 161 87
168 161 88
163 157 84
169 162 91
158 153 77
166 159 87
164 158 85
161 153 82
161 155 80
166 160 87
171 164 90
161 154 87
169 162 87
160 154 83
161 154 84
165 159 84
161 155 84
156 150 83
157 152 75
167 160 93
160 154 82
162 155 82
159 153 81
169 162 91
163 157 84
163 157 84
151 146 80
159 153 82
165 158 84
159 153 76
156 150 81
158 152 80
148 144 75
148 143 71
219 235 255
219 234 255
219 234 255
219 234 255
219 234 255
219 234 255
219 234 255
219 234 255
219 234 255
219 235 255
219 235 255
219 234 255
219 234 255
219 235 255
219 234 255
219 235 255
219 235 255
219 235 255
219 235 255
219 235 255
219 235 255
219 235 255
219 235 255
219 235 255
219 235 255
219 235 255
219 235 255
219 235 255
219 235 255
219 235 255
219 235 255
219 235 255
219 235 255
219 235 255
219 235 255
219 235 255
219 235 255
219 235 255
219 235 255
219 235 255
219 235 255
219 235 255
219 235 255
219 235 255
219 235 255
219 235 255
219 235 255
219 235 255
219 235 255
219 235 255
219 235 255
219 235 255
219 235 255
219 235 255
219 235 255
219 235 255
219 235 255
219 234 255
219 234 255
219 234 255
219 234 255
219 234 255
219 234 255
219 234 255
219 234 255
219 234 255
219 234 255
219 234 255
219 234 255
219 234 255
219 234 255
219 234 255
219 234 255
219 234 255
219 234 255
219 234 255
219 234 255
219 234 255
219 234 255
219 234 255
219 234 255
219 234 255
219 234 255
219 234 255
219 234 255
219 234 255
219 234 255
219 234 255
219 234 255
219 234 255
219 234 255
219 234 255
219 234 255
219 234 255
219 234 255
219 234 255
219 234 255
219 234 255
219 234 255
219 234 255
219 234 255
219 234 255
219 234 255
219 234 255
219 234 255
219 234 255
219 234 255
219 234 255
219 234 255
219 234 255
219 234 255
219 234 255
219 234 255
219 234 255
219 234 255
219 234 255
219 234 255
219 234 255
219 234 255
219 234 255
219 234 255
219 234 255
219 234 255
219 234 255
219 234 255
219 234 255
218 234 255
218 234 255
218 234 255
218 234 255
218 234 255
218 234 255
218 234 255
208 224 249
61 96 164
57 91 146
61 96 149
59 94 146
60 95 151
59 94 147
60 95 155
58 93 145
57 92 147
59 94 147
56 89 140
58 93 155
58 92 151
174 191 223
160 178 211
61 96 148
61 96 147
61 97 148
61 96 145
62 97 158
60 95 145
60 95 142
60 95 141
61 97 149
60 96 142
60 96 144
61 96 151
59 94 135
61 96 143
60 95 139
62 97 151
60 94 134
60 95 134
61 97 149
61 96 141
60 94 136
59 94 137
60 95 140
62 97 141
60 94 129
60 95 134
59 94 133
61 96 143
60 95 137
61 96 136
61 96 142
60 94 125
61 95 144
61 96 141
59 94 136
61 96 139
60 95 144
60 94 131
59 94 139
60 95 145
60 94 129
60 95 140
59 93 126
60 95 133
60 95 141
62 96 144
60 95 130
60 95 133
58 93 134
59 94 134
61 95 137
61 97 144
61 96 142
61 96 142
61 96 145
59 94 135
60 95 136
60 95 136
60 94 135
60 94 138
60 95 139
59 93 131
60 94 134
61 96 137
59 92 130
59 93 129
61 95 135
59 94 135
59 93 134
61 95 136
61 96 143
58 92 128
58 91 136
58 92 129
58 90 129
60 95 138
61 95 143
58 91 125
61 95 141
60 93 136
58 92 136
60 93 137
59 92 123
59 92 136
58 91 121
57 90 130
58 90 130
57 89 122
57 90 116
59 91 124
58 91 133
57 89 133
56 87 123
58 89 123
57 88 123
55 86 124
53 82 111
52 80 116
54 83 116
55 85 121
53 81 111
50 77 108
75 81 71
83 83 51
67 67 43
52 55 36
59 61 44
61 64 43
65 68 50
50 57 40
50 57 41
56 63 44
47 57 44
65 70 46
60 66 49
75 80 57
92 96 63
77 81 51
97 100 65
85 89 59
99 101 63
104 106 66
103 105 67
106 107 67
120 120 72
121 122 76
132 130 73
123 123 76
121 122 73
135 133 79
126 126 74
126 126 75
139 136 81
131 129 77
135 133 82
135 134 76
142 139 78
148 144 84
137 135 77
145 141 78
146 143 81
152 149 80
143 141 81
146 144 76
154 150 86
145 142 82
153 149 81
151 147 76
156 152 81
155 151 81
158 153 85
158 153 82
157 152 81
155 152 81
158 153 85
162 157 85
166 160 89
162 157 82
156 152 84
166 161 89
162 157 82
166 161 88
170 164 95
166 159 87
164 159 81
165 159 87
168 162 88
168 162 87
167 161 92
171 165 92
163 159 85
166 161 86
172 165 93
164 159 81
170 164 87
170 164 87
170 164 85
167 161 89
169 163 90
172 166 89
169 163 86
173 166 90
172 165 94
170 164 87
171 165 93
165 160 84
169 163 84
173 166 87
172 166 94
167 161 90
169 162 87
170 164 90
171 165 89
168 162 86
170 164 88
169 162 89
169 162 88
169 162 88
171 164 87
166 160 87
170 164 89
166 160 82
172 165 88
164 158 77
168 161 84
164 159 84
170 164 88
172 165 92
170 163 93
165 160 83
163 157 84
169 161 89
166 159 84
169 162 85
169 163 85
163 158 85
165 159 84
168 162 81
164 159 87
169 162 88
166 160 78
168 161 87
162 157 80
166 160 88
162 157 81
162 155 84
162 155 84
163 156 86
155 150 75
154 148 78
159 153 84
160 154 83
156 150 80
157 150 79
165 159 80
155 150 77
154 147 80
155 148 84
167 161 86
155 148 75
152 146 74
147 141 72
155 150 73
160 154 78
157 151 82
156 150 78
161 155 82
159 153 84
160 154 84
155 149 81
153 147 75
220 235 255
220 235 255
220 235 255
220 235 255
220 235 255
220 235 255
220 235 255
220 235 255
220 235 255
220 235 255
220 235 255
220 235 255
220 235 255
220 235 255
220 235 255
220 235 255
220 235 255
220 235 255
220 235 255
220 235 255
220 235 255
220 235 255
220 235 255
220 235 255
220 235 255
220 235 255
220 235 255
220 235 255
220 235 255
220 235 255
220 235 255
220 235 255
220 235 255
220 235 255
220 235 255
220 235 255
220 235 255
220 235 255
220 235 255
220 235 255
220 235 255
220 235 255
220 235 255
220 235 255
220 235 255
220 235 255
220 235 255
220 235 255
220 235 255
220 235 255
220 235 255
220 235 255
220 235 255
220 235 255
220 235 255
220 235 255
220 235 255
220 235 255
220 235 255
220 235 255
220 235 255
220 235 255
220 235 255
220 235 255
220 235 255
220 235 255
220 235 255
220 235 255
220 235 255
220 235 255
220 235 255
220 235 255
220 235 255
220 235 255
220 235 255
220 235 255
220 235 255
220 235 255
220 235 255
220 235 255
220 235 255
220 235 255
220 235 255
220 235 255
220 235 255
220 235 255
220 235 255
220 235 255
220 235 255
220 235 255
220 235 255
220 235 255
220 235 255
220 235 255
220 235 255
220 235 255
220 235 255
220 235 255
220 235 255
220 235 255
220 235 255
220 235 255
220 235 255
220 235 255
220 235 255
220 235 255
220 235 255
220 235 255
220 235 255
220 235 255
220 235 255
220 235 255
220 235 255
220 235 255
220 235 255
220 235 255
220 235 255
220 235 255
220 235 255
220 235 255
220 235 255
219 235 255
220 235 255
220 235 255
219 235 255
219 235 255
219 235 255
219 234 255
219 234 255
219 234 255
219 234 255
219 234 255
219 234 255
214 230 252
61 96 163
61 96 163
60 96 154
61 96 156
60 94 148
61 96 155
61 96 155
61 95 151
61 96 153
60 95 151
57 91 151
58 91 151
56 89 149
149 167 204
153 171 204
62 97 153
62 97 148
60 95 136
60 95 135
60 94 135
61 96 141
61 96 142
61 96 139
62 97 151
61 96 144
61 96 143
60 94 134
60 95 130
61 96 144
60 95 137
60 95 139
58 92 129
61 96 147
61 96 140
60 95 130
60 95 137
60 94 136
60 95 141
59 94 133
61 96 140
60 95 139
61 96 141
60 94 129
60 95 134
61 96 148
60 94 134
60 95 140
61 95 139
60 94 131
61 96 137
61 96 137
61 96 137
61 95 145
61 95 152
61 96 134
60 94 131
61 96 142
60 95 129
60 95 142
61 96 133
59 93 129
59 93 126
61 95 142
61 96 144
60 95 130
60 95 136
60 95 137
61 96 140
60 95 133
61 97 142
61 95 139
60 95 136
62 97 143
61 96 140
61 96 149
60 95 132
61 96 141
61 95 144
60 94 139
59 93 135
60 95 137
60 94 141
60 94 130
59 93 129
57 90 126
61 97 151
59 93 126
60 95 143
59 93 139
59 94 130
60 94 128
60 94 138
61 95 139
59 92 126
59 93 131
58 91 134
60 93 135
58 91 130
59 92 132
59 91 127
58 92 133
58 90 134
56 87 117
59 93 136
57 89 129
58 91 127
58 91 135
56 87 125
55 86 122
57 88 135
55 86 114
55 85 124
55 85 122
53 82 113
53 81 109
50 77 105
45 68 76
57 69 80
80 79 47
48 49 28
52 55 37
34 41 27
47 52 37
41 45 30
44 50 32
48 55 40
62 68 50
69 73 48
62 68 46
88 90 57
81 84 54
76 82 56
85 88 54
92 93 55
95 97 62
87 91 57
98 99 65
103 105 66
96 98 56
101 103 63
111 112 67
110 111 65
115 115 72
125 125 69
119 120 75
129 128 77
122 122 69
134 133 73
140 137 78
138 136 78
129 129 75
135 134 80
134 132 73
140 137 72
140 139 78
143 140 78
148 144 79
144 141 81
147 143 79
152 148 87
144 141 82
151 147 85
143 140 79
153 149 81
154 150 83
148 144 78
156 152 90
162 156 86
156 152 84
162 156 87
156 152 82
160 155 90
163 157 81
166 160 89
165 160 90
164 159 86
157 152 80
166 160 83
160 155 76
170 162 89
166 160 88
167 162 85
167 161 88
163 157 80
163 157 80
173 166 93
170 164 88
169 163 89
173 165 90
165 159 84
174 167 93
170 162 86
168 162 84
165 160 81
168 163 87
172 165 89
172 165 88
169 163 91
168 162 84
169 163 84
166 160 86
171 165 87
171 165 88
169 163 90
171 165 90
167 162 81
173 166 91
172 165 91
168 162 83
168 162 84
167 160 85
170 163 87
169 163 87
169 163 83
170 163 84
169 162 85
162 156 78
172 165 87
168 161 87
168 161 85
165 159 80
165 158 80
166 160 82
169 163 86
163 158 80
169 163 81
161 155 80
166 161 86
167 161 85
163 157 77
164 157 80
167 159 82
165 159 84
163 156 83
164 158 85
166 159 83
166 160 85
165 159 83
166 159 82
161 155 82
156 150 80
168 161 89
168 162 90
165 157 84
162 156 80
164 157 84
158 152 81
161 154 80
161 155 80
161 155 83
169 161 85
158 151 75
161 154 84
157 152 80
159 153 82
157 151 77
157 152 84
159 153 79
157 150 81
162 155 79
154 148 76
161 154 84
158 152 76
154 148 75
161 155 82
161 155 82
221 235 255
221 235 255
221 235 255
221 235 255
221 235 255
221 235 255
221 235 255
221 235 255
221 235 255
221 235 255
221 235 255
221 235 255
221 235 255
221 235 255
221 235 255
221 235 255
221 235 255
221 235 255
221 235 255
221 235 255
221 235 255
221 235 255
221 235 255
221 235 255
221 235 255
221 235 255
221 235 255
221 235 255
221 235 255
221 235 255
221 235 255
221 235 255
221 235 255
221 235 255
221 235 255
221 235 255
221 235 255
221 235 255
221 235 255
221 235 255
221 235 255
221 235 255
221 235 255
221 235 255
221 235 255
221 235 255
221 235 255
221 235 255
221 235 255
221 235 255
221 235 255
221 235 255
221 235 255
221 235 255
221 235 255
221 235 255
221 235 255
221 235 255
221 235 255
221 235 255
221 235 255
221 235 255
221 235 255
221 235 255
221 235 255
221 235 255
221 235 255
221 235 255
221 235 255
221 235 255
221 235 255
221 235 255
221 235 255
221 235 255
221 235 255
221 235 255
221 235 255
221 235 255
221 235 255
221 235 255
221 235 255
221 235 255
221 235 255
221 235 255
221 235 255
221 235 255
221 235 255
220 235 255
221 235 255
221 235 255
221 235 255
221 235 255
221 235 255
221 235 255
221 235 255
220 235 255
221 235 255
221 235 255
220 235 255
221 235 255
220 235 255
221 235 255
220 235 255
220 235 255
220 235 255
220 235 255
220 235 255
220 235 255
220 235 255
220 235 255
220 235 255
220 235 255
220 235 255
220 235 255
220 235 255
220 235 255
220 235 255
220 235 255
220 235 255
220 235 255
220 235 255
220 235 255
220 235 255
220 235 255
220 235 255
220 235 255
220 235 255
220 235 255
220 235 255
220 235 255
220 235 255
220 235 255
220 235 255
219 234 255
62 97 164
60 94 153
62 97 153
61 96 143
60 95 144
60 94 143
58 93 145
61 96 143
59 93 148
57 90 145
58 92 158
56 89 149
57 89 145
159 176 210
148 167 198
62 97 150
59 93 139
61 96 148
61 96 140
61 95 142
60 95 141
61 96 150
61 96 147
60 94 139
62 97 143
62 97 150
61 96 142
61 97 147
61 97 149
60 95 137
59 94 130
59 94 130
61 95 139
60 95 133
59 94 130
60 95 137
60 95 141
60 95 133
59 93 127
60 95 135
61 96 148
60 94 133
61 96 145
61 96 143
59 94 122
60 95 141
60 95 133
61 96 140
60 95 141
60 95 131
60 94 137
60 95 136
61 96 141
60 94 130
60 94 137
60 94 130
60 94 141
60 95 139
60 95 133
59 93 127
61 95 141
60 95 139
60 95 135
62 97 148
59 94 140
59 92 127
59 94 133
61 97 148
60 95 136
60 95 135
62 97 149
60 95 139
60 94 134
61 95 139
60 95 140
61 96 140
60 96 141
59 94 129
61 96 141
60 95 139
58 92 133
59 93 125
60 95 142
59 93 132
60 95 136
59 93 133
58 93 130
60 94 137
60 94 135
59 92 117
59 93 125
59 92 122
59 93 134
60 93 134
60 95 140
58 91 126
58 91 130
59 92 142
59 92 127
58 92 134
57 90 124
59 92 132
58 90 129
57 89 120
57 89 127
56 87 115
56 88 118
56 86 119
58 90 120
56 87 123
55 86 119
55 85 120
57 87 118
56 87 134
53 83 110
48 74 101
48 73 102
56 69 76
70 70 39
63 65 36
48 50 31
51 56 40
41 44 21
46 51 34
46 53 38
42 48 33
59 64 44
50 58 37
57 63 43
80 85 54
63 68 47
73 78 53
79 84 53
96 97 59
77 82 51
100 100 60
95 97 60
90 94 55
113 115 69
111 111 66
114 115 65
110 111 64
118 117 70
110 112 63
127 127 71
126 124 70
124 124 70
129 128 75
138 135 75
141 138 80
137 135 74
138 136 76
140 138 80
142 140 78
154 150 82
149 146 80
152 148 82
148 145 77
145 142 81
154 149 85
141 138 72
148 145 81
143 141 74
156 151 86
156 152 83
151 148 72
156 152 82
155 150 82
149 146 79
164 158 84
158 155 89
169 164 93
161 156 86
157 152 80
162 156 84
161 156 78
159 154 80
164 158 86
171 164 89
170 164 93
163 159 79
167 161 85
169 163 89
166 159 85
169 162 90
167 161 81
170 164 88
171 164 87
167 161 86
173 166 95
171 165 86
167 161 87
172 165 88
171 165 89
173 166 89
169 164 87
169 163 86
169 163 84
168 163 80
167 160 85
170 164 86
166 161 79
166 161 82
169 162 83
168 162 83
172 166 91
166 159 84
168 162 84
165 159 84
169 162 84
163 157 82
166 160 86
164 159 83
167 161 82
168 162 86
162 157 84
168 161 85
164 158 83
171 164 87
170 163 89
169 161 90
170 163 87
166 160 80
166 160 81
167 160 81
167 161 84
163 157 77
159 154 75
159 155 75
164 158 85
161 155 80
167 160 87
159 153 75
165 158 85
166 159 81
157 151 80
158 152 79
159 153 79
160 153 79
165 158 82
165 159 84
163 156 76
165 159 80
166 159 82
164 157 87
165 158 79
160 154 78
167 160 87
164 158 84
152 146 76
163 157 85
161 154 83
164 158 84
157 151 81
164 156 84
163 157 84
158 152 80
162 155 82
162 156 84
160 154 85
159 152 79
152 145 75
156 150 80
153 148 80
155 149 79
150 144 78
221 236 255
221 236 255
221 236 255
221 236 255
221 236 255
221 236 255
221 236 255
221 236 255
221 236 255
221 236 255
221 236 255
221 236 255
221 236 255
221 236 255
221 236 255
221 236 255
221 236 255
221 236 255
221 236 255
221 236 255
221 236 255
221 236 255
221 236 255
221 236 255
221 236 255
221 236 255
221 236 255
221 236 255
221 236 255
221 236 255
221 236 255
221 236 255
221 236 255
221 236 255
221 236 255
221 236 255
221 236 255
221 236 255
221 236 255
221 235 255
221 236 255
221 236 255
221 236 255
221 236 255
221 236 255
221 236 255
221 236 255
221 236 255
221 236 255
221 236 255
221 236 255
221 236 255
221 236 255
221 236 255
221 236 255
221 236 255
221 236 255
221 236 255
221 236 255
221 236 255
221 236 255
221 236 255
221 236 255
221 236 255
221 236 255
221 236 255
221 236 255
221 236 255
221 236 255
221 236 255
221 236 255
221 236 255
221 236 255
221 236 255
221 236 255
221 236 255
221 236 255
221 235 255
221 236 255
221 236 255
221 236 255
221 236 255
221 236 255
221 236 255
221 236 255
221 236 255
221 236 255
221 236 255
221 236 255
221 236 255
221 236 255
221 235 255
221 235 255
221 236 255
221 235 255
221 236 255
221 236 255
221 236 255
221 236 255
221 236 255
221 236 255
221 236 255
221 236 255
221 235 255
221 236 255
221 236 255
221 236 255
221 236 255
221 236 255
221 236 255
221 236 255
221 236 255
221 236 255
221 236 255
221 236 255
221 236 255
221 236 255
221 236 255
221 236 255
221 236 255
221 236 255
221 236 255
221 236 255
221 236 255
221 236 255
221 236 255
221 236 255
221 236 255
221 236 255
221 236 255
221 236 255
221 236 255
221 236 255
220 235 255
61 95 156
58 91 147
60 94 137
60 94 145
60 95 154
59 93 139
60 95 149
60 95 148
60 95 151
60 94 150
56 88 141
56 89 144
57 91 149
150 169 205
147 166 199
60 95 145
60 95 143
60 95 143
61 96 148
61 96 148
61 96 142
59 94 127
61 96 136
61 96 151
60 95 147
60 95 141
60 95 135
60 94 131
60 94 133
60 95 139
59 93 126
59 93 136
59 94 133
59 94 127
61 95 147
60 95 130
61 95 140
60 95 140
62 97 145
61 96 141
60 95 141
60 95 137
61 97 143
60 94 133
61 96 133
60 94 136
61 96 143
61 95 142
61 97 141
59 94 133
59 94 140
60 94 137
61 95 139
59 92 129
60 94 135
60 95 127
62 97 147
61 96 148
60 95 136
59 93 133
59 94 134
60 95 141
61 96 147
60 94 125
60 94 139
60 95 141
59 94 142
60 95 129
59 94 130
61 96 135
59 93 130
59 93 125
60 95 139
60 94 133
60 94 135
62 97 149
61 96 141
58 92 133
60 94 142
59 93 124
58 92 128
59 93 121
59 93 135
59 94 135
58 92 130
61 95 138
58 92 124
59 92 128
59 93 131
60 94 135
60 94 138
60 94 139
60 93 132
59 92 134
58 92 128
60 94 135
59 93 124
59 93 135
59 93 129
60 93 140
58 91 129
56 88 122
57 89 125
55 86 115
58 91 129
58 90 127
57 88 119
59 91 135
54 84 117
57 88 128
54 85 125
54 85 116
55 86 121
53 82 113
54 85 123
51 78 113
50 76 99
58 71 76
59 57 29
55 56 28
43 45 26
37 42 28
47 50 32
43 48 32
36 44 27
29 38 24
39 50 40
53 61 42
52 60 44
51 60 40
64 71 48
85 88 52
75 79 45
78 82 54
84 86 51
97 99 63
104 105 66
100 100 60
87 91 55
114 113 65
109 110 63
101 103 68
114 115 69
113 112 57
135 132 77
119 120 66
128 127 73
134 131 69
131 129 76
132 129 73
141 136 74
128 126 69
134 131 74
141 139 78
137 135 80
141 139 75
138 136 71
152 149 81
148 143 78
150 146 80
159 155 90
151 147 81
151 147 79
157 152 87
149 145 79
157 152 80
162 157 84
152 148 72
157 153 78
162 156 85
158 154 79
162 156 88
165 159 88
157 153 81
160 155 80
165 159 90
157 153 82
160 155 81
161 156 78
161 156 82
166 160 83
166 160 86
168 162 83
167 160 83
170 163 84
169 162 86
166 160 79
161 156 72
166 160 79
163 158 78
170 164 86
171 165 85
167 161 82
168 162 81
166 160 78
167 161 85
171 165 90
168 162 82
166 160 84
166 161 80
167 161 82
170 164 93
170 163 87
172 164 90
171 164 89
173 166 90
169 163 81
168 161 81
169 162 85
169 163 81
169 163 83
171 164 90
167 161 83
170 163 85
169 163 79
169 162 84
170 163 87
170 164 84
170 163 89
166 159 79
164 158 83
168 162 84
173 166 89
169 161 84
160 153 80
161 156 78
163 157 76
163 157 80
162 156 80
165 159 80
161 155 78
159 153 79
165 159 77
162 156 82
158 153 75
167 160 84
166 160 87
165 157 80
169 162 88
165 160 86
161 155 78
164 157 84
166 160 86
166 160 81
161 155 81
170 162 90
166 160 84
157 151 84
162 155 80
164 157 83
157 152 75
158 153 77
163 157 83
155 148 73
159 152 81
162 155 80
157 151 78
163 156 85
157 150 73
153 148 78
154 148 80
164 158 84
155 150 79
156 150 77
155 148 78
151 146 73
222 236 255
222 236 255
222 236 255
222 236 255
222 236 255
222 236 255
222 236 255
222 236 255
222 236 255
222 236 255
222 236 255
222 236 255
222 236 255
222 236 255
222 236 255
222 236 255
222 236 255
222 236 255
222 236 255
222 236 255
222 236 255
222 236 255
222 236 255
222 236 255
222 236 255
222 236 255
222 236 255
222 236 255
222 236 255
222 236 255
222 236 255
222 236 255
222 236 255
222 236 255
222 236 255
222 236 255
222 236 255
222 236 255
222 236 255
222 236 255
222 236 255
222 236 255
222 236 255
222 236 255
222 236 255
222 236 255
222 236 255
222 236 255
222 236 255
222 236 255
222 236 255
222 236 255
222 236 255
222 236 255
222 236 255
222 236 255
222 236 255
222 236 255
222 236 255
222 236 255
222 236 255
222 236 255
222 236 255
222 236 255
222 236 255
222 236 255
222 236 255
222 236 255
222 236 255
222 236 255
222 236 255
222 236 255
222 236 255
222 236 255
222 236 255
222 236 255
222 236 255
222 236 255
222 236 255
222 236 255
222 236 255
222 236 255
222 236 255
222 236 255
222 236 255
222 236 255
222 236 255
222 236 255
222 236 255
222 236 255
222 236 255
222 236 255
222 236 255
222 236 255
222 236 255
222 236 255
222 236 255
222 236 255
222 236 255
222 236 255
222 236 255
222 236 255
222 236 255
222 236 255
222 236 255
222 236 255
222 236 255
222 236 255
222 236 255
222 236 255
222 236 255
222 236 255
222 236 255
222 236 255
222 236 255
222 236 255
222 236 255
222 236 255
222 236 255
222 236 255
222 236 255
222 236 255
222 236 255
222 236 255
222 236 255
222 236 255
222 236 255
222 236 255
222 236 255
222 236 255
222 236 255
222 236 255
222 236 255
220 234 254
61 95 157
57 90 145
61 96 145
61 96 151
61 96 146
59 93 138
61 95 148
61 96 150
58 92 144
58 91 141
58 91 146
58 91 141
59 92 150
155 173 207
148 166 194
60 95 142
62 96 145
61 96 143
60 94 137
60 94 140
61 96 148
60 95 140
61 96 139
59 94 135
62 97 150
60 95 139
61 96 142
60 94 135
60 94 129
61 96 140
61 96 137
60 95 136
60 95 136
60 95 130
61 95 143
59 93 126
59 93 131
60 94 140
60 94 126
61 96 143
61 95 139
60 95 135
61 96 147
61 96 140
61 96 134
59 94 134
60 95 135
61 95 133
60 95 140
60 94 133
61 96 141
61 96 144
59 92 120
60 95 142
60 94 136
61 96 142
60 95 134
61 95 144
60 95 133
60 95 133
58 92 121
59 93 131
61 96 143
59 93 131
60 95 134
61 95 140
59 93 127
59 94 133
60 94 136
59 93 126
61 96 142
58 92 130
58 92 131
60 95 140
59 93 134
60 95 137
60 95 134
60 94 133
60 95 139
59 94 133
60 95 136
59 93 130
60 95 142
60 93 134
58 92 129
60 95 141
59 93 120
57 89 123
59 93 130
59 93 138
59 93 129
58 92 130
59 93 131
59 92 127
58 91 120
58 92 133
60 93 141
61 95 137
59 93 132
59 92 133
57 90 128
57 88 131
56 88 122
58 91 137
55 86 125
56 87 111
57 89 119
58 90 125
57 88 122
55 86 115
57 88 125
54 84 113
55 85 120
54 84 112
53 82 104
53 81 111
48 74 93
50 65 75
69 68 39
47 49 18
42 45 23
39 43 24
40 44 24
44 50 37
41 48 27
31 41 29
47 54 33
55 61 42
53 58 35
62 68 48
46 55 41
75 79 50
76 81 49
82 86 56
90 91 49
99 101 58
101 103 57
82 86 50
106 107 62
100 102 64
108 110 67
112 113 60
117 117 67
121 122 69
123 123 67
129 128 69
121 119 69
126 126 76
123 123 65
131 129 73
130 129 69
126 126 61
121 120 72
142 137 80
150 146 80
143 140 75
140 137 78
156 152 81
147 143 76
144 141 77
145 142 72
147 144 69
155 150 82
147 143 77
152 148 81
152 148 82
160 154 82
155 150 82
152 148 74
155 151 81
159 155 84
155 152 76
162 156 81
159 154 72
162 157 83
164 159 81
163 158 84
162 156 84
162 156 81
159 154 78
169 163 90
169 162 90
162 157 74
166 160 84
166 160 83
167 161 80
169 162 84
168 162 83
165 160 84
166 160 83
168 162 82
168 162 84
168 161 81
168 162 80
166 160 82
167 161 79
171 164 86
168 163 87
167 161 81
166 160 80
169 162 80
170 164 85
167 161 80
171 164 90
166 161 80
163 157 75
168 162 83
172 164 92
168 162 82
168 161 87
170 164 87
169 162 82
168 161 84
164 158 80
163 157 75
164 158 75
170 162 87
166 160 84
165 159 75
162 156 78
169 163 79
164 157 80
166 160 80
174 167 92
167 161 82
170 164 90
169 162 87
171 163 87
168 161 85
161 156 78
165 158 78
163 157 82
166 160 82
168 160 81
161 155 81
156 151 77
159 153 75
159 153 76
161 155 78
158 151 78
167 160 88
165 160 84
161 154 77
161 155 80
166 158 90
161 156 75
161 156 81
157 151 80
162 156 75
163 156 82
157 151 80
161 155 79
156 150 78
158 151 76
159 153 78
155 147 78
159 152 76
154 148 75
155 150 75
151 145 74
155 149 77
158 152 80
155 150 71
163 157 82
154 148 74
155 149 80
222 236 255
222 236 255
222 236 255
222 236 255
222 236 255
222 236 255
222 236 255
222 236 255
222 236 255
222 236 255
222 236 255
222 236 255
222 236 255
222 236 255
222 236 255
222 236 255
222 236 255
222 236 255
222 236 255
222 236 255
222 236 255
222 236 255
222 236 255
222 236 255
222 236 255
222 236 255
222 236 255
222 236 255
222 236 255
222 236 255
222 236 255
222 236 255
222 236 255
222 236 255
222 236 255
222 236 255
222 236 255
222 236 255
222 236 255
222 236 255
222 236 255
222 236 255
222 236 255
222 236 255
222 236 255
222 236 255
222 236 255
222 236 255
222 236 255
222 236 255
222 236 255
222 236 255
222 236 255
222 236 255
222 236 255
222 236 255
222 236 255
222 236 255
222 236 255
222 236 255
222 236 255
222 236 255
222 236 255
222 236 255
222 236 255
222 236 255
222 236 255
222 236 255
222 236 255
222 236 255
222 236 255
222 236 255
222 236 255
222 236 255
222 236 255
222 236 255
222 236 255
222 236 255
222 236 255
222 236 255
222 236 255
222 236 255
223 236 255
223 236 255
222 236 255
223 236 255
223 236 255
223 236 255
223 236 255
223 236 255
223 236 255
223 236 255
223 236 255
223 236 255
223 236 255
223 236 255
223 236 255
223 236 255
223 236 255
223 236 255
223 236 255
223 236 255
223 236 255
223 236 255
223 236 255
223 236 255
223 236 255
223 236 255
223 236 255
223 236 255
223 236 255
223 236 255
223 236 255
223 236 255
223 236 255
223 236 255
223 236 255
223 236 255
223 236 255
223 236 255
223 236 255
223 236 255
223 236 255
223 236 255
223 237 255
223 237 255
223 237 255
223 237 255
223 237 255
223 237 255
223 237 255
223 237 255
223 237 255
215 229 248
57 90 125
54 86 127
59 94 137
58 92 134
58 91 133
60 95 141
58 91 135
58 92 133
59 93 133
61 95 150
56 88 132
55 87 135
56 89 146
163 179 205
167 184 210
62 97 141
62 97 150
61 95 139
60 94 134
60 95 140
59 94 131
59 94 137
61 95 136
59 93 127
60 94 136
61 95 135
58 93 130
60 95 137
59 94 130
60 95 143
61 96 145
61 95 133
60 94 139
60 95 142
60 95 131
60 96 145
59 93 134
59 94 136
61 97 140
61 96 142
60 95 144
60 94 137
60 95 130
61 96 137
60 95 140
59 94 127
60 95 135
60 94 134
60 95 135
60 95 141
60 95 141
62 97 145
60 95 137
60 95 139
59 93 134
60 94 134
58 92 124
60 95 140
59 94 124
61 95 137
60 95 141
62 97 148
59 93 129
59 93 137
61 95 139
61 96 142
58 92 121
59 93 126
58 92 118
59 93 137
60 95 147
60 95 139
61 95 136
60 95 135
60 94 125
61 96 143
60 94 136
59 94 134
60 95 142
59 93 133
60 94 141
61 95 137
60 94 140
59 94 129
59 93 124
58 92 129
59 93 124
59 93 132
59 93 125
61 95 137
58 91 124
58 91 125
58 91 126
58 91 131
58 91 125
59 93 133
58 92 126
60 93 137
59 92 132
58 91 117
61 94 132
58 91 125
59 91 127
56 88 119
56 88 121
58 91 126
57 89 131
54 85 110
56 88 120
56 86 115
56 88 123
54 83 125
55 84 114
56 86 117
50 77 95
49 76 94
50 75 94
57 63 48
74 72 39
62 61 27
56 55 29
46 48 24
31 36 22
40 45 26
43 47 27
43 50 31
53 60 40
45 50 26
54 59 37
73 76 50
70 74 44
85 87 49
71 76 48
89 91 54
79 82 44
92 93 53
102 103 64
97 99 61
108 108 59
104 105 61
102 104 59
112 112 63
117 116 60
124 124 71
120 119 70
125 125 70
124 123 67
114 115 63
132 130 68
127 126 71
129 129 71
131 129 68
131 129 70
143 139 77
131 128 65
140 137 72
137 134 69
141 137 76
138 136 72
141 137 76
143 140 78
151 147 78
157 152 81
150 147 75
147 144 75
154 150 74
158 153 78
154 149 69
154 150 79
155 150 77
143 140 74
165 159 87
163 158 87
166 160 82
159 154 78
165 159 81
158 153 75
161 155 78
162 157 80
164 157 84
162 157 78
163 158 82
164 158 81
165 159 82
161 155 70
164 158 80
165 159 78
168 162 86
165 159 77
169 162 80
168 162 86
166 159 79
174 166 86
169 163 86
163 157 77
166 160 83
168 161 84
167 161 81
167 161 82
169 163 81
166 159 82
168 161 85
166 160 78
166 160 82
163 159 75
171 165 85
167 161 78
168 162 80
167 160 84
170 163 87
165 159 78
166 160 84
167 160 79
165 160 76
169 162 86
171 164 83
164 158 79
167 162 86
163 156 79
166 160 83
163 158 75
171 164 89
166 160 82
163 158 76
164 157 82
164 158 80
170 163 87
161 155 77
167 161 83
167 160 85
164 158 79
168 160 89
161 154 81
168 160 89
162 156 81
166 159 89
158 152 83
161 156 80
164 159 82
159 153 80
160 153 81
161 154 77
166 159 84
168 162 86
162 156 83
160 154 77
162 156 79
159 154 71
160 155 80
161 155 75
152 146 80
151 147 70
156 150 75
158 152 78
159 153 81
158 152 76
157 151 80
164 158 84
157 151 71
155 150 71
148 142 69
160 154 80
149 144 70
157 150 75
156 150 78
159 153 75
223 237 255
223 237 255
223 237 255
223 237 255
223 237 255
223 237 255
223 237 255
223 237 255
223 237 255
223 237 255
223 237 255
223 237 255
223 237 255
223 237 255
223 237 255
223 237 255
223 236 255
223 237 255
223 237 255
223 237 255
223 237 255
223 237 255
223 237 255
223 236 255
223 237 255
223 237 255
223 237 255
223 237 255
223 236 255
223 237 255
223 236 255
223 237 255
223 237 255
223 237 255
223 236 255
223 236 255
223 237 255
223 237 255
223 237 255
223 237 255
223 237 255
223 237 255
223 237 255
223 237 255
223 237 255
223 237 255
223 237 255
223 237 255
223 237 255
223 237 255
223 236 255
223 237 255
223 237 255
223 237 255
223 237 255
223 237 255
223 237 255
223 237 255
223 237 255
223 237 255
223 237 255
223 237 255
223 237 255
223 237 255
223 237 255
223 237 255
223 237 255
223 237 255
223 237 255
223 237 255
223 237 255
223 237 255
223 237 255
223 237 255
223 237 255
223 237 255
223 237 255
223 237 255
223 237 255
223 237 255
223 237 255
223 237 255
223 237 255
223 237 255
223 237 255
223 237 255
223 237 255
223 237 255
223 237 255
223 237 255
223 237 255
223 237 255
223 237 255
223 237 255
223 237 255
223 237 255
223 237 255
223 237 255
223 237 255
223 237 255
223 237 255
223 237 255
223 237 255
223 237 255
223 237 255
223 237 255
223 237 255
223 237 255
223 237 255
223 237 255
223 237 255
223 237 255
223 237 255
223 237 255
224 237 255
224 237 255
224 237 255
224 237 255
224 237 255
224 237 255
224 237 255
224 237 255
224 237 255
224 237 255
224 237 255
224 237 255
224 237 255
224 237 255
224 237 255
224 237 255
224 237 255
224 237 255
224 237 255
214 228 244
55 88 111
55 89 121
60 94 133
58 92 122
59 93 126
57 91 123
58 93 129
58 93 134
57 90 121
55 88 115
54 87 117
54 86 124
54 87 124
173 188 204
175 191 214
57 91 113
60 95 140
62 96 144
60 95 137
61 96 148
59 93 129
61 96 142
61 96 139
61 95 140
59 93 130
59 93 124
60 94 131
60 95 129
60 95 142
60 95 141
60 94 144
61 95 136
60 94 136
60 95 137
60 94 127
58 92 120
61 95 145
61 96 140
61 95 140
60 94 135
59 94 124
59 93 131
61 96 147
58 92 126
61 96 144
58 92 135
60 95 136
60 95 135
61 95 141
61 97 140
60 94 134
60 96 143
60 96 136
60 95 135
60 94 129
59 93 129
60 95 133
60 95 141
60 94 135
60 94 131
59 93 125
60 95 135
60 94 133
58 92 124
59 93 129
60 94 129
61 95 133
58 91 127
59 93 130
57 91 121
59 93 124
60 95 135
60 95 140
62 97 146
59 93 125
60 95 137
58 92 125
60 94 140
59 93 129
59 93 134
60 94 136
59 93 129
59 93 134
60 94 136
59 93 132
59 93 130
59 92 133
58 92 125
59 93 135
58 91 123
60 93 132
60 93 131
58 91 116
60 94 137
58 91 129
59 91 135
58 91 124
58 91 133
57 89 125
58 91 126
58 92 129
56 87 117
59 92 133
57 89 125
58 90 126
58 90 128
57 89 126
56 88 117
56 86 123
57 88 121
55 87 118
56 88 115
53 83 111
51 79 114
51 78 100
53 82 112
46 69 84
49 61 68
63 62 33
48 49 19
49 52 29
41 43 15
31 36 20
46 50 23
41 47 27
39 45 27
45 51 29
57 62 39
44 52 36
63 69 39
66 70 40
65 70 45
71 75 41
75 80 48
86 90 50
92 94 50
92 94 55
99 100 55
103 105 60
109 109 58
107 107 58
98 100 47
130 129 74
109 109 57
114 115 61
108 109 60
124 124 70
120 119 60
129 127 70
131 130 67
134 132 72
132 130 70
136 135 71
139 135 68
137 134 64
142 138 71
144 140 78
137 134 76
137 135 71
151 146 76
145 142 77
158 154 83
150 146 80
150 146 70
149 145 81
155 150 73
148 145 79
161 156 81
155 151 76
152 148 78
157 153 78
158 154 85
165 160 84
152 148 71
158 154 85
162 156 84
161 156 81
163 157 80
169 162 86
168 161 79
163 158 83
165 160 81
165 160 83
166 160 84
166 160 77
167 161 82
163 158 80
167 161 81
167 161 81
167 160 75
166 161 84
168 162 86
165 159 76
173 165 87
163 157 76
170 162 81
168 161 85
169 161 81
165 159 80
167 161 82
167 162 84
167 161 85
173 165 87
164 158 78
169 162 80
171 165 87
169 162 82
169 162 84
170 162 87
166 161 77
166 159 83
167 161 82
168 161 82
172 165 90
164 159 77
164 158 80
168 162 81
167 161 84
164 158 81
169 162 84
166 160 80
168 161 80
169 162 85
167 160 84
162 156 75
159 154 76
168 163 84
164 157 77
161 156 76
156 150 69
162 156 80
163 156 85
165 159 80
164 158 77
168 160 87
164 158 80
162 156 84
160 154 81
162 156 82
161 156 79
162 157 80
163 157 79
156 151 73
160 154 80
162 156 77
152 146 75
165 158 83
158 151 80
155 149 78
167 160 79
164 158 80
164 158 84
161 155 80
160 153 84
169 162 86
157 150 78
160 153 73
156 149 77
149 144 68
156 150 75
156 151 68
152 147 71
152 147 74
157 150 79
156 149 77
154 148 75
224 237 255
224 237 255
224 237 255
224 237 255
224 237 255
224 237 255
224 237 255
224 237 255
224 237 255
224 237 255
224 237 255
224 237 255
224 237 255
224 237 255
224 237 255
224 237 255
224 237 255
224 237 255
224 237 255
224 237 255
224 237 255
224 237 255
224 237 255
224 237 255
224 237 255
224 237 255
224 237 255
224 237 255
224 237 255
224 237 255
224 237 255
224 237 255
224 237 255
224 237 255
224 237 255
224 237 255
224 237 255
224 237 255
224 237 255
224 237 255
224 237 255
224 237 255
224 237 255
224 237 255
224 237 255
224 237 255
224 237 255
224 237 255
224 237 255
224 237 255
224 237 255
224 237 255
224 237 255
224 237 255
224 237 255
224 237 255
224 237 255
224 237 255
224 237 255
224 237 255
224 237 255
224 237 255
224 237 255
224 237 255
224 237 255
224 237 255
224 237 255
224 237 255
224 237 255
224 237 255
224 237 255
224 237 255
224 237 255
224 237 255
224 237 255
224 237 255
224 237 255
224 237 255
224 237 255
224 237 255
224 237 255
224 237 255
224 237 255
224 237 255
224 237 255
224 237 255
224 237 255
224 237 255
224 237 255
224 237 255
224 237 255
224 237 255
224 237 255
224 237 255
224 237 255
224 237 255
224 237 255
224 237 255
224 237 255
224 237 255
224 237 255
224 237 255
224 237 255
224 237 255
224 237 255
224 237 255
224 237 255
224 237 255
224 237 255
224 237 255
224 237 255
224 237 255
224 237 255
224 237 255
224 237 255
224 237 255
224 237 255
224 237 255
224 237 253
221 235 245
219 233 241
219 232 237
215 229 226
205 221 193
207 223 199
202 219 184
203 220 186
198 216 169
196 214 159
191 211 140
183 205 108
181 203 92
175 198 36
162 185 45
54 87 98
54 87 115
58 93 127
56 89 114
57 92 117
59 93 129
57 91 118
57 91 114
56 89 114
54 86 113
54 86 115
56 89 123
54 87 118
208 221 242
173 188 207
58 92 122
59 93 127
62 97 148
60 95 139
60 94 137
60 95 137
59 93 129
60 95 137
60 94 134
61 96 143
60 94 134
60 94 127
59 93 126
62 97 152
59 94 130
62 97 150
60 94 134
59 94 135
61 96 141
60 95 137
60 95 131
58 93 126
60 95 143
60 94 129
61 96 139
60 95 134
62 98 148
61 96 137
60 95 125
59 93 125
60 95 135
60 94 139
60 95 134
59 93 125
60 95 133
60 95 134
59 93 135
61 96 139
60 94 135
58 93 135
59 92 130
59 94 130
60 95 134
59 93 130
59 94 135
60 94 131
59 93 125
60 94 131
60 94 136
60 94 134
58 92 126
59 94 130
59 92 124
60 94 134
60 94 134
59 93 128
59 92 125
60 94 139
59 93 133
59 93 126
58 91 113
60 94 142
58 92 125
59 92 133
59 93 131
59 92 125
59 94 130
58 91 128
59 93 129
61 97 149
59 93 132
58 91 127
60 94 133
59 93 126
59 92 129
59 94 132
59 93 130
58 91 124
59 93 134
57 89 119
59 92 141
60 93 135
58 92 128
57 89 115
58 90 126
58 91 131
59 92 134
58 91 120
56 88 128
55 85 116
55 86 114
57 88 117
56 87 116
55 85 118
57 89 130
56 87 116
54 84 112
54 84 114
53 83 105
50 76 93
50 77 107
47 72 93
81 86 63
61 61 33
61 61 26
46 48 14
36 40 24
40 45 29
36 43 25
60 64 34
39 46 24
47 54 33
45 51 30
58 61 27
59 64 37
65 69 31
75 79 48
79 83 50
80 83 47
88 90 51
92 95 54
85 88 51
99 101 45
117 117 69
94 97 52
107 108 61
113 112 60
114 113 64
109 110 60
131 129 70
112 113 55
121 121 69
120 119 64
118 118 65
128 126 64
129 126 66
138 136 70
123 122 60
140 137 70
134 131 68
139 137 72
138 135 72
127 126 56
140 138 71
147 142 76
152 147 73
148 144 75
154 149 76
149 145 66
150 146 72
156 151 77
155 150 73
155 151 76
158 152 80
155 149 79
159 154 71
159 153 77
163 158 82
156 150 73
157 152 79
155 150 80
161 155 80
164 158 82
160 155 80
163 158 78
161 155 81
164 158 83
167 160 78
166 159 81
164 159 74
162 157 72
167 160 79
169 162 80
165 159 77
161 157 80
171 164 80
168 162 83
167 161 77
174 167 89
167 161 80
165 158 74
171 165 87
171 164 86
164 158 78
165 160 79
165 159 80
174 167 87
163 157 80
167 160 75
165 160 81
174 166 90
169 161 86
169 163 80
166 160 82
169 161 86
165 158 75
163 156 75
164 157 75
157 152 67
166 160 80
167 160 83
168 161 82
170 163 81
175 167 90
169 162 86
168 162 80
160 155 73
166 160 80
164 157 80
167 160 81
165 157 83
160 154 75
167 161 83
163 156 84
165 158 80
163 157 75
167 160 80
157 151 70
163 156 78
162 156 75
163 156 80
159 152 80
169 162 84
157 151 75
162 154 80
164 158 72
163 157 87
163 156 79
162 155 79
169 163 84
164 157 85
161 154 78
164 158 85
155 149 78
161 155 75
161 154 79
153 148 73
157 150 72
163 157 80
157 151 75
161 155 81
162 155 80
155 149 75
156 151 72
149 144 69
154 148 75
157 151 76
152 146 77
154 147 75
151 146 70
148 142 68
224 237 255
224 237 255
224 237 255
224 237 255
224 237 255
224 237 255
224 237 255
224 237 255
224 237 255
224 237 255
224 237 255
224 237 255
224 237 255
224 237 255
224 237 255
224 237 255
224 237 255
224 237 255
224 237 255
224 237 255
224 237 255
224 237 255
224 237 255
224 237 255
224 237 255
224 237 255
224 237 255
224 237 255
224 237 255
224 237 255
224 237 255
224 237 255
224 237 255
224 237 255
224 237 255
224 237 255
224 237 255
224 237 255
224 237 255
224 237 255
224 237 255
224 237 255
224 237 255
224 237 255
224 237 255
224 237 255
224 237 255
224 237 255
224 237 255
224 237 255
224 237 255
224 237 255
224 237 255
224 237 255
224 237 255
224 237 255
224 237 255
224 237 255
224 237 255
224 237 255
224 237 255
224 237 255
224 237 255
224 237 255
224 237 255
224 237 255
224 237 255
224 237 255
224 237 255
224 237 255
224 237 255
224 237 255
224 237 255
224 237 255
224 237 255
224 237 255
224 237 255
224 237 255
224 237 255
224 237 255
224 237 255
224 237 255
224 237 255
224 237 255
224 237 255
224 237 255
224 237 255
225 237 255
225 237 255
225 237 255
225 237 255
225 237 255
224 237 254
224 237 253
222 235 246
220 234 244
217 231 233
219 233 238
216 231 231
214 229 224
210 226 214
207 223 203
210 226 212
206 223 201
207 223 201
207 223 201
203 220 186
197 215 163
199 217 171
195 213 155
193 212 157
193 212 149
190 210 135
186 207 117
182 203 88
183 204 95
179 201 67
177 200 57
174 198 0
173 197 0
175 198 0
174 198 0
174 197 0
175 198 0
174 198 0
176 198 0
176 198 0
174 198 0
174 197 0
176 198 0
174 198 0
173 197 0
175 198 0
156 179 51
55 87 110
54 86 101
57 90 117
58 92 122
57 91 107
56 90 116
57 91 116
56 89 128
57 91 115
55 89 118
55 88 123
52 84 105
57 89 106
214 228 241
193 208 226
60 95 135
56 90 115
62 97 142
58 92 126
60 94 135
60 95 135
59 94 136
62 97 143
62 97 143
61 96 141
61 95 143
58 92 120
59 94 133
59 94 125
61 95 140
59 93 125
59 93 127
59 93 129
61 96 142
59 94 129
60 95 129
59 94 139
60 95 139
59 93 122
58 92 117
60 95 129
60 94 127
59 92 125
59 93 118
61 96 144
60 94 127
60 95 133
61 96 142
60 95 131
60 94 136
59 93 131
59 94 130
59 93 127
61 96 144
60 95 134
60 95 137
59 94 127
58 91 121
60 95 140
60 95 133
58 92 113
58 92 122
61 96 136
61 95 134
60 95 140
60 94 134
58 92 125
60 94 130
59 94 139
59 93 130
60 94 125
60 94 129
58 92 127
59 92 128
59 92 135
60 94 130
59 93 134
59 93 130
57 91 107
60 93 131
57 90 121
59 93 126
59 93 124
57 90 127
58 91 121
59 93 128
60 94 132
58 92 120
59 93 129
58 92 123
57 90 123
59 93 136
58 91 126
58 91 123
59 92 131
59 93 128
57 89 121
57 89 125
58 91 118
59 92 132
58 91 118
60 93 128
58 89 121
57 89 126
58 90 119
58 90 128
54 84 111
56 86 113
59 91 125
57 88 116
54 85 109
57 88 117
54 83 111
53 82 111
51 79 92
49 74 96
46 70 88
86 86 50
70 68 35
64 64 34
55 58 21
38 41 17
48 53 18
46 51 28
48 50 18
42 49 28
40 46 28
54 60 30
60 63 39
47 54 36
65 69 36
78 81 45
77 79 40
74 78 44
91 93 50
86 89 54
92 94 47
94 96 49
91 92 50
100 102 51
114 114 56
103 104 53
107 107 48
109 110 60
111 111 56
119 119 65
118 118 62
130 128 69
135 132 66
132 130 66
129 128 67
136 133 74
140 137 73
135 133 66
127 126 63
142 138 74
141 139 65
144 140 68
143 139 70
132 130 61
144 140 66
149 144 69
139 136 70
156 150 77
146 142 82
147 143 74
154 149 71
151 147 76
150 147 69
160 154 81
155 149 75
156 151 74
159 153 79
156 152 78
162 156 81
153 150 75
160 155 78
159 154 78
161 155 80
158 153 76
158 153 74
166 160 74
159 153 73
162 156 78
168 161 79
162 156 73
165 159 80
163 157 72
169 163 84
169 162 87
168 161 75
170 163 84
167 162 74
168 162 80
167 161 81
167 161 88
171 164 83
171 163 84
167 160 80
166 160 77
166 159 77
170 162 81
172 164 84
166 160 78
165 158 77
171 164 86
161 156 73
164 159 78
161 156 71
166 159 79
165 158 76
165 159 80
166 160 76
165 159 75
162 155 79
168 160 84
166 160 82
165 159 81
166 158 80
168 162 81
167 160 80
171 164 87
165 159 72
169 162 84
161 155 75
166 159 75
170 163 82
164 157 71
166 159 78
164 157 80
163 157 73
163 156 75
160 154 71
164 157 86
163 157 75
160 154 77
159 153 80
155 149 74
167 160 84
166 159 79
163 156 80
158 152 71
164 158 81
166 157 84
164 157 84
158 152 75
163 157 81
161 155 80
159 152 78
161 154 73
164 158 85
164 157 81
165 157 79
162 156 78
155 149 71
160 154 78
151 145 76
158 151 71
150 145 70
157 151 76
155 150 74
157 151 80
158 153 75
155 149 74
151 146 66
153 147 72
225 238 255
225 238 255
224 237 252
221 235 245
222 235 246
222 236 249
224 237 253
225 238 255
225 238 255
225 238 255
225 238 255
225 238 255
225 238 255
225 238 255
225 238 255
225 238 255
225 238 255
225 238 255
225 237 255
225 238 255
225 238 255
225 238 255
225 238 255
225 237 255
225 238 255
225 237 255
225 237 255
225 238 255
225 237 255
225 238 255
225 238 255
225 237 255
225 238 255
225 238 255
225 237 255
225 237 255
225 238 255
225 237 255
225 238 255
225 238 255
225 238 255
225 238 255
225 238 255
225 238 255
225 238 255
225 238 255
225 238 255
225 238 255
225 238 255
225 238 255
225 238 255
223 236 252
223 236 252
223 236 250
222 235 248
221 234 245
222 235 248
219 233 238
218 232 237
219 233 240
217 231 233
213 228 220
217 231 233
213 228 220
212 228 220
210 226 209
210 225 211
210 226 211
209 225 207
209 225 209
204 221 189
208 224 199
205 222 193
200 218 175
204 220 188
199 217 173
199 217 171
200 218 181
198 216 167
197 215 165
195 214 157
192 211 144
192 212 149
188 208 130
187 208 122
183 204 99
183 204 99
182 203 95
182 203 92
181 203 99
175 199 51
175 199 44
175 198 0
174 198 0
175 198 0
174 197 0
173 197 0
173 197 0
175 198 0
175 198 0
174 197 0
175 198 0
173 197 0
173 197 0
175 198 0
174 198 0
175 198 0
175 198 0
174 198 0
176 199 0
175 198 0
175 198 0
174 198 0
175 198 0
174 198 0
173 197 0
175 198 0
175 198 0
174 198 0
174 198 0
174 198 0
174 198 0
174 198 0
174 198 0
176 199 0
175 198 0
174 197 0
174 198 0
174 197 0
174 197 0
174 197 0
175 198 0
172 196 0
144 168 73
57 90 110
56 89 122
57 91 107
58 92 123
56 90 111
58 91 112
58 92 126
55 88 112
55 88 112
54 87 111
56 89 112
52 83 114
75 104 114
186 207 117
200 214 233
58 92 124
59 93 126
59 94 125
60 94 137
60 94 130
60 94 129
61 95 137
60 95 137
61 95 141
61 96 145
60 95 139
59 93 130
60 94 126
60 94 133
59 93 134
58 92 115
60 95 129
60 94 136
61 96 142
59 93 131
59 93 125
59 94 133
60 94 133
59 93 133
60 94 139
59 93 125
60 94 125
60 94 137
59 93 122
59 94 135
61 96 135
61 96 136
59 94 130
59 93 127
61 95 140
59 93 126
60 95 134
60 95 135
60 94 130
60 94 137
61 96 141
59 94 125
58 92 117
58 92 118
60 95 135
58 92 133
60 94 130
59 93 137
58 93 127
59 93 129
58 91 117
59 94 127
60 95 131
60 94 134
61 95 142
60 94 133
57 91 122
58 92 126
59 93 123
59 93 134
60 95 131
59 94 135
61 96 140
59 92 125
58 91 118
60 94 133
60 95 134
59 92 113
61 95 140
59 93 134
59 93 121
60 93 136
59 92 127
58 91 126
59 92 128
56 89 118
58 90 124
58 92 125
58 91 120
58 92 126
58 91 124
58 91 120
60 94 137
59 92 138
55 86 113
60 93 141
56 88 120
56 88 112
56 89 123
58 90 122
57 88 123
56 87 129
54 84 109
56 88 116
56 85 122
56 87 124
54 84 117
53 82 98
52 81 105
48 75 95
50 77 99
46 70 86
92 94 77
79 77 33
48 49 19
66 64 24
44 46 21
47 50 14
50 52 12
49 53 26
39 45 22
42 49 23
44 50 26
65 70 38
63 67 34
63 67 34
78 81 46
72 75 42
82 83 44
78 81 38
97 99 56
83 86 44
89 92 51
105 105 54
106 106 55
108 109 58
112 112 56
106 107 49
115 114 62
110 110 59
116 117 63
124 122 65
124 122 59
126 123 53
141 137 75
127 126 65
125 123 69
138 135 72
134 132 72
142 139 71
139 136 68
138 135 65
138 135 69
137 134 69
148 144 75
141 137 70
152 148 76
149 145 75
151 147 75
146 142 72
151 147 71
153 149 74
154 150 77
161 155 82
158 153 79
150 146 79
157 153 72
160 155 82
158 153 75
161 156 75
163 158 79
158 153 79
162 157 81
156 152 74
162 156 72
159 153 72
162 157 75
165 159 82
168 162 86
161 154 79
167 160 81
161 156 78
163 157 78
160 155 75
164 158 77
166 159 80
164 157 72
161 155 75
171 164 88
166 160 79
166 160 82
160 154 76
167 160 82
165 159 79
166 160 74
167 160 77
165 159 81
170 163 82
167 161 77
164 158 75
166 160 79
167 160 84
165 159 75
164 158 81
161 154 79
162 156 73
166 159 81
171 164 83
167 161 78
166 160 78
164 159 73
164 158 77
168 162 84
165 159 80
166 159 78
170 163 80
169 163 84
166 161 80
167 160 81
167 161 84
164 158 77
164 157 76
165 160 80
162 156 77
158 153 71
164 158 77
163 157 74
155 149 72
158 152 70
163 156 76
164 157 79
163 156 75
165 159 84
167 160 80
169 163 87
167 160 80
162 156 75
165 160 80
159 153 80
157 151 75
159 153 75
158 152 79
157 152 77
155 150 66
162 155 78
162 155 78
159 153 78
154 149 71
161 155 81
155 149 75
151 145 69
168 161 81
152 147 71
151 146 75
157 150 71
157 151 78
154 149 70
161 154 79
155 149 77
153 148 68
158 151 76
184 205 105
176 199 36
174 198 0
173 197 0
174 198 0
173 197 0
175 198 0
176 199 44
179 201 67
180 202 76
177 200 51
176 200 62
179 202 80
179 201 72
184 205 102
181 203 92
185 206 108
189 209 127
189 209 125
183 204 95
189 209 133
187 207 117
189 209 125
189 209 133
189 209 127
190 210 135
188 208 120
188 208 120
185 206 111
190 209 130
184 206 108
184 205 105
187 207 122
184 205 102
185 206 117
185 206 114
181 203 95
187 208 125
179 202 80
184 206 108
183 205 102
184 205 102
182 203 80
183 205 99
180 202 80
177 200 62
176 199 25
174 198 25
178 200 57
176 199 25
175 198 25
175 198 0
174 198 0
175 198 0
174 198 0
176 199 0
175 198 0
174 197 0
174 198 0
175 198 0
175 198 0
176 198 0
174 197 0
173 197 0
175 198 0
173 197 0
174 197 0
175 198 0
174 197 0
174 198 0
173 197 0
175 198 0
173 197 0
176 199 0
174 198 0
173 197 0
173 197 0
174 197 0
175 198 0
175 198 0
175 198 0
174 198 0
175 198 0
174 198 0
176 199 0
175 198 0
175 198 0
174 198 0
174 198 0
174 198 0
174 197 0
174 197 0
173 197 0
174 197 0
175 198 0
175 198 0
174 198 0
174 197 0
177 199 0
174 197 0
173 197 0
175 198 0
175 198 0
176 199 0
174 197 0
174 198 0
175 198 0
174 198 0
174 198 0
172 197 0
172 196 0
175 198 0
174 197 0
173 196 0
174 197 0
172 196 0
174 197 0
171 195 0
174 198 0
173 197 0
174 197 0
174 197 0
173 197 0
176 199 0
175 198 0
173 196 0
173 197 0
172 196 0
173 197 0
171 194 0
173 197 0
172 195 0
172 196 0
124 148 77
56 89 111
57 91 112
58 93 122
57 90 118
57 91 113
57 91 118
56 90 115
56 89 110
56 89 118
55 88 124
57 90 127
55 88 105
113 137 73
174 198 0
208 223 225
59 92 116
58 93 122
58 92 125
57 91 114
57 91 114
58 92 111
60 95 130
60 95 129
59 94 130
60 95 136
59 94 126
59 93 129
56 89 113
60 94 133
58 92 114
61 96 140
61 95 137
59 93 126
61 95 134
60 94 127
59 94 129
58 92 120
60 95 139
61 96 142
60 94 131
59 93 129
59 93 133
59 93 126
60 94 139
60 94 130
58 92 124
61 95 137
58 93 125
61 96 136
60 95 139
58 92 124
60 94 135
61 96 140
59 93 127
60 94 133
57 91 124
58 93 140
59 93 118
59 94 131
61 96 142
57 91 121
59 93 129
59 93 137
60 94 130
59 93 125
60 94 137
60 95 127
61 95 135
59 93 133
59 93 121
61 96 137
59 93 126
61 95 143
60 94 130
60 94 130
60 94 131
61 95 136
61 95 137
60 94 131
58 92 121
58 92 126
60 94 133
58 91 124
59 93 121
57 89 122
58 91 121
60 95 141
59 93 130
59 93 132
58 91 133
60 95 132
58 91 121
58 91 119
60 94 129
58 91 119
59 92 131
58 92 132
58 91 126
58 91 118
58 90 124
56 88 119
58 91 122
56 87 117
56 86 110
57 88 124
58 89 117
57 89 126
55 86 110
57 89 117
56 86 113
55 86 114
56 87 119
53 82 114
53 81 107
50 75 88
48 73 89
45 68 87
138 143 142
67 67 32
70 67 26
58 58 19
48 50 22
48 51 21
49 53 23
47 53 23
52 56 22
50 55 18
56 61 30
51 56 33
52 57 24
73 75 40
78 81 39
64 68 34
85 86 40
83 85 42
85 89 45
96 97 51
100 101 53
94 96 50
90 93 52
101 100 56
109 108 55
112 111 62
115 116 56
118 116 62
109 109 57
120 119 58
127 126 66
127 125 70
122 121 60
133 131 62
137 133 65
136 132 65
129 127 63
136 133 67
141 138 71
139 136 64
146 142 71
143 140 69
149 145 73
139 136 71
146 141 68
150 145 71
153 148 77
147 144 75
147 143 70
152 147 67
148 144 68
157 151 74
147 142 61
150 146 76
157 151 76
157 151 71
161 156 80
162 156 77
153 149 73
163 156 81
162 155 79
157 152 77
162 155 77
163 157 77
162 156 77
160 154 71
160 155 76
161 155 77
166 159 82
157 152 69
169 162 83
161 156 71
164 159 76
166 159 81
164 158 79
162 157 75
164 158 77
163 157 75
167 160 79
167 161 80
163 157 81
165 158 72
163 157 80
168 162 84
164 159 68
163 157 73
167 161 81
170 163 78
171 164 80
166 159 78
170 162 83
161 156 68
163 155 80
166 160 80
160 154 76
171 164 82
162 156 75
164 158 72
166 160 75
164 157 75
163 157 75
166 160 84
166 159 75
162 156 74
160 154 75
161 155 75
160 153 74
160 154 72
164 157 76
160 154 68
160 156 62
160 154 73
162 156 74
162 156 75
166 159 82
162 157 73
163 156 75
161 155 71
159 153 71
169 162 81
165 158 80
163 156 75
159 154 77
160 153 77
155 150 67
158 152 76
157 150 73
159 153 71
159 153 72
156 150 72
161 154 78
161 154 79
159 153 75
160 153 80
156 150 69
155 149 75
154 149 75
153 148 71
154 148 72
154 148 72
157 150 76
153 147 73
162 155 80
157 150 76
149 144 69
153 147 69
151 146 75
153 147 75
162 155 86
174 197 0
173 197 0
175 198 0
173 197 0
175 198 0
174 198 0
175 198 0
174 197 0
175 198 0
173 197 0
173 197 0
175 198 0
176 199 0
173 197 0
173 197 0
175 198 0
173 197 0
175 198 0
176 199 0
175 198 0
176 199 0
175 198 0
175 198 0
173 197 0
175 198 0
175 198 0
174 197 0
175 198 0
173 197 0
175 198 0
173 197 0
174 198 0
175 198 0
174 198 0
174 198 0
174 198 0
174 198 0
174 198 0
176 199 0
173 197 0
174 198 0
175 198 0
174 197 0
174 198 0
175 198 0
175 198 0
173 197 0
173 197 0
175 198 0
174 198 0
174 197 0
175 198 0
174 198 0
174 198 0
174 198 0
174 197 0
174 198 0
175 198 0
175 198 0
174 198 0
174 198 0
174 198 0
176 199 0
173 197 0
174 198 0
175 198 0
174 198 0
174 197 0
174 198 0
175 198 0
173 197 0
175 198 0
173 197 0
174 198 0
175 198 0
175 198 0
175 198 0
174 198 0
174 198 0
174 197 0
175 198 0
173 197 0
176 199 0
173 197 0
173 197 0
173 197 0
175 198 0
175 198 0
174 198 0
174 197 0
174 198 0
175 198 0
174 197 0
174 197 0
175 198 0
176 198 0
175 198 0
175 198 0
174 198 0
174 197 0
174 198 0
176 199 0
175 198 0
176 198 0
174 198 0
175 198 0
173 197 0
173 197 0
175 198 0
173 196 0
175 198 0
175 198 0
175 198 0
173 197 0
172 196 0
175 198 0
176 199 0
174 198 0
174 197 0
176 199 0
171 196 0
172 196 0
174 198 0
174 198 0
173 197 0
175 198 0
174 197 0
172 196 0
172 196 0
175 198 0
172 195 0
172 196 0
169 193 0
113 138 86
54 87 102
57 90 110
58 92 126
57 90 116
55 88 110
56 89 105
55 88 111
54 86 108
52 83 101
55 88 92
56 89 112
56 89 98
150 173 51
175 198 0
213 228 224
72 102 121
56 89 118
58 92 122
60 95 135
57 91 113
59 93 118
59 93 115
58 92 117
60 95 129
59 94 134
59 93 122
59 93 124
60 94 136
59 93 121
59 94 127
59 93 120
59 93 126
59 94 130
60 94 134
60 95 135
60 94 136
59 94 130
58 93 125
59 93 133
61 96 135
58 91 124
58 92 121
58 92 120
57 91 122
60 95 135
58 92 118
60 94 129
59 94 127
60 95 133
59 93 125
59 94 129
58 92 121
60 94 129
59 93 131
59 94 127
59 93 126
59 94 127
61 96 141
60 94 130
60 94 137
59 94 127
60 95 139
59 93 131
60 94 126
59 93 130
58 91 120
60 94 139
60 95 139
59 93 135
58 92 125
60 94 135
58 92 129
58 92 122
58 92 126
59 94 131
59 94 130
59 93 129
60 94 131
60 94 138
60 95 130
59 93 126
58 92 134
58 92 117
57 90 124
59 92 118
58 91 117
58 91 115
58 91 126
57 90 115
59 93 133
60 93 132
56 89 112
60 93 131
58 91 125
59 92 131
59 92 125
59 92 129
57 90 114
59 92 129
58 90 122
58 90 128
58 91 128
56 87 121
58 90 123
57 90 129
55 87 122
55 85 112
55 84 111
53 81 104
55 85 105
56 86 119
52 80 105
54 82 105
51 78 104
52 81 105
52 79 102
82 98 108
179 189 199
85 83 38
67 68 28
59 59 19
55 56 18
49 54 26
37 42 14
43 49 24
43 50 23
64 66 23
65 69 35
50 55 24
67 70 33
64 68 33
71 73 25
77 80 44
78 80 34
72 76 39
87 89 48
83 86 40
76 79 38
94 95 44
109 109 50
104 105 52
104 105 54
101 101 49
123 121 57
111 111 45
115 115 58
116 115 58
121 120 61
120 119 64
122 121 60
133 131 74
128 125 60
132 129 66
130 127 61
143 140 73
139 136 66
145 141 66
147 144 71
145 141 63
142 139 65
136 133 68
144 139 75
154 148 73
150 146 70
154 148 75
150 145 70
150 145 73
149 145 70
155 149 78
152 147 66
145 142 66
156 150 75
157 152 72
153 147 71
157 151 75
149 145 70
160 154 66
155 150 72
156 151 74
165 158 77
162 156 77
164 157 74
158 153 75
167 160 80
163 158 75
159 154 73
162 156 71
163 156 72
167 161 79
158 152 69
165 158 78
161 155 75
166 160 73
164 157 80
163 157 75
164 157 72
168 160 78
163 156 73
163 157 75
167 160 79
165 159 76
157 152 74
167 161 79
165 158 80
171 164 84
166 159 81
164 158 73
160 154 69
171 164 86
158 153 69
168 161 81
160 154 73
160 155 73
166 159 77
166 160 75
162 156 75
164 158 73
169 162 84
167 160 80
155 150 65
167 160 81
164 158 71
164 158 76
164 159 75
166 159 80
152 147 65
165 159 78
166 160 75
164 158 78
163 156 75
164 157 75
164 158 78
166 159 80
162 156 74
159 153 69
165 158 76
162 155 80
159 152 77
165 158 76
161 154 72
160 153 71
165 159 78
159 153 76
164 157 77
161 154 78
157 151 73
162 156 78
161 155 75
160 153 75
165 157 79
166 158 83
159 153 76
156 149 73
157 150 76
151 145 72
158 153 75
158 152 75
157 152 69
158 152 75
154 147 72
150 144 69
163 156 81
151 146 74
157 151 73
152 147 72
155 150 73
174 198 0
176 199 0
174 198 0
174 198 0
174 198 0
176 199 0
175 198 0
173 197 0
173 197 0
175 198 0
175 198 0
175 198 0
174 198 0
174 197 0
176 199 0
174 198 0
175 198 0
174 198 0
174 198 0
175 198 0
175 198 0
175 198 0
173 197 0
176 199 0
174 198 0
174 198 0
174 198 0
176 198 0
175 198 0
173 197 0
174 197 0
174 198 0
174 198 0
174 197 0
174 198 0
174 198 0
175 198 0
176 198 0
173 197 0
173 197 0
174 198 0
174 198 0
174 198 0
174 197 0
174 198 0
174 197 0
176 199 0
176 199 0
175 198 0
176 199 0
174 197 0
173 197 0
175 198 0
175 198 0
174 198 0
173 197 0
175 198 0
174 198 0
173 197 0
173 197 0
174 197 0
173 197 0
174 198 0
173 197 0
175 198 0
175 198 0
174 197 0
174 198 0
173 197 0
176 198 0
175 198 0
175 198 0
176 199 0
176 199 0
175 198 0
174 198 0
174 198 0
174 197 0
175 198 0
174 198 0
176 198 0
173 197 0
175 198 0
175 198 0
175 198 0
172 196 0
172 197 0
175 198 0
174 198 0
173 196 0
175 198 0
171 196 0
174 198 0
175 198 0
175 198 0
173 197 0
174 197 0
173 197 0
173 197 0
174 197 0
176 198 0
175 198 0
175 198 0
173 197 0
175 198 0
172 196 0
174 198 0
173 196 0
173 197 0
174 198 0
172 196 0
175 197 0
175 198 0
175 198 0
174 197 0
173 197 0
175 198 0
176 198 0
175 198 0
170 194 0
174 197 0
173 196 0
172 196 0
171 194 0
172 196 0
173 197 0
174 197 0
174 197 0
171 195 0
171 196 0
170 194 0
167 191 0
171 195 0
96 123 89
55 88 95
57 90 115
55 88 106
56 89 116
55 88 105
57 91 110
56 89 110
56 88 108
55 88 110
54 86 108
53 85 94
81 109 98
174 197 0
175 198 0
218 232 238
131 150 175
58 92 129
58 92 121
58 92 126
58 92 115
58 92 118
60 94 126
57 91 118
59 93 122
59 93 127
60 94 127
58 93 124
60 94 131
59 93 126
59 93 125
59 92 118
60 94 124
59 94 130
59 93 130
59 93 127
60 94 117
60 95 135
60 94 124
59 93 125
59 94 124
59 94 136
60 94 126
58 92 117
59 93 129
59 93 120
59 94 134
60 94 124
60 94 134
60 95 137
59 93 131
60 94 127
61 95 141
58 91 131
58 92 117
59 94 125
60 94 135
60 94 133
59 93 115
57 90 122
60 94 127
61 96 142
59 92 125
57 90 118
57 91 122
59 93 127
60 95 139
59 93 130
60 95 134
59 93 124
58 92 124
59 93 122
59 93 128
58 92 118
59 93 126
59 93 129
59 93 128
59 93 125
59 93 125
58 91 123
58 92 129
59 93 131
56 89 114
57 90 116
60 94 134
58 92 122
58 92 129
58 92 124
58 91 124
57 90 120
59 92 134
58 91 127
59 92 124
59 92 130
56 89 118
59 93 133
59 92 124
58 91 125
55 86 113
58 90 114
55 87 110
58 91 129
57 89 128
57 89 121
57 89 116
54 84 101
55 86 111
56 88 126
56 87 118
55 84 110
54 85 109
53 82 105
54 82 102
53 82 106
53 80 100
51 78 98
48 73 97
116 129 142
199 210 220
80 78 30
67 66 23
65 65 13
51 50 15
50 53 16
46 49 14
43 47 21
61 62 14
52 58 23
55 58 28
59 62 29
67 69 32
79 81 37
59 66 36
72 78 32
71 74 29
68 71 36
88 90 28
91 92 46
103 103 42
99 99 48
101 101 56
109 108 48
102 102 51
115 113 54
109 110 50
116 114 63
113 113 49
115 115 55
119 117 64
126 124 58
115 115 56
124 122 60
132 129 63
128 126 59
133 129 63
134 132 68
128 126 62
137 134 66
135 132 70
135 132 62
140 137 61
143 138 71
149 145 71
149 144 76
142 138 70
143 141 60
152 147 70
146 142 75
159 153 78
154 148 74
157 151 73
154 148 70
153 148 77
154 150 71
151 147 63
151 146 67
158 153 78
155 149 68
163 157 79
159 153 75
160 155 73
163 157 76
160 154 80
164 158 75
158 153 68
157 152 67
165 158 76
162 156 74
161 155 68
160 155 73
163 158 74
163 157 73
160 155 73
161 156 67
159 153 74
164 158 72
165 158 74
165 158 78
160 154 76
162 156 72
164 158 73
162 157 74
164 158 71
169 161 82
163 157 74
163 157 74
161 155 71
162 156 73
162 156 69
169 162 78
164 158 76
161 156 71
160 155 67
164 157 76
169 161 81
162 156 75
170 163 78
161 156 75
164 157 80
166 160 78
163 156 76
164 158 75
163 155 76
165 159 81
160 154 71
162 155 71
157 152 66
160 154 76
157 152 69
156 150 72
163 157 77
168 161 78
166 160 75
163 156 76
158 152 74
168 161 79
162 154 75
155 150 65
159 153 70
160 154 77
159 153 75
158 151 72
159 152 73
164 157 80
152 146 67
161 155 74
157 151 73
158 152 66
163 156 79
155 148 72
165 159 80
164 158 75
152 146 69
156 150 69
158 152 73
158 151 73
158 152 77
159 153 80
154 147 73
146 141 68
154 148 75
158 151 80
157 150 74
152 147 62
159 152 75
154 148 74
153 148 73
174 197 0
174 197 0
176 198 0
174 198 0
175 198 0
173 197 0
174 197 0
175 198 0
174 198 0
176 199 0
173 197 0
172 196 0
174 198 0
174 198 0
174 197 0
175 198 0
176 199 0
174 198 0
174 198 0
173 197 0
174 198 0
176 199 0
173 197 0
174 198 0
173 197 0
174 198 0
173 197 0
174 198 0
175 198 0
173 197 0
175 198 0
171 196 0
175 198 0
174 198 0
174 198 0
174 198 0
173 196 0
175 198 0
176 199 0
175 198 0
174 198 0
174 198 0
175 198 0
177 199 0
174 198 0
174 197 0
173 197 0
175 198 0
174 198 0
175 198 0
175 198 0
173 197 0
174 197 0
172 196 0
175 198 0
172 197 0
173 197 0
174 197 0
176 198 0
173 197 0
175 198 0
175 198 0
174 198 0
174 197 0
174 198 0
173 197 0
175 198 0
173 197 0
173 197 0
173 197 0
174 197 0
174 197 0
176 198 0
174 197 0
175 198 0
175 198 0
175 198 0
173 197 0
178 199 0
175 198 0
175 198 0
174 198 0
175 198 0
173 197 0
173 197 0
175 198 0
174 197 0
174 198 0
173 197 0
175 198 0
173 197 0
174 197 0
175 198 0
171 196 0
174 198 0
175 198 0
171 196 0
174 198 0
174 198 0
175 198 0
174 197 0
175 198 0
174 196 0
172 196 0
173 197 0
174 197 0
171 195 0
173 196 0
174 198 0
174 197 0
173 197 0
171 195 0
177 199 0
173 197 0
174 198 0
173 196 0
173 197 0
174 197 0
173 197 0
173 197 0
173 196 0
173 196 0
174 197 0
173 196 0
174 197 0
172 196 0
172 195 0
172 196 0
171 195 0
169 193 0
169 193 0
166 190 0
162 186 18
56 86 75
56 89 92
57 90 115
57 90 100
56 89 115
57 90 113
56 89 101
58 92 109
55 88 105
58 91 121
55 87 92
54 86 93
130 154 60
174 197 0
176 199 36
221 235 246
145 163 188
58 92 114
58 92 114
59 94 127
59 93 120
60 95 129
59 94 125
59 93 120
58 93 121
60 94 124
58 92 124
58 93 127
59 93 121
59 93 118
58 92 122
59 94 122
60 94 125
59 94 131
58 92 113
58 92 126
59 93 134
59 93 125
61 96 145
58 92 115
57 91 118
60 95 131
60 95 134
59 93 126
58 91 126
58 92 120
59 93 126
59 93 133
58 92 124
58 92 115
58 92 114
59 93 121
60 94 129
61 96 141
60 95 136
58 91 125
59 93 122
59 94 127
60 94 133
59 93 130
57 91 124
59 93 125
59 93 118
60 94 130
60 94 133
60 95 127
60 95 131
59 92 116
60 94 133
58 92 125
57 91 120
57 91 121
58 92 115
59 93 127
57 91 117
60 94 127
57 91 118
58 92 121
59 93 131
61 95 133
58 91 122
59 92 116
59 92 121
58 92 120
58 91 114
58 91 121
61 95 133
59 93 134
59 93 135
59 92 131
58 91 130
57 90 119
57 90 117
58 90 123
58 91 123
60 93 126
58 91 129
57 88 118
59 92 135
56 88 117
59 93 127
59 92 130
56 87 107
56 88 119
55 87 119
55 86 110
55 86 116
54 85 115
53 82 102
54 85 112
52 80 99
55 85 122
53 82 112
53 82 114
50 78 92
51 77 96
47 71 74
148 161 176
222 235 253
93 91 44
63 64 9
66 66 13
46 48 15
59 61 11
54 57 23
48 52 18
58 59 21
52 56 24
59 63 19
57 62 32
51 57 24
65 67 23
71 74 32
89 90 38
75 78 34
75 78 36
82 86 34
76 79 41
89 91 41
92 93 45
92 94 46
110 107 50
101 103 57
101 102 48
107 107 52
111 110 49
118 116 51
119 117 57
121 119 57
115 114 53
121 118 51
137 134 63
136 134 58
136 133 64
131 126 67
130 127 53
131 129 62
140 136 63
138 134 63
143 140 64
151 147 78
137 134 63
149 144 72
143 139 67
152 147 62
137 134 58
140 137 68
152 147 77
148 144 66
149 143 73
152 147 73
153 147 69
151 146 62
155 149 64
152 147 65
157 151 72
157 151 74
159 153 71
153 148 66
162 155 73
161 156 72
154 150 65
163 157 74
161 156 70
157 151 65
163 157 76
158 152 66
156 151 66
164 157 73
160 155 72
168 161 82
167 161 75
159 153 65
163 157 76
166 160 80
165 158 75
161 155 73
159 154 77
165 157 79
163 158 74
163 157 72
167 159 74
161 155 71
164 157 74
166 159 73
169 161 80
165 160 70
158 152 68
164 158 71
167 160 76
165 158 75
164 157 73
162 156 75
166 159 72
164 158 70
166 158 77
166 160 84
159 153 65
157 151 72
164 158 73
163 157 71
162 155 70
161 155 64
164 158 71
168 161 76
158 153 67
167 160 84
163 156 69
165 159 78
163 156 79
164 158 76
158 152 69
164 158 73
163 157 79
156 149 73
161 155 77
163 157 71
159 153 76
167 161 80
164 157 80
159 154 64
158 152 70
161 155 75
163 156 69
154 149 68
159 152 74
160 155 71
156 150 76
160 154 80
162 155 73
157 150 72
159 153 71
159 153 75
161 155 75
155 149 70
154 148 70
154 147 67
156 149 73
151 146 66
152 147 66
155 149 72
157 149 74
148 142 69
155 149 71
151 145 71
143 138 62
144 138 66
175 198 0
173 197 0
174 197 0
176 199 0
174 197 0
173 197 0
175 198 0
174 197 0
174 197 0
174 197 0
175 198 0
175 198 0
175 198 0
175 198 0
174 198 0
174 198 0
174 198 0
175 198 0
176 199 0
175 198 0
174 198 0
175 198 0
175 198 0
173 197 0
173 197 0
173 197 0
174 197 0
175 198 0
175 197 0
173 197 0
174 198 0
175 198 0
175 198 0
174 198 0
174 198 0
176 199 0
174 198 0
175 198 0
173 197 0
176 198 0
175 198 0
174 197 0
174 198 0
174 197 0
175 198 0
175 198 0
176 198 0
174 197 0
174 198 0
174 198 0
174 197 0
174 198 0
174 197 0
175 198 0
175 198 0
175 198 0
173 196 0
174 198 0
176 199 0
174 198 0
175 198 0
176 199 0
174 198 0
174 198 0
174 198 0
173 197 0
175 198 0
174 198 0
175 198 0
174 198 0
172 195 0
174 197 0
174 198 0
175 198 0
175 198 0
173 197 0
172 196 0
172 197 0
174 197 0
173 196 0
174 198 0
175 198 0
174 197 0
174 198 0
174 197 0
174 198 0
174 197 0
173 197 0
175 198 0
174 198 0
174 197 0
174 198 0
172 196 0
175 198 0
172 196 0
173 197 0
173 197 0
173 197 0
174 197 0
174 197 0
175 198 0
173 197 0
174 197 0
172 195 0
175 198 0
172 196 0
175 198 0
174 198 0
177 199 0
173 197 0
173 196 0
173 197 0
171 195 0
173 197 0
174 197 0
173 197 0
173 197 0
171 195 0
174 197 0
171 195 0
172 195 0
173 197 0
171 195 0
172 196 0
172 195 0
171 195 0
171 195 0
170 194 0
171 194 0
168 192 0
168 192 0
172 194 0
154 177 36
55 86 107
56 89 110
55 88 105
55 87 97
56 89 110
57 90 108
55 87 88
55 88 103
56 88 91
55 88 95
54 86 95
67 96 93
168 192 36
171 195 0
180 202 80
214 229 227
164 181 185
59 93 122
58 92 120
57 91 117
59 94 117
58 92 124
59 93 124
58 92 122
57 91 108
58 92 121
58 92 114
58 92 107
59 93 131
59 93 124
60 94 127
58 92 120
58 92 115
59 93 130
59 94 129
57 91 122
59 94 117
59 94 131
60 95 135
59 92 124
58 92 113
59 93 118
58 92 122
59 93 120
61 95 136
58 92 126
58 91 120
59 94 122
58 93 134
60 94 136
58 92 120
61 96 136
58 92 113
58 92 125
61 95 134
60 94 133
59 94 134
60 94 124
59 93 121
59 93 130
58 93 125
59 93 129
59 93 127
59 93 133
58 93 125
59 92 125
58 91 115
60 94 136
58 92 125
61 95 139
57 90 126
60 95 134
60 95 136
60 94 136
60 93 123
60 95 134
59 94 129
58 92 129
59 94 131
59 93 122
60 93 135
59 92 132
60 93 126
58 91 126
58 91 121
57 90 110
58 91 122
58 91 124
58 91 128
59 93 132
60 94 135
60 94 135
57 90 126
58 91 124
57 90 111
56 89 114
58 90 118
57 88 122
56 87 113
59 92 131
55 87 114
54 85 110
54 84 103
57 88 115
56 88 112
56 86 101
55 86 122
54 84 112
55 86 109
54 84 107
55 85 107
53 82 99
54 84 116
50 78 106
55 83 110
51 79 99
47 72 85
167 182 177
216 230 230
133 138 117
73 72 33
75 75 31
65 65 25
63 64 24
45 48 16
47 49 16
45 48 17
46 49 17
49 54 20
58 62 30
69 72 33
62 64 26
64 68 26
73 77 35
82 84 37
82 84 38
83 84 31
78 81 36
90 91 42
93 93 45
92 93 41
96 97 43
108 106 45
112 112 50
114 113 53
111 112 53
115 114 55
115 114 48
115 115 46
117 116 51
122 120 55
118 117 51
132 129 58
126 124 51
130 128 49
128 126 56
130 127 61
136 132 52
130 127 57
127 125 56
139 137 63
139 136 56
141 137 63
146 142 67
148 143 72
144 140 58
148 143 67
153 148 71
141 137 65
151 146 72
150 146 69
151 145 70
155 149 67
147 144 63
159 153 72
157 152 69
156 151 70
156 150 73
156 151 74
153 148 67
158 152 68
158 152 69
158 152 67
152 146 69
161 156 70
162 154 73
159 153 69
165 159 73
160 154 72
159 153 71
165 159 75
162 155 73
159 154 68
159 155 67
160 154 68
162 155 80
169 162 79
154 149 65
167 161 79
162 157 71
168 162 80
166 159 78
160 154 68
161 154 77
159 152 68
163 157 71
167 160 77
169 161 80
163 157 73
170 162 81
163 157 74
167 160 79
162 156 69
165 159 77
165 158 78
164 158 74
160 154 68
165 159 75
162 155 72
167 161 79
166 159 75
156 150 68
162 156 73
165 158 80
165 159 78
164 158 77
158 151 70
163 157 71
158 152 64
162 155 68
164 158 72
161 155 75
159 153 75
163 157 77
159 153 73
164 158 79
150 144 64
160 153 72
155 148 72
152 146 69
162 155 76
161 155 68
160 153 71
156 150 66
165 158 76
157 150 75
159 152 75
156 149 72
163 156 74
154 147 71
149 144 59
153 147 69
154 149 58
162 156 76
153 148 68
157 150 72
161 154 74
164 157 76
154 147 68
158 152 75
151 145 63
154 148 72
149 143 70
155 150 70
160 154 75
158 151 75
150 143 74
173 197 0
175 198 0
173 197 0
174 198 0
174 198 0
174 197 0
176 199 0
173 197 0
173 197 0
174 197 0
175 198 0
174 198 0
174 198 0
175 198 0
176 199 0
174 198 0
176 199 0
175 198 0
175 198 0
174 197 0
174 198 0
174 198 0
175 198 0
174 198 0
174 198 0
174 198 0
177 199 0
173 197 0
175 198 0
173 197 0
174 198 0
174 198 0
174 198 0
173 197 0
174 197 0
173 197 0
175 198 0
173 197 0
175 198 0
174 198 0
175 198 0
174 198 0
176 198 0
175 198 0
173 197 0
175 198 0
173 197 0
174 197 0
175 198 0
175 198 0
176 199 0
172 197 0
175 198 0
175 198 0
175 198 0
174 197 0
176 198 0
175 198 0
174 197 0
175 198 0
174 197 0
173 197 0
174 198 0
173 197 0
175 198 0
174 198 0
172 196 0
174 197 0
174 197 0
175 198 0
175 198 0
172 196 0
173 197 0
173 197 0
174 197 0
175 198 0
173 197 0
174 197 0
175 198 0
175 198 0
173 196 0
176 198 0
174 198 0
173 196 0
171 196 0
174 198 0
173 197 0
173 196 0
174 198 0
173 197 0
173 197 0
173 197 0
173 196 0
176 198 0
175 197 0
174 197 0
173 196 0
173 196 0
169 193 0
175 198 0
172 196 0
172 196 0
174 198 0
172 196 0
175 197 0
175 198 0
173 197 0
172 196 0
175 197 0
173 197 0
174 198 0
171 195 0
173 197 0
171 194 0
174 197 0
172 195 0
171 194 0
172 195 0
170 193 0
171 194 0
172 196 0
172 195 0
172 195 0
170 194 0
169 192 0
170 193 0
170 194 0
171 194 0
167 191 0
170 193 0
165 188 0
162 186 0
125 148 60
53 85 93
56 88 113
55 87 92
55 88 98
56 88 103
55 88 95
55 88 97
57 89 104
57 90 106
51 82 78
54 86 101
134 157 74
172 195 0
174 197 0
173 197 0
174 198 0
161 184 33
59 93 118
57 91 114
59 94 126
59 92 122
59 93 118
58 91 117
59 94 127
59 93 120
57 91 111
57 91 118
59 93 129
58 91 115
57 91 111
58 93 122
59 93 124
58 92 120
59 93 126
58 92 114
61 96 141
60 94 133
58 92 118
59 94 127
59 94 130
58 91 117
60 94 127
59 94 125
60 95 133
58 91 118
58 92 126
57 91 102
59 93 125
58 92 118
60 94 131
58 92 121
60 94 131
60 95 125
59 93 126
59 93 125
59 93 124
58 93 118
59 92 131
58 92 127
58 92 124
58 91 121
59 93 135
59 94 127
58 92 122
59 94 131
60 94 126
60 94 130
58 92 133
57 91 125
58 92 122
59 94 127
58 93 125
60 94 136
60 93 139
59 94 129
58 92 121
59 93 129
59 92 131
60 94 136
59 93 118
60 94 129
59 93 129
58 93 118
57 91 125
59 93 124
59 92 120
58 91 114
56 89 130
58 91 120
57 89 123
57 90 124
59 92 132
59 91 124
57 90 110
58 92 126
58 90 122
57 89 123
57 89 119
55 86 107
59 91 134
57 89 113
56 89 114
56 87 112
56 88 122
55 86 109
57 89 106
55 86 118
57 90 123
55 85 102
55 86 111
56 87 120
54 83 106
53 82 100
52 79 93
53 81 108
52 79 100
47 72 85
164 187 31
175 198 0
140 154 36
81 80 23
75 74 23
65 65 17
67 69 14
61 64 19
54 56 17
62 62 21
52 56 19
43 49 20
58 62 19
65 68 19
65 69 32
63 67 30
68 71 29
80 82 33
85 86 40
87 88 37
84 86 35
89 90 40
95 96 37
93 95 50
86 87 35
99 99 42
109 107 46
110 109 47
116 114 60
110 110 53
119 116 46
121 119 52
122 120 57
123 121 60
135 132 62
128 126 60
127 125 62
115 115 47
128 126 55
132 130 60
140 138 63
138 135 63
140 136 64
143 139 68
142 137 64
141 137 57
143 139 62
139 136 65
139 135 66
148 143 66
154 148 68
152 148 64
149 144 71
148 143 63
146 141 55
154 149 64
154 150 69
152 147 66
149 145 65
154 149 65
155 150 66
152 147 62
162 155 78
159 154 67
161 154 79
162 156 72
158 152 68
159 153 70
158 153 66
153 149 61
162 156 66
163 157 69
164 158 70
163 157 74
160 153 69
159 154 71
161 155 70
163 158 71
159 153 70
165 159 70
162 156 67
161 155 70
161 155 66
166 159 76
164 157 71
164 158 71
162 157 75
163 157 69
162 157 73
160 155 73
164 158 77
164 158 71
164 158 69
164 157 68
163 157 73
166 160 75
160 155 72
165 158 72
162 156 70
159 153 74
166 158 77
164 157 75
163 156 74
156 151 70
163 157 73
160 154 69
163 156 76
162 155 72
161 154 69
164 158 73
160 153 74
159 153 69
164 157 75
161 155 74
161 154 74
156 150 73
156 149 68
157 151 72
159 153 76
160 154 69
154 147 71
163 156 75
154 148 72
158 152 73
159 152 77
157 151 70
160 154 73
157 150 73
150 145 62
150 145 62
154 148 65
157 151 66
164 157 81
151 144 75
160 154 71
160 154 75
162 155 68
149 143 71
156 150 71
155 150 64
152 146 73
154 148 73
161 155 70
147 141 65
156 149 68
151 145 64
155 149 67
156 150 74
150 144 65
148 143 58
173 197 0
175 198 0
175 198 0
173 197 0
174 197 0
174 197 0
175 198 0
173 197 0
174 197 0
174 197 0
174 197 0
174 197 0
175 198 0
174 197 0
174 197 0
175 198 0
175 198 0
173 197 0
174 198 0
175 198 0
175 198 0
173 196 0
173 197 0
173 197 0
175 198 0
173 197 0
174 198 0
173 197 0
174 198 0
174 198 0
173 197 0
175 198 0
175 198 0
173 197 0
174 198 0
175 198 0
176 199 0
174 198 0
173 197 0
174 198 0
174 198 0
174 197 0
175 198 0
174 198 0
175 198 0
176 198 0
175 198 0
174 197 0
176 198 0
174 197 0
174 198 0
174 197 0
175 198 0
174 198 0
174 197 0
173 197 0
174 198 0
172 196 0
174 198 0
173 197 0
172 196 0
175 198 0
174 198 0
174 198 0
175 198 0
174 197 0
175 198 0
174 198 0
173 197 0
171 195 0
174 197 0
173 196 0
174 197 0
175 198 0
175 198 0
173 197 0
174 198 0
174 197 0
173 197 0
172 196 0
173 197 0
174 198 0
175 198 0
175 198 0
173 196 0
171 195 0
171 196 0
175 198 0
173 197 0
175 198 0
174 197 0
173 196 0
173 196 0
174 198 0
170 194 0
172 196 0
175 198 0
174 197 0
172 196 0
171 195 0
174 198 0
174 197 0
173 197 0
173 197 0
173 197 0
174 197 0
177 199 0
172 196 0
172 196 0
169 193 0
171 195 0
171 196 0
173 196 0
169 193 0
172 195 0
169 192 0
172 196 0
172 196 0
171 195 0
174 197 0
171 195 0
172 195 0
172 195 0
170 194 0
171 194 0
165 189 0
169 193 0
164 188 0
166 190 0
165 189 0
162 185 0
164 187 0
90 114 74
55 87 97
56 89 107
55 87 97
53 85 99
54 86 105
53 85 98
54 86 94
54 85 94
54 85 100
55 87 99
82 109 72
170 194 18
168 192 0
173 196 0
175 198 0
174 198 0
173 197 0
82 111 118
57 91 116
57 91 111
59 93 120
59 94 125
58 92 121
59 93 120
59 94 127
58 92 118
57 90 121
59 92 124
58 92 117
57 90 105
59 94 121
58 92 126
57 91 108
59 94 133
59 93 120
59 93 124
58 92 122
58 92 115
56 89 117
59 94 129
59 94 121
58 92 115
58 91 111
60 94 129
59 93 129
59 93 124
57 91 103
58 93 117
57 91 118
59 94 127
60 94 129
59 93 124
58 92 121
59 93 120
60 95 129
58 92 121
60 94 121
58 92 120
59 93 118
60 94 131
58 92 131
57 91 110
58 92 120
59 93 122
58 92 130
58 92 126
58 92 124
60 93 127
59 93 127
59 93 128
59 93 126
59 93 129
58 92 120
57 90 114
56 88 113
60 94 130
59 93 129
58 92 124
59 93 125
59 92 120
58 91 120
59 92 121
58 92 125
57 89 108
59 92 127
57 90 107
58 91 132
57 90 124
59 91 127
57 90 121
55 87 111
58 91 116
57 90 116
56 88 114
58 92 122
56 88 109
56 87 115
58 90 119
57 90 114
57 89 119
58 90 127
56 88 119
55 86 110
56 88 100
54 85 108
54 85 109
54 85 108
56 87 103
51 80 97
53 81 102
54 83 102
53 82 103
49 75 77
51 77 94
51 78 95
49 75 93
69 91 65
173 197 0
173 197 0
159 175 25
92 89 40
76 74 26
69 68 22
70 70 25
66 67 20
71 72 19
59 61 15
44 48 12
62 64 18
64 68 23
63 65 23
68 72 26
75 77 30
66 70 32
74 77 33
86 88 35
82 83 34
85 85 32
85 87 32
83 85 32
91 94 43
104 103 41
115 113 46
94 95 47
102 101 40
109 107 40
126 124 58
111 111 48
115 114 47
120 118 56
115 113 53
135 131 56
124 121 56
132 129 52
133 129 57
139 135 59
121 120 48
137 133 54
138 134 64
140 136 67
140 136 61
134 131 56
143 138 60
144 140 54
155 148 74
148 144 63
142 138 59
142 138 59
144 139 61
150 147 69
146 142 57
151 147 64
149 145 60
150 145 66
152 148 59
157 152 72
154 149 67
157 152 61
150 145 57
157 152 70
159 153 68
155 150 63
155 150 68
156 150 68
154 148 62
160 155 66
161 155 71
158 153 67
162 156 77
161 156 69
155 149 68
161 156 69
162 157 69
163 157 72
167 160 80
159 153 65
164 156 70
163 157 72
165 159 73
155 149 64
165 158 71
161 155 71
160 154 66
160 154 67
159 153 65
157 150 64
163 156 71
160 153 72
163 157 68
159 153 68
158 153 64
167 160 83
160 154 72
162 155 72
159 154 68
155 147 66
159 153 71
161 155 70
166 159 77
163 157 73
161 155 63
158 152 68
164 157 76
164 158 75
160 155 66
161 155 70
157 152 66
164 157 74
162 155 73
158 152 70
163 155 74
155 150 68
163 155 78
162 156 79
162 156 71
156 149 66
154 149 68
165 158 72
164 156 77
164 157 79
159 153 68
159 154 69
162 155 72
153 147 62
155 149 65
154 148 69
163 158 72
154 148 66
160 154 73
150 145 59
161 155 74
157 150 78
155 148 70
153 146 68
145 140 63
156 150 73
145 140 64
158 152 74
160 153 73
147 140 65
153 148 70
158 152 73
159 152 76
147 142 70
155 148 70
154 148 71
154 147 70
173 197 0
173 197 0
174 198 0
174 197 0
173 197 0
173 197 0
175 198 0
175 198 0
174 198 0
175 198 0
174 198 0
176 199 0
173 197 0
175 198 0
175 198 0
172 195 0
174 198 0
174 198 0
174 197 0
175 198 0
175 198 0
176 199 0
174 197 0
173 197 0
174 198 0
173 197 0
176 199 0
174 198 0
175 198 0
174 198 0
175 198 0
175 198 0
174 198 0
174 198 0
174 198 0
173 197 0
175 198 0
174 198 0
175 198 0
175 198 0
174 198 0
174 198 0
174 197 0
175 198 0
174 197 0
174 198 0
175 198 0
172 197 0
173 197 0
175 198 0
174 198 0
173 196 0
176 199 0
173 196 0
175 198 0
173 197 0
174 197 0
176 199 0
175 198 0
174 197 0
173 197 0
172 197 0
174 197 0
173 197 0
173 197 0
173 197 0
174 198 0
174 197 0
173 197 0
175 198 0
171 196 0
175 198 0
172 196 0
175 198 0
175 198 0
174 198 0
172 196 0
173 196 0
174 198 0
173 197 0
174 198 0
174 197 0
171 196 0
175 198 0
173 197 0
174 198 0
174 198 0
172 195 0
173 197 0
174 197 0
174 197 0
173 197 0
174 197 0
175 198 0
172 196 0
173 196 0
171 195 0
174 198 0
173 196 0
171 195 0
172 195 0
172 195 0
173 197 0
174 197 0
172 196 0
172 195 0
172 196 0
174 197 0
173 196 0
172 196 0
169 193 0
169 193 0
169 193 0
169 193 0
170 194 0
171 195 0
171 195 0
170 194 0
169 192 0
169 193 0
170 193 0
168 192 0
168 192 0
170 193 0
164 188 0
162 185 0
166 190 0
159 183 0
167 191 0
160 183 0
157 180 0
142 165 18
53 85 90
54 85 100
53 86 91
52 83 81
53 85 93
53 85 97
53 85 93
54 86 99
55 87 107
54 85 86
62 92 87
146 169 54
167 190 0
168 192 0
173 196 0
174 197 0
173 197 0
174 198 0
115 139 90
57 90 113
56 89 107
58 92 114
58 91 108
59 93 125
58 92 115
59 93 125
57 91 108
59 93 122
59 93 114
56 89 115
60 94 125
60 94 130
58 92 121
58 92 121
59 94 122
59 93 124
58 92 118
61 95 129
61 95 129
58 91 117
58 92 120
57 90 111
59 94 133
59 93 125
57 91 117
57 91 111
58 92 122
59 93 131
58 92 121
59 93 127
57 90 114
60 94 126
57 90 102
57 91 113
60 94 130
57 90 120
60 94 129
59 93 131
57 90 110
59 93 130
58 92 126
58 92 126
59 93 125
58 92 127
59 93 131
60 94 136
59 93 117
58 92 129
60 94 126
58 91 121
58 92 122
59 94 122
60 94 132
57 89 114
59 93 122
59 93 122
58 92 123
59 92 126
58 92 123
58 91 121
59 93 124
59 92 124
59 93 120
59 92 124
57 90 117
57 90 114
58 91 132
58 91 122
58 91 127
58 92 121
59 91 124
60 95 140
58 91 126
58 91 124
59 93 119
59 92 136
56 89 113
55 87 105
57 90 116
58 91 123
57 89 121
56 88 112
56 88 121
57 89 118
56 87 121
54 85 108
57 88 110
55 85 115
57 89 123
54 85 114
55 85 113
53 82 100
51 80 97
51 78 92
51 79 103
50 76 90
45 68 75
105 124 66
173 197 0
173 197 0
174 197 0
99 98 39
96 94 34
77 76 29
57 58 10
63 64 9
63 64 17
63 63 22
59 62 19
56 58 17
70 71 15
70 72 27
64 66 25
61 63 21
70 74 31
78 79 33
81 81 31
80 81 34
89 92 35
84 86 39
84 85 39
104 103 42
90 91 38
103 104 42
108 107 47
107 107 44
106 106 47
111 111 42
116 115 45
115 113 43
113 111 48
124 122 48
125 122 50
116 115 55
127 126 55
122 120 53
131 129 53
133 130 58
129 125 57
132 129 48
139 136 56
143 139 56
126 124 50
149 144 64
140 135 57
150 145 63
145 140 63
148 145 66
149 143 65
144 140 61
144 141 66
144 139 64
154 147 69
146 142 69
149 144 64
145 141 54
149 144 67
159 153 69
156 150 69
156 150 68
156 150 63
158 152 72
155 150 66
155 149 72
153 148 62
154 149 61
159 154 66
161 154 72
154 148 68
161 155 72
154 148 66
159 153 66
163 157 63
164 157 72
157 152 63
166 159 75
160 154 67
159 154 63
159 153 68
165 158 77
157 150 63
153 148 62
156 150 64
166 160 75
161 156 68
161 155 69
165 158 76
164 157 72
159 153 70
160 154 59
163 156 76
164 157 75
158 152 63
163 156 75
163 156 72
161 154 73
159 153 64
162 156 71
159 153 67
161 154 69
158 151 65
165 158 74
164 157 75
166 159 78
161 156 70
160 154 70
160 152 69
161 154 68
159 152 68
159 154 64
157 151 66
159 152 69
160 154 75
157 150 72
159 153 70
158 151 64
153 149 69
157 150 68
161 154 70
157 151 70
160 154 67
159 153 70
156 149 68
158 151 68
154 147 66
153 146 67
159 152 72
159 153 75
164 157 78
160 153 74
157 151 66
153 147 69
154 148 67
147 141 60
161 154 74
155 148 69
159 152 75
159 153 66
159 152 71
156 148 70
151 145 63
153 147 71
154 147 73
159 152 74
150 144 68
155 149 77
148 143 67
153 146 68
174 197 0
173 197 0
174 197 0
173 197 0
174 198 0
174 198 0
175 198 0
172 196 0
175 198 0
174 198 0
174 197 0
173 197 0
173 197 0
175 198 0
174 197 0
174 198 0
175 198 0
173 196 0
174 198 0
174 198 0
175 198 0
176 198 0
174 198 0
174 198 0
173 196 0
175 198 0
174 197 0
173 197 0
174 198 0
175 198 0
173 197 0
173 197 0
175 198 0
174 197 0
173 197 0
174 198 0
176 199 0
176 199 0
174 198 0
173 197 0
174 198 0
174 197 0
174 198 0
174 198 0
173 196 0
174 198 0
173 197 0
174 198 0
174 197 0
175 198 0
172 196 0
173 197 0
176 198 0
174 197 0
172 196 0
175 198 0
174 198 0
173 197 0
175 198 0
172 196 0
174 197 0
175 198 0
175 198 0
174 198 0
173 196 0
173 197 0
172 196 0
175 198 0
175 198 0
174 197 0
171 195 0
175 198 0
173 197 0
174 198 0
173 197 0
173 197 0
173 197 0
173 197 0
171 194 0
175 198 0
176 198 0
175 198 0
173 197 0
173 197 0
172 196 0
174 198 0
171 194 0
174 198 0
174 198 0
172 196 0
172 196 0
173 196 0
174 197 0
174 197 0
170 193 0
170 194 0
173 197 0
172 195 0
172 196 0
170 195 0
173 196 0
172 196 0
172 195 0
172 195 0
170 194 0
172 195 0
171 195 0
169 192 0
174 197 0
170 194 0
170 194 0
168 193 0
168 192 0
172 196 0
173 196 0
172 196 0
171 194 0
169 193 0
169 192 0
170 194 0
171 194 0
165 189 0
164 187 0
166 189 0
167 191 0
165 188 0
165 189 0
162 185 0
160 182 0
161 184 0
152 175 0
110 132 51
54 87 94
54 86 97
55 87 93
54 86 86
53 84 88
54 86 100
54 86 95
55 88 99
54 86 99
53 84 100
127 150 51
166 188 0
168 191 0
172 196 0
170 194 0
174 197 0
175 198 0
176 199 0
140 164 62
58 92 125
59 93 117
59 92 121
58 92 121
57 90 110
59 94 126
59 93 121
59 94 127
58 93 117
58 92 114
56 89 107
59 93 113
59 93 121
58 92 122
56 89 103
59 93 122
57 91 117
58 91 118
59 93 121
57 90 111
59 93 127
59 93 133
58 92 125
58 92 126
60 94 125
57 91 111
59 92 120
59 93 121
58 91 129
56 90 125
59 93 117
59 93 126
57 91 118
59 92 127
57 91 108
55 87 113
57 90 110
60 94 131
59 94 120
60 94 130
58 92 118
58 92 130
60 94 131
59 92 121
60 95 131
59 93 121
57 90 113
58 91 118
59 93 127
59 92 131
58 92 126
59 92 133
58 92 115
59 93 130
59 93 124
57 90 114
58 91 114
58 91 120
57 90 117
57 90 111
58 91 128
58 92 128
59 93 133
57 89 112
59 93 124
58 91 120
59 92 130
59 92 125
57 89 121
58 90 118
59 93 131
58 92 124
57 89 124
57 90 120
58 92 130
56 88 122
56 87 113
58 91 128
58 90 121
55 87 107
58 91 122
58 91 119
54 85 106
57 88 117
58 90 123
57 88 116
57 88 108
55 85 103
55 86 112
54 85 117
54 84 110
55 85 116
53 82 104
53 81 102
50 78 88
53 82 100
46 70 78
43 67 71
145 167 26
174 197 0
174 198 0
174 197 0
140 155 22
91 87 32
88 86 32
69 68 21
46 50 23
66 65 17
55 56 17
70 70 13
54 56 16
63 64 21
67 69 24
65 67 23
56 62 27
69 72 21
82 82 29
79 80 26
95 94 39
93 93 30
93 94 31
93 94 42
89 90 36
98 97 39
99 98 35
95 94 44
101 102 39
110 110 38
115 115 43
107 106 37
109 108 49
116 115 50
125 124 53
124 121 47
118 116 48
127 124 49
119 119 42
132 129 54
135 133 56
134 130 51
134 132 52
131 127 47
139 136 60
139 136 60
141 136 51
145 141 58
140 136 58
139 136 60
142 138 54
142 138 57
140 137 58
150 145 65
149 145 58
146 141 57
150 146 67
154 148 67
148 143 56
147 141 56
161 154 76
153 146 64
153 147 65
152 147 59
158 151 74
150 144 64
154 149 59
159 153 77
151 144 63
154 149 58
158 152 65
158 153 62
159 153 70
159 154 63
160 153 74
153 148 60
160 153 68
160 154 71
163 156 68
154 149 63
158 152 65
161 154 67
155 149 70
165 159 77
163 156 69
157 151 68
165 159 75
159 153 63
155 150 63
164 157 75
165 158 69
156 150 70
160 153 70
165 159 71
160 153 64
164 157 75
159 154 69
163 156 72
156 150 71
156 151 57
157 151 71
157 150 63
163 156 80
157 151 70
159 153 64
155 149 65
159 154 65
157 152 68
158 151 66
164 158 75
154 149 62
162 156 67
163 156 74
159 152 67
158 153 68
161 155 70
158 152 69
152 146 60
154 148 65
158 152 73
156 150 71
156 150 66
163 156 70
155 149 67
161 154 72
153 146 67
160 154 64
155 149 68
157 149 68
160 154 70
155 149 69
150 144 70
154 148 68
161 155 70
158 151 79
151 145 64
157 150 67
149 143 66
157 151 73
159 153 66
153 148 60
159 152 74
147 140 70
147 140 70
150 144 67
143 138 62
155 148 75
151 145 63
152 146 67
141 135 61
150 144 68
173 197 0
174 197 0
175 198 0
175 198 0
173 197 0
176 198 0
173 197 0
174 197 0
172 196 0
174 198 0
174 198 0
175 198 0
173 196 0
172 197 0
175 198 0
175 198 0
175 198 0
174 198 0
174 198 0
172 196 0
174 197 0
175 198 0
175 198 0
176 199 0
174 197 0
175 198 0
174 197 0
174 197 0
174 197 0
177 199 0
175 198 0
174 198 0
174 197 0
172 196 0
174 198 0
173 197 0
173 197 0
173 197 0
174 197 0
174 198 0
175 198 0
175 198 0
173 197 0
176 198 0
175 198 0
175 198 0
174 198 0
174 197 0
175 198 0
176 199 0
174 197 0
173 197 0
174 197 0
174 197 0
174 198 0
173 197 0
172 195 0
173 197 0
175 198 0
174 197 0
173 197 0
175 198 0
174 198 0
174 198 0
174 198 0
173 197 0
172 196 0
171 195 0
174 197 0
175 198 0
173 197 0
173 197 0
174 197 0
172 197 0
174 197 0
172 195 0
171 196 0
174 197 0
173 196 0
172 196 0
174 198 0
171 195 0
172 196 0
174 197 0
174 197 0
173 197 0
174 197 0
171 195 0
172 196 0
174 197 0
173 197 0
174 198 0
175 198 0
169 193 0
174 197 0
171 195 0
173 196 0
172 195 0
174 198 0
172 196 0
171 195 0
171 195 0
174 197 0
174 197 0
173 196 0
170 194 0
173 196 0
167 191 0
173 196 0
173 196 0
172 195 0
170 194 0
171 195 0
172 194 0
169 193 0
172 195 0
169 193 0
170 195 0
165 189 0
167 192 0
165 188 0
166 189 0
165 188 0
165 188 0
166 190 0
160 183 0
163 187 0
163 187 0
163 187 0
152 174 0
153 175 0
71 98 74
52 83 90
56 89 92
52 83 89
54 85 88
55 88 100
53 85 83
51 81 73
52 82 78
53 84 82
121 145 55
159 182 0
168 191 0
172 195 0
174 197 0
174 197 0
175 198 0
174 197 0
174 198 0
170 194 18
66 97 108
57 91 111
58 92 117
58 92 122
58 92 113
58 92 113
56 89 105
57 90 114
56 90 103
58 92 122
59 93 114
58 92 118
58 92 120
60 94 135
59 93 124
58 92 115
60 94 127
60 94 129
60 94 126
58 92 117
58 91 125
58 92 118
60 94 121
58 91 111
58 91 114
58 92 114
58 91 111
58 92 113
58 92 114
58 91 124
59 92 110
57 91 113
58 92 117
59 92 131
58 92 120
59 93 126
56 90 113
58 92 121
58 92 121
56 89 107
60 94 126
59 92 127
57 90 113
57 91 110
59 93 129
57 90 118
57 90 117
57 91 114
57 90 125
60 94 125
58 91 122
59 93 127
59 93 124
58 92 117
58 91 122
58 91 118
57 91 117
58 92 121
59 92 124
57 90 121
58 92 127
58 91 126
58 92 130
58 91 124
57 90 117
56 89 117
59 93 129
58 91 120
58 90 125
58 91 119
60 93 132
57 90 125
56 88 105
57 89 120
56 89 115
54 86 112
55 87 104
56 88 113
52 81 95
59 92 125
59 93 123
59 92 127
57 89 121
54 85 106
55 86 108
55 87 110
55 86 113
54 83 107
53 83 105
54 84 105
54 83 110
51 80 98
53 83 94
52 81 97
50 77 81
51 78 87
49 76 87
60 84 77
167 191 9
172 196 0
174 197 0
173 197 0
170 190 16
105 101 48
71 70 28
77 78 25
71 71 22
58 59 21
67 69 24
56 58 16
67 69 20
58 61 20
72 74 25
67 70 23
60 63 21
78 80 33
77 80 27
86 87 25
94 93 28
78 79 31
90 92 33
81 82 25
87 86 29
102 101 39
90 90 29
105 106 32
117 115 51
109 109 51
112 112 39
134 131 58
120 118 41
123 121 49
118 116 52
125 124 49
117 116 49
123 121 50
122 120 56
130 126 59
136 132 57
134 131 50
125 122 50
131 129 51
140 137 66
135 133 57
136 132 47
150 144 61
137 133 56
137 134 60
141 136 58
144 139 64
145 141 63
146 143 51
145 141 62
150 145 59
151 147 62
151 146 67
149 144 59
151 146 65
143 137 61
147 143 64
149 144 61
155 149 66
151 147 63
154 149 57
159 154 61
156 149 62
156 150 66
155 151 58
158 152 68
152 147 61
158 152 68
159 154 63
163 156 71
160 154 65
154 149 65
161 154 64
159 152 70
160 154 62
160 154 60
157 151 64
161 154 70
163 157 67
161 155 72
158 152 65
156 151 65
163 158 71
161 155 66
156 149 64
164 157 78
158 152 67
166 158 65
163 156 72
160 153 63
156 150 62
160 154 67
159 152 66
158 152 67
159 153 68
154 149 64
156 149 65
149 143 57
163 156 75
153 147 60
166 159 75
163 157 74
152 146 63
165 159 74
156 150 65
160 153 69
155 148 64
159 152 69
157 151 68
155 149 63
161 154 66
159 153 68
153 148 68
161 154 69
154 148 64
158 153 67
155 150 69
158 153 64
157 151 69
161 154 72
154 148 64
162 155 67
157 150 66
155 148 66
159 152 63
155 150 69
153 146 70
155 150 71
156 150 69
152 146 64
140 135 59
156 150 69
160 153 71
152 146 68
154 148 70
161 155 70
153 146 61
153 146 72
154 148 62
153 148 64
152 146 66
148 144 63
145 139 62
145 140 58
146 141 67
156 150 73
174 198 0
176 199 0
177 199 0
173 196 0
174 198 0
172 196 0
174 198 0
174 198 0
173 196 0
172 195 0
171 195 0
175 198 0
174 197 0
174 198 0
173 197 0
174 198 0
173 197 0
174 197 0
172 196 0
175 198 0
175 198 0
173 197 0
173 197 0
174 197 0
172 197 0
172 196 0
174 198 0
171 195 0
174 197 0
174 197 0
174 197 0
174 198 0
174 198 0
175 198 0
173 197 0
173 197 0
175 198 0
174 198 0
175 198 0
176 199 0
174 198 0
173 197 0
175 198 0
175 198 0
173 196 0
174 198 0
174 197 0
175 198 0
173 197 0
173 196 0
175 198 0
173 197 0
174 198 0
173 197 0
175 198 0
172 197 0
173 197 0
174 197 0
175 198 0
173 197 0
173 197 0
173 197 0
173 197 0
175 198 0
172 196 0
174 198 0
175 198 0
173 197 0
172 195 0
174 197 0
175 198 0
176 198 0
175 198 0
173 197 0
172 196 0
170 194 0
173 196 0
173 197 0
173 197 0
172 195 0
174 197 0
173 197 0
171 196 0
174 197 0
173 197 0
173 197 0
173 197 0
173 197 0
172 196 0
171 195 0
172 196 0
169 193 0
172 195 0
169 194 0
172 196 0
172 196 0
172 195 0
172 196 0
174 198 0
173 196 0
175 198 0
171 195 0
175 198 0
169 194 0
174 198 0
170 193 0
171 194 0
172 196 0
171 194 0
171 195 0
169 193 0
173 196 0
168 192 0
171 194 0
173 196 0
173 196 0
170 193 0
161 185 0
167 191 0
165 189 0
167 191 0
168 192 0
164 188 0
161 184 0
157 181 0
157 181 0
161 184 0
159 182 0
149 171 0
148 169 0
116 136 25
54 86 94
55 87 100
54 85 73
53 85 84
51 82 78
54 86 84
53 84 81
52 83 78
54 86 94
107 131 67
155 178 18
163 185 0
167 190 0
170 193 0
173 197 0
172 196 0
172 197 0
174 197 0
175 198 0
173 197 0
102 128 91
56 89 107
59 93 125
58 92 111
55 89 94
59 92 117
59 93 117
56 90 108
60 94 127
60 94 127
58 92 108
57 90 117
59 92 124
59 93 117
59 93 122
58 93 118
58 92 115
56 89 108
59 93 125
56 89 105
59 93 125
58 92 122
58 92 108
58 92 114
59 93 118
58 91 121
56 89 108
57 91 118
59 93 125
58 92 121
59 93 130
56 89 110
57 90 120
58 91 115
57 90 111
59 93 121
58 91 111
58 92 121
60 95 133
57 90 105
57 90 115
59 92 122
59 93 124
59 93 118
58 91 115
60 93 113
59 93 123
58 91 118
59 92 124
58 91 122
59 92 126
58 92 126
58 91 129
59 93 122
57 91 118
57 91 110
56 89 114
57 91 121
57 91 108
58 91 115
57 90 114
57 91 118
59 92 128
55 87 113
59 93 121
57 90 111
58 92 124
58 90 120
57 90 114
56 89 107
56 89 115
57 89 120
59 93 130
56 88 115
56 89 117
54 84 100
57 90 116
55 86 111
55 86 101
56 88 107
58 92 125
54 85 97
55 86 103
56 88 115
55 86 104
53 84 105
55 86 105
57 88 121
55 85 104
53 82 102
53 81 102
53 82 102
53 82 96
52 79 82
49 75 70
49 76 82
45 69 81
104 124 61
175 197 0
172 195 0
173 197 0
171 195 0
173 196 0
123 132 20
87 84 26
72 70 28
64 66 16
76 74 18
78 78 20
62 63 7
65 67 24
75 74 16
69 70 22
74 73 16
71 73 26
85 85 20
75 77 27
74 77 20
81 83 26
87 86 38
78 79 20
99 98 37
92 92 35
96 96 41
97 96 37
96 96 32
108 106 48
101 101 47
113 112 48
107 107 37
115 114 45
115 114 38
114 113 37
116 114 49
127 123 49
123 119 48
127 125 49
125 122 46
114 113 40
138 134 54
129 126 55
135 131 63
138 134 53
132 129 47
141 137 58
132 129 55
146 140 58
134 131 48
136 132 53
142 139 51
150 144 65
142 138 64
138 135 49
145 141 51
144 139 59
147 142 60
147 142 58
151 145 60
150 145 56
151 145 60
158 153 65
153 147 62
151 147 56
152 146 63
154 148 58
156 150 64
158 152 69
153 149 57
153 147 63
155 150 61
160 154 73
152 147 58
161 154 68
156 150 61
151 145 56
160 155 57
157 150 62
158 152 61
163 156 68
159 153 64
162 155 67
160 154 63
159 152 67
165 158 70
161 154 71
159 151 67
161 156 60
158 153 59
160 153 69
160 152 64
162 156 66
161 155 67
160 154 68
160 155 69
160 155 67
163 156 70
160 153 71
152 148 67
163 156 71
158 152 63
160 153 73
158 152 74
156 150 62
155 149 62
159 151 73
155 148 67
156 150 68
158 151 73
154 148 69
161 155 64
157 151 65
159 153 70
156 151 64
158 152 62
158 152 69
157 151 62
161 154 79
155 149 67
158 152 71
156 151 67
157 151 62
152 146 62
149 143 62
152 146 63
160 154 69
153 146 64
154 148 64
154 148 60
156 149 72
157 150 66
152 147 63
153 146 64
152 146 67
154 147 69
155 148 63
159 152 73
156 149 69
154 148 67
159 153 74
158 151 70
157 150 72
155 149 68
155 149 69
151 145 68
152 146 70
152 145 71
155 149 66
150 144 65
150 144 61
172 196 0
174 197 0
173 196 0
174 198 0
174 198 0
173 197 0
174 197 0
176 199 0
174 198 0
173 197 0
174 198 0
173 197 0
173 197 0
175 198 0
172 196 0
175 198 0
175 198 0
175 198 0
177 199 0
173 197 0
174 197 0
172 196 0
171 196 0
173 197 0
172 197 0
173 197 0
174 197 0
173 197 0
175 198 0
175 198 0
175 198 0
175 198 0
172 196 0
175 198 0
174 198 0
172 197 0
174 197 0
173 197 0
174 198 0
175 198 0
174 198 0
175 198 0
173 197 0
174 197 0
172 196 0
173 197 0
173 197 0
173 196 0
173 197 0
174 197 0
174 198 0
174 197 0
175 198 0
173 197 0
172 196 0
175 198 0
174 198 0
174 197 0
173 197 0
174 198 0
174 198 0
173 196 0
173 197 0
173 197 0
174 198 0
171 196 0
174 198 0
173 197 0
173 197 0
174 197 0
174 197 0
172 195 0
171 195 0
173 197 0
174 197 0
173 197 0
173 196 0
175 198 0
174 197 0
171 195 0
174 197 0
171 195 0
176 198 0
173 196 0
171 195 0
170 194 0
172 196 0
172 196 0
169 193 0
174 196 0
172 195 0
173 197 0
170 194 0
173 197 0
172 195 0
171 196 0
172 196 0
172 196 0
170 193 0
173 197 0
171 195 0
171 194 0
173 195 0
172 195 0
170 193 0
170 194 0
170 194 0
167 191 0
172 194 0
168 192 0
166 190 0
166 190 0
169 192 0
169 192 0
171 194 0
169 192 0
168 192 0
168 191 0
166 190 0
167 190 0
165 188 0
165 189 0
166 190 0
162 185 0
159 182 0
158 181 0
154 177 0
151 173 0
145 168 0
132 153 0
78 101 47
55 88 91
52 82 72
53 83 80
53 85 80
52 82 80
52 83 67
51 82 80
49 78 57
118 141 47
153 175 0
161 184 0
160 182 0
168 191 0
171 195 0
174 197 0
172 196 0
175 198 0
170 194 0
175 198 0
176 198 0
146 170 47
56 90 100
56 89 100
57 90 99
58 91 111
57 91 115
57 90 118
58 91 115
56 89 103
57 90 100
56 89 118
58 92 117
57 90 99
59 94 129
58 92 111
58 92 118
58 91 110
58 92 120
57 91 111
59 93 120
58 92 114
58 92 113
58 92 111
58 91 117
58 92 114
60 95 127
59 92 122
58 91 124
58 91 117
58 92 125
57 91 118
60 94 126
60 95 121
59 94 125
58 92 127
58 92 124
59 94 127
58 91 122
58 91 126
56 89 107
59 93 125
58 92 124
58 91 115
59 93 127
56 89 117
59 94 135
58 92 120
59 92 114
59 93 121
58 92 115
58 92 125
59 92 116
57 90 115
57 90 110
59 92 121
58 92 125
58 91 118
58 91 121
57 91 122
57 90 117
58 91 120
59 93 120
56 88 108
57 89 113
58 91 121
56 89 125
57 89 115
57 89 109
58 92 120
56 88 114
55 87 113
58 91 125
57 89 110
56 87 103
58 91 124
55 86 107
56 88 110
55 87 97
56 88 120
56 88 117
57 89 110
55 87 113
57 89 119
57 89 120
55 86 109
53 83 99
55 86 105
54 83 107
52 82 87
52 80 91
53 83 101
55 85 101
51 79 84
53 81 103
53 80 94
51 78 85
47 71 74
143 164 42
174 197 0
174 197 0
175 198 0
173 197 0
172 196 0
155 174 16
95 92 40
78 76 27
70 69 19
71 71 20
65 64 14
62 66 10
66 67 6
66 69 22
68 70 18
67 72 26
72 73 19
78 78 20
76 77 24
82 82 27
83 84 25
74 77 24
88 89 37
99 100 26
94 94 34
95 96 32
94 96 34
101 99 34
100 100 47
98 98 31
100 100 33
116 114 39
118 115 41
115 115 47
112 110 40
124 122 52
122 119 47
119 117 41
130 126 48
126 123 53
116 114 41
130 127 47
133 129 56
126 123 49
135 132 55
138 133 45
133 130 52
134 131 52
148 144 51
139 134 54
139 136 49
142 139 56
147 141 64
135 132 53
148 143 64
149 144 56
149 144 56
148 143 51
142 139 54
147 142 61
156 151 69
154 147 69
144 140 51
157 151 71
151 146 56
148 144 44
158 151 63
149 145 55
158 152 68
152 147 61
157 151 67
157 151 57
156 151 56
160 153 64
155 150 63
155 149 56
159 153 59
154 149 53
159 153 62
156 150 61
159 153 67
153 147 57
159 154 63
154 148 58
155 149 63
161 155 65
159 152 66
162 156 65
158 152 66
157 151 60
158 152 58
160 153 63
160 153 64
158 151 61
151 146 58
153 147 61
162 155 68
167 159 77
156 151 59
158 152 62
159 153 63
161 155 65
154 150 65
152 146 59
157 151 65
155 150 60
167 160 74
163 156 71
158 152 63
156 150 62
155 148 61
153 147 61
158 152 64
160 154 70
160 155 73
162 154 75
157 151 69
151 146 54
163 156 68
156 149 69
155 148 64
161 154 67
156 151 62
156 149 74
149 143 58
148 142 59
156 149 66
155 149 62
155 149 69
154 147 69
149 143 58
148 142 65
151 145 66
159 153 69
150 144 62
156 151 64
143 138 58
146 141 59
152 147 66
151 145 64
150 144 59
149 143 61
151 145 69
149 143 56
152 146 66
153 147 65
152 146 70
141 135 58
154 147 66
136 130 47
148 141 68
176 198 0
173 196 0
174 198 0
175 198 0
174 198 0
174 197 0
175 198 0
173 197 0
174 197 0
172 196 0
173 197 0
173 197 0
173 197 0
176 199 0
173 197 0
173 197 0
175 198 0
171 194 0
174 198 0
176 199 0
174 198 0
176 199 0
172 195 0
174 198 0
173 197 0
175 198 0
175 198 0
177 199 0
176 198 0
175 198 0
176 198 0
173 196 0
172 196 0
174 198 0
175 198 0
173 197 0
174 197 0
173 197 0
174 198 0
175 198 0
173 197 0
175 198 0
174 197 0
174 197 0
174 197 0
174 198 0
173 196 0
171 196 0
174 197 0
173 196 0
173 197 0
173 197 0
173 197 0
172 196 0
175 198 0
173 197 0
174 198 0
175 198 0
173 197 0
174 197 0
175 198 0
174 197 0
173 197 0
172 196 0
174 198 0
173 197 0
174 197 0
174 197 0
174 197 0
175 197 0
170 194 0
173 196 0
169 194 0
170 194 0
172 196 0
172 196 0
175 198 0
175 198 0
173 197 0
174 197 0
173 196 0
173 197 0
171 195 0
170 193 0
174 197 0
175 198 0
173 196 0
173 197 0
173 197 0
173 196 0
172 195 0
171 195 0
170 194 0
173 197 0
172 195 0
170 194 0
171 195 0
175 198 0
170 194 0
173 196 0
172 195 0
170 193 0
172 196 0
170 193 0
170 194 0
172 195 0
168 192 0
170 193 0
166 190 0
168 192 0
168 191 0
166 189 0
166 190 0
168 191 0
165 189 0
163 186 0
164 187 0
167 190 0
166 189 0
167 190 0
165 188 0
160 183 0
155 178 0
156 180 0
165 188 0
157 180 0
157 179 0
140 162 0
138 158 0
104 124 25
52 83 86
53 84 78
54 85 88
53 85 84
49 79 65
49 79 65
52 82 70
87 108 47
137 158 18
150 172 0
150 173 0
152 174 0
157 180 0
168 192 0
167 191 0
172 196 0
175 198 0
173 196 0
173 197 0
171 194 0
175 198 0
172 196 0
79 108 90
55 88 108
58 92 114
58 91 115
58 91 118
58 92 110
57 90 107
56 89 97
58 91 111
58 91 108
59 93 122
59 93 122
58 92 115
58 92 120
58 92 111
58 92 122
57 91 115
58 92 117
57 91 107
57 90 121
57 91 118
57 90 114
58 91 121
57 91 111
58 91 117
59 92 121
60 95 131
57 90 99
59 93 118
57 91 111
58 92 115
56 89 115
58 92 120
59 93 117
58 91 117
58 91 114
58 92 121
57 90 118
58 92 121
59 92 122
58 91 125
57 90 115
59 93 125
57 90 113
57 91 110
58 91 114
58 91 122
60 94 127
57 91 118
58 92 110
57 90 110
58 92 121
58 92 118
56 88 108
58 91 115
57 89 111
56 89 110
58 91 111
57 90 115
58 92 122
58 91 125
56 89 124
56 88 107
57 89 113
59 92 125
57 89 118
57 90 111
57 90 112
58 92 116
56 88 116
57 90 113
57 89 111
56 89 103
57 90 114
57 90 107
57 89 123
56 88 120
56 88 115
56 87 98
56 88 110
57 89 120
55 86 105
54 83 108
53 83 104
55 86 120
56 88 110
53 82 105
55 85 107
54 84 110
51 80 85
51 79 101
53 81 100
51 79 87
49 74 81
49 75 93
62 82 68
174 196 2
172 196 0
173 197 0
174 197 0
174 197 0
174 197 0
171 194 0
105 110 30
75 73 32
86 84 23
66 64 18
67 67 17
76 77 13
64 64 16
74 74 21
65 66 13
81 80 20
68 70 22
72 72 22
73 74 18
78 79 16
90 90 33
78 79 28
88 88 23
74 77 28
87 86 39
95 95 27
89 89 31
94 93 32
102 102 39
104 102 43
108 106 40
115 112 34
122 119 41
114 112 33
104 104 46
121 119 49
127 123 47
129 125 42
128 124 40
126 122 41
133 128 53
121 119 48
130 126 44
126 122 50
137 133 56
126 123 45
144 138 62
132 128 42
144 140 48
138 133 45
141 137 61
142 138 52
142 139 56
133 129 42
147 141 61
142 137 55
141 137 49
144 140 57
143 139 56
148 143 61
143 139 57
148 145 54
146 142 54
151 145 59
149 143 51
150 145 54
154 149 59
150 145 56
149 144 61
154 149 58
155 149 66
158 152 66
154 149 59
156 150 61
157 150 66
149 145 58
158 152 62
154 149 56
157 151 54
160 155 71
155 149 49
151 145 62
155 150 61
159 153 65
155 149 61
154 150 61
160 153 64
165 157 71
153 148 60
161 155 68
156 151 60
157 151 65
155 148 56
163 157 64
160 154 62
152 146 58
157 150 62
160 153 67
156 149 61
158 152 58
157 152 64
161 155 70
159 153 64
159 153 65
158 151 60
156 150 61
151 147 58
160 153 65
158 151 68
153 147 57
155 148 61
160 154 67
159 152 70
164 157 73
160 154 67
155 149 60
159 152 68
152 146 58
154 147 70
158 152 72
157 150 67
163 156 68
156 150 70
157 150 64
154 148 64
159 152 72
161 153 68
160 153 66
148 143 59
152 146 60
154 147 60
152 147 60
148 142 56
156 149 70
154 147 69
161 154 72
153 147 63
152 146 65
154 149 64
154 148 64
147 142 63
143 137 63
151 145 63
149 142 61
148 142 61
153 148 62
155 149 64
157 151 68
155 147 73
145 139 59
145 139 62
171 195 0
173 197 0
173 197 0
172 196 0
174 197 0
173 196 0
174 196 0
175 198 0
175 198 0
174 197 0
174 197 0
172 196 0
174 198 0
171 196 0
174 197 0
173 197 0
172 195 0
173 197 0
175 197 0
174 197 0
173 196 0
174 197 0
173 197 0
172 196 0
175 198 0
175 198 0
174 197 0
173 197 0
174 197 0
175 198 0
171 195 0
175 198 0
176 198 0
172 196 0
174 198 0
174 198 0
175 198 0
174 198 0
173 196 0
173 197 0
174 197 0
175 198 0
174 198 0
173 197 0
173 196 0
175 198 0
174 198 0
172 196 0
175 198 0
173 197 0
174 198 0
175 198 0
173 196 0
172 196 0
172 196 0
174 197 0
172 197 0
174 197 0
174 198 0
172 195 0
173 196 0
174 197 0
175 198 0
172 196 0
171 195 0
175 198 0
173 197 0
173 197 0
172 197 0
173 197 0
173 197 0
175 198 0
170 194 0
174 197 0
170 195 0
174 197 0
173 197 0
174 197 0
173 196 0
173 197 0
171 195 0
172 195 0
170 195 0
173 196 0
171 195 0
173 196 0
175 198 0
171 194 0
170 194 0
170 194 0
170 193 0
173 197 0
171 195 0
171 194 0
170 194 0
172 195 0
172 195 0
168 192 0
173 197 0
170 194 0
172 196 0
172 194 0
171 194 0
169 193 0
170 194 0
168 192 0
169 193 0
168 191 0
168 191 0
167 191 0
168 190 0
165 188 0
165 188 0
163 186 0
166 190 0
168 191 0
166 190 0
165 188 0
167 189 0
167 190 0
163 187 0
160 183 0
158 182 0
153 174 0
157 179 0
162 185 0
150 172 0
140 162 0
121 140 0
66 89 36
51 81 72
48 78 62
51 81 67
51 81 67
46 75 65
62 87 51
113 132 51
126 146 0
135 157 0
149 171 0
159 181 0
157 180 0
166 190 0
165 188 0
172 196 0
172 196 0
172 195 0
175 198 0
170 194 0
173 197 0
173 196 0
175 198 0
133 157 65
56 89 95
58 92 115
56 89 100
58 91 117
58 92 120
56 89 105
57 90 97
57 90 102
56 89 103
58 91 110
58 91 110
57 90 103
58 92 113
56 89 103
58 91 113
59 93 126
58 91 122
60 94 129
55 88 103
58 91 115
59 93 126
57 91 108
56 89 111
57 90 113
58 92 122
59 93 120
59 93 126
58 91 120
58 91 122
57 90 110
57 90 117
59 93 115
57 90 108
57 90 120
58 92 121
58 92 126
57 90 115
59 93 122
59 93 110
57 90 107
60 95 126
57 90 111
58 91 120
58 92 114
57 90 113
57 90 114
59 92 124
57 90 117
59 93 121
57 90 114
57 90 117
58 92 122
57 89 114
58 91 120
56 89 111
57 90 118
55 88 103
57 91 113
57 90 109
59 92 138
57 89 118
57 90 115
58 92 118
56 88 108
57 91 119
57 90 110
56 88 95
56 89 103
56 87 106
57 89 110
56 89 117
53 84 94
56 88 110
58 90 120
54 84 102
56 89 119
57 89 112
55 86 99
56 88 118
56 87 108
56 88 109
57 89 108
54 84 107
54 85 101
54 83 98
53 83 102
53 82 95
52 81 100
52 81 104
54 84 103
53 82 99
49 75 84
47 72 75
49 74 86
132 154 48
170 193 0
172 195 0
173 196 0
172 195 0
173 196 0
176 198 0
173 196 0
153 169 31
91 90 29
76 75 14
72 70 12
70 70 17
73 70 22
72 71 17
77 77 15
71 70 17
80 80 22
76 77 18
58 58 17
79 79 19
77 79 30
73 75 26
82 81 25
86 87 20
90 91 29
105 102 39
98 97 34
103 100 28
104 102 37
106 104 27
104 102 39
94 94 29
107 106 35
110 109 38
123 119 48
115 112 34
113 110 46
121 118 43
119 116 41
119 117 46
116 113 40
120 118 43
128 125 48
132 128 45
128 125 47
130 128 45
126 122 38
135 131 51
124 121 43
130 128 49
138 134 43
146 141 62
142 136 56
140 136 50
139 136 38
142 137 48
131 126 40
146 140 54
149 145 58
143 139 52
146 142 56
146 142 53
149 144 57
152 147 60
151 146 62
141 137 45
148 143 53
155 150 53
152 147 60
144 139 53
153 148 59
146 141 47
148 142 48
149 143 54
151 146 56
155 149 60
150 145 52
157 152 60
156 150 66
160 153 69
154 148 54
161 154 71
164 156 74
152 146 55
154 148 60
160 153 63
154 149 61
155 150 52
157 150 63
156 151 62
162 155 69
152 148 58
163 156 67
153 147 60
160 153 68
160 154 65
159 152 67
153 147 59
152 146 59
153 148 58
157 150 64
159 151 68
154 147 61
148 142 54
156 150 62
154 150 58
159 153 59
152 147 62
162 156 68
155 149 62
155 150 59
158 150 62
153 146 59
156 150 62
153 146 63
157 150 66
156 151 65
153 147 57
156 149 62
161 154 72
156 150 58
153 147 69
157 150 66
158 151 62
151 146 59
150 143 60
156 150 67
154 148 61
148 143 54
150 145 62
149 144 58
156 150 66
152 146 64
154 147 71
156 150 72
150 145 61
151 145 61
164 156 72
152 146 61
150 144 59
155 149 66
152 147 64
155 149 69
148 142 57
149 142 66
151 145 57
159 151 75
150 144 63
144 139 56
152 146 69
155 148 64
143 136 60
173 197 0
172 196 0
172 196 0
172 196 0
171 195 0
174 197 0
170 195 0
173 197 0
173 196 0
172 196 0
173 196 0
173 197 0
173 197 0
173 196 0
174 197 0
173 197 0
174 197 0
174 197 0
175 198 0
170 194 0
174 198 0
173 197 0
172 196 0
173 197 0
172 196 0
173 197 0
173 197 0
174 197 0
173 196 0
175 197 0
174 198 0
173 197 0
175 198 0
174 197 0
173 196 0
175 198 0
172 196 0
173 197 0
173 197 0
171 195 0
175 198 0
174 197 0
173 197 0
172 197 0
173 197 0
174 198 0
174 198 0
172 195 0
174 197 0
171 195 0
173 196 0
174 197 0
175 198 0
170 194 0
175 198 0
173 196 0
174 197 0
171 195 0
170 194 0
173 197 0
175 198 0
174 197 0
172 196 0
174 197 0
174 197 0
173 197 0
171 195 0
173 197 0
175 198 0
173 197 0
172 195 0
173 197 0
174 197 0
173 197 0
172 196 0
173 196 0
173 196 0
174 196 0
175 198 0
172 195 0
173 196 0
175 198 0
173 196 0
173 196 0
171 195 0
174 197 0
173 196 0
172 195 0
175 198 0
173 196 0
172 195 0
171 195 0
174 196 0
167 191 0
172 195 0
172 195 0
172 195 0
171 194 0
172 194 0
171 194 0
168 192 0
172 195 0
171 194 0
171 193 0
171 194 0
167 191 0
169 192 0
169 192 0
168 192 0
167 190 0
169 191 0
167 190 0
169 192 0
169 192 0
165 188 0
167 189 0
160 183 0
161 184 0
167 190 0
161 184 0
165 188 0
154 176 0
154 178 0
161 182 0
155 177 0
145 167 0
147 168 0
133 152 0
102 118 0
76 91 36
79 95 31
66 85 36
81 99 40
85 101 25
127 145 0
114 131 0
117 137 0
135 155 0
134 156 0
140 161 0
155 177 0
161 184 0
167 190 0
170 193 0
174 197 0
171 195 0
174 197 0
174 198 0
172 196 0
173 196 0
172 196 0
174 197 0
164 188 31
63 95 107
56 90 102
57 90 111
55 88 102
58 91 108
57 90 110
57 91 103
57 91 117
58 91 107
57 90 108
59 92 115
57 90 108
57 91 103
55 87 97
57 91 115
59 93 114
59 93 122
58 92 113
58 91 111
58 91 120
58 91 115
59 93 124
58 93 124
58 92 118
56 89 100
58 92 122
58 91 120
58 91 114
57 90 110
58 91 121
59 92 134
55 88 114
59 92 120
55 87 100
56 89 110
58 91 118
58 91 118
59 92 118
59 93 125
58 91 117
59 93 121
58 91 114
58 91 124
55 87 102
59 93 124
57 91 113
58 91 121
58 91 117
57 91 113
58 92 124
57 90 105
57 89 117
58 92 115
58 92 121
56 88 107
57 91 114
59 93 118
57 90 107
58 91 117
58 92 124
56 88 113
58 91 131
56 88 108
57 89 113
58 91 117
56 89 104
57 89 117
55 86 110
58 91 111
58 91 117
58 91 124
56 89 117
58 90 118
56 89 110
57 89 116
55 87 109
55 87 104
56 88 104
55 85 100
56 87 119
54 84 104
54 85 106
55 86 108
54 84 96
54 84 91
53 83 102
52 80 95
55 86 100
52 80 95
52 81 100
49 76 87
52 80 83
52 80 97
53 76 64
165 188 18
171 194 0
170 194 0
171 193 0
173 196 0
174 197 0
172 195 0
172 194 0
174 196 0
114 118 32
94 91 32
78 77 24
87 84 26
81 80 14
66 67 12
82 83 25
62 62 12
77 77 15
72 74 18
74 77 18
82 82 19
78 78 26
85 84 25
78 78 18
88 86 18
95 95 21
88 88 32
95 95 25
93 93 27
95 94 31
111 109 34
101 100 38
102 102 23
105 104 22
112 110 38
110 108 38
106 105 36
131 127 39
115 112 43
119 116 46
128 124 41
128 125 52
123 120 40
126 123 51
133 130 50
128 125 43
137 134 48
133 129 51
125 122 46
135 131 50
134 130 46
142 137 54
141 136 46
130 127 43
142 137 50
147 142 52
138 134 51
136 134 50
129 126 44
148 144 54
144 139 52
140 137 45
150 145 56
152 145 54
147 142 51
153 147 60
147 142 55
150 143 63
147 142 61
155 148 63
150 145 51
149 143 55
147 142 50
157 151 58
158 152 60
157 150 63
148 143 52
155 148 63
149 144 56
153 148 53
155 150 58
157 151 63
160 153 60
154 147 58
157 150 64
157 150 66
148 144 53
157 151 57
154 148 62
152 146 60
159 152 61
152 146 59
155 149 58
160 153 64
155 149 58
151 145 54
153 147 60
157 152 57
154 149 60
155 149 58
150 144 53
156 150 59
161 153 66
151 145 63
152 145 62
153 148 56
157 151 60
156 150 65
158 151 61
158 151 62
158 151 59
155 149 60
153 148 57
155 148 60
162 155 67
159 152 67
149 143 57
155 148 58
155 150 60
159 153 67
151 145 57
164 157 71
157 151 64
158 151 62
154 149 66
157 151 65
160 153 73
158 152 62
154 148 64
155 149 65
146 141 57
146 139 58
153 146 60
155 149 72
143 137 49
151 145 58
158 151 69
154 148 64
154 148 68
160 154 68
150 144 54
152 144 69
149 142 58
149 143 61
151 145 62
154 147 69
158 151 75
149 143 64
148 142 60
148 141 63
156 150 72
151 144 70
140 135 56
173 196 0
173 196 0
172 196 0
173 197 0
174 197 0
175 198 0
172 196 0
171 195 0
174 198 0
172 196 0
171 194 0
173 197 0
173 197 0
173 197 0
172 196 0
174 197 0
172 196 0
174 196 0
173 196 0
171 196 0
173 197 0
173 197 0
172 197 0
173 197 0
173 197 0
174 197 0
174 197 0
175 198 0
174 198 0
173 197 0
173 197 0
170 194 0
174 197 0
173 197 0
172 196 0
173 197 0
173 197 0
173 196 0
172 196 0
174 197 0
174 197 0
172 196 0
174 197 0
172 195 0
173 197 0
174 197 0
174 198 0
173 197 0
170 194 0
173 197 0
174 197 0
174 197 0
174 197 0
174 198 0
173 196 0
172 196 0
174 197 0
173 196 0
171 195 0
174 197 0
174 198 0
174 198 0
173 197 0
175 198 0
171 195 0
172 196 0
173 196 0
175 197 0
176 198 0
175 198 0
174 197 0
172 194 0
173 196 0
172 196 0
174 197 0
174 197 0
174 197 0
175 198 0
172 196 0
173 196 0
173 197 0
174 197 0
171 194 0
170 194 0
172 197 0
171 194 0
173 196 0
171 195 0
174 197 0
172 196 0
175 197 0
173 196 0
167 191 0
169 192 0
170 194 0
168 191 0
170 192 0
169 191 0
171 194 0
172 196 0
169 192 0
170 193 0
168 191 0
170 194 0
168 191 0
172 194 0
165 189 0
172 195 0
167 190 0
165 187 0
167 189 0
163 185 0
163 186 0
163 185 0
161 184 0
164 186 0
161 183 0
160 182 0
160 182 0
159 181 0
168 191 0
155 178 0
158 180 0
157 178 0
150 172 0
142 163 0
134 154 0
106 123 0
85 98 0
85 99 0
93 108 0
105 120 0
87 103 0
113 128 0
110 128 0
123 142 0
127 147 0
135 155 0
141 163 0
149 172 0
149 172 0
158 181 0
166 190 0
173 196 0
172 196 0
174 197 0
175 198 0
171 194 0
170 194 0
172 195 0
171 195 0
169 193 0
173 196 0
106 132 95
56 89 99
55 88 99
57 91 100
57 90 108
56 90 117
57 90 107
55 88 105
58 91 110
56 90 107
57 91 107
57 90 118
57 90 107
59 93 118
57 90 103
58 92 122
58 92 111
59 92 121
58 91 120
57 90 102
57 90 110
58 91 113
57 91 108
58 92 121
58 91 117
59 92 118
57 90 113
58 92 115
56 89 110
58 92 118
59 94 125
58 92 117
58 91 117
56 88 105
58 92 120
55 88 105
57 90 117
57 90 115
57 91 113
59 93 125
58 92 114
59 93 120
57 90 117
56 88 107
57 90 120
57 90 124
55 87 107
56 89 115
57 90 114
55 87 100
57 90 110
60 94 126
59 92 118
59 92 117
56 89 107
59 92 121
57 90 107
58 91 121
58 92 114
54 86 100
60 93 120
58 92 117
56 88 117
56 88 120
58 91 108
56 88 113
55 87 95
56 88 110
55 86 96
57 89 119
56 87 112
56 87 110
55 86 106
56 87 103
57 89 109
56 87 109
54 85 107
56 87 112
57 89 103
57 89 113
55 87 105
54 84 101
54 85 98
55 86 102
55 85 107
52 82 85
50 79 89
50 78 90
54 82 93
52 79 90
49 76 89
49 76 89
49 75 78
111 132 50
173 195 0
171 194 0
171 194 0
169 193 0
171 194 0
171 195 0
170 192 0
172 195 0
170 193 0
154 171 18
96 93 35
84 81 24
78 77 12
73 73 19
70 70 9
79 78 18
72 72 16
69 67 9
76 75 17
79 77 20
68 68 13
74 76 15
82 82 18
79 80 16
84 84 22
80 80 32
83 84 24
104 101 37
94 93 32
86 85 24
110 107 31
103 102 31
115 113 32
106 105 31
104 103 30
124 120 29
107 107 37
121 118 41
110 106 28
111 110 34
121 118 37
126 123 38
123 120 41
127 123 51
126 123 43
135 132 41
128 124 47
126 123 37
130 125 45
129 127 40
135 131 48
131 127 49
140 135 47
137 132 42
131 127 45
140 136 49
139 135 51
141 137 49
137 134 44
145 140 56
137 134 40
141 137 48
150 145 65
144 139 52
145 139 57
149 142 57
141 136 50
147 141 52
145 138 58
150 145 56
143 139 42
159 153 66
153 148 58
152 146 57
152 145 53
151 146 59
153 147 58
152 147 58
157 151 61
148 143 58
154 147 57
154 147 59
153 148 59
155 149 53
156 150 58
153 148 56
156 151 54
156 149 59
157 151 62
156 149 64
155 149 60
159 152 64
154 150 52
162 156 66
160 153 62
151 146 58
158 151 63
154 148 57
154 149 60
153 147 57
153 146 54
156 151 62
160 153 64
145 139 47
155 149 61
164 158 60
156 150 59
159 153 67
157 150 60
152 147 56
156 150 58
153 147 59
153 148 62
159 153 61
150 145 54
158 151 63
161 154 73
153 147 63
152 147 59
153 146 64
155 149 66
158 151 67
154 148 56
157 151 60
148 142 58
151 146 57
152 147 62
155 149 66
157 150 67
154 148 60
153 148 68
154 147 62
143 137 59
153 147 58
157 151 62
150 145 60
135 130 53
156 150 65
152 145 63
146 141 58
157 150 67
151 145 65
155 147 67
151 144 67
141 136 49
150 143 66
150 144 60
144 140 54
149 143 62
144 138 64
148 142 54
146 139 66
148 142 64
172 196 0
175 197 0
173 196 0
174 197 0
174 197 0
173 197 0
176 198 0
172 196 0
172 196 0
174 197 0
172 195 0
174 197 0
174 197 0
173 197 0
173 197 0
172 196 0
173 197 0
175 198 0
173 196 0
175 198 0
173 197 0
173 196 0
173 196 0
173 197 0
172 196 0
172 196 0
172 196 0
173 197 0
173 197 0
172 196 0
170 194 0
175 197 0
174 198 0
172 196 0
175 198 0
173 197 0
174 197 0
173 197 0
174 197 0
173 197 0
174 198 0
174 197 0
173 197 0
173 197 0
171 195 0
174 197 0
174 197 0
174 198 0
174 197 0
174 197 0
173 196 0
173 197 0
174 197 0
175 197 0
173 197 0
174 197 0
173 196 0
174 197 0
173 197 0
176 198 0
174 198 0
175 198 0
174 198 0
173 196 0
173 196 0
175 197 0
172 195 0
175 198 0
171 194 0
174 197 0
173 197 0
173 196 0
174 197 0
173 196 0
174 198 0
171 195 0
176 198 0
173 196 0
173 196 0
173 196 0
173 196 0
172 194 0
174 197 0
174 197 0
172 195 0
174 197 0
172 196 0
175 197 0
175 197 0
174 196 0
172 195 0
173 196 0
172 195 0
172 195 0
174 197 0
172 195 0
172 195 0
174 196 0
172 195 0
172 194 0
170 193 0
170 191 0
168 191 0
167 190 0
167 190 0
171 192 0
167 190 0
169 192 0
171 193 0
167 190 0
167 190 0
171 193 0
165 187 0
162 185 0
165 186 0
166 187 0
167 189 0
160 182 0
157 179 0
160 182 0
153 176 0
155 178 0
152 174 0
149 170 0
143 165 0
140 161 0
125 144 0
106 123 0
111 127 0
107 123 0
90 106 0
95 111 0
109 126 0
104 121 0
109 127 0
123 143 0
123 143 0
133 154 0
142 164 0
157 180 0
160 181 0
166 189 0
170 193 0
173 196 0
172 196 0
173 197 0
173 197 0
172 196 0
172 195 0
171 195 0
172 195 0
171 195 0
170 193 0
165 188 36
61 93 95
56 89 99
57 91 100
58 91 107
56 88 94
56 89 94
57 91 108
57 90 108
57 89 105
57 91 114
56 90 108
57 91 105
57 90 103
57 91 111
57 91 115
56 89 105
56 90 114
57 90 110
58 91 110
57 90 108
58 92 126
57 90 108
59 94 122
59 92 121
58 92 118
57 90 115
57 90 113
58 92 125
57 90 114
59 93 122
55 88 111
57 89 117
59 93 126
56 90 108
57 90 117
60 94 127
57 90 107
59 93 113
57 89 110
57 91 118
56 89 114
56 88 100
56 89 108
57 90 117
57 90 124
57 91 111
57 91 115
57 89 105
57 90 113
58 92 124
57 90 107
56 88 113
58 92 103
57 89 110
58 91 126
58 91 121
58 90 108
58 92 107
58 91 126
57 89 108
58 92 120
58 92 124
57 90 118
56 88 99
60 94 130
54 86 98
56 88 110
55 87 108
57 90 106
58 90 120
58 91 117
56 88 104
57 89 111
55 86 110
55 85 113
55 86 112
54 85 109
56 87 106
54 85 91
55 86 106
54 85 100
54 85 108
52 81 95
57 89 116
53 82 102
49 76 83
53 81 94
51 80 97
49 76 75
48 75 77
50 77 80
55 78 75
160 183 18
171 194 0
169 192 0
171 193 0
170 194 0
173 196 0
171 194 0
172 195 0
173 196 0
169 192 0
173 196 0
111 115 31
91 88 30
84 84 24
91 89 20
85 81 22
86 84 24
72 73 12
67 67 16
73 73 16
74 74 16
80 78 8
75 77 16
87 87 23
80 79 20
75 76 18
95 93 22
76 76 20
83 84 25
94 93 22
91 90 22
98 97 31
99 97 25
92 92 29
105 104 31
113 110 33
117 114 37
106 105 38
120 117 39
118 116 41
124 120 41
129 126 47
117 114 42
118 115 42
119 115 42
128 124 47
127 123 46
127 123 46
121 119 34
142 137 54
132 129 52
133 130 48
137 133 50
148 142 50
136 131 45
142 137 58
137 133 47
142 137 45
140 135 48
139 134 51
137 131 49
145 141 44
139 134 47
144 140 54
143 138 48
146 140 55
144 139 54
149 143 54
142 136 37
147 141 57
146 142 46
150 144 51
145 140 49
154 148 57
141 136 49
148 144 53
158 152 58
152 145 53
147 141 54
144 140 47
151 144 61
150 145 49
155 149 61
155 149 60
145 140 45
144 138 49
148 143 47
153 147 60
163 157 71
156 149 62
152 146 56
152 145 58
151 146 57
148 142 57
155 149 57
152 146 58
154 148 65
155 149 62
155 148 59
155 149 59
160 153 60
153 147 51
154 148 53
156 149 57
159 153 59
162 155 68
159 152 61
151 145 52
151 146 52
151 145 56
163 155 68
151 145 57
160 153 67
159 151 70
157 149 63
148 144 57
155 148 65
150 144 52
157 150 61
153 148 54
158 152 62
153 146 62
151 144 53
155 149 58
148 142 57
152 146 60
157 150 66
153 147 58
151 145 60
154 146 67
154 147 67
149 145 54
153 146 63
147 142 56
156 149 71
145 139 49
155 148 63
144 138 53
145 139 61
155 148 62
146 141 54
155 148 62
146 140 62
149 143 58
152 147 63
149 142 59
141 136 57
151 145 64
150 144 69
149 143 59
142 137 60
157 149 71
147 142 58
146 139 64
172 196 0
173 197 0
171 195 0
174 196 0
172 196 0
175 198 0
174 197 0
173 197 0
174 197 0
173 196 0
173 196 0
173 197 0
172 196 0
172 196 0
173 197 0
173 197 0
172 196 0
173 197 0
173 197 0
172 196 0
173 197 0
173 196 0
177 199 0
172 196 0
173 197 0
174 197 0
172 197 0
173 197 0
174 197 0
175 198 0
173 197 0
173 196 0
172 196 0
175 198 0
173 197 0
173 197 0
175 197 0
174 197 0
172 197 0
173 196 0
173 197 0
174 198 0
172 196 0
173 196 0
174 197 0
171 195 0
174 197 0
173 197 0
173 196 0
173 196 0
174 198 0
173 196 0
173 197 0
173 196 0
173 197 0
174 197 0
171 195 0
172 196 0
176 199 0
173 196 0
173 196 0
174 197 0
172 196 0
174 197 0
173 196 0
172 195 0
173 195 0
173 196 0
175 197 0
173 195 0
175 198 0
174 197 0
173 196 0
174 198 0
174 197 0
175 197 0
172 194 0
172 196 0
175 198 0
172 195 0
173 195 0
174 195 0
175 197 0
173 196 0
172 195 0
173 196 0
173 196 0
175 198 0
171 194 0
173 195 0
170 193 0
172 194 0
171 193 0
174 196 0
175 197 0
172 194 0
173 194 0
170 193 0
168 191 0
170 192 0
172 194 0
172 194 0
170 192 0
170 192 0
168 191 0
165 187 0
166 188 0
167 189 0
167 189 0
166 187 0
166 187 0
165 187 0
162 185 0
159 181 0
162 184 0
165 188 0
152 173 0
158 180 0
159 180 0
158 180 0
153 175 0
153 174 0
145 167 0
143 164 0
141 162 0
139 158 0
111 128 0
112 129 0
96 113 0
102 119 0
118 137 0
105 123 0
118 135 0
121 139 0
129 148 0
134 154 0
140 161 0
144 165 0
148 170 0
155 178 0
156 180 0
162 186 0
171 194 0
176 198 0
172 195 0
173 197 0
172 196 0
171 195 0
173 196 0
171 195 0
173 197 0
172 196 0
171 195 0
171 194 0
103 129 82
56 88 105
56 90 99
55 87 102
58 92 113
57 90 102
57 90 113
56 89 107
57 91 113
56 89 100
58 92 113
57 91 111
55 87 107
57 90 111
57 90 107
57 91 113
57 91 114
59 93 115
58 92 124
58 91 111
54 86 105
58 92 115
58 92 120
56 88 103
58 92 118
58 92 120
58 92 115
57 90 113
57 90 115
56 90 113
59 92 121
55 88 99
58 91 113
56 89 103
58 93 117
57 89 102
57 91 114
57 89 107
56 88 100
57 90 113
57 90 113
57 91 117
58 92 114
57 90 117
59 92 121
58 92 121
57 91 120
57 90 110
58 92 117
58 91 121
59 92 122
56 88 107
55 88 94
56 89 107
57 90 105
58 91 120
57 90 124
58 92 113
56 89 108
56 88 107
56 89 110
58 91 121
56 89 110
55 86 107
57 90 120
57 89 116
53 85 100
57 90 116
55 87 104
55 86 112
56 89 113
56 88 104
55 86 111
57 90 114
56 88 116
55 86 103
56 88 115
56 88 113
55 87 104
56 87 108
54 84 112
53 82 93
52 82 91
54 84 102
54 85 106
49 77 78
51 79 94
50 77 78
51 78 96
48 74 64
48 73 73
98 118 54
172 195 0
171 195 0
171 195 0
173 196 0
167 189 0
171 194 0
171 194 0
172 195 0
170 193 0
172 194 0
173 196 0
164 184 19
101 98 34
92 89 29
94 91 16
83 82 25
67 67 12
75 75 16
64 62 11
77 75 11
76 76 16
82 82 15
80 82 16
76 76 14
89 88 24
84 84 27
89 90 27
97 95 23
95 95 19
88 88 12
105 103 27
103 101 14
104 104 30
102 101 25
103 101 30
108 105 28
107 105 36
106 104 34
116 115 36
110 108 33
113 111 37
111 108 31
112 111 33
115 112 33
121 117 38
127 124 40
120 116 29
129 126 42
127 124 46
125 122 38
122 119 37
126 122 36
135 130 45
134 130 39
137 132 42
134 130 45
142 138 48
134 129 53
138 133 41
141 137 49
145 141 48
142 137 49
148 141 56
144 140 50
141 137 44
153 147 59
146 142 50
145 141 51
146 140 49
145 141 51
146 142 44
151 144 58
147 141 56
144 137 45
152 146 56
156 148 68
152 146 54
146 142 48
145 140 45
155 150 61
155 148 53
153 147 57
151 146 54
157 150 56
152 146 56
146 140 49
151 144 61
157 151 65
154 149 53
153 148 56
156 150 61
155 148 65
152 146 56
144 139 43
153 147 54
159 151 59
150 146 45
155 149 63
156 149 57
149 144 53
158 150 59
141 137 44
147 141 49
152 146 57
159 151 63
154 148 62
152 145 57
152 145 56
157 150 67
154 147 66
144 139 53
157 150 56
157 150 63
152 146 61
158 152 65
154 148 63
156 149 58
155 148 65
148 143 57
149 143 56
156 150 63
154 148 69
149 142 57
154 146 65
161 154 63
152 146 56
154 148 64
147 142 57
152 145 60
155 149 64
151 145 65
143 136 54
151 145 62
155 149 68
151 144 66
153 146 69
153 147 59
151 145 61
159 152 68
157 150 68
154 147 67
142 136 56
154 148 60
147 142 60
149 143 62
151 145 60
154 148 66
147 140 60
146 139 59
147 140 65
137 133 47
145 138 62
151 145 63
145 139 57
173 196 0
171 195 0
171 194 0
172 195 0
175 198 0
173 197 0
172 195 0
171 195 0
171 195 0
173 196 0
174 197 0
173 197 0
174 196 0
172 194 0
170 194 0
171 195 0
173 197 0
174 197 0
173 196 0
173 197 0
171 195 0
173 196 0
172 196 0
173 197 0
173 197 0
173 197 0
175 198 0
171 194 0
174 197 0
172 197 0
175 198 0
172 197 0
172 196 0
174 197 0
173 197 0
173 196 0
170 194 0
173 197 0
173 196 0
174 197 0
175 198 0
173 196 0
173 197 0
176 199 0
172 195 0
174 197 0
173 197 0
174 198 0
174 197 0
172 195 0
173 197 0
171 195 0
173 197 0
172 196 0
173 197 0
172 196 0
173 196 0
174 197 0
174 197 0
175 197 0
174 198 0
172 195 0
173 197 0
172 194 0
172 195 0
171 195 0
172 195 0
173 196 0
172 196 0
173 196 0
174 197 0
175 198 0
173 196 0
175 198 0
175 198 0
173 195 0
172 194 0
175 198 0
172 195 0
174 196 0
172 195 0
172 195 0
171 195 0
174 196 0
171 195 0
173 196 0
173 195 0
173 195 0
172 194 0
172 194 0
171 193 0
173 195 0
174 195 0
172 195 0
171 193 0
172 194 0
169 191 0
171 193 0
168 190 0
171 193 0
171 193 0
176 196 0
172 193 0
169 191 0
171 192 0
166 189 0
165 187 0
169 190 0
164 186 0
167 189 0
161 182 0
165 186 0
163 185 0
165 186 0
164 185 0
160 181 0
159 181 0
160 183 0
155 177 0
149 171 0
143 165 0
149 171 0
147 168 0
141 162 0
131 151 0
113 130 0
112 129 0
114 131 0
117 135 0
121 139 0
107 125 0
116 134 0
116 133 0
114 133 0
124 143 0
134 155 0
137 159 0
135 157 0
151 173 0
146 169 0
160 183 0
169 193 0
172 195 0
172 196 0
173 196 0
171 195 0
172 195 0
172 196 0
170 194 0
169 193 0
168 192 0
170 193 0
172 195 0
172 194 0
163 186 31
65 95 90
56 89 92
57 90 111
55 88 100
55 87 94
54 86 82
56 89 102
59 92 113
56 89 111
57 90 103
56 89 110
57 90 111
55 88 95
56 89 107
58 91 113
57 91 110
56 88 108
57 91 102
58 91 114
55 87 107
59 93 117
57 90 114
56 89 105
58 91 114
57 90 107
57 90 113
58 92 115
57 90 97
55 87 107
57 91 121
59 92 122
56 89 107
58 91 121
58 92 115
57 90 113
56 89 107
59 93 122
57 90 111
57 91 117
58 91 113
56 90 110
57 90 108
57 90 120
56 88 97
57 90 100
58 90 117
55 88 102
56 89 105
56 88 108
56 87 115
56 88 112
59 92 120
57 90 113
57 90 108
54 86 105
55 87 104
57 90 120
57 90 117
57 90 120
57 89 111
57 89 113
53 85 99
56 89 113
56 88 117
57 89 107
56 88 113
54 85 108
54 86 101
58 91 124
56 89 117
53 85 97
56 88 118
56 87 105
54 85 104
54 85 110
55 86 100
54 86 107
56 88 105
53 83 92
55 86 109
56 87 103
57 88 111
51 78 82
53 84 106
53 82 90
52 81 96
50 78 87
50 77 95
48 73 80
54 77 75
157 178 19
169 192 0
172 196 0
169 192 0
170 194 0
170 191 0
171 193 0
168 190 0
168 190 0
171 193 0
171 194 0
170 192 0
171 194 0
132 145 22
84 83 21
83 80 27
76 73 21
86 84 22
82 81 16
76 74 16
80 76 19
77 77 19
81 78 8
85 84 14
71 72 20
88 86 8
77 77 11
88 86 16
93 92 20
91 92 30
87 87 28
83 82 18
112 109 35
111 109 29
97 96 29
95 94 27
105 104 39
111 107 28
104 104 36
100 99 34
108 106 33
121 118 37
113 110 41
126 123 40
116 115 31
132 127 47
120 116 38
123 121 42
129 126 42
134 130 44
127 123 33
132 129 39
132 129 40
129 125 37
136 131 37
141 136 53
139 135 45
134 129 45
131 127 42
137 132 45
135 130 45
133 130 43
140 134 53
141 136 50
147 141 54
142 138 46
141 135 45
137 134 36
144 139 49
148 142 54
136 133 44
147 141 52
150 144 52
145 140 45
148 144 50
151 144 61
147 141 59
153 146 54
150 144 48
149 144 49
155 149 59
152 146 52
146 141 50
146 140 52
149 144 53
155 149 51
152 146 58
150 145 53
148 142 47
151 146 56
154 149 57
148 143 48
157 150 66
151 144 53
154 148 58
154 149 58
157 151 54
156 150 60
150 144 52
153 148 49
155 149 58
147 143 45
151 146 52
153 147 60
151 145 58
159 152 67
152 146 54
153 147 52
158 151 65
148 142 54
158 150 62
155 148 57
154 148 58
150 144 57
154 148 56
159 152 64
155 149 59
152 147 59
155 148 64
151 145 58
150 144 53
151 144 54
153 148 59
150 143 58
155 149 62
153 146 60
154 147 64
149 143 51
155 149 62
156 149 61
153 147 57
155 149 60
150 144 62
149 144 54
152 145 60
143 136 60
146 140 56
145 138 53
146 140 53
145 138 61
153 146 62
151 145 60
152 144 66
150 144 66
148 142 56
155 148 60
147 141 66
148 141 60
152 145 59
151 145 71
154 147 65
145 140 54
145 139 51
148 141 65
144 138 61
173 196 0
174 198 0
173 196 0
173 196 0
171 194 0
174 197 0
173 195 0
174 196 0
174 197 0
171 195 0
173 197 0
173 196 0
173 197 0
173 197 0
170 194 0
174 196 0
173 197 0
174 197 0
175 197 0
173 196 0
173 197 0
174 197 0
171 194 0
171 195 0
172 196 0
173 197 0
174 198 0
172 196 0
174 197 0
172 196 0
172 195 0
173 196 0
172 196 0
172 196 0
173 196 0
174 198 0
174 197 0
173 196 0
173 196 0
173 196 0
172 195 0
172 195 0
174 198 0
174 198 0
172 195 0
174 197 0
173 196 0
173 196 0
173 197 0
174 197 0
174 197 0
171 195 0
172 195 0
174 197 0
173 196 0
174 198 0
172 196 0
170 194 0
176 199 0
173 196 0
174 197 0
174 198 0
173 196 0
173 196 0
171 194 0
171 194 0
173 197 0
171 194 0
172 195 0
174 197 0
176 198 0
171 193 0
176 198 0
175 197 0
176 198 0
176 197 0
174 197 0
175 196 0
176 198 0
174 197 0
175 197 0
176 197 0
177 199 0
175 197 0
176 197 0
177 199 0
170 192 0
171 192 0
172 194 0
173 195 0
178 198 0
172 194 0
173 196 0
167 188 0
174 195 0
175 196 0
173 195 0
174 195 0
170 191 0
171 192 0
165 187 0
169 190 0
168 189 0
168 189 0
167 188 0
167 188 0
164 186 0
169 190 0
164 186 0
165 186 0
164 184 0
164 185 0
164 186 0
153 174 0
163 184 0
154 175 0
159 180 0
161 182 0
157 179 0
151 172 0
151 172 0
136 158 0
137 157 0
141 160 0
127 146 0
121 138 0
122 141 0
117 136 0
121 141 0
123 140 0
117 136 0
123 141 0
125 144 0
130 150 0
130 150 0
141 161 0
144 165 0
145 167 0
152 175 0
155 179 0
165 188 0
171 194 0
170 194 0
170 193 0
169 193 0
172 196 0
168 192 0
173 197 0
171 195 0
171 194 0
170 193 0
169 193 0
170 193 0
169 192 0
172 195 0
117 141 70
55 88 94
55 88 90
56 88 100
56 89 97
57 90 105
57 91 103
56 89 100
56 89 110
57 91 117
57 90 99
58 91 111
58 91 113
57 90 105
55 88 100
57 89 107
55 88 95
58 92 108
57 91 111
58 91 121
57 90 114
59 92 120
56 88 94
58 92 117
57 90 103
57 91 103
56 90 105
55 88 97
58 92 120
56 89 92
56 89 105
56 89 113
57 90 113
57 90 105
59 93 125
57 90 102
58 91 113
57 90 105
56 89 120
56 89 117
56 88 102
58 91 115
56 88 102
59 93 125
56 89 113
55 88 92
58 92 118
56 89 97
56 88 107
57 91 108
58 91 115
56 89 111
57 90 108
56 88 105
56 89 105
55 87 99
55 87 103
58 91 124
57 90 110
55 87 110
55 87 96
57 89 106
55 87 104
55 87 102
56 88 113
56 87 108
56 89 114
56 87 114
56 88 103
56 88 108
56 88 99
55 86 106
55 86 95
56 88 113
54 85 102
56 87 104
53 84 101
54 86 109
54 84 104
55 86 98
56 87 117
52 81 94
51 79 89
52 82 88
49 75 85
49 77 90
50 77 90
48 74 85
45 69 72
115 134 39
165 186 0
167 189 0
168 192 0
170 192 0
171 193 0
165 189 0
170 191 0
169 191 0
171 194 0
169 191 0
171 196 0
170 193 0
167 190 0
170 192 0
104 109 16
96 94 28
90 87 28
85 84 20
87 84 24
81 80 18
80 78 23
71 71 10
78 75 12
86 85 16
77 77 8
80 79 18
83 82 16
80 79 12
91 91 3
91 89 16
97 96 27
89 87 24
97 96 21
102 100 24
96 94 23
113 110 30
105 101 21
93 92 19
117 112 24
113 111 33
111 107 30
101 101 28
115 113 30
121 119 48
116 113 28
114 112 32
123 121 37
123 121 38
117 115 42
132 128 37
132 127 42
130 127 38
133 129 46
134 129 40
132 129 42
130 127 37
130 127 41
141 136 44
141 135 50
132 127 43
138 132 38
142 137 45
146 140 51
139 134 41
134 131 42
141 136 44
142 136 42
143 139 45
144 137 47
134 130 44
146 141 49
145 140 51
149 144 55
141 135 44
144 140 47
147 142 56
147 142 51
147 141 49
145 139 49
149 144 50
152 147 57
147 141 48
147 142 37
149 142 57
154 147 58
153 146 58
155 148 59
140 135 42
155 149 49
154 149 49
150 145 48
157 149 57
150 145 49
152 146 58
151 145 58
151 145 56
152 146 58
157 149 58
155 150 51
152 145 53
150 144 57
154 148 52
157 150 57
160 152 60
157 152 54
151 145 52
154 149 59
153 147 58
149 144 49
154 148 62
151 145 57
147 142 49
150 143 57
154 148 60
151 144 53
153 147 61
154 148 61
146 140 51
155 149 57
159 153 64
153 147 57
156 150 66
150 145 51
151 143 58
144 138 52
148 143 49
155 148 67
140 133 49
150 143 61
152 147 61
152 147 53
155 148 64
149 142 59
143 136 52
151 145 63
151 145 62
142 137 51
148 142 57
152 144 57
140 134 54
154 147 61
144 140 52
151 146 57
154 147 61
153 147 63
141 136 52
149 142 57
145 139 53
144 138 59
147 140 61
153 146 61
137 131 56
147 141 62
143 137 57
143 137 57
172 196 0
173 197 0
173 197 0
175 198 0
174 197 0
171 194 0
173 196 0
173 197 0
172 196 0
173 196 0
172 196 0
172 196 0
173 197 0
174 197 0
172 195 0
172 197 0
172 196 0
172 195 0
174 197 0
175 198 0
172 195 0
174 197 0
173 197 0
175 197 0
174 197 0
174 196 0
172 195 0
173 196 0
173 197 0
174 197 0
175 198 0
173 197 0
175 198 0
173 197 0
174 197 0
173 196 0
172 195 0
173 196 0
175 197 0
172 195 0
174 197 0
173 196 0
174 197 0
172 195 0
174 197 0
174 196 0
172 195 0
172 196 0
173 197 0
173 196 0
175 198 0
173 196 0
171 194 0
174 198 0
171 195 0
173 197 0
174 197 0
175 197 0
174 197 0
175 197 0
173 196 0
172 194 0
171 194 0
175 198 0
174 196 0
174 197 0
172 195 0
173 197 0
172 195 0
175 197 0
172 195 0
176 197 0
176 198 0
173 195 0
174 196 0
172 195 0
175 197 0
174 196 0
176 197 0
173 195 0
170 192 0
176 197 0
172 195 0
174 196 0
174 196 0
171 193 0
174 196 0
174 196 0
172 193 0
172 193 0
174 195 0
169 191 0
172 193 0
171 192 0
171 193 0
173 195 0
171 192 0
173 194 0
173 193 0
165 186 0
172 192 0
168 189 0
170 191 0
165 184 0
172 193 0
169 190 0
170 191 0
171 191 0
167 188 0
157 178 0
165 186 0
166 186 0
161 182 0
166 186 0
162 182 0
157 179 0
161 182 0
159 179 0
156 178 0
150 171 0
137 158 0
145 165 0
138 158 0
139 158 0
125 144 0
126 145 0
117 135 0
123 142 0
130 149 0
131 149 0
130 150 0
126 146 0
132 151 0
129 149 0
131 153 0
132 153 0
143 165 0
142 164 0
156 179 0
159 181 0
173 197 0
170 194 0
170 193 0
172 195 0
170 194 0
171 194 0
168 191 0
171 195 0
170 194 0
167 191 0
170 194 0
167 190 0
170 194 0
172 195 0
166 189 0
164 187 25
75 104 86
55 87 86
56 89 97
58 91 108
55 88 94
56 89 97
55 87 94
55 88 100
56 88 99
57 90 102
57 91 97
57 90 94
56 89 107
57 90 110
56 89 103
57 90 108
55 88 99
57 90 113
56 89 103
58 91 113
56 89 103
57 90 114
58 92 113
59 92 121
58 92 125
56 89 95
55 87 103
58 91 114
57 89 114
55 88 99
58 91 111
58 91 111
58 91 125
56 89 102
55 87 107
56 88 111
56 89 110
56 88 99
57 91 100
56 89 107
57 90 113
57 90 110
56 89 102
54 86 100
57 90 111
55 87 102
57 91 114
57 91 120
58 92 113
56 89 121
55 86 108
57 90 114
55 87 103
56 88 110
56 88 118
55 86 100
56 89 110
55 86 110
55 87 108
56 88 111
55 88 110
57 89 112
55 87 107
56 88 104
56 89 117
53 84 94
55 87 96
55 87 105
57 89 114
57 89 111
57 89 115
56 87 102
55 87 97
55 85 102
55 86 116
53 83 97
55 87 106
55 86 101
53 83 95
54 84 103
54 83 100
52 81 90
52 81 99
51 79 83
48 75 79
50 78 93
43 66 69
69 89 71
164 187 8
166 188 0
167 190 0
168 190 0
164 186 0
169 193 0
164 186 0
167 190 0
167 189 0
168 189 0
168 191 0
166 187 0
170 192 0
168 190 0
172 195 0
152 168 25
92 88 29
84 80 23
86 82 21
73 72 14
82 79 21
78 76 12
96 93 16
71 70 20
88 84 18
82 79 8
79 81 16
86 85 18
77 76 11
94 93 8
80 80 14
85 84 18
86 85 8
112 108 29
97 95 22
103 101 26
96 96 24
103 100 11
105 102 28
118 114 33
107 105 31
122 118 27
119 114 38
114 112 35
113 110 27
111 111 28
113 113 32
125 122 31
121 119 33
125 122 44
128 124 29
124 122 37
116 113 32
121 117 37
119 116 25
137 133 40
128 126 38
131 128 33
128 125 35
136 132 45
133 128 47
144 138 48
140 135 51
134 130 39
140 136 47
137 132 42
139 134 44
143 138 45
145 141 45
143 137 50
135 130 42
145 141 40
141 135 45
142 136 45
145 140 47
144 139 36
146 141 42
149 144 46
144 139 49
146 138 47
144 137 57
140 135 39
151 145 54
145 139 48
149 142 60
149 143 49
153 146 58
146 141 57
151 145 53
147 143 42
159 152 61
154 148 56
149 144 47
152 146 53
154 147 54
154 148 58
152 146 60
156 149 53
152 145 56
148 142 52
152 146 51
151 144 56
150 143 53
151 144 52
153 148 56
150 143 52
151 144 53
147 141 53
149 145 45
150 144 54
150 144 53
153 147 56
147 142 48
157 151 64
155 149 60
148 142 49
153 148 53
149 143 59
149 143 52
144 138 56
149 143 49
147 142 52
155 147 58
143 137 54
154 148 59
153 146 62
154 147 60
151 144 56
155 149 63
156 149 61
148 141 60
147 141 58
155 149 69
159 151 61
154 147 61
153 148 57
151 144 62
154 146 60
146 140 59
142 137 58
149 143 53
152 145 68
146 141 58
151 145 59
145 139 52
155 148 60
156 149 66
151 144 62
153 146 60
142 135 58
149 142 61
142 136 57
157 150 68
148 143 59
141 135 51
143 136 59
174 197 0
173 197 0
171 194 0
172 195 0
173 196 0
172 196 0
173 197 0
173 197 0
173 197 0
171 195 0
171 194 0
174 197 0
169 192 0
170 194 0
173 196 0
168 192 0
172 196 0
174 197 0
172 196 0
168 191 0
175 198 0
173 196 0
174 196 0
173 197 0
172 195 0
172 195 0
174 197 0
174 198 0
174 198 0
173 197 0
172 196 0
174 197 0
173 196 0
174 196 0
173 196 0
173 197 0
173 196 0
170 192 0
173 196 0
173 196 0
173 196 0
173 196 0
172 196 0
174 197 0
173 196 0
174 196 0
170 193 0
174 197 0
176 198 0
174 197 0
175 197 0
176 198 0
170 193 0
175 198 0
174 197 0
174 197 0
172 196 0
174 196 0
174 196 0
172 194 0
172 196 0
173 195 0
175 197 0
175 196 0
168 192 0
176 197 0
173 196 0
174 196 0
175 197 0
174 196 0
174 195 0
174 196 0
176 198 0
173 196 0
173 195 0
172 195 0
172 194 0
172 195 0
175 196 0
173 193 0
173 194 0
177 198 0
173 195 0
173 195 0
174 194 0
171 193 0
175 196 0
175 195 0
173 194 0
174 195 0
167 188 0
173 194 0
173 193 0
178 198 0
173 194 0
170 190 0
172 193 0
165 186 0
171 191 0
171 191 0
169 189 0
167 187 0
173 194 0
167 187 0
163 184 0
164 184 0
166 186 0
171 191 0
163 184 0
163 183 0
155 175 0
161 182 0
163 183 0
150 171 0
158 179 0
162 181 0
154 175 0
150 172 0
149 170 0
149 170 0
147 168 0
136 156 0
132 150 0
135 156 0
130 150 0
114 133 0
128 148 0
124 144 0
133 151 0
133 152 0
126 146 0
126 145 0
135 154 0
126 146 0
139 159 0
136 157 0
155 176 0
152 173 0
158 181 0
169 192 0
169 193 0
168 191 0
172 195 0
169 194 0
170 193 0
170 194 0
171 194 0
172 196 0
171 195 0
170 194 0
169 192 0
171 195 0
170 193 0
170 194 0
167 190 0
166 189 0
141 165 51
55 86 86
56 88 100
56 89 95
56 89 108
55 88 99
55 87 97
55 87 90
57 90 107
57 91 113
55 88 92
57 89 95
56 88 103
56 89 103
55 88 105
55 87 97
55 88 102
56 88 111
55 87 99
54 86 88
56 89 99
55 88 102
56 89 111
57 90 103
56 89 95
57 90 102
57 91 103
57 90 102
58 90 105
57 90 110
59 92 120
55 88 105
57 90 113
58 91 111
56 89 105
56 89 108
55 87 102
57 90 113
58 92 115
58 92 117
57 91 113
56 89 114
54 86 90
59 93 121
57 90 113
55 88 94
57 89 107
57 89 113
55 87 110
57 89 114
58 91 121
56 88 107
57 90 103
56 88 104
59 93 121
56 88 105
56 89 110
57 89 110
58 90 114
58 91 115
55 87 103
56 88 122
54 86 102
56 88 104
57 90 113
55 87 103
55 87 107
56 88 114
55 87 107
55 86 108
56 88 110
55 86 100
55 87 110
55 86 98
54 85 101
56 87 109
52 82 87
54 84 97
52 80 89
52 81 89
52 81 91
49 76 68
49 77 80
49 76 66
51 78 81
47 73 79
46 71 67
132 151 31
165 187 0
166 187 0
172 195 0
168 189 0
168 191 0
166 187 0
165 188 0
165 187 0
170 191 0
164 186 0
169 191 0
170 192 0
170 192 0
165 187 0
172 194 0
167 188 0
139 152 22
82 77 29
100 96 28
85 83 11
75 75 5
75 74 18
86 85 8
79 78 8
85 84 16
78 75 11
89 88 14
88 87 8
94 92 8
86 85 24
87 84 18
91 89 14
96 95 29
89 88 12
90 90 16
98 96 26
107 104 33
99 97 18
110 108 28
98 97 24
97 96 32
122 116 28
108 106 25
113 108 28
110 109 34
110 109 25
101 98 27
121 118 37
123 121 41
115 113 28
123 119 28
136 131 42
122 117 38
125 122 33
132 127 37
127 123 37
134 130 42
129 124 42
135 130 25
139 135 44
134 130 37
136 131 47
138 134 36
141 136 45
128 124 39
134 130 37
138 134 47
141 136 47
140 134 37
143 136 48
152 146 52
143 137 48
140 136 39
151 145 53
148 142 42
148 143 37
141 135 47
140 134 41
140 135 40
144 138 41
141 138 32
144 139 48
145 140 47
146 141 54
150 142 59
149 143 48
152 146 51
154 145 57
149 143 53
150 144 49
146 141 51
144 139 53
152 147 49
145 140 47
149 144 47
151 145 49
153 146 51
146 142 44
145 139 51
154 148 57
152 145 58
150 143 57
150 143 58
153 147 56
155 149 56
156 149 58
154 148 51
154 148 57
154 147 51
149 144 56
148 142 48
151 146 56
155 148 59
142 137 51
150 143 60
154 147 60
149 143 47
151 145 48
150 144 54
148 142 53
147 142 42
147 142 51
147 142 49
141 135 45
154 147 60
146 139 57
143 139 45
151 145 60
156 151 63
146 140 51
152 146 58
148 142 57
150 144 52
145 140 54
146 140 52
147 142 60
151 145 62
144 137 61
144 139 53
150 144 56
150 145 49
140 134 51
155 149 62
147 141 57
151 145 61
152 147 54
150 144 58
141 135 53
140 135 56
139 134 49
143 138 52
149 143 61
143 138 59
156 148 65
146 139 61
148 142 52
173 197 0
174 197 0
173 197 0
170 193 0
172 196 0
170 194 0
172 195 0
173 196 0
172 196 0
171 194 0
172 195 0
170 194 0
172 196 0
169 193 0
170 194 0
172 196 0
171 194 0
173 196 0
170 194 0
171 195 0
173 196 0
173 196 0
174 197 0
173 197 0
173 196 0
174 197 0
174 197 0
172 196 0
174 197 0
173 196 0
171 195 0
172 196 0
174 197 0
171 195 0
173 196 0
174 197 0
172 196 0
171 195 0
174 197 0
173 196 0
175 197 0
174 196 0
173 196 0
175 198 0
176 198 0
175 197 0
173 197 0
175 197 0
174 197 0
172 195 0
175 198 0
171 194 0
174 197 0
173 196 0
173 195 0
171 194 0
175 197 0
172 194 0
174 197 0
175 197 0
174 197 0
176 198 0
174 197 0
171 193 0
175 197 0
177 198 0
171 193 0
173 196 0
176 198 0
176 198 0
175 196 0
173 195 0
175 196 0
174 195 0
177 198 0
169 192 0
173 195 0
176 197 0
176 197 0
170 191 0
177 198 0
175 195 0
175 196 0
173 193 0
175 196 0
175 196 0
172 192 0
175 195 0
174 194 0
173 194 0
173 194 0
170 190 0
172 192 0
175 195 0
171 191 0
170 189 0
171 191 0
170 190 0
172 191 0
170 190 0
169 189 0
169 189 0
164 183 0
166 186 0
171 190 0
160 181 0
163 183 0
162 183 0
163 183 0
164 184 0
167 187 0
161 182 0
153 173 0
154 175 0
161 181 0
154 173 0
146 166 0
139 159 0
150 170 0
149 169 0
139 160 0
138 158 0
126 145 0
132 150 0
129 149 0
131 151 0
130 150 0
140 159 0
121 141 0
123 142 0
146 165 0
133 153 0
134 154 0
148 168 0
148 169 0
144 166 0
153 175 0
157 180 0
165 189 0
171 194 0
171 194 0
166 190 0
167 191 0
168 191 0
173 196 0
169 192 0
171 194 0
165 190 0
164 189 0
168 191 0
166 190 0
167 192 0
165 189 0
166 189 0
168 191 0
163 187 0
168 192 0
108 132 70
54 87 82
55 88 92
54 86 107
57 91 105
55 88 97
54 87 90
56 89 105
55 88 95
56 89 103
55 88 97
55 88 92
56 89 100
57 90 108
55 88 107
53 86 80
55 87 95
55 88 90
56 88 105
58 92 114
56 89 103
57 90 110
59 92 126
57 91 114
57 89 102
55 88 103
57 91 103
56 88 107
57 90 103
58 92 121
58 92 113
58 92 113
56 89 105
56 89 113
55 88 107
56 88 107
57 90 107
55 88 102
57 90 107
58 92 115
57 90 117
57 91 103
55 88 103
57 90 122
58 91 113
56 89 111
57 89 107
55 87 96
58 91 114
57 90 118
56 88 111
56 88 107
55 88 100
57 89 110
56 88 111
54 87 99
56 89 111
55 87 107
57 90 110
55 87 100
57 89 107
55 88 94
53 85 99
55 86 94
56 87 105
54 86 104
54 85 101
55 87 100
54 84 99
53 83 97
55 86 100
53 83 96
54 85 95
54 85 98
54 85 103
54 84 104
49 77 99
49 77 90
54 83 93
53 83 97
51 78 87
50 79 69
52 80 89
48 75 72
47 72 79
101 121 46
165 188 0
164 186 0
159 182 0
166 189 0
168 189 0
166 188 0
164 186 0
162 183 0
163 185 0
162 184 0
163 185 0
165 187 0
166 187 0
169 190 0
170 191 0
170 192 0
165 186 0
161 183 0
112 117 22
87 84 29
85 82 21
97 94 24
81 78 3
87 84 11
78 77 0
84 80 0
87 86 10
89 86 16
81 81 14
88 88 16
89 87 11
78 79 17
89 89 21
105 102 14
90 89 16
98 96 19
100 97 21
103 101 14
103 102 14
105 102 8
103 100 32
97 95 18
101 100 18
115 112 29
116 112 27
115 111 29
115 112 30
118 116 27
121 118 29
118 116 34
122 117 24
119 116 32
118 115 40
122 120 28
126 122 34
128 123 32
129 124 33
125 121 34
138 132 42
135 130 37
140 135 42
136 131 40
132 129 36
130 126 34
139 134 41
129 124 45
138 133 33
131 129 31
142 137 44
143 138 44
143 138 42
138 133 38
136 131 47
138 134 39
139 135 32
138 132 48
144 139 41
142 138 39
142 136 41
145 140 48
140 136 39
144 139 46
151 145 47
139 133 37
145 140 37
139 134 39
142 137 45
147 142 36
152 146 53
140 136 42
146 140 36
152 146 51
143 138 45
149 143 52
147 141 51
149 144 52
145 138 54
152 144 54
151 145 61
154 148 54
143 137 41
156 150 49
151 144 45
148 142 42
148 141 51
145 140 51
151 145 49
149 144 53
151 144 58
148 142 52
144 139 45
152 145 49
151 145 57
143 138 48
147 141 51
150 143 59
147 141 54
152 145 57
149 143 52
150 145 60
146 140 52
151 145 54
149 143 51
154 147 59
147 141 49
153 147 60
147 140 56
144 138 54
150 143 59
147 141 62
143 137 51
146 140 53
148 142 52
146 139 60
145 139 53
145 139 53
145 139 53
148 142 63
153 148 57
145 139 51
143 138 61
146 140 60
138 133 49
147 142 51
146 139 60
150 144 61
152 145 61
151 145 62
147 141 56
148 141 61
145 139 53
143 137 56
138 133 53
143 137 57
147 141 63
145 140 53
142 137 59
171 194 0
173 197 0
171 195 0
174 198 0
173 196 0
172 196 0
173 197 0
174 197 0
172 196 0
172 196 0
173 197 0
170 195 0
173 196 0
170 194 0
173 196 0
172 194 0
172 196 0
171 195 0
172 195 0
171 194 0
173 197 0
175 198 0
171 195 0
174 197 0
172 195 0
173 197 0
172 195 0
173 196 0
173 197 0
173 197 0
177 199 0
172 195 0
173 196 0
173 196 0
172 195 0
173 195 0
176 198 0
173 196 0
175 197 0
175 198 0
176 198 0
174 196 0
175 198 0
176 198 0
173 196 0
175 197 0
172 195 0
175 197 0
173 195 0
174 197 0
175 197 0
172 195 0
174 196 0
173 196 0
175 197 0
175 197 0
174 195 0
176 198 0
175 196 0
171 194 0
176 198 0
175 197 0
178 199 0
173 195 0
175 196 0
174 195 0
178 199 0
173 194 0
175 196 0
172 194 0
173 195 0
175 197 0
176 197 0
171 193 0
176 197 0
176 197 0
173 193 0
173 194 0
175 195 0
176 197 0
171 192 0
172 192 0
174 195 0
172 192 0
175 196 0
168 189 0
168 189 0
176 196 0
176 195 0
172 191 0
173 193 0
169 189 0
172 192 0
168 189 0
170 190 0
173 193 0
168 188 0
170 189 0
172 191 0
170 189 0
166 185 0
163 183 0
165 185 0
165 185 0
161 182 0
158 177 0
163 184 0
158 179 0
156 176 0
161 180 0
156 176 0
162 180 0
163 182 0
151 172 0
147 167 0
150 170 0
142 160 0
139 159 0
138 158 0
139 160 0
143 164 0
144 165 0
138 160 0
140 160 0
134 155 0
136 156 0
138 157 0
135 154 0
143 163 0
138 158 0
134 154 0
139 159 0
136 157 0
141 163 0
154 176 0
141 163 0
159 182 0
162 184 0
171 194 0
168 192 0
166 189 0
169 192 0
167 190 0
165 189 0
168 191 0
170 193 0
169 193 0
169 193 0
168 191 0
166 190 0
166 188 0
166 190 0
172 195 0
165 189 0
171 195 0
167 191 0
161 185 0
163 187 18
75 102 80
52 83 76
55 87 86
57 90 110
57 90 121
56 88 97
55 87 86
56 89 103
58 91 107
55 88 94
54 87 95
54 86 82
55 86 95
57 90 105
58 91 115
56 89 97
57 89 114
56 89 107
54 86 92
55 88 88
54 86 90
58 91 115
56 88 102
57 89 110
58 91 102
56 89 108
57 90 97
56 88 114
56 89 99
55 88 95
56 89 97
57 89 117
55 86 95
58 91 105
57 89 99
58 91 115
57 90 103
54 86 100
56 89 107
56 88 95
53 85 95
57 91 102
55 87 110
54 86 90
57 90 107
56 88 100
58 91 117
54 86 86
55 88 95
54 85 103
56 88 100
56 89 105
55 87 107
54 86 94
56 87 114
55 86 100
56 88 114
53 83 90
54 85 97
55 87 101
57 89 114
55 86 93
56 88 103
56 88 113
54 85 103
55 86 102
54 86 99
53 84 98
54 85 96
51 80 94
54 85 104
52 82 99
50 78 81
54 84 101
52 81 94
51 80 92
54 85 99
50 78 80
47 74 71
51 78 82
49 75 77
51 79 87
48 75 74
63 85 67
158 180 18
162 183 0
163 184 0
160 183 0
165 186 0
163 184 0
164 185 0
158 180 0
162 184 0
165 187 0
162 183 0
162 184 0
165 186 0
165 186 0
160 181 0
165 185 0
170 192 0
166 187 0
168 190 0
153 172 8
98 98 30
92 89 30
83 80 28
78 75 16
92 89 0
81 78 2
88 83 0
75 74 16
84 82 3
85 84 18
82 80 8
87 86 12
95 92 9
103 100 16
96 94 11
80 78 11
95 94 18
98 96 14
106 103 26
106 103 24
104 101 14
104 101 14
104 101 25
100 94 18
120 116 41
100 97 30
110 107 22
114 112 19
108 105 32
114 113 21
122 118 30
113 110 20
117 114 28
110 106 30
125 122 30
124 120 33
126 122 30
135 130 31
129 125 37
127 124 29
132 128 33
142 137 41
138 134 37
136 131 45
136 130 44
138 133 32
135 130 42
140 135 37
137 132 44
140 134 44
137 132 34
145 139 51
145 141 34
131 126 33
141 136 47
144 137 49
138 132 33
149 143 49
146 140 45
146 140 49
142 138 34
141 135 47
149 143 53
146 139 49
148 142 52
147 141 51
149 143 48
136 131 34
144 140 48
148 144 44
146 141 42
144 139 44
152 147 49
150 144 49
150 143 49
146 142 49
152 146 51
150 142 54
159 152 60
140 134 48
145 139 47
155 148 59
151 144 59
148 143 52
148 144 49
147 142 48
155 149 62
158 151 60
155 149 57
149 144 47
150 144 52
149 143 54
151 146 53
144 138 44
148 142 57
154 148 56
147 141 52
151 145 52
147 142 52
150 144 52
152 146 60
147 141 53
152 146 54
147 141 53
147 142 52
153 147 51
148 142 57
142 136 53
147 140 48
145 140 51
152 145 58
146 142 53
149 143 53
145 139 41
148 142 53
147 141 56
155 149 60
147 142 57
145 139 49
149 143 56
149 143 54
150 143 64
148 142 51
147 141 54
149 142 60
148 141 53
153 146 65
148 141 62
145 139 53
150 143 63
138 130 51
144 138 57
135 129 54
139 134 52
144 138 54
152 145 62
144 139 54
146 140 54
173 196 0
173 197 0
174 198 0
172 195 0
173 196 0
171 195 0
168 193 0
172 195 0
169 193 0
170 194 0
171 195 0
173 196 0
171 195 0
171 195 0
172 195 0
174 197 0
169 194 0
172 196 0
172 195 0
172 195 0
173 196 0
170 194 0
173 196 0
172 195 0
171 195 0
172 195 0
173 195 0
174 198 0
175 198 0
172 195 0
176 199 0
172 195 0
173 196 0
173 195 0
172 195 0
177 199 0
169 193 0
173 196 0
173 196 0
172 195 0
174 197 0
175 197 0
175 197 0
173 196 0
176 198 0
173 196 0
173 195 0
174 196 0
173 196 0
176 198 0
173 196 0
175 197 0
173 195 0
173 196 0
174 196 0
174 196 0
173 195 0
173 196 0
171 193 0
175 197 0
172 195 0
171 192 0
174 196 0
176 197 0
174 196 0
173 194 0
174 195 0
174 196 0
176 196 0
176 198 0
177 198 0
176 196 0
177 198 0
172 193 0
172 193 0
174 194 0
169 189 0
174 194 0
177 197 0
173 193 0
172 192 0
172 192 0
168 188 0
170 190 0
174 194 0
170 191 0
172 193 0
172 191 0
172 193 0
171 191 0
165 185 0
171 191 0
169 189 0
167 187 0
165 184 0
165 185 0
172 193 0
164 185 0
160 180 0
174 193 0
167 186 0
168 187 0
167 186 0
164 183 0
155 175 0
161 180 0
151 170 0
156 176 0
152 172 0
157 177 0
157 177 0
153 173 0
156 176 0
149 169 0
150 170 0
148 168 0
151 170 0
147 167 0
150 171 0
139 160 0
138 159 0
145 165 0
133 154 0
145 165 0
133 153 0
127 146 0
132 152 0
131 152 0
142 162 0
133 154 0
140 160 0
145 165 0
146 167 0
146 167 0
145 167 0
158 179 0
158 180 0
171 195 0
169 193 0
170 194 0
170 194 0
169 192 0
169 192 0
167 190 0
165 189 0
166 189 0
163 186 0
166 189 0
167 190 0
165 189 0
164 187 0
163 186 0
166 189 0
166 189 0
166 189 0
167 190 0
158 182 0
164 187 0
149 172 31
55 87 84
56 89 92
56 89 100
54 86 94
56 89 100
55 86 94
54 87 100
55 87 100
55 89 92
57 90 99
56 88 102
55 87 99
57 90 99
56 89 97
57 90 105
56 89 103
56 89 114
57 90 111
57 91 111
57 91 102
56 89 97
55 88 103
57 90 105
57 89 102
55 87 107
53 86 99
57 90 111
55 87 102
56 90 102
57 90 107
58 91 113
54 86 100
56 88 103
58 92 107
57 90 111
57 89 111
57 89 113
56 89 99
56 89 103
57 90 114
55 87 102
56 88 105
56 89 108
54 85 100
55 88 99
56 88 102
55 86 99
54 86 100
56 88 100
56 88 95
54 86 102
55 87 111
58 91 113
56 88 110
55 87 104
57 90 105
55 88 103
55 87 102
55 87 101
54 86 87
55 87 108
56 88 110
52 82 88
55 87 107
53 84 94
53 84 94
52 83 94
51 80 101
54 84 91
53 83 87
52 82 87
52 81 94
53 83 89
53 83 94
53 83 91
50 78 87
49 77 78
51 81 83
54 84 99
48 75 71
47 73 75
55 79 76
133 153 31
162 183 0
155 176 0
156 176 0
159 178 0
164 185 0
162 184 0
160 181 0
158 180 0
158 180 0
163 184 0
164 185 0
165 186 0
162 185 0
169 190 0
164 185 0
162 182 0
163 183 0
165 186 0
165 188 0
162 183 0
148 165 0
92 87 22
96 94 32
83 81 19
83 79 21
88 85 14
89 85 14
92 90 14
97 93 18
84 83 0
87 84 18
77 76 8
90 88 5
88 86 12
99 96 11
94 92 8
95 94 12
101 98 19
103 100 14
95 93 14
100 96 8
101 97 21
99 96 26
104 100 18
104 103 18
100 97 19
123 118 30
113 109 21
105 101 20
129 124 36
120 116 36
128 125 35
121 117 25
122 118 40
114 112 22
121 116 32
117 113 38
125 121 30
126 121 32
126 122 32
129 126 33
125 120 41
128 125 32
134 129 39
137 132 32
125 120 29
136 131 41
137 132 38
134 130 33
138 133 42
138 133 37
136 131 32
138 133 44
135 130 36
136 132 36
146 141 47
137 131 41
144 139 42
138 134 39
139 134 39
145 139 47
143 138 48
140 134 42
138 132 42
148 142 45
148 142 46
145 140 39
148 143 48
143 138 42
144 139 42
145 138 47
144 139 41
150 143 48
145 140 47
143 138 45
148 142 53
143 137 42
145 139 47
147 142 51
138 134 41
154 147 51
147 141 49
142 136 51
148 142 56
148 141 49
149 144 53
144 138 56
146 141 44
147 142 49
147 141 49
144 138 44
149 143 52
140 134 41
149 143 52
150 142 53
149 142 56
150 144 49
144 137 51
158 151 66
146 140 54
147 142 45
150 145 42
145 138 56
142 137 42
152 145 54
149 143 52
145 139 54
151 145 52
148 142 52
153 147 62
141 136 56
144 139 47
143 137 49
151 145 58
154 148 57
141 136 49
150 143 60
137 132 51
150 144 56
151 145 54
144 138 53
144 137 54
145 139 60
133 127 49
148 142 53
141 135 59
147 141 63
140 135 47
137 132 54
146 140 51
144 138 60
150 142 62
145 139 51
136 131 51
138 131 58
141 135 54
142 136 54
152 145 63
172 196 0
172 195 0
173 197 0
173 196 0
173 197 0
174 197 0
173 196 0
173 197 0
173 197 0
172 196 0
171 195 0
173 197 0
171 195 0
173 196 0
173 196 0
171 194 0
173 196 0
171 195 0
172 195 0
170 194 0
167 191 0
170 193 0
170 195 0
174 197 0
172 195 0
173 197 0
172 196 0
171 194 0
174 197 0
172 196 0
174 197 0
173 196 0
173 196 0
172 196 0
174 197 0
171 194 0
174 197 0
172 195 0
171 195 0
174 196 0
174 196 0
174 197 0
172 195 0
175 198 0
173 195 0
176 198 0
172 195 0
171 193 0
172 194 0
172 195 0
174 196 0
176 197 0
173 193 0
174 196 0
173 196 0
176 198 0
175 197 0
174 196 0
178 199 0
174 195 0
175 196 0
174 194 0
175 197 0
175 196 0
176 197 0
173 194 0
175 196 0
173 194 0
172 192 0
177 197 0
173 193 0
173 193 0
176 196 0
176 196 0
176 194 0
175 196 0
173 194 0
173 193 0
173 192 0
172 191 0
172 192 0
175 194 0
173 194 0
174 194 0
171 190 0
171 190 0
173 192 0
173 193 0
172 190 0
166 186 0
167 187 0
168 187 0
163 182 0
170 189 0
164 184 0
165 184 0
163 183 0
166 185 0
163 184 0
166 185 0
161 181 0
166 185 0
164 184 0
161 180 0
156 176 0
154 173 0
162 181 0
165 185 0
151 170 0
160 179 0
156 176 0
153 173 0
151 171 0
144 164 0
147 168 0
142 162 0
140 161 0
144 165 0
140 161 0
132 153 0
137 158 0
137 157 0
131 152 0
146 166 0
140 160 0
141 160 0
141 161 0
137 157 0
132 153 0
133 154 0
134 155 0
146 167 0
147 167 0
148 170 0
153 174 0
155 178 0
167 189 0
169 193 0
166 189 0
168 192 0
164 188 0
168 193 0
159 182 0
168 191 0
169 191 0
168 191 0
167 190 0
169 192 0
163 187 0
157 180 0
162 186 0
166 190 0
166 190 0
162 185 0
160 184 0
161 185 0
160 184 0
165 188 0
159 184 0
119 143 54
53 84 88
53 85 78
55 88 92
54 86 97
54 86 82
55 87 88
54 86 82
55 87 97
54 85 92
53 86 82
55 88 97
55 87 95
53 84 88
55 87 88
54 86 92
55 87 108
56 88 113
55 88 100
55 87 94
56 89 107
55 87 102
58 91 111
56 88 102
57 89 102
56 88 99
56 88 100
53 85 90
56 89 102
56 89 105
57 90 108
55 87 100
54 87 82
54 86 102
55 87 115
55 88 114
56 88 100
54 86 90
54 86 103
56 89 107
56 88 105
56 89 102
57 90 102
55 87 100
52 84 88
54 87 107
53 84 86
54 85 88
55 87 102
58 91 118
54 86 105
55 88 103
53 84 90
56 88 113
57 89 114
56 89 96
56 88 101
54 86 102
56 88 104
54 86 100
54 85 97
56 88 107
55 86 100
54 84 90
54 85 94
56 88 94
54 85 96
54 85 103
54 84 102
54 84 109
51 80 102
51 79 92
53 82 92
52 81 93
54 84 95
52 81 92
50 79 80
51 79 92
49 76 74
47 74 79
47 73 66
117 136 31
157 178 0
153 174 0
154 176 0
160 182 0
159 179 0
162 183 0
154 172 0
162 183 0
157 177 0
164 186 0
160 181 0
153 173 0
164 185 0
163 182 0
162 182 0
165 187 0
159 180 0
160 180 0
157 174 0
159 179 0
163 184 0
162 183 0
140 156 11
101 95 32
92 89 22
99 97 16
83 80 26
92 88 16
79 78 16
84 81 16
87 84 11
92 89 18
91 89 16
90 89 14
88 86 14
87 86 8
80 79 10
100 97 12
93 91 12
99 95 12
94 92 16
102 100 14
105 102 23
116 113 28
100 98 8
108 104 24
116 111 29
108 106 16
110 106 19
109 107 25
108 105 18
115 110 22
113 109 26
119 115 25
118 115 18
124 120 38
129 124 30
134 129 33
126 120 38
130 126 28
134 129 39
132 128 38
128 125 33
129 125 34
132 127 31
134 130 30
133 128 29
137 133 29
143 137 41
129 125 28
140 135 44
139 134 42
139 132 32
139 133 39
132 127 41
136 131 31
140 134 40
142 136 42
141 134 39
145 139 42
144 137 39
137 131 41
140 135 32
131 128 28
145 139 42
139 134 37
145 139 49
144 137 37
147 142 45
137 132 34
144 139 49
135 130 39
143 137 42
148 142 41
138 132 34
143 137 37
142 137 37
142 136 48
147 141 44
144 139 42
143 138 34
145 139 44
144 138 41
149 142 51
145 140 52
149 143 49
142 137 42
148 141 51
140 135 47
144 138 44
148 141 45
148 142 48
148 143 48
152 146 49
152 147 51
145 139 49
150 145 48
153 146 56
148 142 36
151 145 58
150 144 52
151 144 53
142 137 52
145 141 51
147 140 53
151 145 53
153 146 58
149 143 56
151 146 51
150 143 60
146 141 44
141 136 48
150 144 59
148 142 54
149 144 48
141 136 45
149 142 57
147 141 51
153 146 56
144 140 45
143 139 47
147 141 59
147 141 51
146 140 54
147 141 57
146 140 54
149 143 56
146 140 53
148 142 48
138 133 48
134 129 52
142 136 51
140 135 52
142 136 56
135 130 47
147 141 57
135 131 45
143 137 52
141 134 52
173 196 0
173 197 0
170 194 0
172 196 0
176 198 0
174 197 0
170 193 0
172 195 0
173 196 0
174 197 0
172 196 0
173 197 0
173 196 0
172 195 0
174 197 0
171 195 0
171 194 0
172 196 0
172 195 0
172 195 0
172 194 0
172 195 0
174 197 0
173 195 0
173 196 0
170 194 0
175 196 0
170 193 0
173 196 0
175 198 0
174 196 0
175 197 0
175 197 0
172 195 0
174 197 0
173 196 0
171 195 0
170 193 0
173 195 0
172 195 0
174 196 0
172 194 0
173 196 0
176 198 0
175 198 0
172 194 0
173 194 0
172 194 0
173 196 0
173 196 0
175 197 0
178 200 0
174 196 0
175 197 0
173 195 0
173 195 0
175 196 0
177 197 0
174 195 0
176 197 0
172 193 0
173 194 0
177 197 0
175 195 0
172 193 0
178 198 0
172 193 0
172 193 0
173 193 0
171 192 0
175 196 0
176 196 0
170 191 0
172 192 0
172 192 0
174 194 0
175 195 0
173 193 0
172 191 0
171 190 0
175 194 0
173 191 0
167 187 0
168 188 0
172 192 0
169 189 0
169 189 0
169 188 0
167 186 0
168 187 0
163 183 0
165 184 0
166 185 0
162 182 0
168 187 0
168 187 0
163 183 0
164 183 0
164 183 0
165 185 0
163 182 0
160 180 0
163 183 0
163 183 0
153 173 0
156 176 0
158 177 0
155 174 0
152 172 0
158 178 0
142 163 0
154 173 0
146 166 0
145 165 0
149 169 0
145 166 0
147 168 0
138 158 0
145 166 0
148 169 0
138 158 0
135 155 0
138 160 0
135 155 0
140 160 0
132 152 0
134 154 0
147 168 0
140 160 0
138 158 0
143 164 0
147 169 0
140 161 0
155 177 0
156 178 0
167 189 0
171 194 0
162 185 0
165 189 0
163 187 0
165 188 0
168 192 0
159 182 0
161 185 0
170 194 0
162 186 0
169 192 0
161 185 0
163 186 0
157 181 0
164 187 0
160 183 0
161 184 0
167 190 0
164 188 0
160 182 0
162 185 0
165 188 0
157 180 0
156 178 0
109 132 60
52 83 95
53 85 80
55 87 97
55 87 82
51 81 76
54 86 99
54 86 88
56 88 99
54 86 95
55 87 99
54 86 99
53 85 97
55 87 88
54 87 92
55 88 102
59 92 118
53 85 86
55 87 99
55 87 95
56 89 110
56 89 105
55 87 111
56 89 111
54 85 94
56 89 102
57 90 113
56 88 108
55 87 100
57 90 105
57 90 110
56 89 102
56 89 111
56 88 108
57 89 111
57 90 110
55 87 97
53 84 84
55 87 99
57 89 105
55 87 100
57 90 113
55 88 102
56 88 103
55 87 99
54 85 94
57 89 110
55 86 96
55 88 103
54 86 103
55 88 97
55 87 105
56 89 104
53 85 100
54 86 100
54 85 87
56 88 107
54 86 97
54 85 95
53 83 100
55 86 104
54 85 105
54 85 92
52 83 93
53 83 101
51 81 94
55 87 107
55 86 96
50 78 79
52 82 90
51 80 90
51 79 89
49 76 81
50 79 93
51 79 88
48 75 77
50 78 88
48 75 76
46 73 67
95 114 51
155 176 0
146 166 0
160 181 0
157 177 0
163 183 0
156 176 0
155 177 0
156 175 0
158 178 0
157 178 0
161 182 0
156 174 0
162 182 0
159 179 0
153 172 0
154 174 0
160 181 0
161 183 0
160 179 0
159 178 0
157 175 0
155 174 0
158 178 0
162 183 0
133 144 21
86 82 32
92 89 30
97 91 28
90 87 11
80 79 16
83 79 18
87 84 8
84 81 18
85 81 12
82 80 0
93 92 20
83 81 14
86 84 11
96 94 14
103 100 24
102 100 14
95 90 11
96 95 14
104 101 21
105 101 18
95 93 18
100 97 16
102 101 22
101 97 27
110 107 22
115 112 24
114 110 25
111 107 12
104 102 16
106 104 21
123 119 25
116 114 21
115 112 23
119 116 28
123 118 32
118 114 35
124 119 26
129 124 34
128 123 28
127 123 39
128 124 37
132 127 29
127 121 19
134 130 35
133 129 35
131 127 30
135 131 36
138 132 37
133 130 34
129 124 25
137 132 34
135 131 33
142 137 41
144 138 42
137 132 39
136 131 32
143 137 45
137 132 39
141 135 37
141 136 37
139 133 37
140 135 28
146 139 48
140 134 41
143 137 42
141 135 45
148 142 47
134 130 41
137 132 41
138 134 34
145 137 49
148 143 44
146 139 45
145 139 49
152 146 54
141 135 42
140 136 42
138 131 44
149 143 48
139 133 44
154 147 56
142 137 41
147 141 42
144 136 51
143 138 37
144 138 45
147 142 52
146 139 53
146 140 45
153 147 54
153 147 57
149 142 54
148 141 41
153 147 51
145 140 44
138 133 42
139 134 41
144 138 52
147 142 56
144 138 49
146 140 49
139 132 37
143 137 48
147 141 56
150 145 53
144 139 49
142 136 49
152 146 54
151 144 49
146 141 54
148 142 54
134 129 42
146 141 56
148 142 54
147 139 58
151 145 58
144 140 51
147 141 52
143 136 52
146 140 48
145 140 52
146 140 52
147 140 52
131 126 37
137 131 52
134 127 44
148 141 54
138 133 52
142 137 57
143 137 59
147 141 54
143 135 58
143 137 51
137 131 54
140 135 52
172 196 0
171 195 0
173 196 0
172 196 0
172 196 0
173 196 0
171 195 0
172 196 0
168 194 0
174 197 0
172 196 0
173 195 0
171 195 0
172 195 0
171 193 0
166 189 0
172 195 0
170 193 0
172 195 0
172 195 0
172 196 0
170 193 0
171 193 0
173 196 0
170 194 0
168 192 0
173 197 0
175 198 0
176 198 0
172 195 0
169 193 0
174 197 0
175 198 0
173 195 0
171 194 0
173 196 0
174 197 0
176 197 0
173 196 0
174 197 0
175 197 0
173 196 0
172 194 0
174 195 0
174 195 0
173 195 0
175 197 0
175 197 0
171 193 0
173 195 0
173 194 0
173 195 0
175 196 0
177 198 0
174 195 0
175 197 0
174 195 0
173 194 0
175 195 0
174 195 0
173 194 0
174 194 0
174 194 0
174 194 0
171 192 0
172 193 0
173 193 0
172 192 0
175 194 0
171 192 0
171 191 0
170 190 0
174 194 0
173 193 0
175 195 0
177 196 0
173 192 0
168 189 0
171 191 0
172 191 0
165 186 0
167 186 0
171 191 0
171 190 0
164 183 0
167 188 0
163 182 0
170 189 0
160 181 0
161 180 0
161 180 0
163 183 0
167 186 0
161 181 0
164 183 0
161 180 0
161 180 0
158 177 0
161 180 0
155 174 0
162 181 0
148 168 0
156 176 0
154 175 0
158 177 0
155 175 0
154 175 0
157 176 0
146 166 0
149 169 0
140 160 0
150 170 0
156 176 0
147 167 0
143 164 0
147 169 0
146 166 0
137 158 0
144 164 0
129 150 0
139 160 0
148 169 0
145 165 0
147 168 0
132 152 0
134 154 0
145 166 0
152 171 0
138 157 0
139 159 0
146 166 0
152 174 0
146 166 0
150 173 0
164 187 0
170 193 0
166 189 0
166 189 0
164 187 0
169 192 0
165 188 0
163 187 0
165 188 0
156 180 0
159 182 0
163 186 0
165 189 0
159 182 0
163 186 0
165 188 0
161 185 0
161 184 0
163 186 0
155 178 0
167 189 0
154 177 0
160 182 0
157 179 0
159 182 0
162 186 0
155 178 0
92 116 72
54 86 86
53 84 95
52 84 80
54 87 88
55 86 95
56 88 82
53 85 84
51 82 72
57 90 102
52 83 86
56 89 110
55 88 92
53 84 84
52 83 80
53 84 86
54 87 94
56 88 90
55 87 99
55 87 94
56 89 102
57 90 103
54 85 94
54 86 102
55 88 94
57 90 103
54 85 86
56 88 107
55 87 95
56 89 108
57 90 100
56 88 108
54 86 94
55 87 108
52 82 78
58 91 111
56 89 94
57 89 113
56 89 97
57 90 105
56 89 108
55 88 102
54 86 107
56 89 107
54 85 90
55 86 94
56 88 94
56 88 92
53 84 90
55 87 107
54 85 103
53 84 87
53 84 90
53 84 100
51 81 85
53 84 102
51 81 94
54 85 90
52 83 97
53 83 94
51 81 94
52 82 87
53 83 85
53 83 89
53 84 101
52 82 95
52 82 79
53 82 98
51 80 90
53 83 93
50 78 83
52 81 92
49 77 88
48 74 72
49 76 77
46 72 68
47 74 69
80 100 58
144 165 18
154 174 0
156 175 0
145 163 0
148 168 0
160 180 0
152 171 0
150 169 0
156 173 0
154 175 0
159 180 0
163 182 0
158 178 0
158 176 0
156 175 0
154 172 0
154 173 0
154 173 0
160 180 0
160 179 0
158 180 0
159 178 0
161 181 0
158 178 0
160 177 0
163 181 0
123 134 25
77 74 22
92 86 28
96 91 26
91 88 19
99 93 16
90 88 14
82 77 8
77 76 0
82 80 18
101 96 3
90 88 14
82 79 8
90 88 14
92 88 18
105 102 0
100 97 8
93 90 21
110 107 21
101 97 0
96 94 14
97 95 11
109 103 28
111 108 24
106 103 14
111 107 12
116 111 20
118 115 19
111 110 20
113 109 19
113 108 26
132 126 35
110 106 19
121 118 21
130 125 29
116 112 32
131 127 30
132 129 36
124 118 23
129 124 24
128 125 28
122 118 21
136 131 28
126 121 22
133 129 30
124 119 30
127 123 20
133 126 30
135 129 44
135 130 37
137 131 32
132 128 34
146 140 42
130 125 34
129 124 34
135 131 41
144 139 37
140 134 41
129 126 32
136 132 30
140 135 41
145 138 42
149 144 34
144 137 45
140 134 32
144 138 51
138 134 30
143 138 42
143 137 41
148 142 44
147 141 42
141 135 42
145 140 37
149 143 41
143 137 42
153 147 51
144 138 44
143 137 39
146 140 37
141 136 34
148 141 47
153 146 59
146 140 37
141 135 48
147 141 48
138 133 36
144 138 44
145 138 51
153 147 52
142 136 41
139 134 39
141 136 39
148 142 54
136 131 41
147 140 45
150 143 51
143 137 49
146 139 49
150 145 52
142 137 47
140 133 47
146 140 52
142 136 44
136 130 44
139 133 49
141 135 45
140 134 42
142 137 48
144 139 48
148 143 47
145 140 42
138 133 45
151 144 48
141 136 49
144 137 48
149 143 44
144 138 48
146 140 42
133 127 42
148 143 52
140 135 45
142 137 49
146 140 54
140 134 45
144 138 57
140 136 49
135 129 47
147 142 56
144 136 57
144 138 52
136 131 45
141 135 52
142 134 56
141 134 60
144 138 52
174 198 0
173 196 0
173 197 0
173 195 0
174 198 0
173 196 0
176 198 0
173 197 0
171 194 0
172 195 0
171 194 0
172 195 0
171 195 0
172 195 0
172 195 0
170 193 0
171 194 0
175 197 0
169 193 0
173 197 0
168 192 0
174 196 0
173 196 0
167 189 0
169 193 0
170 194 0
170 193 0
170 194 0
169 192 0
171 194 0
170 193 0
173 195 0
170 192 0
175 198 0
173 195 0
173 195 0
175 197 0
174 196 0
175 197 0
172 193 0
174 196 0
175 198 0
174 197 0
174 196 0
170 192 0
174 195 0
178 199 0
173 195 0
172 194 0
175 196 0
171 192 0
171 192 0
174 196 0
174 195 0
176 197 0
176 197 0
173 194 0
173 195 0
175 196 0
173 194 0
177 196 0
176 197 0
177 197 0
173 193 0
173 193 0
172 192 0
174 193 0
177 197 0
166 186 0
172 192 0
174 194 0
174 193 0
170 189 0
169 189 0
172 192 0
167 186 0
169 188 0
170 190 0
168 187 0
168 187 0
167 186 0
169 187 0
165 185 0
166 185 0
162 181 0
160 179 0
160 179 0
169 189 0
159 178 0
161 180 0
154 174 0
167 186 0
156 176 0
164 182 0
152 172 0
156 176 0
163 183 0
151 172 0
158 177 0
154 173 0
160 180 0
161 181 0
150 170 0
155 174 0
152 170 0
162 181 0
159 180 0
150 170 0
148 168 0
146 166 0
142 163 0
139 160 0
148 170 0
141 163 0
144 166 0
151 173 0
143 164 0
145 166 0
138 158 0
144 164 0
134 155 0
148 168 0
136 156 0
136 158 0
143 163 0
138 159 0
147 168 0
148 169 0
146 166 0
151 172 0
149 170 0
151 173 0
155 176 0
163 185 0
162 185 0
163 185 0
167 191 0
164 187 0
165 188 0
165 187 0
161 184 0
162 186 0
160 183 0
161 184 0
161 185 0
162 185 0
159 182 0
162 185 0
161 184 0
160 183 0
150 173 0
153 176 0
156 179 0
166 189 0
161 185 0
159 182 0
158 180 0
159 182 0
152 174 0
156 179 0
161 184 0
146 168 0
86 112 57
51 81 74
53 84 100
54 86 84
53 85 78
55 87 92
55 87 88
54 86 76
54 86 95
55 87 99
56 88 97
53 85 84
55 86 107
55 87 99
55 86 90
56 88 111
56 88 105
55 88 92
54 87 86
56 88 100
52 83 82
55 88 95
54 86 84
53 85 86
55 88 94
53 84 92
54 86 88
55 87 88
54 86 100
55 86 94
57 89 107
57 90 100
54 85 95
53 84 94
54 86 107
55 87 102
55 88 99
55 87 105
55 86 102
53 84 80
58 91 107
55 87 97
55 86 99
55 87 101
54 86 99
53 84 97
54 85 99
55 86 108
55 88 99
55 86 86
55 86 99
54 86 92
54 85 97
53 83 88
53 84 92
55 87 99
51 82 88
56 88 113
54 85 97
53 83 92
52 82 89
55 86 103
55 86 94
52 81 85
53 84 98
54 84 96
55 86 104
49 77 75
52 81 78
51 79 83
49 77 76
49 77 71
46 71 62
50 77 68
47 73 76
93 115 73
138 155 0
144 163 0
146 165 0
151 171 0
148 167 0
147 168 0
146 162 0
152 171 0
152 173 0
152 171 0
148 167 0
154 174 0
154 174 0
149 168 0
157 177 0
157 174 0
150 168 0
156 174 0
151 171 0
152 171 0
156 172 0
159 178 0
160 177 0
156 175 0
156 174 0
157 172 0
146 163 0
155 172 0
127 134 22
85 82 22
79 76 21
75 72 21
78 75 11
83 81 19
91 87 16
86 84 18
70 68 0
93 88 0
86 80 0
87 85 8
88 84 11
85 84 16
101 98 8
89 86 12
89 86 12
104 102 14
107 103 8
91 87 11
103 99 19
109 105 11
109 105 11
111 105 16
103 101 16
110 105 22
113 110 21
114 109 21
109 107 18
111 107 26
117 114 16
129 124 22
127 123 28
121 116 29
118 114 31
115 112 21
125 121 24
117 116 22
131 127 25
124 121 14
120 116 11
123 118 25
132 128 34
127 121 33
134 130 30
130 125 25
136 132 30
134 127 32
130 125 22
132 127 36
136 131 36
145 139 41
138 132 32
137 133 37
139 134 30
134 130 30
138 133 34
142 136 36
146 139 47
137 131 41
135 131 30
132 126 34
134 130 34
139 133 41
137 132 41
138 133 30
139 134 36
147 141 44
147 141 35
141 136 37
141 136 44
138 133 39
132 127 34
140 135 39
138 132 39
147 140 48
141 135 37
143 137 42
142 136 44
140 135 41
140 134 42
139 135 41
146 140 49
143 138 37
141 135 48
148 142 47
147 142 47
140 136 41
137 133 44
146 141 47
149 143 54
144 137 47
144 139 41
147 142 37
143 137 47
143 136 53
144 138 44
143 138 47
148 141 53
139 133 49
136 130 49
151 144 57
147 139 49
146 140 52
143 138 41
142 136 51
142 137 49
140 134 44
144 138 39
140 134 41
144 139 49
148 142 49
145 139 51
141 135 53
136 130 47
148 142 52
141 135 48
135 129 48
141 135 53
144 138 51
141 135 47
137 132 49
129 124 45
143 137 53
139 134 45
148 142 54
140 135 42
137 132 51
136 131 44
144 137 49
133 127 42
138 132 53
139 134 48
149 142 61
173 197 0
175 198 0
172 196 0
171 194 0
171 195 0
173 196 0
170 194 0
172 196 0
173 197 0
170 195 0
169 193 0
172 195 0
171 195 0
172 196 0
170 193 0
173 196 0
170 194 0
171 195 0
171 195 0
169 193 0
169 192 0
168 192 0
173 196 0
171 194 0
172 195 0
171 195 0
171 194 0
170 193 0
172 196 0
174 197 0
171 194 0
175 198 0
174 197 0
173 196 0
171 195 0
174 197 0
172 194 0
174 197 0
173 196 0
174 195 0
172 195 0
174 196 0
173 194 0
172 195 0
175 196 0
176 198 0
175 197 0
172 193 0
174 195 0
174 194 0
171 193 0
176 196 0
173 193 0
172 194 0
176 196 0
176 196 0
174 195 0
175 196 0
176 196 0
178 198 0
176 196 0
176 196 0
172 192 0
172 192 0
172 192 0
173 193 0
174 194 0
171 191 0
167 186 0
174 194 0
171 191 0
170 189 0
171 191 0
169 189 0
170 189 0
166 186 0
168 187 0
164 183 0
163 183 0
161 182 0
166 186 0
166 186 0
167 186 0
159 179 0
162 181 0
162 181 0
159 178 0
155 174 0
163 183 0
158 178 0
159 179 0
157 177 0
160 179 0
160 179 0
162 181 0
159 179 0
156 175 0
159 177 0
154 174 0
155 174 0
160 179 0
153 172 0
158 178 0
155 174 0
156 176 0
153 173 0
152 172 0
157 177 0
147 168 0
153 175 0
151 171 0
154 176 0
142 164 0
153 176 0
153 174 0
147 168 0
156 178 0
143 164 0
153 173 0
146 165 0
151 172 0
152 172 0
151 171 0
148 168 0
147 168 0
151 171 0
154 175 0
138 156 0
148 168 0
149 170 0
150 171 0
159 180 0
164 186 0
163 185 0
166 189 0
167 190 0
160 184 0
159 182 0
160 183 0
162 185 0
163 186 0
164 187 0
164 187 0
160 182 0
165 188 0
159 182 0
154 176 0
159 182 0
162 185 0
160 183 0
159 181 0
159 182 0
160 182 0
157 179 0
158 180 0
154 176 0
159 182 0
161 184 0
154 177 0
153 176 0
151 173 0
152 175 0
154 177 0
75 102 70
51 82 84
50 80 65
53 85 88
53 84 76
54 87 94
55 87 90
55 87 94
52 84 78
55 87 99
54 87 94
52 83 78
55 87 90
54 87 99
55 87 99
52 84 82
56 89 97
56 88 86
53 85 92
55 87 86
55 88 102
53 85 84
53 85 94
57 90 107
55 88 95
53 85 82
56 89 105
58 91 114
51 81 88
54 86 88
56 88 97
55 87 97
56 88 100
55 87 94
55 86 103
55 88 95
54 86 100
54 86 90
55 86 96
55 87 103
55 87 102
55 87 104
55 87 105
54 85 95
54 85 88
54 86 94
56 89 105
53 84 92
52 82 80
55 87 95
55 86 102
53 84 99
54 85 100
51 81 87
53 85 84
55 86 104
53 83 94
54 86 96
52 82 92
53 83 90
54 84 108
50 79 90
53 83 97
54 85 105
53 82 83
50 78 84
54 84 89
49 77 75
49 78 67
51 79 71
50 77 85
48 75 77
48 73 79
73 93 55
140 158 18
146 164 0
139 159 0
145 164 0
151 169 0
143 160 0
142 160 0
152 171 0
149 168 0
145 164 0
142 158 0
147 164 0
146 166 0
148 167 0
152 168 0
147 164 0
153 171 0
149 167 0
152 169 0
149 166 0
154 171 0
152 171 0
153 170 0
155 173 0
138 155 0
149 167 0
156 171 0
152 169 0
152 170 0
153 171 0
120 130 11
95 91 30
86 82 24
101 95 25
102 96 19
94 89 18
93 88 3
93 88 16
86 84 12
89 86 16
86 83 11
88 83 8
90 88 5
95 93 8
93 89 14
92 90 8
88 85 12
93 90 16
97 95 16
107 103 16
117 112 26
100 95 18
116 111 14
111 107 14
106 102 18
106 101 18
111 108 16
115 111 8
105 102 19
117 112 21
117 113 20
118 114 11
123 119 27
113 110 18
113 108 24
131 125 30
126 122 28
126 122 24
125 120 25
123 119 25
127 121 19
126 121 31
130 125 30
130 124 30
134 128 36
132 127 36
129 123 36
126 124 24
130 125 34
134 130 30
143 136 30
141 135 28
138 133 47
135 130 25
139 132 39
128 124 19
145 138 41
135 131 32
141 136 33
133 129 33
141 135 30
133 129 37
141 135 32
141 134 37
143 137 48
137 131 34
133 128 22
135 130 36
138 133 32
139 132 41
141 137 32
138 134 41
142 136 32
142 135 44
136 131 39
134 129 37
143 135 39
141 135 37
144 137 42
144 137 48
145 139 42
144 139 36
143 138 44
148 141 47
145 140 30
145 139 45
144 139 37
141 134 42
138 131 41
143 136 47
137 130 47
137 131 41
151 145 49
148 142 56
141 135 47
150 144 45
151 145 57
144 138 48
144 138 48
150 143 56
144 138 44
139 133 48
138 132 42
144 138 45
149 142 48
146 140 53
141 137 45
141 135 47
143 136 47
145 139 47
148 144 54
141 135 47
143 138 47
139 133 42
134 128 39
145 140 54
147 140 58
144 137 53
137 131 49
143 137 49
133 129 34
148 141 53
143 136 52
145 139 60
136 131 42
152 145 60
140 133 58
132 126 44
146 138 60
136 129 44
132 126 47
145 138 65
149 143 61
171 194 0
171 194 0
173 196 0
172 196 0
172 195 0
172 195 0
173 197 0
175 198 0
171 194 0
172 196 0
169 192 0
169 193 0
170 194 0
172 195 0
171 194 0
172 196 0
174 197 0
170 193 0
172 195 0
169 192 0
170 193 0
173 197 0
172 195 0
165 189 0
172 194 0
174 197 0
169 193 0
167 191 0
170 193 0
169 192 0
171 195 0
170 194 0
171 194 0
171 195 0
173 194 0
174 196 0
172 194 0
174 197 0
176 198 0
172 195 0
174 195 0
173 195 0
175 197 0
175 197 0
172 194 0
173 194 0
173 195 0
173 194 0
178 199 0
174 195 0
174 195 0
173 195 0
176 197 0
174 195 0
175 196 0
174 195 0
173 194 0
172 193 0
174 195 0
172 192 0
175 196 0
172 192 0
170 190 0
172 192 0
173 193 0
174 194 0
176 195 0
171 191 0
172 191 0
170 190 0
171 190 0
163 184 0
171 191 0
168 187 0
168 189 0
168 188 0
167 186 0
163 182 0
166 186 0
166 185 0
161 182 0
167 186 0
160 180 0
163 183 0
159 179 0
157 177 0
163 182 0
162 181 0
160 180 0
154 174 0
155 175 0
160 181 0
156 176 0
160 180 0
159 178 0
159 177 0
158 178 0
153 173 0
155 175 0
161 181 0
151 169 0
156 176 0
154 173 0
159 179 0
150 170 0
155 175 0
155 175 0
151 172 0
151 172 0
147 169 0
139 160 0
142 164 0
142 162 0
151 172 0
151 172 0
147 167 0
146 165 0
144 165 0
152 172 0
140 162 0
137 158 0
142 162 0
149 170 0
145 165 0
138 158 0
148 167 0
153 174 0
148 168 0
147 168 0
152 173 0
149 170 0
162 184 0
170 193 0
167 190 0
162 186 0
166 189 0
164 186 0
162 184 0
162 184 0
156 179 0
157 179 0
160 183 0
164 187 0
157 180 0
161 183 0
163 186 0
153 176 0
158 181 0
159 182 0
163 186 0
157 180 0
155 177 0
154 177 0
159 181 0
148 172 0
156 179 0
156 179 0
152 174 0
160 183 0
155 178 0
150 172 0
152 175 0
147 169 0
142 164 25
85 108 51
50 81 74
54 85 80
54 85 97
55 87 84
52 83 80
57 90 107
53 85 80
55 88 95
54 86 86
56 88 94
54 87 88
51 82 86
53 84 86
52 83 94
56 88 100
55 87 105
53 84 92
57 89 99
54 86 86
53 85 94
55 87 92
53 84 97
54 86 102
53 85 90
51 82 78
55 86 97
55 87 95
56 88 97
53 85 88
53 84 88
53 84 94
54 85 100
56 89 84
55 86 97
56 88 94
54 85 95
54 86 97
53 85 84
56 88 104
52 83 90
55 87 102
56 89 104
53 84 95
56 88 105
52 83 74
52 83 92
54 86 86
55 88 99
52 82 94
53 84 92
53 84 99
54 85 97
53 85 99
55 87 103
57 89 111
54 84 100
52 82 83
52 81 102
50 79 83
51 80 91
49 77 77
51 80 93
51 79 88
50 79 83
50 78 90
48 74 73
49 78 73
48 75 68
50 78 91
45 71 74
70 93 70
132 150 0
136 153 0
145 162 0
132 149 0
150 168 0
139 158 0
134 151 0
137 156 0
144 161 0
139 158 0
131 151 0
145 162 0
137 155 0
151 168 0
149 165 0
148 163 0
148 167 0
153 170 0
145 161 0
150 168 0
150 167 0
149 166 0
146 162 0
152 168 0
152 166 0
146 164 0
155 172 0
153 170 0
150 166 0
156 171 0
157 175 0
155 170 0
125 128 19
80 75 28
99 92 28
106 100 26
87 83 19
87 82 12
95 90 16
75 72 0
94 90 11
91 88 14
86 83 3
107 102 18
95 91 19
95 90 14
99 94 12
106 102 3
111 106 14
98 95 0
104 100 11
98 94 16
100 97 14
101 99 0
114 108 12
103 100 8
115 108 0
108 103 8
117 112 12
111 106 22
114 109 0
121 115 25
110 106 18
103 99 11
121 118 18
113 108 19
126 120 19
112 109 11
122 118 21
127 123 22
121 115 19
128 123 28
132 127 33
125 121 19
133 127 22
126 121 28
124 120 28
127 121 25
130 126 19
130 125 32
129 124 34
132 128 32
135 129 29
128 123 34
133 128 34
131 127 32
133 128 35
134 129 30
135 130 32
140 135 36
137 132 39
138 133 34
136 132 30
126 120 28
134 128 28
144 139 37
149 142 45
129 124 25
141 136 39
141 135 34
146 139 44
144 138 44
142 137 41
141 135 34
142 137 48
140 135 41
138 135 36
142 135 42
143 137 37
140 134 45
141 133 42
141 135 48
141 135 47
131 126 41
140 134 30
148 142 52
143 137 44
132 127 30
143 138 44
139 134 39
135 130 37
146 140 44
138 133 34
136 130 42
138 132 48
142 136 45
141 136 44
142 137 41
144 139 41
137 131 37
143 137 48
139 135 42
145 139 52
143 136 51
143 138 39
141 136 42
134 129 41
148 142 48
140 135 34
150 144 44
138 132 44
147 141 49
138 132 47
137 132 51
149 143 53
141 136 45
142 136 48
145 138 45
146 139 51
148 142 57
136 130 47
141 135 47
136 130 53
150 143 54
141 134 45
145 139 58
142 135 49
131 127 45
138 132 42
143 137 56
139 134 52
134 129 45
134 129 45
136 130 52
173 196 0
172 196 0
173 197 0
172 195 0
174 197 0
173 197 0
173 197 0
171 195 0
171 194 0
171 194 0
172 195 0
172 196 0
172 195 0
172 196 0
167 191 0
169 193 0
170 193 0
172 195 0
173 196 0
168 192 0
171 195 0
169 193 0
172 196 0
169 193 0
172 195 0
172 195 0
171 195 0
172 195 0
171 195 0
167 191 0
168 192 0
168 191 0
171 195 0
171 195 0
172 195 0
174 197 0
175 197 0
174 196 0
172 195 0
177 199 0
175 197 0
175 197 0
170 191 0
173 195 0
174 195 0
174 196 0
174 195 0
175 196 0
175 195 0
175 196 0
176 197 0
173 194 0
174 195 0
174 194 0
176 196 0
174 194 0
173 193 0
172 193 0
171 192 0
174 194 0
170 190 0
172 193 0
173 191 0
172 192 0
174 193 0
170 189 0
170 190 0
168 188 0
170 190 0
173 193 0
173 192 0
167 187 0
169 189 0
171 190 0
167 187 0
159 179 0
168 187 0
164 184 0
164 183 0
166 186 0
167 185 0
164 182 0
157 177 0
159 178 0
161 181 0
158 178 0
158 177 0
158 178 0
155 174 0
157 175 0
162 182 0
150 170 0
153 172 0
160 179 0
165 185 0
155 175 0
155 175 0
155 174 0
156 175 0
152 172 0
154 173 0
145 165 0
153 172 0
161 180 0
157 177 0
150 171 0
157 178 0
153 175 0
147 168 0
145 165 0
150 172 0
156 177 0
151 172 0
149 170 0
147 167 0
140 160 0
147 168 0
151 172 0
138 159 0
144 164 0
141 163 0
151 171 0
140 160 0
142 162 0
150 170 0
139 159 0
147 168 0
152 173 0
150 171 0
155 176 0
152 173 0
162 185 0
164 187 0
161 183 0
163 184 0
162 185 0
166 188 0
166 188 0
168 190 0
160 182 0
163 185 0
163 186 0
151 173 0
153 175 0
155 177 0
163 186 0
156 179 0
158 180 0
160 182 0
151 174 0
154 175 0
158 180 0
152 174 0
147 169 0
152 175 0
147 169 0
149 172 0
153 176 0
158 180 0
152 174 0
158 181 0
145 167 0
156 177 0
149 172 0
150 172 0
89 113 54
50 81 72
48 78 70
52 82 82
53 84 86
50 80 76
52 84 78
52 83 84
53 85 82
52 83 67
52 83 86
53 84 90
54 87 84
54 86 88
54 86 94
52 82 84
53 84 82
53 85 90
56 88 95
54 86 90
54 86 95
55 87 99
52 82 84
54 85 90
56 88 108
52 84 76
53 84 90
55 87 97
53 84 95
55 86 107
56 88 102
55 87 95
55 88 92
57 89 102
55 86 102
53 84 95
57 89 115
53 84 102
53 84 92
55 87 95
53 84 97
51 81 86
52 81 88
53 84 92
53 84 94
55 87 99
54 86 92
52 82 92
50 80 77
51 80 89
52 82 97
53 84 84
53 84 80
52 82 90
52 82 88
53 84 82
51 80 86
51 80 81
50 79 75
52 82 90
49 78 72
51 81 88
52 80 96
51 79 78
47 75 70
50 79 90
49 77 75
44 70 66
47 73 78
75 94 63
127 142 0
137 155 0
138 155 0
138 156 0
139 157 0
136 152 0
141 159 0
135 151 0
146 165 0
142 160 0
143 160 0
141 158 0
136 153 0
139 156 0
139 155 0
139 155 0
149 165 0
146 162 0
149 165 0
146 162 0
142 157 0
150 163 0
142 157 0
143 159 0
147 161 0
145 161 0
148 163 0
141 155 0
150 166 0
146 161 0
148 164 0
144 160 0
148 163 0
154 169 0
128 137 18
81 76 16
81 75 0
86 83 16
82 76 16
88 85 22
89 86 16
97 92 11
88 84 0
85 83 8
94 90 0
93 90 16
93 88 8
90 86 11
104 99 0
91 88 11
95 90 3
99 94 0
101 97 8
104 99 18
111 104 11
103 100 11
112 106 11
97 92 16
108 103 18
100 96 14
111 107 18
107 105 11
110 106 16
107 103 8
119 113 16
113 109 21
107 103 18
115 110 22
127 123 23
124 120 25
126 121 16
123 118 31
123 117 22
123 119 18
126 122 16
125 120 25
129 125 22
134 129 25
126 122 25
130 123 37
135 130 28
137 131 30
137 132 34
131 125 22
133 128 25
136 131 25
124 119 28
125 119 28
141 136 34
138 133 22
133 129 22
137 130 25
137 132 37
134 128 25
121 117 28
139 133 32
138 133 30
144 139 39
139 135 34
135 130 32
135 128 39
132 127 30
140 135 32
141 134 41
145 138 37
143 136 32
135 130 36
144 137 36
144 136 47
148 140 47
143 138 42
136 130 34
139 134 37
141 134 41
142 136 48
138 133 25
136 131 34
138 133 42
141 134 39
145 139 44
141 134 48
137 132 36
140 135 37
144 138 42
142 136 41
142 135 47
145 138 45
147 141 41
142 136 39
142 136 42
142 137 41
135 128 45
138 132 42
147 141 47
142 135 51
136 130 41
137 131 44
145 138 44
143 137 49
139 133 45
140 134 42
134 130 44
143 137 52
140 134 56
140 135 44
142 136 45
142 136 49
137 132 48
141 136 53
139 135 36
140 134 52
141 134 51
129 123 37
134 127 48
141 136 42
134 128 44
138 132 49
134 128 45
136 131 48
136 131 42
144 137 58
143 137 54
140 133 56
145 138 54
135 129 51
173 197 0
172 196 0
174 197 0
171 195 0
171 195 0
172 194 0
172 195 0
171 195 0
174 196 0
169 192 0
172 196 0
172 195 0
170 193 0
164 188 0
169 193 0
174 197 0
173 196 0
172 196 0
173 196 0
171 194 0
172 195 0
171 195 0
170 193 0
170 194 0
174 197 0
170 193 0
169 194 0
170 193 0
166 190 0
172 194 0
171 194 0
173 195 0
169 193 0
172 194 0
167 190 0
173 196 0
174 197 0
172 194 0
171 193 0
174 196 0
173 196 0
174 196 0
174 195 0
173 195 0
175 197 0
173 195 0
175 197 0
174 195 0
175 196 0
175 196 0
175 196 0
178 199 0
174 195 0
168 189 0
174 194 0
173 195 0
175 195 0
174 195 0
168 188 0
174 193 0
170 191 0
173 192 0
176 195 0
169 190 0
174 194 0
170 189 0
175 194 0
171 191 0
170 190 0
168 187 0
167 186 0
170 189 0
166 184 0
167 186 0
160 179 0
166 186 0
166 186 0
159 179 0
165 184 0
159 180 0
163 183 0
160 180 0
163 183 0
157 178 0
160 179 0
160 178 0
164 184 0
161 180 0
154 173 0
157 177 0
156 174 0
156 175 0
156 175 0
165 184 0
158 176 0
159 178 0
162 181 0
158 178 0
164 184 0
152 171 0
153 173 0
160 178 0
159 178 0
151 171 0
152 173 0
152 174 0
148 169 0
159 180 0
152 173 0
155 176 0
155 177 0
144 166 0
151 171 0
148 169 0
152 172 0
147 168 0
140 161 0
147 167 0
150 170 0
146 166 0
143 163 0
147 168 0
149 169 0
144 164 0
147 167 0
142 162 0
149 169 0
153 174 0
155 175 0
158 180 0
159 181 0
167 189 0
164 186 0
164 187 0
164 186 0
158 181 0
158 180 0
158 179 0
164 185 0
162 184 0
159 181 0
155 176 0
160 182 0
156 179 0
158 180 0
157 179 0
147 170 0
151 174 0
158 180 0
152 174 0
159 182 0
155 177 0
154 175 0
152 174 0
149 170 0
150 171 0
150 172 0
160 182 0
152 175 0
151 175 0
143 165 0
147 169 0
143 165 0
152 174 0
143 165 0
131 152 18
86 109 47
50 80 76
49 78 57
51 81 82
53 85 80
54 86 92
52 82 94
52 83 82
54 86 88
54 86 94
53 84 88
55 87 107
52 83 80
55 87 90
52 83 92
52 83 80
53 85 84
52 83 84
55 87 95
55 87 100
54 86 86
54 85 90
54 85 97
53 84 80
54 86 97
54 85 99
56 89 102
53 85 92
54 87 76
54 85 100
54 86 88
53 85 90
54 86 100
55 87 103
54 85 94
55 87 90
52 82 88
56 88 95
53 85 90
53 84 94
55 86 97
55 87 100
52 83 88
53 84 96
52 83 95
55 87 97
55 86 99
55 87 95
51 81 88
49 78 72
55 86 107
53 83 94
52 82 81
52 82 85
52 83 76
54 85 97
50 78 72
51 80 89
54 84 97
53 83 77
51 81 95
52 81 90
49 77 76
47 74 71
48 75 65
46 72 66
46 72 66
74 95 69
135 153 0
129 147 0
133 151 0
128 144 0
142 161 0
136 153 0
139 156 0
133 150 0
136 153 0
137 152 0
138 155 0
147 162 0
139 155 0
145 163 0
148 164 0
141 156 0
129 146 0
139 152 0
138 151 0
138 154 0
142 156 0
142 157 0
141 156 0
144 159 0
141 158 0
139 153 0
143 158 0
144 158 0
141 155 0
143 155 0
140 153 0
147 160 0
145 160 0
152 168 0
148 161 0
147 160 0
133 141 11
87 85 19
79 75 11
82 78 21
96 90 32
78 73 11
91 86 0
78 74 0
86 82 0
91 85 11
100 97 11
91 88 12
93 87 0
85 81 0
91 88 11
104 99 11
97 95 8
105 99 8
101 96 11
99 96 11
107 103 8
102 99 16
98 94 0
111 108 12
116 111 11
112 108 19
118 112 19
109 105 14
110 106 12
113 108 16
119 114 14
123 118 24
119 115 16
118 114 16
116 110 11
114 110 18
122 117 28
123 119 19
121 117 22
117 113 16
132 126 25
132 127 22
128 122 30
123 119 11
125 122 18
126 122 14
127 121 22
129 124 25
127 123 25
127 122 25
125 118 30
130 124 25
133 127 28
131 124 32
135 127 30
130 126 24
132 127 28
132 126 28
138 132 30
134 130 19
136 130 36
134 128 28
130 126 22
142 137 41
134 128 30
142 136 32
142 136 30
138 133 32
137 132 39
142 135 44
142 136 37
140 133 44
139 133 47
128 123 34
132 126 36
135 132 25
133 128 28
134 129 37
141 135 25
136 130 41
140 135 39
144 138 41
146 139 49
137 132 32
138 133 41
136 131 39
141 134 48
135 129 45
140 133 41
151 145 53
141 136 30
140 135 42
137 131 41
132 128 37
140 134 44
139 134 41
147 141 48
142 135 49
143 137 45
139 134 49
136 129 42
142 136 45
146 139 52
143 137 49
140 134 41
145 140 44
138 133 41
142 136 49
133 126 49
134 129 45
138 132 51
143 136 51
131 125 37
133 127 39
137 133 49
138 132 45
132 128 39
146 141 53
137 132 53
142 136 42
141 136 49
133 126 44
137 132 47
142 136 54
139 132 44
137 131 54
136 130 49
138 133 41
128 123 44
144 138 51
171 194 0
175 198 0
172 196 0
174 196 0
175 198 0
172 196 0
173 196 0
171 196 0
173 196 0
173 196 0
173 196 0
171 194 0
172 195 0
170 194 0
173 196 0
171 195 0
172 196 0
170 193 0
169 193 0
170 194 0
173 196 0
172 195 0
169 193 0
173 197 0
171 194 0
169 193 0
169 193 0
163 186 0
169 192 0
170 194 0
167 190 0
172 194 0
171 195 0
172 194 0
170 193 0
172 195 0
172 195 0
170 193 0
168 191 0
169 191 0
173 195 0
173 195 0
169 191 0
174 196 0
173 194 0
176 197 0
172 193 0
174 195 0
171 193 0
172 193 0
176 197 0
173 194 0
175 196 0
172 193 0
176 196 0
174 195 0
170 190 0
176 196 0
174 194 0
172 193 0
176 196 0
175 195 0
172 192 0
175 194 0
170 190 0
174 194 0
171 190 0
167 186 0
173 193 0
169 187 0
166 185 0
168 188 0
168 188 0
168 188 0
164 184 0
166 185 0
167 186 0
167 187 0
161 180 0
163 182 0
164 183 0
166 185 0
160 179 0
159 179 0
159 179 0
156 175 0
163 183 0
163 182 0
160 181 0
156 175 0
162 182 0
156 175 0
154 172 0
154 174 0
166 186 0
157 177 0
168 187 0
150 167 0
152 172 0
158 179 0
151 172 0
154 175 0
154 176 0
155 177 0
158 179 0
148 169 0
150 170 0
144 166 0
157 177 0
151 172 0
144 165 0
151 172 0
155 176 0
154 174 0
156 176 0
154 175 0
151 172 0
149 169 0
153 173 0
144 165 0
144 164 0
151 172 0
150 169 0
144 164 0
155 175 0
152 173 0
150 171 0
148 169 0
161 182 0
159 179 0
166 188 0
160 182 0
165 186 0
164 184 0
157 179 0
160 182 0
160 182 0
165 186 0
161 182 0
159 181 0
159 181 0
158 181 0
149 171 0
161 183 0
163 185 0
157 178 0
150 172 0
150 172 0
152 175 0
149 169 0
154 175 0
143 165 0
146 168 0
149 171 0
152 174 0
153 174 0
150 171 0
148 170 0
152 173 0
148 170 0
148 169 0
146 167 0
147 169 0
143 164 0
148 169 0
135 156 0
141 162 0
102 125 65
49 79 67
50 80 80
50 80 74
51 81 65
51 81 74
53 84 90
53 84 82
52 84 74
55 87 88
52 84 90
54 86 94
55 87 103
51 82 67
53 84 88
53 85 90
52 83 78
52 83 86
55 87 95
54 85 90
53 84 88
52 83 82
51 81 78
52 82 88
52 82 90
52 82 95
54 85 94
55 87 100
53 85 84
53 84 97
53 85 100
54 86 88
52 83 78
52 82 90
52 82 78
52 83 86
53 84 97
53 84 94
52 82 80
54 86 88
52 83 96
51 82 86
52 82 86
52 83 86
54 85 83
50 80 80
52 83 78
51 81 88
55 86 97
53 83 90
52 82 89
50 79 86
53 83 87
50 79 92
52 83 87
53 83 96
53 83 94
50 78 89
48 75 68
47 74 57
45 72 57
47 74 62
48 75 74
46 72 63
43 68 57
91 108 36
138 154 0
131 149 0
128 146 0
131 148 0
143 162 0
132 150 0
129 146 0
122 139 0
136 153 0
133 148 0
138 154 0
140 156 0
138 154 0
132 147 0
136 153 0
146 162 0
138 154 0
139 154 0
142 158 0
142 157 0
136 152 0
141 156 0
143 158 0
144 160 0
138 153 0
143 157 0
144 156 0
140 155 0
142 158 0
136 149 0
149 163 0
143 155 0
154 167 0
140 153 0
144 157 0
149 164 0
143 156 0
148 160 0
138 149 0
93 89 30
94 89 16
83 77 19
82 77 8
87 81 11
88 81 14
92 86 16
93 87 0
94 90 0
96 90 8
90 87 0
83 81 8
96 93 8
99 92 16
101 98 11
102 97 14
106 100 0
96 92 0
108 102 0
103 100 11
108 103 14
107 102 16
116 111 14
104 101 0
122 115 19
103 98 8
111 106 18
118 113 0
103 100 0
117 112 16
112 108 14
127 121 18
117 113 16
121 117 16
116 112 16
130 124 19
124 118 11
124 116 30
125 118 11
126 121 19
122 119 19
126 121 25
124 120 11
126 119 19
127 122 16
125 119 22
129 122 32
125 119 16
134 129 33
134 129 22
129 125 22
127 122 30
128 123 22
132 128 25
138 132 25
134 128 39
136 131 34
127 122 34
136 131 32
139 132 39
128 123 32
128 124 22
140 134 28
137 132 32
138 133 37
137 131 32
133 128 19
137 130 41
134 128 32
141 137 22
132 126 34
143 137 39
141 136 28
128 121 28
137 131 36
148 140 49
141 134 45
131 125 34
133 128 37
140 134 41
136 131 37
137 132 30
134 128 39
141 134 34
154 147 48
142 137 39
138 130 45
136 130 36
143 137 41
138 133 34
137 131 36
143 138 44
141 135 44
139 133 44
138 132 37
136 129 32
133 127 41
134 128 39
143 136 48
135 129 37
140 132 49
147 141 48
135 128 45
137 132 44
137 132 44
138 132 44
138 131 39
129 124 36
132 125 42
138 133 47
142 135 45
141 135 47
131 125 45
146 139 53
136 130 41
142 136 44
137 131 44
137 133 51
142 135 58
145 138 57
143 138 51
138 131 52
140 133 49
139 133 47
135 129 47
144 137 57
132 126 48
125 120 36
172 195 0
173 197 0
172 197 0
170 193 0
170 194 0
171 195 0
170 194 0
173 197 0
171 195 0
171 194 0
171 194 0
173 196 0
172 195 0
174 197 0
172 195 0
171 194 0
171 194 0
170 193 0
172 194 0
172 195 0
174 197 0
172 194 0
168 191 0
168 192 0
169 192 0
168 191 0
172 196 0
173 195 0
172 195 0
172 194 0
168 192 0
169 192 0
170 193 0
170 192 0
169 191 0
170 193 0
169 192 0
168 191 0
171 195 0
167 189 0
172 194 0
172 195 0
172 195 0
173 195 0
174 196 0
174 196 0
172 194 0
172 195 0
173 196 0
170 192 0
175 195 0
174 195 0
175 196 0
177 198 0
173 194 0
175 195 0
178 198 0
172 193 0
177 198 0
173 193 0
170 190 0
171 191 0
167 186 0
173 192 0
174 193 0
172 193 0
171 190 0
171 191 0
173 191 0
168 188 0
170 188 0
170 190 0
167 186 0
170 189 0
160 179 0
169 189 0
168 188 0
164 184 0
168 188 0
163 182 0
163 182 0
160 179 0
164 183 0
167 187 0
164 184 0
161 181 0
163 182 0
160 180 0
158 177 0
161 181 0
164 183 0
157 177 0
157 176 0
162 182 0
152 173 0
156 176 0
157 177 0
158 179 0
163 183 0
153 174 0
157 179 0
157 179 0
154 176 0
152 174 0
158 179 0
148 170 0
157 178 0
154 174 0
153 174 0
150 171 0
149 170 0
150 170 0
146 167 0
140 161 0
153 173 0
154 174 0
152 172 0
152 173 0
143 163 0
156 176 0
151 172 0
152 172 0
151 171 0
141 161 0
157 178 0
152 173 0
162 182 0
165 187 0
154 175 0
163 184 0
164 186 0
161 183 0
160 182 0
166 188 0
156 177 0
162 183 0
154 175 0
157 179 0
157 178 0
158 179 0
159 181 0
160 181 0
160 181 0
152 174 0
155 176 0
158 179 0
154 176 0
149 172 0
151 173 0
157 180 0
144 166 0
149 170 0
145 166 0
148 170 0
141 162 0
147 169 0
144 165 0
146 168 0
141 163 0
143 164 0
143 163 0
138 160 0
146 167 0
146 166 0
140 161 0
134 154 0
129 150 0
134 154 0
117 138 40
58 85 57
50 79 80
50 80 82
49 78 72
50 81 62
51 81 86
52 84 82
50 80 65
53 85 84
51 81 76
53 85 88
53 85 90
52 83 88
53 84 82
50 80 80
52 83 80
53 84 70
54 86 92
51 82 76
50 80 78
52 82 76
52 84 88
54 86 90
54 87 99
52 83 88
52 84 95
52 83 76
51 82 86
52 83 84
54 86 86
54 86 99
55 87 108
52 83 92
52 82 88
54 86 87
53 84 94
52 83 92
54 85 82
51 81 84
50 80 68
52 82 88
50 80 83
50 79 92
51 80 94
50 79 74
51 80 90
49 78 74
50 78 82
53 84 87
52 81 82
49 78 62
47 74 76
50 79 84
49 77 77
46 73 72
48 75 72
49 77 63
48 75 73
45 70 54
49 77 68
44 70 60
46 72 65
96 113 36
120 134 0
134 149 0
132 149 0
121 134 0
134 150 0
136 153 0
130 146 0
126 141 0
128 143 0
134 150 0
130 147 0
133 147 0
135 150 0
128 143 0
143 158 0
135 150 0
129 146 0
135 150 0
130 145 0
143 159 0
135 149 0
136 148 0
131 145 0
140 154 0
133 146 0
133 146 0
136 150 0
134 147 0
140 154 0
140 152 0
125 137 0
133 147 0
140 151 0
138 151 0
148 161 0
139 150 0
139 149 0
144 154 0
140 151 0
146 159 0
135 144 0
93 93 22
79 74 19
89 84 18
82 77 0
86 81 11
81 74 16
82 78 14
96 91 0
99 92 3
92 87 0
101 96 3
103 99 0
91 87 0
94 89 0
97 91 0
108 102 8
90 85 8
103 98 11
115 110 0
104 98 0
108 103 0
103 99 8
108 103 8
112 109 0
111 104 0
115 110 11
108 101 11
106 102 0
112 108 14
114 110 0
119 114 16
118 114 11
115 112 11
111 106 11
122 118 16
123 117 16
128 124 25
124 120 19
112 107 14
125 120 19
125 119 22
125 117 19
122 117 0
132 125 28
125 119 22
129 123 22
129 124 34
122 116 25
135 128 22
135 130 19
124 119 19
125 121 22
127 123 28
136 130 37
133 126 34
133 128 39
123 118 22
133 126 32
130 124 34
138 131 36
136 130 28
132 127 30
128 124 19
132 126 36
127 121 25
136 131 32
138 131 44
134 128 36
135 130 32
135 130 36
139 134 28
137 130 32
139 133 32
143 137 37
137 131 22
144 139 39
138 132 34
132 127 28
139 132 42
134 127 41
147 140 47
139 134 42
135 130 39
137 131 32
143 137 44
135 128 36
142 136 47
133 127 30
140 135 39
135 129 41
139 131 37
140 133 42
140 136 39
128 122 25
135 129 39
141 133 45
138 132 48
138 132 49
138 132 41
142 137 41
141 134 42
141 136 44
129 123 41
137 132 44
134 129 42
129 124 37
139 134 44
145 138 47
131 126 32
138 133 41
139 133 34
138 132 47
145 136 51
141 136 51
134 129 32
129 124 41
131 126 45
135 129 36
135 129 47
142 136 44
138 133 44
138 132 34
135 129 47
130 124 42
139 135 39
134 128 45
141 134 47
172 196 0
173 195 0
174 197 0
172 195 0
174 197 0
172 195 0
170 193 0
173 196 0
172 196 0
171 193 0
173 196 0
171 195 0
171 195 0
171 195 0
169 192 0
175 198 0
170 194 0
171 194 0
173 196 0
171 194 0
171 195 0
168 192 0
171 194 0
171 194 0
173 195 0
171 194 0
175 198 0
170 193 0
170 193 0
172 195 0
172 194 0
170 193 0
167 190 0
168 191 0
165 188 0
167 190 0
171 193 0
171 193 0
172 196 0
169 193 0
170 193 0
171 193 0
167 189 0
169 193 0
172 195 0
177 198 0
172 194 0
170 193 0
171 192 0
170 191 0
167 189 0
173 194 0
171 192 0
173 193 0
176 197 0
173 194 0
170 190 0
173 192 0
172 193 0
174 194 0
172 191 0
169 189 0
171 191 0
168 189 0
173 192 0
173 192 0
172 192 0
173 193 0
163 183 0
171 189 0
169 189 0
172 192 0
164 184 0
173 192 0
167 186 0
171 191 0
170 189 0
165 185 0
166 185 0
170 189 0
167 188 0
169 188 0
163 182 0
168 187 0
166 184 0
167 186 0
166 184 0
166 186 0
162 182 0
162 182 0
166 186 0
161 179 0
163 183 0
157 177 0
160 181 0
168 189 0
148 168 0
156 177 0
153 175 0
158 180 0
161 184 0
157 178 0
153 174 0
152 172 0
150 171 0
156 177 0
153 173 0
150 171 0
149 169 0
152 173 0
154 175 0
158 179 0
156 176 0
148 168 0
155 175 0
151 172 0
153 173 0
146 167 0
140 160 0
149 168 0
145 165 0
156 176 0
142 162 0
157 177 0
156 175 0
163 185 0
161 182 0
160 181 0
159 181 0
159 180 0
156 176 0
165 187 0
157 179 0
161 182 0
159 180 0
156 177 0
161 183 0
149 170 0
156 178 0
155 176 0
150 172 0
154 175 0
152 173 0
155 176 0
154 176 0
151 173 0
155 178 0
150 171 0
151 172 0
155 176 0
158 178 0
154 175 0
152 172 0
155 177 0
143 164 0
143 164 0
139 161 0
142 163 0
126 147 0
141 161 0
136 156 0
128 149 0
132 153 0
141 162 0
133 154 0
143 163 0
135 155 0
136 155 0
128 148 0
120 140 31
66 91 54
45 73 62
51 81 76
50 80 74
52 83 86
51 82 76
51 82 80
51 82 78
52 83 76
48 78 67
51 82 67
50 81 67
51 81 78
50 80 78
53 84 88
49 80 70
51 82 94
51 81 74
53 85 92
53 84 94
50 81 82
54 86 94
53 85 90
51 81 84
54 86 95
51 82 82
53 84 84
53 84 84
53 84 84
52 83 80
55 86 99
51 81 92
52 83 82
51 81 88
50 80 67
53 84 95
51 81 84
50 81 63
50 80 84
52 83 76
53 83 86
51 81 92
51 80 97
51 81 80
50 80 74
53 85 94
52 82 95
49 78 82
48 76 70
49 78 74
49 77 81
45 71 71
51 80 85
46 73 67
47 75 65
48 75 79
43 68 66
47 73 75
46 73 60
52 72 48
114 131 18
109 125 0
112 128 0
115 130 0
111 127 0
128 143 0
112 126 0
128 143 0
122 138 0
129 145 0
123 139 0
132 146 0
125 139 0
140 157 0
127 141 0
129 144 0
127 139 0
134 148 0
134 149 0
134 150 0
128 142 0
135 151 0
134 149 0
138 151 0
131 146 0
132 146 0
142 158 0
119 131 0
135 149 0
128 141 0
130 141 0
125 137 0
142 154 0
141 153 0
136 147 0
128 139 0
134 141 0
134 146 0
135 142 0
138 150 0
141 153 0
140 152 0
133 142 0
135 143 0
109 112 16
79 73 11
91 84 16
84 80 14
80 76 16
85 81 11
86 82 16
85 80 8
81 76 11
86 82 11
98 91 0
91 87 16
96 92 0
98 92 0
100 95 0
97 92 8
98 94 8
95 91 8
94 88 0
114 109 0
100 95 0
118 112 11
108 103 0
113 110 11
107 102 11
103 99 8
114 109 14
108 103 14
112 108 0
112 110 0
121 116 14
112 107 0
115 112 11
114 110 16
125 120 19
118 115 16
130 126 24
124 121 22
120 117 16
122 118 19
126 121 21
119 114 11
118 114 22
127 122 16
127 122 16
131 125 30
130 124 22
128 122 24
136 130 28
133 128 22
124 116 22
132 127 25
128 123 28
128 124 25
135 130 25
132 126 30
127 122 16
132 125 28
135 128 28
132 126 30
132 127 37
133 128 25
136 130 25
139 134 30
139 134 28
137 130 28
138 133 34
132 125 28
144 138 37
136 130 19
137 131 32
130 124 32
128 122 28
140 135 32
135 130 32
139 134 34
135 128 36
132 127 30
133 127 19
141 135 47
143 136 44
142 137 41
138 132 39
132 126 34
138 132 34
135 129 36
136 130 36
137 132 42
139 132 54
142 136 41
136 131 45
136 131 37
132 126 37
135 128 45
139 133 41
147 141 44
135 130 41
136 131 34
137 132 41
131 127 34
139 132 39
134 130 30
132 127 45
144 138 48
142 136 49
137 131 45
129 124 36
144 137 49
143 136 44
135 127 47
132 126 42
135 129 44
137 131 48
133 128 39
139 132 52
130 125 41
131 125 37
136 129 41
142 135 47
133 126 47
140 134 48
133 127 42
129 124 41
129 124 41
137 131 48
135 128 42
173 196 0
173 196 0
170 193 0
171 194 0
170 194 0
172 195 0
169 192 0
171 195 0
173 196 0
170 194 0
169 192 0
171 194 0
175 198 0
174 197 0
172 195 0
170 194 0
169 192 0
171 195 0
171 195 0
169 192 0
172 196 0
171 195 0
172 196 0
170 193 0
170 193 0
170 192 0
170 193 0
170 193 0
168 192 0
172 195 0
172 195 0
172 196 0
171 193 0
171 194 0
169 192 0
173 196 0
169 192 0
169 191 0
161 183 0
168 191 0
166 189 0
169 193 0
173 195 0
167 190 0
167 190 0
165 188 0
164 187 0
169 193 0
169 191 0
170 192 0
174 196 0
171 193 0
170 192 0
173 195 0
172 193 0
177 198 0
169 190 0
176 196 0
172 193 0
169 189 0
169 190 0
175 195 0
171 191 0
172 192 0
175 195 0
172 192 0
167 188 0
172 193 0
175 195 0
167 187 0
167 187 0
167 186 0
165 185 0
171 191 0
167 187 0
163 182 0
169 188 0
166 187 0
170 190 0
161 181 0
163 183 0
169 189 0
164 183 0
160 179 0
162 181 0
163 183 0
163 183 0
164 185 0
152 173 0
166 185 0
160 180 0
155 177 0
157 179 0
158 179 0
147 169 0
161 183 0
155 177 0
155 175 0
154 176 0
160 182 0
156 178 0
152 173 0
150 170 0
155 177 0
160 181 0
154 174 0
148 169 0
152 173 0
156 177 0
155 175 0
152 173 0
157 178 0
152 172 0
155 175 0
148 168 0
145 165 0
153 173 0
146 166 0
149 169 0
151 173 0
146 166 0
145 166 0
157 177 0
154 173 0
155 175 0
156 177 0
164 186 0
161 183 0
164 184 0
160 181 0
161 182 0
155 175 0
158 179 0
151 172 0
154 174 0
157 178 0
152 174 0
154 175 0
159 181 0
156 176 0
145 166 0
147 168 0
151 172 0
156 178 0
155 176 0
148 169 0
148 169 0
151 172 0
147 167 0
150 170 0
143 165 0
147 168 0
139 160 0
136 157 0
148 169 0
151 171 0
143 164 0
143 163 0
148 168 0
130 151 0
139 159 0
133 153 0
140 161 0
131 151 0
133 154 0
137 158 0
130 149 0
128 148 0
128 148 0
119 138 0
121 141 0
84 104 40
51 80 60
47 76 65
49 78 57
50 80 86
49 79 74
53 84 92
51 82 82
51 82 72
49 79 70
51 81 72
53 84 82
50 79 88
53 84 97
52 82 84
52 83 80
53 84 86
50 80 76
53 84 90
55 87 97
49 78 72
54 85 102
51 81 78
51 82 80
54 86 90
51 81 82
52 82 80
52 82 88
52 83 94
54 84 82
52 82 80
52 82 94
52 83 102
54 85 95
51 81 83
48 77 78
52 83 86
51 81 83
52 82 90
48 77 62
50 79 78
50 79 90
51 81 84
50 80 70
51 80 78
50 80 89
49 78 82
51 80 68
49 78 74
49 77 83
50 78 86
49 78 75
45 71 54
47 75 72
45 71 68
45 71 66
46 71 65
82 99 41
111 124 0
99 111 0
114 128 0
119 133 0
118 133 0
129 143 0
125 139 0
127 141 0
119 133 0
106 121 0
120 134 0
126 142 0
131 146 0
126 139 0
134 146 0
125 139 0
131 147 0
125 140 0
119 133 0
132 145 0
130 145 0
128 141 0
135 150 0
133 146 0
132 144 0
122 133 0
132 143 0
124 132 0
123 135 0
121 133 0
130 142 0
131 143 0
130 142 0
139 152 0
131 143 0
143 156 0
133 143 0
132 143 0
133 143 0
134 142 0
132 142 0
123 130 0
129 137 0
132 141 0
140 148 0
141 151 0
124 128 16
92 86 25
93 87 0
90 83 11
82 75 11
85 81 0
83 78 16
79 75 0
73 71 0
94 88 11
93 89 8
94 89 0
89 85 11
100 95 0
89 84 0
90 85 8
96 92 0
92 86 0
107 98 0
102 99 0
92 88 0
108 102 3
114 109 0
108 102 8
121 115 16
97 94 0
114 109 11
106 102 11
107 101 0
111 107 8
114 109 8
117 111 11
112 106 11
116 109 19
114 110 8
115 111 8
122 116 0
125 120 19
135 129 22
118 112 19
130 124 25
129 124 16
124 119 0
126 120 16
125 121 16
124 118 16
129 125 22
126 120 19
127 123 19
130 124 31
131 126 25
128 122 25
123 118 11
126 122 11
129 123 34
130 125 25
134 128 22
127 120 19
132 127 22
125 119 22
132 126 16
140 133 42
133 127 22
132 126 25
138 132 32
132 126 28
129 125 16
137 133 36
139 132 25
144 137 47
139 134 37
140 133 37
126 118 28
138 131 32
132 126 25
134 128 41
136 130 36
130 124 32
138 132 34
128 122 28
139 132 36
141 136 32
141 134 39
147 140 49
138 132 37
136 131 37
134 128 37
130 125 39
138 133 36
130 125 34
146 140 47
135 128 36
137 131 34
126 121 30
142 136 47
140 134 32
123 116 30
140 134 41
139 134 34
139 131 45
142 136 41
136 129 41
133 128 39
139 132 42
138 132 47
139 133 47
135 129 36
138 132 41
137 131 42
133 126 47
130 125 37
138 132 41
132 127 41
134 129 47
138 132 45
126 121 30
138 132 51
139 133 47
134 126 44
122 117 37
129 124 39
129 122 39
127 122 42
125 120 45
129 123 48
171 195 0
174 197 0
171 195 0
171 194 0
173 197 0
174 196 0
173 196 0
172 195 0
172 195 0
172 195 0
170 194 0
170 194 0
173 196 0
174 197 0
171 195 0
170 194 0
171 195 0
168 192 0
172 195 0
173 196 0
170 193 0
172 194 0
171 193 0
170 194 0
172 196 0
167 190 0
169 192 0
171 194 0
167 189 0
169 192 0
171 194 0
172 194 0
170 193 0
169 192 0
168 191 0
170 192 0
168 191 0
171 194 0
170 193 0
170 192 0
173 195 0
167 189 0
170 193 0
171 193 0
169 191 0
171 194 0
168 191 0
167 189 0
169 191 0
166 188 0
169 191 0
168 191 0
171 193 0
173 195 0
167 189 0
170 191 0
171 193 0
169 190 0
170 192 0
171 191 0
169 190 0
169 191 0
170 191 0
171 192 0
172 191 0
169 189 0
171 191 0
170 191 0
171 191 0
169 189 0
164 183 0
165 184 0
164 183 0
165 186 0
168 188 0
171 191 0
167 187 0
165 184 0
169 189 0
164 185 0
167 187 0
167 187 0
164 185 0
161 181 0
163 184 0
163 183 0
162 182 0
159 180 0
154 175 0
161 183 0
165 186 0
153 175 0
155 177 0
150 172 0
155 177 0
160 182 0
159 180 0
142 164 0
162 182 0
153 174 0
151 171 0
157 178 0
149 170 0
153 174 0
154 176 0
153 174 0
152 172 0
156 177 0
153 173 0
150 171 0
146 167 0
151 171 0
158 179 0
144 164 0
140 160 0
144 164 0
146 166 0
154 173 0
151 171 0
156 176 0
143 163 0
155 174 0
159 179 0
160 179 0
161 182 0
163 183 0
161 181 0
158 178 0
159 180 0
163 183 0
160 180 0
160 181 0
156 177 0
156 177 0
149 170 0
164 184 0
154 175 0
155 175 0
149 170 0
153 173 0
149 170 0
151 172 0
148 168 0
154 175 0
151 172 0
146 167 0
149 169 0
152 173 0
143 165 0
140 161 0
145 166 0
151 172 0
144 165 0
137 157 0
143 164 0
128 149 0
138 159 0
138 159 0
143 163 0
138 158 0
133 153 0
131 152 0
138 158 0
134 153 0
132 152 0
135 155 0
121 139 0
127 146 0
124 142 0
129 148 0
114 132 0
115 132 0
110 128 18
67 90 51
51 81 72
47 75 60
47 76 57
47 75 60
49 79 67
51 82 82
52 82 76
50 80 72
50 80 78
49 78 65
53 84 74
50 80 82
49 78 78
50 80 82
54 85 86
51 81 82
51 81 76
53 84 78
50 80 74
55 87 99
52 83 84
52 83 88
48 77 80
50 80 65
48 77 62
47 76 62
50 80 82
51 81 76
50 81 82
50 80 76
50 80 78
50 79 78
51 82 84
52 83 85
50 80 72
50 80 62
53 84 89
49 78 76
50 79 86
49 79 70
47 75 65
49 78 65
53 83 98
47 75 65
49 78 78
47 75 74
47 75 82
49 77 82
46 73 57
47 75 76
49 77 78
43 68 54
62 83 60
100 114 37
101 113 0
100 113 0
100 113 0
108 121 0
114 129 0
116 131 0
114 130 0
112 125 0
119 135 0
119 133 0
115 131 0
120 134 0
127 142 0
112 125 0
128 142 0
122 136 0
131 146 0
117 129 0
125 137 0
130 144 0
122 137 0
118 129 0
134 147 0
117 132 0
128 140 0
139 154 0
137 149 0
115 126 0
123 132 0
139 152 0
129 136 0
126 134 0
128 141 0
130 144 0
128 139 0
131 141 0
120 131 0
131 141 0
136 147 0
129 138 0
127 134 0
121 131 0
132 141 0
134 142 0
131 139 0
126 132 0
125 132 0
129 138 0
120 125 0
83 78 11
86 81 19
86 81 0
82 76 0
91 87 19
84 77 0
78 75 0
89 84 0
99 94 0
94 89 0
101 95 0
81 78 0
97 91 3
97 92 0
93 89 8
96 90 0
104 97 0
106 101 0
102 96 0
106 100 8
98 92 8
93 88 0
112 109 0
104 97 0
98 92 0
109 102 0
115 110 0
110 104 8
106 102 0
115 110 0
105 99 0
112 107 0
113 110 11
119 112 11
118 110 0
123 117 12
119 115 0
115 109 11
118 113 11
120 114 16
117 110 19
127 119 11
123 118 11
125 120 0
122 117 22
124 119 19
132 125 30
130 124 16
126 119 19
124 119 19
125 120 19
126 119 16
128 122 25
132 126 32
124 119 19
118 113 19
129 122 22
133 127 34
127 122 16
132 126 19
137 131 22
138 132 30
132 128 25
131 124 28
131 124 34
134 127 36
136 128 25
133 129 36
138 131 32
131 125 32
135 130 34
130 124 25
122 116 22
136 130 32
130 124 30
135 129 34
126 121 30
134 128 37
131 125 30
134 128 36
132 125 34
139 133 37
136 130 37
128 123 30
129 124 41
139 133 42
127 122 22
137 131 28
137 131 39
139 132 49
141 135 30
129 124 36
133 127 39
140 135 36
134 128 39
132 126 41
133 127 34
134 129 34
136 130 48
134 127 42
135 129 41
137 131 37
138 132 45
135 129 42
133 127 48
134 128 39
133 128 42
140 134 49
135 130 39
128 122 36
139 133 52
132 126 44
128 124 44
133 127 47
134 130 36
134 128 45
131 124 44
130 125 36
133 127 49
139 134 45
140 135 49
136 130 48
129 122 47
175 197 0
171 194 0
174 197 0
171 195 0
172 195 0
172 196 0
172 196 0
172 195 0
172 195 0
172 195 0
173 195 0
174 197 0
173 197 0
172 195 0
170 193 0
169 193 0
170 194 0
172 195 0
170 194 0
171 194 0
170 193 0
169 191 0
174 196 0
168 191 0
171 194 0
170 193 0
169 191 0
171 193 0
166 190 0
171 194 0
173 195 0
170 193 0
169 193 0
171 194 0
169 192 0
169 193 0
168 190 0
173 196 0
172 195 0
167 190 0
169 193 0
169 191 0
169 192 0
170 192 0
171 193 0
173 195 0
165 189 0
169 191 0
166 189 0
172 194 0
171 194 0
167 190 0
172 195 0
170 192 0
166 189 0
164 186 0
169 192 0
170 192 0
171 192 0
169 190 0
166 188 0
168 189 0
166 189 0
168 189 0
171 191 0
168 189 0
165 186 0
171 191 0
169 191 0
164 184 0
169 190 0
161 181 0
168 189 0
166 186 0
162 181 0
162 182 0
163 184 0
169 190 0
161 183 0
166 187 0
161 181 0
168 189 0
158 179 0
165 186 0
162 182 0
160 181 0
159 180 0
168 190 0
157 179 0
155 177 0
157 179 0
163 183 0
162 184 0
163 184 0
160 182 0
154 176 0
157 179 0
150 171 0
161 182 0
155 176 0
151 171 0
158 179 0
153 174 0
155 176 0
148 169 0
158 179 0
146 167 0
156 176 0
158 178 0
158 179 0
150 171 0
151 171 0
152 172 0
150 170 0
153 173 0
153 172 0
149 169 0
156 175 0
147 168 0
155 175 0
144 165 0
153 173 0
154 174 0
162 183 0
159 180 0
157 177 0
154 174 0
155 175 0
151 170 0
155 175 0
157 177 0
156 176 0
152 171 0
162 182 0
151 171 0
149 170 0
166 187 0
148 169 0
156 177 0
154 174 0
152 172 0
156 178 0
154 174 0
153 173 0
145 166 0
153 175 0
148 168 0
149 171 0
152 173 0
150 171 0
145 167 0
148 169 0
135 156 0
141 161 0
134 154 0
136 155 0
135 155 0
143 163 0
138 159 0
135 156 0
127 146 0
137 157 0
137 157 0
124 144 0
134 153 0
120 139 0
130 149 0
111 129 0
130 149 0
119 137 0
124 141 0
120 138 0
120 137 0
112 130 0
88 105 18
62 87 65
51 81 84
49 78 74
46 74 72
48 76 72
49 78 62
49 77 74
50 79 84
46 74 62
48 78 67
49 78 65
48 77 86
48 77 72
51 82 76
51 82 84
50 80 72
49 79 74
49 79 70
52 83 86
51 81 78
48 77 72
51 80 90
51 82 72
52 82 82
53 84 92
51 81 84
51 81 82
50 79 76
51 80 78
52 83 84
50 79 80
50 80 65
51 80 82
50 80 70
50 79 67
50 80 86
52 82 86
52 82 92
47 75 80
49 77 80
47 75 65
51 80 82
47 75 72
49 78 80
48 76 67
46 72 72
48 75 79
46 71 73
43 69 54
47 71 65
85 98 36
105 117 0
109 122 0
105 120 0
96 111 0
107 120 0
100 113 0
104 115 0
108 122 0
113 129 0
111 125 0
113 126 0
123 138 0
109 123 0
121 135 0
120 134 0
115 127 0
121 137 0
126 139 0
121 136 0
127 141 0
125 138 0
123 135 0
113 124 0
123 137 0
121 133 0
127 138 0
130 142 0
116 127 0
124 137 0
117 128 0
126 136 0
120 130 0
136 148 0
116 128 0
120 132 0
127 134 0
124 134 0
121 132 0
128 140 0
126 132 0
120 129 0
129 139 0
126 133 0
123 132 0
127 131 0
135 144 0
126 131 0
135 144 0
119 124 0
126 130 0
134 140 0
131 135 0
100 99 0
80 74 11
70 64 16
70 66 0
84 78 0
92 85 0
84 79 14
97 89 0
91 85 11
88 84 0
96 90 0
92 88 0
91 86 3
92 87 0
90 84 0
98 93 3
105 100 11
94 88 0
99 93 0
103 96 0
106 101 0
100 95 0
106 100 8
116 111 0
103 99 8
115 108 0
108 103 0
116 111 8
115 111 0
124 118 0
118 112 0
112 107 11
113 107 11
114 109 19
115 110 0
122 116 11
121 115 16
121 116 16
115 110 16
120 115 16
119 111 0
126 121 28
120 115 16
127 120 22
128 121 16
118 114 0
125 120 16
134 127 32
125 119 16
131 125 25
128 120 22
129 122 25
126 120 16
130 124 25
133 127 22
127 123 16
127 120 22
132 126 22
128 123 32
124 117 22
130 123 28
128 123 22
133 129 25
122 116 30
133 126 22
134 126 39
133 127 28
123 119 22
138 131 28
125 120 22
137 131 32
133 127 34
133 127 36
140 133 44
127 121 28
131 125 30
139 133 30
126 122 36
135 129 37
143 137 39
137 131 32
138 132 39
131 125 32
131 125 34
140 133 48
128 122 22
134 128 25
131 126 37
138 133 47
139 132 47
141 134 44
138 132 37
133 126 42
134 127 42
130 125 39
137 131 44
134 128 39
138 130 45
131 125 37
134 128 37
137 131 37
137 130 41
131 125 42
136 129 39
131 124 39
133 126 36
132 125 44
133 127 39
140 134 47
129 123 34
129 123 48
138 132 48
137 131 44
131 126 32
128 122 37
130 124 44
133 127 41
127 121 45
131 125 47
136 130 51
122 116 44
128 122 42
173 197 0
174 197 0
173 196 0
172 195 0
174 197 0
172 195 0
170 192 0
174 196 0
173 196 0
174 197 0
169 193 0
170 194 0
176 199 0
171 194 0
171 194 0
171 194 0
174 197 0
172 195 0
168 191 0
172 194 0
172 196 0
174 197 0
173 196 0
172 194 0
167 189 0
173 195 0
172 194 0
171 194 0
167 190 0
172 195 0
173 196 0
171 194 0
166 189 0
171 193 0
173 195 0
173 196 0
171 194 0
170 193 0
170 192 0
172 194 0
170 193 0
173 195 0
165 188 0
169 191 0
166 188 0
171 193 0
170 192 0
168 190 0
165 187 0
167 190 0
170 193 0
171 194 0
166 188 0
170 192 0
169 192 0
169 191 0
167 189 0
171 193 0
164 187 0
166 188 0
171 193 0
167 189 0
171 193 0
168 189 0
173 195 0
164 187 0
167 189 0
165 187 0
165 187 0
167 189 0
167 189 0
165 186 0
160 182 0
162 184 0
166 187 0
160 182 0
165 187 0
167 188 0
162 184 0
162 183 0
162 183 0
163 185 0
160 182 0
163 184 0
160 181 0
160 182 0
163 184 0
161 181 0
159 180 0
156 177 0
158 179 0
157 179 0
163 183 0
162 182 0
157 177 0
158 178 0
153 174 0
160 181 0
157 178 0
158 178 0
159 180 0
154 175 0
154 174 0
160 181 0
155 175 0
153 174 0
156 176 0
154 174 0
156 176 0
156 175 0
158 178 0
144 164 0
158 177 0
155 175 0
152 172 0
164 185 0
152 171 0
155 174 0
161 181 0
156 176 0
168 188 0
169 188 0
159 178 0
163 182 0
161 180 0
159 179 0
159 179 0
161 182 0
150 170 0
157 177 0
154 174 0
156 176 0
156 176 0
150 170 0
150 170 0
152 171 0
151 172 0
146 167 0
152 173 0
153 174 0
152 173 0
135 156 0
140 162 0
153 173 0
148 168 0
147 168 0
136 156 0
147 167 0
143 164 0
147 168 0
146 168 0
149 170 0
147 169 0
143 164 0
138 160 0
141 163 0
129 150 0
138 158 0
134 154 0
143 163 0
127 147 0
122 142 0
125 145 0
134 153 0
116 134 0
134 153 0
125 144 0
125 144 0
115 132 0
121 139 0
106 125 0
110 128 0
109 127 0
112 129 0
101 117 0
103 119 18
82 99 18
48 73 65
44 72 47
46 74 60
49 78 82
48 76 67
49 78 76
50 79 82
49 78 57
48 77 72
50 80 72
52 83 76
49 78 70
50 79 72
48 77 67
53 84 84
50 80 74
50 80 86
45 73 62
48 78 72
51 80 88
50 79 84
51 80 90
52 82 78
50 79 82
51 81 74
51 80 78
48 76 76
49 78 76
49 78 78
49 77 84
49 78 88
47 75 84
48 77 76
50 80 80
45 72 70
49 77 74
48 76 72
48 76 88
50 78 83
47 75 63
48 76 63
47 75 71
45 71 60
49 78 62
44 70 62
57 74 36
68 86 40
85 99 0
87 97 0
93 106 0
107 120 0
92 103 0
99 110 0
90 103 0
102 114 0
95 108 0
104 115 0
116 131 0
108 120 0
107 121 0
111 121 0
121 135 0
104 116 0
117 130 0
114 127 0
115 130 0
109 118 0
133 146 0
118 131 0
117 130 0
111 121 0
125 138 0
106 120 0
123 137 0
119 134 0
120 131 0
128 140 0
122 134 0
120 128 0
125 137 0
130 140 0
125 137 0
121 132 0
132 144 0
121 132 0
121 131 0
124 133 0
123 131 0
117 126 0
118 124 0
128 137 0
120 126 0
116 122 0
125 131 0
117 121 0
122 129 0
124 130 0
119 124 0
129 135 0
117 121 0
103 104 0
113 120 0
121 122 0
96 90 22
91 85 30
86 80 24
79 72 8
90 82 0
78 70 0
85 79 0
92 86 11
100 94 0
90 85 0
95 90 0
88 82 0
102 93 0
88 81 0
101 93 0
93 87 3
97 92 0
112 106 0
98 94 0
112 105 8
113 107 0
107 101 0
110 103 8
109 102 0
118 112 0
123 115 0
114 110 0
122 115 8
111 105 0
109 104 0
121 114 0
118 112 0
113 107 0
120 116 11
117 112 11
112 107 11
117 113 0
116 111 11
117 112 11
118 111 16
120 114 11
124 118 19
123 117 11
123 118 16
122 117 11
125 119 0
124 118 11
131 124 16
124 119 19
131 125 22
126 120 11
125 118 19
124 118 16
122 116 19
130 123 22
121 115 19
121 114 16
135 129 22
132 127 22
128 121 28
140 133 25
137 130 32
127 120 22
132 127 32
133 128 30
128 123 22
131 125 22
124 117 30
131 126 30
139 133 28
138 133 30
127 122 34
131 125 22
137 130 36
139 131 42
137 131 39
122 116 25
130 125 36
132 125 36
130 125 28
137 129 41
127 121 30
136 129 37
134 127 39
132 126 34
133 127 30
132 126 32
131 122 34
132 127 34
129 121 28
137 131 36
132 125 41
127 122 34
134 129 39
134 128 37
138 132 36
128 124 25
133 127 37
135 130 34
124 119 30
128 122 39
134 128 37
136 131 36
124 118 37
139 131 48
134 127 41
130 124 37
127 120 30
137 130 48
125 117 39
135 129 47
125 119 44
132 126 47
130 124 41
134 129 37
130 124 34
129 123 41
119 113 36
118 112 39
124 119 32
175 198 0
171 194 0
173 195 0
172 195 0
174 197 0
174 197 0
173 195 0
175 197 0
172 194 0
172 194 0
174 197 0
172 195 0
171 194 0
170 194 0
172 196 0
172 195 0
173 196 0
171 193 0
170 194 0
172 194 0
170 193 0
170 192 0
170 193 0
169 191 0
167 189 0
176 197 0
173 196 0
169 193 0
170 193 0
168 191 0
172 194 0
166 189 0
168 191 0
169 190 0
173 196 0
172 194 0
171 193 0
174 197 0
165 188 0
170 194 0
171 193 0
173 196 0
172 195 0
169 192 0
169 191 0
168 191 0
171 194 0
164 187 0
165 187 0
170 192 0
172 194 0
169 191 0
164 186 0
172 194 0
168 190 0
169 191 0
164 186 0
171 193 0
169 192 0
164 187 0
166 189 0
168 190 0
171 194 0
165 187 0
166 188 0
165 187 0
164 186 0
168 190 0
168 190 0
162 183 0
166 188 0
168 190 0
164 186 0
163 187 0
160 182 0
164 185 0
166 187 0
160 182 0
154 176 0
159 181 0
164 186 0
163 184 0
162 183 0
167 188 0
165 186 0
168 189 0
167 189 0
158 178 0
160 180 0
159 180 0
158 179 0
153 174 0
160 182 0
154 175 0
158 179 0
157 178 0
161 183 0
157 178 0
161 182 0
158 179 0
161 180 0
160 180 0
156 177 0
158 178 0
159 179 0
151 171 0
154 175 0
149 168 0
160 179 0
152 171 0
149 168 0
143 162 0
156 176 0
144 163 0
146 165 0
147 167 0
148 168 0
149 168 0
158 176 0
159 179 0
156 176 0
153 172 0
159 179 0
159 180 0
161 181 0
153 173 0
156 176 0
149 168 0
147 167 0
159 179 0
151 172 0
154 174 0
153 173 0
154 174 0
160 180 0
153 172 0
148 168 0
148 169 0
152 172 0
147 167 0
149 170 0
147 168 0
153 173 0
155 175 0
142 162 0
148 170 0
143 162 0
140 161 0
151 172 0
143 163 0
154 174 0
137 158 0
147 167 0
142 162 0
130 150 0
138 157 0
139 159 0
132 152 0
141 162 0
132 151 0
131 149 0
134 154 0
128 148 0
136 155 0
128 147 0
120 139 0
128 146 0
109 126 0
116 134 0
115 133 0
115 133 0
115 133 0
110 127 0
108 123 0
105 121 0
107 124 0
96 113 0
103 120 0
75 94 44
49 75 72
46 73 67
45 73 51
47 75 67
47 76 60
45 72 65
47 74 57
49 79 54
48 77 57
47 75 74
52 83 97
50 80 80
46 74 62
46 73 54
47 76 72
51 81 72
46 73 51
50 79 82
50 79 70
48 77 54
49 79 72
48 76 60
49 78 78
48 76 72
47 76 76
47 76 70
50 79 76
47 76 78
46 74 70
48 77 72
47 75 74
47 75 70
46 74 72
46 73 74
45 73 54
48 75 57
44 70 44
45 72 70
43 69 62
46 72 63
41 65 57
52 74 62
61 76 18
63 77 0
82 94 0
93 103 0
89 99 0
79 90 0
87 98 0
95 108 0
102 112 0
107 121 0
109 121 0
108 118 0
109 122 0
97 109 0
111 124 0
104 116 0
102 116 0
104 115 0
118 131 0
118 133 0
122 136 0
126 140 0
112 127 0
114 126 0
118 133 0
124 137 0
123 138 0
119 133 0
129 142 0
127 140 0
121 135 0
123 133 0
115 126 0
119 129 0
115 127 0
116 127 0
109 120 0
109 118 0
121 132 0
123 132 0
136 149 0
115 124 0
129 140 0
112 121 0
115 120 0
125 132 0
128 134 0
112 119 0
110 114 0
111 119 0
124 130 0
122 128 0
124 132 0
128 135 0
121 125 0
119 124 0
118 121 0
122 126 0
124 131 0
114 115 0
110 110 11
78 71 11
77 70 0
77 73 0
75 70 11
86 80 11
91 83 11
91 82 0
91 84 0
95 90 0
94 89 0
91 85 0
90 83 0
98 92 0
109 102 0
96 91 0
92 86 0
105 100 8
103 99 0
110 103 0
97 89 0
102 96 0
113 107 0
107 100 0
104 97 0
105 98 8
116 109 0
104 98 0
120 113 0
109 102 0
111 105 0
111 106 0
107 102 0
109 103 0
112 107 0
119 115 0
125 117 0
116 108 11
124 117 0
117 112 11
115 108 0
126 120 0
116 112 19
119 113 11
124 118 11
118 112 16
130 124 19
126 119 16
123 116 0
128 123 11
123 119 16
126 120 16
130 122 22
127 122 25
125 119 19
132 127 22
123 116 25
134 128 34
122 117 11
122 116 11
129 123 11
130 124 16
128 123 22
134 128 32
125 121 22
134 127 19
127 121 25
136 129 28
132 127 28
130 124 22
134 127 28
135 130 30
134 127 28
133 128 22
128 120 30
126 120 28
132 126 25
128 121 41
139 133 42
129 121 34
132 125 37
133 127 25
128 122 28
138 131 36
134 128 37
131 125 37
136 129 44
128 123 22
130 124 34
132 124 32
137 130 42
128 122 28
129 123 36
129 123 36
126 120 22
128 122 39
139 131 36
130 125 42
134 129 36
126 121 32
125 120 30
130 125 37
134 127 32
134 127 41
129 123 39
132 125 42
128 123 34
132 125 41
141 135 45
131 127 39
134 127 48
136 131 45
128 122 37
132 126 47
127 121 45
131 125 41
131 126 39
138 132 48
121 117 30
173 196 0
170 193 0
171 194 0
171 195 0
174 197 0
171 194 0
174 197 0
171 194 0
173 196 0
172 194 0
173 196 0
171 195 0
171 194 0
170 194 0
173 196 0
171 194 0
175 197 0
170 194 0
175 197 0
171 194 0
173 196 0
172 195 0
171 193 0
170 193 0
174 197 0
165 189 0
172 195 0
173 196 0
167 190 0
171 192 0
173 195 0
172 194 0
170 193 0
173 195 0
171 193 0
171 195 0
172 194 0
171 193 0
168 191 0
171 193 0
169 191 0
171 193 0
175 197 0
171 194 0
172 194 0
168 191 0
169 191 0
168 190 0
168 191 0
170 193 0
168 190 0
169 191 0
169 190 0
172 194 0
169 191 0
168 191 0
164 186 0
169 190 0
163 185 0
165 187 0
165 187 0
162 184 0
163 185 0
173 194 0
165 186 0
170 191 0
170 193 0
169 190 0
169 190 0
161 183 0
165 187 0
168 190 0
166 187 0
163 185 0
167 188 0
161 183 0
164 186 0
162 182 0
168 189 0
156 178 0
166 187 0
160 182 0
162 183 0
164 185 0
161 182 0
161 182 0
159 180 0
163 184 0
163 184 0
160 181 0
159 180 0
161 183 0
158 178 0
159 180 0
161 182 0
165 185 0
157 177 0
160 181 0
158 178 0
161 181 0
158 179 0
159 179 0
159 179 0
148 169 0
155 176 0
141 162 0
162 181 0
159 178 0
157 178 0
151 170 0
157 177 0
148 168 0
151 172 0
153 172 0
154 174 0
140 160 0
150 171 0
156 176 0
163 182 0
151 170 0
164 184 0
156 176 0
155 175 0
160 180 0
151 170 0
153 174 0
156 175 0
155 176 0
154 174 0
151 171 0
152 172 0
152 172 0
154 174 0
145 165 0
149 170 0
144 164 0
156 176 0
141 161 0
147 168 0
153 174 0
148 169 0
148 169 0
149 170 0
143 164 0
148 169 0
137 157 0
152 172 0
146 166 0
145 165 0
139 159 0
138 158 0
139 160 0
137 158 0
149 169 0
137 157 0
134 154 0
133 154 0
132 151 0
128 147 0
137 157 0
142 162 0
127 146 0
124 143 0
128 146 0
121 140 0
125 143 0
120 139 0
112 130 0
113 130 0
120 139 0
110 127 0
119 136 0
114 132 0
103 118 0
104 119 0
109 126 0
85 99 0
90 106 0
100 114 0
83 97 0
63 78 0
61 82 54
42 67 60
47 75 57
44 72 60
46 74 65
50 80 76
46 74 57
49 78 76
46 74 62
45 72 57
46 73 70
47 75 78
48 76 72
47 76 57
49 79 72
45 73 65
45 72 74
44 71 57
47 75 78
46 74 74
47 76 74
47 75 65
49 78 72
48 76 78
45 72 72
45 73 70
42 68 54
47 74 78
44 70 67
47 74 72
45 72 60
48 76 76
43 69 60
42 68 51
42 67 54
42 68 51
39 61 51
69 84 44
73 84 36
75 85 0
84 94 0
87 97 0
85 95 0
92 100 0
102 115 0
89 100 0
82 95 0
105 115 0
103 115 0
99 112 0
103 115 0
88 101 0
104 117 0
109 122 0
102 115 0
109 121 0
112 122 0
108 122 0
118 130 0
114 128 0
106 117 0
113 125 0
110 123 0
117 132 0
109 120 0
114 127 0
104 117 0
115 124 0
121 134 0
119 130 0
117 130 0
118 128 0
110 122 0
125 138 0
115 128 0
121 130 0
123 135 0
110 121 0
110 120 0
120 130 0
127 137 0
116 125 0
120 129 0
116 127 0
113 119 0
117 125 0
113 118 0
121 132 0
108 115 0
125 130 0
126 134 0
113 119 0
121 127 0
117 124 0
118 121 0
122 126 0
102 105 0
113 116 0
126 129 0
115 117 0
111 112 0
105 105 0
95 91 28
73 66 16
89 80 0
87 79 16
84 77 0
89 81 0
96 89 11
90 82 0
97 89 0
75 69 0
93 85 0
89 83 0
94 87 0
101 97 0
84 77 0
93 87 0
99 93 0
108 100 0
103 97 0
110 102 0
98 93 0
94 89 0
100 94 0
102 96 0
109 103 0
112 105 0
106 99 0
114 108 0
114 107 0
115 109 0
114 108 0
117 111 0
102 96 0
107 101 11
114 108 0
113 107 0
119 114 0
109 105 0
119 113 0
119 113 11
108 102 0
109 103 11
124 115 0
127 121 11
118 113 0
121 114 16
125 119 16
126 120 25
118 113 11
125 120 28
120 114 11
126 120 28
125 118 22
126 119 25
136 129 34
124 116 11
127 121 25
123 118 16
128 123 22
124 119 25
123 116 25
126 120 22
123 117 16
134 127 30
130 125 30
128 121 28
134 129 37
135 128 32
128 121 22
129 124 36
132 127 30
131 124 28
136 129 30
129 124 22
121 114 32
132 126 28
134 127 36
133 130 25
133 128 25
135 128 34
132 128 19
133 128 28
129 122 32
128 123 16
139 131 42
126 120 30
134 127 34
126 120 32
127 121 36
135 129 41
130 124 28
133 127 47
130 124 37
129 121 36
137 131 34
130 125 34
126 120 41
134 128 37
132 125 32
139 131 53
126 119 30
135 128 39
132 126 42
130 124 37
127 120 28
131 124 42
132 127 44
123 117 42
125 119 39
124 119 41
122 116 36
135 129 34
129 122 45
128 123 34
123 118 30
127 122 34
121 114 37
170 195 0
172 196 0
172 195 0
173 197 0
174 197 0
172 194 0
171 194 0
172 195 0
170 193 0
173 196 0
174 197 0
172 195 0
171 194 0
173 194 0
170 194 0
174 196 0
172 195 0
173 195 0
171 194 0
167 190 0
174 197 0
170 193 0
172 195 0
170 193 0
171 193 0
173 195 0
169 191 0
166 190 0
168 190 0
173 196 0
172 194 0
169 192 0
171 193 0
170 192 0
168 190 0
170 193 0
170 192 0
169 192 0
172 194 0
171 192 0
172 193 0
169 191 0
172 195 0
170 193 0
168 190 0
172 194 0
169 192 0
165 187 0
169 191 0
167 190 0
170 192 0
169 191 0
172 194 0
170 192 0
172 194 0
170 191 0
167 189 0
171 192 0
170 191 0
167 188 0
166 187 0
166 188 0
161 184 0
167 188 0
168 190 0
168 190 0
163 186 0
165 187 0
167 188 0
161 183 0
168 189 0
162 184 0
169 191 0
160 182 0
162 182 0
165 187 0
163 184 0
165 186 0
164 185 0
166 187 0
168 188 0
164 184 0
165 186 0
163 184 0
159 180 0
160 180 0
163 185 0
164 184 0
165 185 0
161 182 0
161 183 0
157 177 0
161 181 0
159 180 0
157 177 0
157 176 0
156 176 0
160 180 0
156 177 0
164 184 0
155 175 0
152 172 0
156 175 0
152 172 0
154 173 0
153 173 0
155 174 0
157 177 0
159 179 0
155 175 0
147 167 0
148 167 0
149 168 0
141 160 0
158 179 0
164 184 0
157 177 0
163 182 0
150 169 0
162 182 0
151 171 0
161 181 0
155 174 0
162 181 0
164 184 0
158 178 0
148 168 0
146 166 0
161 181 0
150 170 0
149 169 0
154 174 0
150 170 0
145 164 0
144 165 0
144 164 0
140 161 0
145 166 0
144 165 0
143 163 0
150 170 0
144 164 0
147 168 0
146 166 0
142 163 0
143 163 0
141 161 0
141 162 0
140 161 0
138 157 0
136 155 0
139 160 0
133 153 0
130 150 0
121 141 0
133 153 0
135 154 0
133 152 0
139 159 0
137 157 0
128 146 0
117 136 0
133 152 0
131 149 0
122 140 0
132 151 0
113 132 0
131 150 0
119 137 0
105 123 0
108 125 0
112 128 0
103 120 0
107 124 0
101 117 0
113 129 0
96 112 0
87 101 0
94 109 0
103 118 0
84 98 0
81 95 0
82 94 18
70 84 0
52 71 44
38 62 44
43 69 62
44 71 72
42 68 51
44 72 60
45 72 65
42 68 62
44 71 62
42 68 47
45 72 57
49 79 67
45 72 47
44 71 62
47 75 62
47 75 72
47 74 78
47 75 57
44 71 62
44 71 67
44 70 57
42 68 54
47 74 65
42 67 60
44 69 62
41 66 44
42 68 65
41 65 62
41 65 54
42 67 60
43 67 74
57 74 54
58 73 40
72 80 0
56 65 0
69 79 0
78 87 0
69 77 0
78 89 0
80 93 0
87 96 0
85 97 0
86 95 0
85 96 0
82 93 0
106 119 0
106 118 0
100 113 0
114 125 0
97 109 0
110 122 0
109 122 0
97 108 0
114 127 0
125 139 0
103 115 0
107 117 0
121 135 0
112 124 0
111 125 0
116 128 0
119 133 0
115 128 0
109 119 0
116 126 0
103 113 0
120 130 0
123 136 0
117 129 0
119 130 0
120 131 0
126 140 0
120 133 0
107 117 0
122 134 0
107 117 0
119 125 0
115 125 0
120 131 0
113 122 0
118 128 0
124 132 0
125 136 0
122 132 0
107 112 0
119 125 0
102 106 0
113 121 0
118 122 0
114 121 0
129 136 0
114 123 0
119 123 0
101 102 0
112 116 0
110 112 0
116 118 0
115 120 0
111 110 0
105 103 0
108 109 11
87 80 16
86 78 0
79 71 0
82 76 11
92 85 0
82 76 8
101 95 16
93 85 0
102 93 3
86 79 0
89 84 0
91 84 0
95 88 0
95 87 0
97 91 0
87 81 0
96 90 3
107 98 0
105 98 0
91 86 0
104 99 0
105 100 0
112 106 0
105 98 0
107 101 8
116 109 0
105 101 0
104 100 0
113 107 0
117 111 0
113 107 0
118 111 11
112 105 0
107 101 0
105 99 0
118 111 22
120 113 0
114 107 11
127 119 16
117 111 0
128 121 0
119 115 0
117 111 19
112 106 16
125 117 11
128 122 11
130 124 11
122 115 19
126 120 16
118 113 19
123 116 22
123 116 25
121 114 22
125 119 11
123 116 25
120 114 16
122 116 22
131 125 22
125 121 19
132 125 25
126 120 16
127 119 25
128 122 16
125 119 25
120 115 16
130 124 30
128 122 34
134 127 28
125 120 16
136 129 37
139 133 30
124 118 25
126 120 28
121 115 28
135 128 34
137 130 36
130 124 37
130 123 28
136 128 42
126 120 25
131 124 37
137 128 37
132 125 34
133 126 32
128 124 37
132 126 36
129 123 36
133 126 36
130 124 30
131 123 37
134 126 37
131 125 42
131 125 36
125 119 32
138 129 44
138 132 42
127 121 34
129 123 36
136 130 44
133 126 30
136 131 30
134 129 39
123 118 25
129 123 32
122 116 37
128 121 45
128 120 44
129 124 32
133 125 41
126 120 36
131 124 39
134 128 44
124 118 39
139 131 51
127 121 36
170 194 0
174 197 0
173 196 0
171 194 0
172 195 0
172 196 0
174 197 0
175 198 0
172 194 0
174 197 0
172 194 0
174 196 0
174 197 0
171 195 0
171 193 0
174 196 0
174 197 0
169 192 0
172 194 0
171 194 0
171 195 0
173 196 0
171 193 0
174 196 0
170 192 0
175 197 0
169 192 0
172 194 0
174 196 0
173 195 0
172 195 0
173 195 0
172 195 0
171 194 0
171 194 0
170 192 0
170 193 0
170 191 0
173 195 0
171 192 0
170 191 0
174 195 0
173 194 0
167 191 0
170 192 0
169 191 0
170 192 0
172 193 0
165 187 0
171 193 0
170 191 0
167 189 0
170 192 0
171 193 0
169 191 0
171 191 0
171 193 0
164 187 0
167 189 0
162 185 0
169 191 0
166 187 0
168 189 0
167 188 0
169 191 0
164 186 0
168 189 0
167 189 0
164 186 0
168 189 0
164 186 0
167 187 0
167 189 0
162 184 0
168 190 0
165 186 0
164 184 0
160 181 0
170 190 0
160 181 0
164 184 0
162 183 0
160 181 0
169 190 0
167 188 0
160 181 0
161 182 0
167 189 0
155 176 0
159 178 0
170 191 0
156 176 0
157 177 0
151 172 0
160 179 0
153 173 0
163 183 0
156 176 0
151 172 0
158 177 0
152 172 0
155 175 0
156 176 0
164 184 0
150 171 0
153 172 0
152 172 0
156 175 0
161 180 0
144 164 0
155 175 0
154 174 0
149 169 0
159 178 0
158 178 0
163 183 0
157 176 0
154 173 0
154 174 0
159 179 0
159 178 0
151 169 0
156 175 0
160 179 0
159 179 0
150 170 0
152 172 0
152 171 0
153 172 0
148 168 0
149 170 0
151 171 0
143 163 0
150 170 0
147 167 0
149 169 0
157 178 0
145 165 0
144 166 0
144 163 0
145 164 0
145 166 0
148 169 0
148 169 0
146 167 0
142 163 0
146 165 0
153 174 0
138 157 0
143 164 0
143 164 0
142 163 0
131 151 0
141 160 0
141 161 0
131 150 0
118 138 0
131 151 0
124 145 0
121 141 0
121 141 0
136 154 0
124 143 0
124 142 0
124 144 0
112 129 0
121 140 0
116 134 0
119 138 0
110 128 0
120 138 0
108 125 0
88 103 0
103 120 0
114 130 0
96 111 0
101 116 0
104 119 0
88 102 0
106 121 0
94 109 0
88 101 0
96 108 0
83 95 0
64 75 0
65 77 0
62 76 18
38 61 51
42 64 54
42 67 65
42 67 51
43 69 67
42 68 51
41 67 51
43 69 60
44 71 40
42 68 51
45 72 65
43 69 70
41 66 47
42 68 54
41 67 57
43 69 60
40 65 60
44 71 65
43 69 51
44 71 67
46 73 68
39 63 51
42 67 60
39 62 47
40 60 31
47 61 31
64 76 31
51 57 0
56 64 0
86 96 0
83 93 0
87 97 0
84 94 0
83 93 0
78 88 0
84 96 0
88 102 0
102 113 0
92 103 0
92 104 0
95 107 0
93 104 0
108 119 0
76 86 0
91 103 0
102 114 0
110 123 0
111 123 0
101 114 0
117 127 0
121 135 0
110 121 0
117 131 0
123 137 0
119 133 0
125 139 0
102 113 0
110 121 0
108 120 0
102 117 0
115 126 0
124 133 0
125 136 0
118 132 0
119 130 0
118 130 0
121 132 0
122 132 0
106 115 0
127 139 0
128 139 0
123 136 0
118 130 0
131 142 0
109 119 0
117 127 0
112 119 0
125 133 0
112 119 0
113 120 0
116 125 0
121 128 0
109 115 0
112 119 0
113 118 0
103 107 0
108 112 0
110 113 0
107 111 0
114 118 0
111 112 0
116 118 0
115 118 0
118 122 0
111 114 0
104 102 0
115 117 0
107 108 0
112 112 0
97 92 16
85 77 19
84 76 11
97 91 11
85 77 11
86 79 11
82 76 11
92 82 0
93 86 0
84 77 0
83 78 0
90 82 0
88 81 0
88 82 0
93 86 0
99 93 0
90 86 0
113 106 0
100 93 0
110 100 0
109 102 0
109 102 0
102 94 0
112 106 0
103 96 0
107 103 0
112 107 0
120 112 0
105 99 0
112 107 11
107 102 0
108 101 0
111 105 0
112 107 0
122 117 0
123 115 0
118 110 11
111 105 11
107 101 0
114 108 11
116 111 11
125 118 11
119 113 11
122 117 0
124 116 11
121 116 22
117 111 19
124 117 16
126 118 0
126 119 19
124 119 11
123 114 22
124 117 0
126 121 19
120 114 16
117 111 19
122 116 19
127 120 22
130 123 16
128 122 16
121 114 16
132 126 22
118 113 25
120 115 22
130 123 36
120 117 22
127 120 30
133 127 25
119 114 22
131 125 34
127 121 19
129 121 36
130 123 30
137 130 39
123 116 16
122 114 22
133 125 32
126 121 34
132 126 37
130 124 30
127 119 37
138 131 32
132 125 25
138 131 39
130 122 32
133 128 32
138 132 41
127 122 34
135 128 39
134 127 30
126 121 32
123 118 32
131 123 39
123 118 25
121 113 32
129 123 39
134 127 37
120 113 25
134 128 45
124 118 34
129 124 36
130 126 36
121 115 36
124 119 32
134 126 42
127 120 41
123 116 42
133 126 47
134 128 44
132 125 42
125 118 32
120 113 34
133 126 48
121 114 36
173 196 0
173 195 0
173 196 0
173 195 0
173 196 0
170 193 0
173 196 0
175 197 0
174 197 0
173 196 0
173 196 0
174 197 0
174 196 0
171 194 0
170 193 0
172 194 0
174 196 0
174 196 0
173 196 0
172 195 0
175 196 0
174 196 0
173 196 0
173 195 0
172 194 0
168 189 0
172 193 0
172 195 0
169 192 0
168 191 0
174 196 0
168 191 0
174 196 0
170 192 0
172 194 0
170 192 0
170 192 0
174 197 0
172 195 0
176 198 0
167 190 0
170 192 0
167 189 0
166 188 0
168 190 0
171 192 0
170 192 0
172 194 0
171 191 0
173 194 0
172 193 0
169 190 0
170 192 0
166 188 0
169 191 0
169 190 0
170 191 0
171 192 0
166 187 0
171 193 0
170 191 0
168 189 0
166 188 0
171 191 0
165 187 0
165 187 0
172 193 0
170 192 0
164 185 0
171 193 0
166 188 0
170 191 0
162 183 0
164 185 0
161 181 0
165 187 0
168 189 0
155 176 0
167 189 0
162 184 0
156 177 0
157 178 0
166 186 0
166 187 0
164 184 0
163 183 0
160 182 0
162 182 0
163 183 0
166 186 0
156 176 0
157 177 0
152 172 0
156 176 0
160 180 0
160 181 0
161 181 0
164 184 0
159 178 0
159 179 0
159 178 0
153 172 0
153 172 0
154 174 0
155 174 0
155 174 0
154 173 0
146 166 0
151 170 0
155 174 0
157 177 0
156 174 0
157 177 0
156 176 0
154 174 0
157 176 0
157 176 0
151 171 0
157 176 0
149 168 0
162 182 0
144 164 0
154 174 0
142 162 0
149 168 0
155 175 0
150 170 0
147 167 0
153 173 0
139 159 0
146 166 0
148 167 0
146 166 0
144 164 0
147 167 0
143 162 0
156 175 0
148 168 0
150 171 0
139 158 0
147 167 0
144 164 0
148 168 0
148 168 0
148 169 0
144 164 0
143 164 0
143 163 0
133 153 0
135 155 0
137 156 0
141 160 0
137 156 0
136 157 0
129 147 0
133 153 0
128 147 0
130 150 0
119 138 0
134 154 0
129 149 0
128 147 0
117 136 0
121 140 0
124 143 0
114 133 0
126 143 0
101 118 0
114 131 0
116 134 0
112 128 0
121 138 0
122 138 0
107 123 0
100 117 0
94 108 0
93 109 0
91 107 0
98 112 0
82 96 0
86 100 0
107 121 0
91 105 0
84 97 0
83 96 0
79 92 0
70 81 0
51 62 0
63 74 0
60 71 18
52 63 18
62 77 31
50 66 36
47 68 47
51 69 40
38 61 57
42 64 57
41 66 51
39 63 47
41 65 51
43 69 65
37 61 36
39 63 44
37 60 36
47 69 57
37 58 47
40 56 44
49 66 54
48 60 25
53 63 18
50 59 0
56 64 0
59 66 0
74 84 0
76 87 0
73 83 0
70 78 0
68 77 0
78 88 0
77 88 0
85 97 0
84 94 0
102 113 0
97 108 0
91 102 0
102 112 0
85 96 0
104 115 0
86 97 0
98 107 0
106 117 0
96 109 0
109 123 0
93 106 0
103 114 0
110 123 0
107 119 0
95 106 0
112 126 0
106 117 0
103 115 0
106 119 0
109 122 0
118 131 0
117 132 0
106 119 0
123 133 0
114 127 0
106 116 0
117 128 0
115 127 0
119 131 0
119 132 0
110 122 0
116 128 0
119 130 0
116 129 0
130 141 0
119 129 0
117 126 0
118 129 0
113 121 0
120 131 0
123 131 0
114 124 0
118 126 0
111 120 0
119 125 0
110 117 0
112 120 0
108 113 0
104 106 0
113 121 0
114 119 0
109 115 0
113 118 0
109 114 0
118 122 0
116 119 0
108 108 0
110 111 0
110 112 0
101 102 0
108 111 0
101 99 0
107 105 0
103 100 0
105 103 0
99 92 0
79 71 0
82 75 11
84 76 0
80 75 11
78 71 0
92 84 0
88 79 0
77 71 11
91 86 0
94 87 0
98 88 0
96 87 0
99 90 0
106 98 0
105 95 0
106 98 0
97 89 0
102 94 0
102 95 0
117 109 0
106 99 0
98 91 0
113 104 0
109 103 0
101 94 0
112 106 0
111 105 0
109 103 0
121 113 0
111 105 0
108 99 0
110 105 0
99 93 0
107 99 0
120 111 0
105 100 11
121 115 0
115 109 0
126 121 11
110 103 0
117 110 11
118 113 11
112 105 11
111 104 11
123 115 0
122 116 19
128 121 16
114 107 0
121 114 19
126 119 19
121 115 19
125 118 28
125 118 25
120 112 19
126 120 19
126 120 19
127 121 32
115 111 22
124 118 0
132 126 28
128 122 25
143 135 36
116 111 19
120 115 11
127 121 32
130 122 32
128 121 28
127 121 22
126 120 28
126 122 28
131 125 32
120 115 19
127 119 28
128 121 28
125 118 32
137 129 34
127 119 28
130 125 22
127 119 25
125 119 30
123 118 25
131 124 37
125 118 25
129 122 30
126 120 32
122 116 25
134 127 30
130 124 28
131 125 37
126 119 42
117 112 30
127 121 41
130 123 28
128 123 28
127 122 37
139 131 48
123 117 19
123 117 42
129 123 39
128 121 39
123 117 34
133 126 37
120 114 32
122 116 44
121 114 44
121 116 41
120 114 34
129 122 48
128 121 42
133 126 39
124 119 39
172 195 0
173 196 0
173 196 0
174 197 0
173 196 0
173 196 0
172 195 0
173 196 0
173 195 0
174 197 0
174 198 0
170 193 0
177 199 0
173 196 0
171 194 0
175 197 0
173 195 0
170 193 0
175 197 0
172 195 0
172 195 0
175 198 0
175 197 0
170 192 0
174 196 0
170 193 0
169 193 0
171 194 0
171 193 0
173 195 0
168 190 0
171 192 0
169 191 0
168 190 0
172 194 0
167 189 0
173 195 0
172 193 0
173 195 0
171 192 0
173 195 0
170 192 0
170 192 0
172 194 0
169 191 0
169 191 0
175 196 0
166 188 0
169 191 0
172 194 0
165 187 0
169 191 0
172 195 0
165 187 0
169 191 0
168 189 0
168 190 0
169 190 0
167 188 0
166 188 0
167 188 0
168 190 0
166 188 0
171 192 0
167 188 0
167 188 0
166 187 0
167 188 0
171 192 0
168 188 0
169 189 0
167 188 0
164 184 0
164 186 0
164 185 0
169 190 0
164 185 0
161 182 0
167 189 0
163 184 0
159 181 0
158 179 0
160 181 0
166 187 0
161 180 0
164 185 0
158 178 0
166 187 0
163 183 0
163 183 0
158 178 0
163 183 0
159 178 0
162 181 0
152 172 0
162 182 0
167 187 0
160 179 0
156 176 0
163 183 0
150 170 0
155 175 0
150 170 0
156 176 0
158 178 0
158 178 0
154 174 0
157 177 0
147 167 0
143 163 0
163 183 0
157 176 0
161 180 0
151 170 0
160 180 0
147 166 0
158 177 0
155 174 0
154 174 0
154 174 0
150 170 0
157 178 0
158 178 0
156 175 0
151 170 0
148 168 0
149 169 0
149 169 0
157 176 0
149 170 0
141 160 0
149 168 0
150 170 0
150 171 0
137 158 0
147 167 0
144 163 0
146 166 0
150 171 0
140 160 0
139 160 0
148 169 0
150 170 0
151 171 0
144 164 0
139 160 0
144 163 0
132 153 0
143 164 0
118 136 0
142 162 0
143 163 0
135 155 0
139 159 0
135 154 0
137 158 0
133 152 0
130 149 0
131 152 0
133 153 0
127 146 0
119 137 0
130 149 0
121 141 0
124 143 0
121 139 0
115 133 0
118 136 0
107 125 0
125 143 0
123 141 0
111 129 0
110 127 0
104 120 0
119 135 0
113 130 0
91 107 0
119 135 0
106 121 0
102 117 0
78 93 0
95 109 0
85 99 0
84 99 0
81 95 0
68 78 0
74 87 0
79 91 0
83 97 0
75 86 0
64 73 0
59 69 0
72 82 0
62 70 0
51 62 0
63 72 0
55 65 0
53 62 0
58 66 0
60 68 0
62 72 18
58 67 0
43 53 0
34 44 0
61 70 0
64 73 0
37 46 0
56 64 0
53 61 0
69 79 0
51 61 0
57 66 0
84 94 0
67 77 0
80 91 0
53 64 0
71 82 0
68 78 0
79 89 0
85 97 0
71 81 0
66 75 0
84 97 0
84 95 0
76 85 0
100 110 0
93 106 0
82 94 0
91 104 0
104 116 0
103 115 0
101 113 0
110 122 0
98 110 0
113 125 0
104 116 0
109 122 0
100 112 0
104 118 0
103 116 0
105 117 0
115 126 0
97 107 0
97 107 0
104 116 0
117 130 0
108 119 0
110 121 0
106 118 0
110 120 0
114 126 0
116 129 0
120 132 0
102 114 0
109 120 0
118 130 0
118 128 0
130 141 0
116 127 0
112 120 0
118 129 0
111 123 0
119 129 0
124 134 0
116 126 0
118 129 0
112 117 0
115 123 0
105 110 0
116 122 0
121 128 0
120 125 0
118 123 0
110 117 0
112 115 0
114 121 0
101 101 0
108 113 0
120 124 0
102 105 0
102 103 0
110 111 0
113 117 0
102 102 0
113 112 0
108 110 0
101 99 0
112 111 0
90 88 0
103 98 16
93 85 11
83 75 11
75 68 0
73 65 0
79 75 0
89 82 0
85 76 0
80 71 0
94 86 0
75 69 0
85 78 0
89 81 0
100 94 0
100 91 0
105 99 0
105 98 11
102 94 0
106 98 0
111 103 0
100 91 0
109 99 0
103 95 0
100 92 0
106 99 0
106 97 0
113 107 0
104 95 0
106 97 0
114 107 0
111 104 11
113 108 0
113 107 0
116 108 11
112 104 0
108 101 0
111 104 0
108 101 0
119 112 16
122 113 16
116 107 16
112 106 11
121 113 11
115 108 11
114 107 11
116 109 0
116 108 11
114 107 11
116 109 11
115 109 19
124 117 19
120 113 19
124 118 19
121 115 28
116 110 11
132 125 28
131 124 22
114 106 19
122 117 22
127 120 11
124 118 0
124 118 25
127 121 25
126 120 30
119 113 11
125 119 28
119 112 30
119 113 11
128 121 30
126 120 28
120 113 25
129 121 28
131 124 32
136 127 45
127 120 32
122 116 19
120 114 25
129 122 19
133 124 32
122 115 28
123 117 30
127 122 36
128 121 32
124 118 34
124 119 36
129 122 36
128 121 34
126 120 25
122 116 30
129 123 36
129 122 39
128 122 32
124 118 34
131 125 34
129 122 34
120 111 32
142 134 42
127 120 36
136 128 37
129 122 44
121 114 36
125 119 41
123 117 32
123 118 34
122 115 39
123 117 37
134 128 41
116 110 34
127 121 36
115 110 36
122 115 39
174 197 0
172 195 0
173 195 0
172 195 0
171 193 0
173 196 0
175 198 0
173 196 0
175 197 0
175 197 0
173 195 0
171 193 0
173 195 0
170 193 0
171 194 0
169 192 0
173 196 0
173 195 0
175 197 0
171 193 0
175 196 0
175 195 0
169 191 0
174 196 0
171 193 0
173 194 0
172 194 0
174 195 0
173 195 0
174 196 0
174 194 0
171 193 0
171 193 0
173 195 0
166 188 0
175 196 0
173 195 0
172 194 0
170 192 0
168 190 0
170 192 0
169 190 0
171 192 0
169 191 0
172 193 0
171 192 0
165 188 0
169 191 0
174 195 0
173 194 0
169 192 0
171 193 0
169 191 0
169 190 0
173 193 0
174 194 0
170 191 0
169 191 0
170 191 0
169 191 0
166 187 0
169 191 0
167 188 0
169 190 0
164 185 0
164 185 0
165 186 0
172 194 0
165 185 0
169 189 0
169 190 0
166 187 0
165 185 0
165 185 0
170 191 0
159 180 0
168 189 0
165 186 0
157 178 0
168 189 0
162 182 0
165 186 0
168 189 0
160 181 0
166 186 0
162 182 0
161 181 0
166 186 0
156 176 0
159 180 0
160 179 0
160 181 0
161 181 0
162 182 0
160 179 0
161 180 0
160 180 0
162 183 0
163 183 0
163 184 0
160 180 0
158 177 0
158 177 0
151 171 0
156 176 0
159 178 0
155 175 0
150 169 0
161 181 0
147 166 0
154 173 0
159 178 0
158 177 0
155 174 0
153 172 0
154 175 0
151 170 0
158 178 0
155 175 0
150 169 0
157 176 0
156 175 0
152 173 0
155 175 0
151 171 0
148 168 0
163 183 0
149 168 0
157 177 0
153 172 0
147 166 0
147 168 0
147 167 0
146 166 0
153 173 0
158 179 0
146 166 0
147 168 0
156 177 0
144 164 0
142 162 0
147 168 0
136 156 0
140 160 0
140 159 0
140 160 0
143 164 0
138 158 0
133 153 0
142 162 0
139 161 0
130 150 0
145 165 0
133 154 0
143 163 0
142 162 0
132 151 0
139 159 0
138 158 0
129 148 0
127 146 0
129 148 0
125 144 0
123 141 0
113 133 0
116 134 0
121 140 0
131 149 0
108 126 0
118 136 0
122 138 0
117 134 0
107 124 0
105 122 0
102 119 0
102 119 0
98 115 0
100 116 0
100 117 0
93 108 0
99 116 0
91 106 0
90 105 0
96 110 0
90 104 0
90 103 0
81 93 0
91 104 0
85 96 0
75 87 0
78 89 0
65 77 0
60 71 0
74 85 0
56 65 0
66 77 0
63 73 0
58 68 0
72 81 0
67 78 0
61 70 0
66 78 0
61 71 0
58 67 0
52 63 0
70 80 0
55 65 0
66 77 0
61 71 0
73 83 0
65 76 0
75 85 0
83 93 0
67 76 0
83 95 0
75 84 0
73 80 0
85 98 0
81 92 0
80 90 0
96 107 0
84 97 0
84 96 0
97 109 0
88 100 0
85 96 0
90 104 0
102 114 0
96 109 0
89 98 0
92 101 0
112 127 0
98 111 0
110 123 0
116 129 0
102 115 0
95 110 0
102 114 0
98 112 0
103 116 0
112 125 0
120 135 0
117 131 0
111 123 0
115 126 0
113 125 0
111 125 0
117 131 0
107 121 0
109 120 0
124 139 0
125 137 0
121 132 0
122 134 0
117 128 0
114 125 0
115 127 0
129 141 0
120 129 0
127 137 0
122 133 0
116 126 0
135 144 0
112 121 0
113 122 0
123 132 0
118 128 0
105 115 0
105 113 0
111 114 0
118 127 0
116 122 0
125 132 0
116 121 0
102 106 0
104 108 0
107 113 0
114 118 0
103 107 0
103 104 0
114 118 0
104 103 0
103 103 0
106 109 0
102 103 0
102 102 0
109 109 0
92 93 0
103 104 0
85 84 0
95 90 0
90 88 0
75 71 11
72 63 0
83 75 0
85 76 19
72 64 0
83 74 11
88 79 11
93 83 11
98 87 11
90 80 0
95 87 0
97 88 0
97 89 0
99 89 0
101 93 0
89 82 0
101 93 0
90 82 0
96 90 0
110 104 0
112 104 0
102 95 0
114 105 0
109 101 0
102 94 0
118 111 11
121 113 0
96 90 0
104 97 0
106 99 0
109 104 0
116 109 0
117 109 11
109 103 0
112 106 0
120 111 11
118 111 0
115 107 11
117 109 0
118 110 0
115 109 0
126 119 0
126 119 25
113 105 0
122 116 0
120 112 16
122 115 0
126 118 19
123 116 16
117 111 0
123 115 22
127 121 19
117 109 16
127 119 28
123 115 25
128 121 16
128 121 16
122 116 22
134 127 34
117 111 16
126 119 28
126 118 32
124 116 19
120 114 22
128 121 30
119 114 22
120 113 16
130 124 22
131 123 25
120 113 28
132 127 22
117 111 19
126 120 30
124 118 22
124 115 34
121 115 19
115 109 25
124 116 28
121 115 36
130 123 25
125 119 32
132 126 34
124 119 22
125 120 34
127 119 34
121 115 28
123 116 32
122 114 36
128 122 32
120 113 32
126 119 36
121 112 37
123 115 34
124 118 34
135 127 53
129 122 37
122 115 36
122 116 34
121 115 34
120 113 37
125 120 32
124 117 42
128 122 37
130 124 44
113 106 32
120 113 39
110 104 36
132 124 48
172 195 0
170 193 0
173 196 0
172 195 0
173 196 0
171 194 0
172 195 0
170 193 0
175 198 0
175 197 0
173 196 0
174 197 0
176 198 0
173 196 0
174 196 0
173 196 0
173 195 0
171 193 0
174 195 0
172 195 0
175 197 0
173 195 0
177 199 0
169 192 0
171 193 0
171 193 0
173 195 0
170 192 0
173 195 0
171 192 0
170 191 0
170 192 0
170 192 0
174 195 0
175 196 0
172 194 0
171 193 0
172 193 0
174 195 0
171 193 0
172 193 0
172 194 0
171 193 0
173 195 0
170 192 0
169 191 0
173 194 0
168 190 0
168 189 0
169 190 0
174 195 0
171 192 0
166 188 0
171 191 0
168 190 0
174 195 0
167 187 0
166 188 0
171 192 0
170 191 0
171 192 0
165 186 0
169 190 0
174 195 0
169 189 0
170 191 0
170 190 0
171 192 0
168 190 0
166 187 0
168 188 0
165 187 0
163 183 0
166 187 0
163 185 0
163 183 0
162 183 0
165 185 0
165 185 0
166 187 0
166 187 0
165 185 0
170 190 0
163 183 0
174 194 0
162 183 0
161 181 0
160 181 0
161 181 0
156 176 0
161 180 0
156 176 0
160 181 0
158 178 0
161 180 0
159 178 0
159 178 0
161 181 0
159 179 0
159 179 0
157 177 0
157 177 0
161 180 0
159 179 0
156 175 0
157 177 0
151 170 0
153 173 0
155 175 0
152 171 0
153 172 0
157 177 0
149 169 0
155 175 0
158 177 0
144 163 0
147 166 0
151 170 0
148 167 0
152 171 0
152 171 0
151 170 0
152 171 0
148 168 0
151 171 0
148 167 0
159 179 0
137 158 0
156 176 0
152 173 0
155 175 0
141 161 0
141 162 0
146 166 0
142 162 0
151 171 0
151 171 0
147 167 0
155 176 0
146 167 0
146 166 0
148 167 0
138 158 0
146 167 0
145 165 0
139 160 0
143 162 0
141 161 0
140 161 0
137 157 0
146 166 0
141 162 0
133 154 0
120 141 0
122 142 0
138 158 0
133 152 0
124 142 0
130 149 0
130 150 0
126 145 0
122 141 0
117 137 0
124 143 0
119 137 0
121 140 0
114 132 0
125 143 0
108 127 0
116 134 0
107 124 0
108 125 0
118 136 0
111 129 0
114 130 0
96 112 0
96 114 0
110 126 0
103 118 0
95 109 0
105 120 0
95 112 0
89 104 0
91 107 0
94 109 0
94 108 0
99 113 0
88 101 0
92 105 0
90 103 0
87 100 0
75 87 0
64 77 0
80 93 0
61 72 0
86 98 0
61 73 0
74 85 0
82 93 0
69 80 0
73 83 0
82 94 0
71 81 0
65 75 0
67 79 0
66 76 0
62 72 0
66 76 0
78 90 0
67 78 0
75 87 0
70 82 0
73 85 0
93 105 0
86 94 0
63 76 0
82 94 0
83 96 0
76 86 0
81 95 0
74 86 0
76 88 0
89 102 0
94 108 0
96 109 0
90 103 0
97 109 0
96 107 0
89 103 0
115 127 0
107 120 0
106 120 0
111 124 0
110 122 0
98 111 0
106 119 0
111 126 0
111 124 0
121 135 0
122 137 0
101 113 0
98 110 0
109 119 0
111 125 0
105 118 0
120 132 0
114 127 0
103 115 0
107 120 0
113 124 0
124 140 0
119 133 0
114 125 0
129 141 0
121 132 0
118 130 0
124 137 0
123 134 0
129 140 0
109 120 0
112 122 0
120 131 0
129 137 0
122 131 0
124 133 0
121 128 0
117 124 0
114 120 0
110 116 0
108 116 0
119 127 0
114 120 0
116 124 0
107 114 0
110 115 0
110 112 0
106 112 0
108 112 0
112 118 0
110 112 0
112 114 0
113 115 0
110 108 0
105 106 0
97 100 0
114 117 0
109 110 0
97 93 0
97 94 0
105 104 0
97 94 0
93 88 0
95 90 0
76 71 0
83 77 0
71 63 0
76 69 0
73 64 0
78 72 11
75 67 0
71 64 0
82 71 0
96 86 0
93 84 0
80 72 0
98 89 0
78 70 0
90 83 0
99 92 0
84 79 0
107 100 0
98 91 0
94 88 0
94 86 0
108 99 0
99 92 0
102 95 0
96 88 0
113 106 0
109 102 0
113 104 11
120 111 11
91 84 0
115 108 11
101 95 11
109 100 11
102 95 0
113 105 0
110 102 11
111 105 0
114 106 16
117 110 11
109 102 11
121 112 11
113 107 16
114 104 11
123 117 0
112 106 0
116 110 11
122 113 16
126 119 22
118 113 11
126 121 16
120 113 16
104 99 16
118 112 16
122 114 22
123 117 22
123 115 22
119 113 16
120 115 16
117 112 19
131 123 25
124 117 25
119 111 22
120 113 19
128 122 19
120 112 19
121 114 22
125 118 34
120 114 22
118 112 16
116 108 25
119 111 25
117 111 22
127 120 28
116 110 25
111 104 30
124 116 19
118 110 34
130 123 28
116 108 32
127 119 32
120 113 34
129 123 39
120 115 34
127 120 41
116 110 32
127 120 22
118 111 37
125 118 30
128 121 28
115 109 32
122 117 22
129 121 42
128 122 25
115 108 30
121 115 37
119 113 36
123 116 42
117 112 30
124 116 45
125 119 32
125 119 34
121 116 32
115 109 30
129 121 47
121 114 39
108 103 25
120 114 42
174 197 0
173 195 0
174 196 0
174 197 0
173 196 0
175 197 0
174 197 0
171 194 0
174 196 0
174 196 0
175 197 0
173 196 0
176 198 0
174 196 0
173 194 0
175 197 0
175 197 0
171 194 0
169 191 0
174 196 0
173 196 0
172 194 0
172 194 0
170 191 0
174 195 0
172 194 0
172 194 0
172 194 0
173 194 0
173 195 0
175 195 0
173 195 0
173 195 0
172 193 0
168 190 0
172 194 0
172 193 0
170 191 0
171 193 0
171 193 0
170 192 0
173 195 0
173 195 0
175 196 0
168 190 0
171 193 0
173 194 0
168 190 0
175 196 0
171 192 0
167 189 0
171 192 0
173 194 0
167 188 0
171 192 0
171 192 0
167 189 0
170 191 0
170 190 0
171 193 0
171 192 0
167 188 0
170 191 0
169 190 0
162 184 0
170 191 0
163 184 0
167 188 0
170 191 0
171 190 0
167 187 0
167 188 0
170 191 0
165 185 0
164 184 0
171 191 0
165 186 0
171 190 0
168 188 0
166 185 0
159 178 0
169 189 0
167 188 0
167 187 0
164 185 0
161 182 0
168 188 0
166 186 0
159 179 0
161 182 0
154 174 0
162 183 0
159 178 0
163 183 0
156 176 0
160 180 0
160 181 0
159 178 0
151 170 0
157 177 0
162 181 0
151 171 0
155 173 0
154 173 0
153 173 0
150 169 0
152 171 0
153 173 0
151 170 0
158 177 0
167 187 0
153 173 0
154 175 0
152 171 0
151 171 0
158 179 0
152 172 0
153 174 0
152 174 0
151 171 0
141 160 0
151 170 0
148 168 0
145 166 0
146 165 0
147 167 0
151 171 0
149 169 0
160 179 0
141 161 0
150 171 0
147 168 0
138 158 0
146 166 0
150 171 0
145 165 0
135 155 0
137 157 0
147 167 0
154 174 0
139 159 0
147 168 0
135 155 0
142 163 0
137 159 0
145 166 0
139 159 0
143 164 0
136 157 0
139 159 0
127 148 0
148 168 0
132 152 0
137 156 0
135 155 0
141 161 0
137 156 0
132 150 0
136 155 0
141 160 0
133 152 0
120 139 0
122 141 0
122 142 0
130 149 0
121 140 0
133 151 0
119 137 0
114 132 0
119 137 0
112 129 0
109 127 0
119 138 0
118 137 0
105 123 0
115 132 0
106 122 0
106 123 0
107 122 0
102 119 0
101 118 0
96 113 0
100 115 0
97 111 0
78 93 0
78 93 0
88 103 0
96 110 0
83 96 0
89 103 0
79 93 0
89 101 0
95 108 0
63 75 0
68 82 0
87 99 0
84 98 0
86 97 0
79 90 0
80 90 0
75 89 0
71 81 0
79 92 0
79 91 0
85 98 0
84 96 0
70 82 0
81 93 0
89 100 0
70 83 0
77 88 0
78 91 0
77 87 0
89 100 0
90 102 0
86 98 0
74 83 0
98 112 0
87 100 0
84 95 0
87 99 0
92 106 0
101 114 0
97 109 0
101 115 0
91 104 0
90 101 0
79 91 0
92 105 0
117 130 0
101 116 0
100 111 0
110 124 0
110 124 0
114 127 0
110 121 0
108 119 0
101 115 0
100 111 0
115 130 0
116 129 0
118 130 0
109 122 0
111 125 0
111 124 0
112 125 0
122 134 0
118 132 0
108 123 0
110 119 0
118 131 0
122 136 0
124 137 0
117 131 0
118 130 0
117 130 0
119 131 0
121 134 0
109 121 0
110 121 0
123 133 0
113 123 0
109 118 0
105 112 0
109 115 0
109 117 0
110 119 0
112 121 0
120 128 0
115 122 0
127 139 0
116 120 0
118 123 0
114 121 0
109 114 0
110 116 0
115 122 0
109 116 0
105 111 0
112 116 0
105 106 0
113 116 0
104 107 0
100 98 0
100 100 0
107 107 0
110 111 0
110 114 0
101 100 0
109 107 0
100 101 0
106 103 0
103 102 0
77 69 0
83 80 0
83 82 0
68 65 0
66 59 0
86 75 0
84 77 0
82 73 0
88 79 0
87 78 0
76 67 0
83 75 0
85 77 0
97 87 0
85 78 0
96 88 0
102 92 0
109 100 0
96 89 0
104 96 0
100 94 0
96 87 0
100 94 0
98 91 0
101 93 0
101 94 0
105 97 0
105 94 0
109 101 0
115 108 0
106 99 0
108 103 0
112 104 11
113 106 0
117 108 11
108 103 0
110 103 0
108 101 11
110 101 11
110 103 16
113 105 11
110 103 0
115 106 16
120 112 11
115 109 16
115 109 16
115 107 0
117 112 16
119 113 16
113 107 22
122 117 11
120 113 19
123 117 11
110 104 11
117 110 11
112 103 16
126 117 19
110 103 11
122 116 11
124 116 16
119 112 22
130 124 32
123 116 22
114 108 16
122 113 19
118 112 22
125 118 19
124 118 28
121 115 25
125 117 25
125 117 32
122 115 25
121 115 28
118 111 19
124 117 32
127 120 34
126 120 32
130 123 34
119 112 16
127 121 41
121 116 25
122 115 25
125 117 37
118 110 28
121 113 36
119 111 28
113 107 22
117 110 32
119 111 28
117 109 36
121 114 34
123 116 37
121 115 28
123 115 41
123 116 36
127 119 36
116 108 28
130 122 37
114 108 28
107 101 28
118 111 30
113 106 32
113 108 32
118 111 34
123 116 45
112 107 25
111 105 36
175 198 0
171 194 0
175 197 0
173 196 0
173 196 0
173 196 0
174 197 0
174 195 0
173 196 0
173 195 0
172 195 0
174 197 0
175 197 0
175 197 0
174 196 0
175 197 0
173 195 0
172 195 0
176 198 0
174 196 0
172 194 0
170 192 0
173 195 0
172 194 0
169 191 0
174 195 0
173 195 0
173 195 0
175 197 0
172 194 0
171 193 0
171 194 0
172 194 0
172 194 0
173 196 0
176 198 0
172 194 0
173 195 0
176 197 0
172 193 0
171 193 0
174 195 0
171 192 0
171 193 0
172 193 0
167 188 0
169 190 0
174 195 0
175 196 0
176 197 0
172 193 0
171 191 0
165 186 0
170 192 0
172 194 0
166 187 0
169 190 0
170 191 0
171 192 0
171 193 0
170 190 0
167 188 0
168 188 0
168 189 0
166 187 0
165 187 0
163 184 0
171 192 0
168 188 0
169 189 0
167 188 0
159 181 0
165 185 0
165 185 0
166 186 0
166 187 0
162 182 0
168 188 0
169 189 0
165 185 0
163 183 0
163 183 0
163 184 0
162 182 0
163 182 0
169 189 0
168 187 0
164 183 0
165 185 0
167 188 0
162 183 0
162 181 0
162 181 0
158 177 0
156 176 0
154 174 0
154 173 0
165 184 0
150 170 0
158 178 0
158 178 0
163 182 0
153 173 0
157 175 0
152 172 0
161 180 0
156 176 0
164 183 0
153 173 0
148 167 0
154 172 0
153 172 0
158 177 0
150 170 0
150 169 0
146 165 0
147 167 0
153 172 0
154 173 0
157 176 0
138 158 0
149 169 0
147 167 0
151 171 0
150 171 0
151 171 0
151 171 0
155 174 0
146 165 0
148 169 0
159 179 0
152 172 0
145 165 0
147 167 0
149 169 0
148 169 0
151 172 0
147 167 0
143 163 0
141 162 0
154 175 0
139 159 0
149 170 0
141 162 0
147 167 0
140 161 0
133 153 0
139 160 0
137 157 0
142 162 0
146 167 0
136 157 0
137 157 0
128 148 0
132 153 0
125 145 0
132 153 0
121 141 0
133 153 0
135 155 0
121 141 0
131 152 0
120 139 0
128 147 0
113 131 0
131 150 0
116 135 0
114 133 0
128 148 0
128 147 0
125 144 0
112 128 0
125 144 0
108 125 0
123 141 0
107 124 0
113 130 0
107 124 0
106 121 0
87 102 0
99 114 0
96 111 0
91 106 0
89 104 0
91 106 0
92 107 0
84 99 0
88 101 0
90 105 0
82 95 0
91 104 0
101 116 0
92 106 0
96 110 0
81 96 0
88 101 0
79 93 0
81 95 0
80 93 0
74 87 0
67 80 0
77 90 0
80 93 0
77 89 0
80 93 0
74 88 0
85 99 0
87 99 0
82 94 0
95 106 0
78 91 0
76 88 0
91 105 0
92 105 0
88 99 0
91 104 0
87 99 0
78 92 0
78 91 0
98 111 0
101 115 0
103 117 0
99 114 0
95 107 0
96 108 0
90 103 0
101 113 0
104 117 0
104 118 0
114 127 0
100 113 0
117 132 0
101 114 0
105 118 0
105 118 0
107 117 0
110 124 0
96 111 0
119 134 0
105 117 0
114 128 0
120 132 0
110 123 0
103 115 0
118 131 0
113 126 0
123 135 0
130 145 0
116 128 0
120 133 0
112 125 0
112 127 0
114 127 0
109 122 0
117 131 0
118 132 0
119 132 0
120 133 0
116 128 0
118 130 0
131 145 0
114 124 0
116 122 0
113 121 0
121 132 0
115 122 0
116 124 0
128 139 0
123 134 0
119 126 0
96 103 0
112 121 0
106 111 0
117 128 0
108 112 0
114 119 0
110 118 0
110 115 0
109 113 0
106 110 0
117 123 0
105 108 0
99 100 0
105 107 0
116 121 0
103 104 0
108 110 0
96 98 0
108 110 0
105 105 0
95 93 0
98 97 0
88 84 0
97 97 0
91 85 0
83 79 0
97 92 0
100 95 0
87 82 0
74 66 0
70 63 0
73 64 0
80 73 0
80 69 0
78 71 0
90 79 0
85 78 0
78 70 0
75 69 0
90 80 0
97 87 0
95 85 0
99 89 0
103 94 0
95 88 0
97 88 0
95 88 0
95 87 0
105 97 0
103 96 0
98 90 0
100 92 0
113 106 11
113 104 11
108 100 0
104 96 0
112 104 11
117 108 0
104 96 0
95 86 0
121 113 11
101 92 0
113 107 11
106 100 0
112 105 0
113 105 11
105 99 16
121 114 22
113 105 22
112 105 16
122 114 11
118 109 19
115 109 0
121 115 25
120 113 11
111 104 11
118 110 16
112 105 16
117 110 19
111 104 19
125 118 19
116 109 19
111 105 16
119 112 11
116 110 11
121 114 28
120 114 16
114 108 11
126 120 22
118 111 19
128 120 28
127 120 22
112 105 22
120 112 34
126 118 25
113 106 19
129 123 30
128 121 19
125 117 32
115 109 28
128 121 36
115 108 16
122 116 32
116 110 28
115 107 22
120 114 34
118 111 30
113 108 19
130 122 39
127 120 32
124 117 36
121 114 36
130 124 39
123 115 32
129 122 36
130 123 39
119 113 36
118 112 28
111 104 36
120 114 30
117 110 37
116 110 25
111 104 30
117 112 30
113 107 36
118 113 42
117 111 44
108 102 30
125 118 47
126 129 32
172 196 0
171 195 0
174 196 0
173 197 0
172 195 0
173 196 0
172 196 0
176 198 0
171 193 0
174 197 0
174 197 0
175 198 0
174 195 0
171 193 0
173 196 0
174 196 0
173 194 0
170 191 0
172 195 0
174 196 0
172 194 0
171 193 0
175 197 0
174 195 0
171 194 0
170 192 0
175 195 0
173 194 0
174 195 0
171 193 0
169 191 0
175 196 0
172 192 0
173 194 0
175 196 0
175 197 0
171 192 0
173 194 0
171 193 0
170 192 0
164 186 0
170 191 0
172 193 0
173 194 0
175 195 0
167 188 0
171 192 0
169 190 0
170 191 0
169 190 0
171 192 0
174 194 0
170 192 0
169 190 0
171 192 0
168 189 0
172 192 0
171 191 0
171 192 0
167 187 0
172 194 0
170 190 0
168 188 0
167 187 0
170 191 0
165 187 0
164 184 0
166 186 0
169 190 0
169 190 0
163 182 0
172 191 0
159 179 0
167 187 0
170 190 0
165 186 0
165 185 0
161 182 0
170 190 0
170 189 0
167 187 0
163 183 0
158 178 0
164 185 0
161 181 0
166 187 0
161 180 0
166 185 0
162 182 0
165 185 0
158 177 0
163 182 0
165 184 0
158 177 0
167 187 0
162 181 0
155 175 0
162 182 0
162 181 0
158 177 0
153 172 0
149 169 0
157 175 0
155 175 0
159 179 0
158 177 0
154 174 0
148 167 0
152 172 0
152 172 0
156 175 0
156 176 0
158 177 0
150 169 0
150 169 0
147 166 0
149 169 0
153 173 0
151 171 0
153 173 0
149 169 0
153 173 0
149 169 0
159 179 0
156 177 0
141 161 0
145 165 0
147 167 0
153 172 0
155 175 0
152 172 0
154 176 0
145 164 0
147 167 0
136 157 0
148 169 0
153 174 0
149 170 0
138 158 0
146 167 0
138 158 0
142 162 0
143 164 0
136 156 0
140 159 0
142 162 0
133 154 0
136 156 0
151 171 0
141 163 0
141 162 0
131 150 0
134 155 0
144 163 0
133 153 0
134 154 0
123 143 0
140 160 0
131 151 0
118 138 0
126 146 0
131 151 0
131 150 0
132 151 0
130 150 0
124 143 0
125 145 0
125 143 0
118 137 0
125 144 0
117 135 0
120 137 0
122 140 0
122 141 0
114 132 0
104 122 0
103 121 0
112 128 0
99 116 0
109 126 0
100 116 0
96 111 0
99 117 0
97 113 0
97 114 0
96 112 0
86 101 0
110 125 0
98 114 0
106 121 0
95 110 0
96 109 0
98 113 0
91 106 0
72 87 0
92 105 0
77 90 0
98 112 0
80 94 0
86 98 0
93 104 0
93 106 0
91 105 0
88 102 0
94 108 0
82 97 0
87 98 0
86 100 0
78 92 0
92 106 0
87 100 0
87 100 0
77 91 0
105 118 0
98 111 0
95 107 0
74 88 0
82 95 0
94 107 0
98 112 0
91 105 0
99 114 0
99 109 0
104 118 0
92 104 0
90 106 0
92 108 0
115 131 0
110 123 0
100 114 0
108 123 0
103 117 0
114 127 0
105 119 0
112 126 0
105 120 0
110 124 0
108 123 0
110 124 0
129 142 0
107 120 0
112 126 0
119 134 0
107 122 0
107 119 0
114 129 0
107 120 0
113 126 0
119 131 0
136 150 0
112 126 0
122 136 0
126 139 0
119 132 0
128 140 0
121 134 0
128 139 0
115 127 0
113 127 0
126 138 0
114 124 0
121 132 0
125 135 0
119 130 0
110 120 0
116 127 0
120 129 0
126 134 0
118 129 0
116 126 0
107 113 0
116 125 0
108 117 0
122 132 0
129 137 0
118 124 0
118 125 0
112 119 0
115 122 0
110 113 0
114 120 0
113 117 0
129 135 0
116 121 0
121 123 0
109 112 0
108 109 0
112 112 0
107 110 0
107 111 0
107 108 0
101 102 0
103 101 0
107 109 0
95 94 0
98 98 0
90 90 0
85 79 0
94 92 0
80 77 0
90 86 0
78 70 0
75 68 0
82 72 0
73 65 0
76 66 11
74 66 0
92 82 0
81 74 0
81 72 0
88 79 0
97 89 0
91 81 0
85 79 0
106 96 0
96 89 0
85 77 0
99 90 0
110 101 0
89 80 0
99 91 0
104 97 0
105 98 0
112 104 0
113 103 11
96 87 0
99 94 0
97 88 0
109 100 0
113 104 11
107 99 0
108 100 0
109 100 0
103 95 0
103 96 0
99 92 0
115 109 11
115 106 19
117 109 11
116 107 16
118 108 11
103 96 16
109 103 11
111 104 16
119 110 16
122 116 11
99 92 11
112 104 19
116 108 16
110 104 11
107 101 22
116 107 16
120 112 16
119 112 22
113 106 11
110 103 11
109 102 11
126 119 25
119 112 11
114 106 16
126 120 25
116 110 11
124 117 25
105 99 11
106 99 22
119 112 25
114 107 25
122 117 28
121 114 25
130 122 28
113 104 22
123 117 16
119 113 30
118 112 22
107 101 22
125 116 41
113 107 32
130 124 39
115 109 34
123 117 32
110 103 25
114 107 25
123 117 32
119 112 34
120 114 34
106 100 32
110 105 22
122 113 37
115 107 28
123 117 37
120 114 32
126 121 39
116 110 32
111 104 30
118 109 32
121 114 32
123 120 39
143 153 22
161 177 11
168 187 0
174 197 0
174 197 0
174 197 0
174 197 0
174 196 0
175 198 0
174 197 0
174 197 0
173 195 0
173 195 0
175 197 0
174 195 0
173 195 0
172 194 0
174 196 0
172 194 0
172 195 0
175 196 0
174 195 0
172 193 0
172 195 0
175 196 0
177 199 0
174 195 0
176 197 0
174 196 0
176 198 0
177 198 0
176 196 0
171 193 0
174 195 0
173 194 0
173 194 0
175 197 0
171 192 0
174 195 0
171 193 0
173 194 0
172 193 0
171 191 0
171 192 0
174 195 0
172 192 0
172 194 0
173 195 0
174 196 0
169 190 0
173 193 0
172 192 0
174 194 0
172 192 0
168 189 0
172 192 0
171 191 0
171 191 0
168 188 0
174 195 0
167 187 0
165 186 0
166 187 0
168 189 0
172 193 0
166 186 0
170 189 0
170 190 0
171 192 0
168 189 0
166 187 0
174 193 0
166 186 0
163 185 0
165 184 0
168 188 0
168 188 0
173 193 0
166 186 0
169 189 0
162 181 0
170 190 0
159 180 0
164 184 0
162 182 0
157 177 0
159 179 0
163 184 0
158 177 0
164 184 0
166 185 0
162 181 0
159 179 0
155 173 0
158 178 0
164 184 0
159 180 0
149 168 0
155 174 0
150 169 0
153 172 0
157 176 0
156 175 0
156 175 0
161 180 0
158 177 0
159 178 0
161 180 0
154 174 0
159 179 0
164 183 0
150 169 0
150 169 0
156 176 0
151 171 0
156 176 0
154 173 0
152 171 0
152 171 0
148 168 0
154 174 0
146 165 0
149 170 0
143 163 0
148 168 0
153 173 0
155 174 0
153 173 0
148 168 0
154 173 0
153 173 0
141 162 0
146 165 0
145 165 0
143 165 0
152 172 0
147 168 0
147 168 0
140 160 0
144 164 0
136 157 0
146 167 0
146 166 0
152 173 0
138 158 0
151 171 0
148 168 0
144 165 0
137 158 0
138 159 0
146 167 0
133 153 0
135 156 0
134 155 0
136 156 0
130 151 0
144 164 0
136 156 0
132 151 0
131 152 0
138 158 0
137 157 0
132 151 0
121 140 0
129 148 0
125 144 0
127 146 0
123 143 0
133 152 0
134 154 0
120 140 0
125 144 0
120 139 0
117 136 0
126 144 0
121 139 0
126 143 0
111 128 0
112 130 0
115 133 0
111 130 0
111 127 0
107 125 0
107 123 0
105 123 0
113 131 0
104 120 0
101 117 0
94 109 0
102 118 0
104 120 0
116 133 0
91 106 0
101 116 0
84 100 0
102 117 0
97 112 0
91 108 0
91 106 0
102 116 0
101 116 0
90 104 0
87 101 0
94 109 0
97 112 0
92 105 0
98 112 0
100 114 0
87 99 0
86 101 0
89 103 0
96 110 0
106 121 0
88 103 0
94 108 0
81 93 0
82 97 0
90 104 0
90 103 0
101 116 0
90 105 0
94 108 0
90 103 0
110 124 0
95 109 0
107 121 0
83 97 0
100 113 0
109 123 0
97 109 0
87 101 0
100 114 0
110 123 0
105 119 0
108 122 0
111 127 0
105 118 0
118 133 0
110 124 0
109 122 0
111 124 0
120 133 0
105 119 0
118 132 0
120 135 0
119 134 0
128 143 0
119 134 0
128 142 0
113 127 0
110 124 0
110 122 0
113 124 0
127 140 0
119 132 0
111 124 0
120 133 0
121 133 0
122 135 0
113 124 0
120 134 0
126 138 0
124 137 0
125 138 0
109 122 0
117 126 0
110 121 0
126 137 0
122 133 0
129 142 0
115 125 0
123 135 0
117 126 0
135 146 0
129 140 0
113 122 0
125 135 0
116 125 0
108 115 0
112 119 0
111 116 0
119 123 0
118 123 0
103 109 0
111 114 0
112 117 0
120 125 0
109 114 0
112 114 0
103 103 0
110 112 0
101 104 0
104 106 0
94 95 0
103 107 0
105 103 0
98 96 0
99 97 0
94 91 0
96 94 0
91 91 0
97 95 0
85 81 0
100 98 0
88 83 0
89 84 0
69 66 0
78 70 0
77 71 0
71 59 0
69 61 0
84 72 0
72 63 0
88 80 0
82 73 0
87 76 0
100 89 0
90 79 0
95 87 0
91 83 0
96 86 0
103 94 0
110 99 0
104 95 0
96 88 0
98 90 11
94 87 0
104 96 11
105 98 0
99 90 0
108 101 11
98 91 0
108 101 11
104 94 0
115 107 0
107 98 0
111 104 11
103 93 0
106 98 0
106 99 11
109 99 11
108 101 0
104 98 0
112 105 0
109 101 16
120 110 0
112 104 30
113 105 16
109 101 16
127 118 25
111 106 11
105 97 19
110 103 22
110 104 11
116 109 19
112 105 22
114 106 22
116 106 22
105 98 28
122 112 19
113 106 16
116 109 22
112 105 16
118 109 28
108 101 22
112 106 16
114 108 19
119 111 19
121 114 25
116 110 16
124 116 19
111 106 19
116 109 19
124 114 36
121 115 28
117 111 19
119 112 25
110 105 25
106 100 11
123 116 30
120 113 22
104 96 28
120 113 36
116 108 30
101 94 19
126 119 22
117 110 32
119 111 34
118 112 25
110 103 32
110 102 39
99 93 19
116 108 28
133 126 41
114 108 36
104 98 22
118 113 34
146 156 19
153 169 11
167 187 0
167 187 0
168 189 0
169 189 0
172 196 0
172 196 0
174 197 0
173 197 0
171 194 0
175 198 0
173 196 0
175 198 0
176 199 0
174 197 0
173 195 0
175 197 0
174 197 0
174 196 0
174 196 0
173 194 0
177 199 0
174 195 0
170 192 0
175 196 0
172 194 0
172 193 0
175 196 0
172 195 0
174 194 0
176 197 0
173 195 0
174 196 0
176 196 0
173 195 0
172 194 0
174 195 0
174 195 0
174 195 0
172 193 0
172 194 0
176 197 0
172 194 0
174 195 0
172 193 0
174 194 0
170 191 0
176 197 0
168 189 0
171 192 0
173 194 0
171 191 0
172 192 0
174 194 0
171 193 0
171 192 0
165 184 0
167 188 0
166 186 0
173 193 0
171 192 0
175 195 0
176 195 0
170 190 0
169 190 0
171 192 0
173 193 0
167 187 0
171 191 0
167 187 0
167 187 0
165 185 0
168 187 0
164 184 0
165 185 0
170 191 0
168 188 0
167 186 0
168 187 0
166 186 0
164 185 0
164 183 0
166 185 0
170 191 0
165 184 0
165 185 0
164 184 0
162 182 0
165 184 0
165 184 0
165 184 0
165 184 0
160 179 0
163 182 0
160 179 0
163 183 0
159 178 0
159 179 0
160 179 0
164 183 0
152 172 0
162 181 0
161 180 0
152 172 0
164 184 0
155 174 0
159 178 0
158 178 0
155 173 0
153 172 0
156 176 0
157 177 0
158 178 0
153 172 0
160 179 0
151 171 0
154 173 0
150 170 0
149 170 0
155 175 0
157 176 0
153 173 0
156 175 0
160 180 0
160 180 0
154 175 0
153 173 0
146 167 0
154 174 0
151 171 0
152 172 0
149 168 0
151 171 0
147 167 0
144 163 0
152 174 0
146 166 0
146 167 0
150 171 0
153 172 0
146 167 0
144 166 0
146 167 0
144 164 0
144 165 0
152 173 0
145 165 0
141 162 0
140 162 0
146 167 0
150 171 0
141 162 0
141 163 0
148 168 0
136 157 0
131 152 0
127 148 0
139 159 0
132 152 0
139 159 0
147 168 0
131 150 0
135 155 0
141 163 0
132 151 0
122 141 0
137 158 0
120 139 0
142 160 0
123 143 0
140 160 0
113 132 0
123 141 0
132 152 0
112 130 0
113 131 0
121 140 0
125 144 0
116 135 0
131 149 0
110 128 0
118 135 0
105 124 0
121 138 0
106 123 0
113 131 0
101 118 0
101 119 0
106 123 0
106 122 0
88 106 0
102 117 0
106 123 0
111 128 0
113 129 0
101 117 0
98 114 0
101 117 0
95 110 0
110 127 0
101 114 0
83 97 0
90 106 0
98 113 0
97 114 0
98 111 0
93 107 0
105 121 0
96 110 0
95 112 0
104 118 0
110 125 0
97 113 0
89 104 0
94 110 0
102 117 0
102 119 0
93 106 0
92 106 0
95 109 0
104 119 0
108 123 0
103 118 0
100 116 0
96 111 0
113 126 0
102 115 0
103 118 0
104 120 0
99 114 0
105 121 0
110 123 0
107 121 0
104 119 0
109 124 0
109 125 0
99 112 0
116 129 0
121 136 0
117 131 0
109 123 0
124 138 0
113 128 0
126 142 0
106 120 0
107 121 0
113 127 0
130 144 0
117 134 0
120 135 0
109 121 0
122 136 0
107 121 0
120 134 0
118 132 0
105 117 0
133 145 0
120 135 0
117 131 0
128 142 0
120 132 0
118 131 0
115 129 0
122 134 0
116 127 0
123 136 0
123 137 0
118 128 0
116 129 0
120 131 0
122 132 0
125 137 0
126 139 0
117 128 0
125 137 0
125 137 0
120 131 0
116 125 0
115 121 0
116 125 0
112 120 0
114 121 0
116 123 0
104 111 0
110 116 0
112 119 0
111 113 0
124 129 0
107 112 0
107 110 0
115 119 0
113 115 0
116 118 0
116 119 0
107 108 0
110 114 0
109 112 0
112 115 0
110 112 0
103 104 0
93 92 0
101 101 0
94 90 0
99 96 0
97 94 0
90 84 0
100 97 0
84 81 0
85 82 0
80 75 0
82 76 0
82 77 0
73 66 0
77 65 0
57 50 0
64 55 0
69 64 0
78 69 0
81 70 0
82 74 0
82 74 0
92 82 0
98 87 0
102 89 0
97 87 0
90 82 0
92 81 0
92 84 0
100 90 0
101 93 0
92 81 0
102 95 0
97 87 0
104 95 11
107 99 0
96 88 0
109 101 0
100 94 16
110 102 11
106 99 0
110 101 11
110 101 16
115 106 0
102 94 11
108 99 16
115 107 11
97 90 0
114 108 11
119 111 16
99 91 11
108 101 19
106 97 22
105 98 19
124 116 16
115 107 11
122 114 22
113 105 11
109 101 16
122 114 28
119 110 16
117 108 28
116 108 19
124 116 22
113 106 11
116 109 22
115 108 30
115 109 22
122 113 30
112 106 22
119 112 25
122 114 22
118 111 19
123 114 34
111 103 25
112 105 19
119 112 28
113 105 22
109 102 22
116 107 28
121 114 32
117 111 30
108 102 11
116 109 30
114 106 32
116 110 32
107 100 22
111 106 30
107 99 25
115 109 22
107 101 25
114 107 32
107 100 32
103 95 22
114 108 30
106 100 28
125 128 32
137 144 22
155 169 11
164 182 0
166 184 0
168 188 0
166 186 0
168 186 0
170 189 0
170 189 0
173 197 0
175 198 0
171 194 0
173 196 0
172 196 0
173 196 0
173 196 0
172 196 0
175 198 0
173 196 0
175 198 0
175 198 0
174 196 0
176 198 0
171 194 0
174 195 0
174 196 0
173 195 0
175 197 0
171 192 0
174 195 0
171 192 0
174 195 0
172 194 0
171 193 0
174 196 0
174 195 0
176 196 0
176 197 0
173 194 0
174 195 0
175 195 0
173 195 0
171 192 0
172 193 0
173 195 0
175 195 0
175 196 0
173 194 0
174 194 0
173 194 0
168 189 0
170 192 0
174 194 0
176 196 0
174 195 0
172 194 0
175 194 0
169 189 0
170 190 0
169 189 0
174 194 0
170 191 0
168 189 0
167 188 0
168 189 0
170 191 0
171 191 0
173 194 0
172 192 0
166 187 0
169 189 0
171 192 0
170 190 0
166 187 0
163 184 0
164 185 0
172 192 0
171 190 0
167 188 0
168 187 0
169 188 0
168 188 0
163 182 0
165 184 0
161 181 0
159 180 0
168 188 0
165 184 0
160 179 0
167 186 0
164 184 0
156 175 0
163 183 0
168 188 0
166 186 0
160 180 0
159 179 0
161 181 0
155 176 0
163 183 0
156 174 0
161 181 0
162 182 0
157 176 0
158 177 0
147 166 0
159 177 0
155 174 0
153 171 0
164 183 0
151 170 0
153 172 0
159 179 0
155 175 0
153 172 0
156 175 0
158 177 0
159 179 0
157 176 0
161 181 0
148 166 0
156 176 0
153 173 0
157 176 0
149 168 0
154 173 0
147 167 0
148 168 0
150 169 0
141 161 0
148 168 0
160 179 0
149 170 0
147 168 0
152 173 0
149 171 0
146 167 0
143 165 0
145 165 0
147 167 0
141 162 0
144 164 0
148 170 0
148 168 0
150 170 0
145 166 0
144 165 0
137 158 0
143 163 0
146 168 0
143 165 0
145 166 0
140 161 0
143 164 0
134 153 0
142 161 0
137 158 0
144 165 0
139 160 0
147 167 0
138 158 0
139 159 0
130 150 0
134 154 0
128 148 0
139 160 0
144 166 0
128 148 0
139 159 0
120 141 0
128 149 0
138 158 0
132 153 0
137 157 0
133 153 0
122 141 0
124 143 0
124 143 0
119 138 0
121 140 0
127 146 0
104 122 0
113 133 0
111 129 0
118 137 0
114 133 0
110 127 0
111 127 0
119 137 0
125 142 0
102 120 0
125 144 0
112 128 0
102 120 0
116 133 0
102 120 0
96 111 0
99 116 0
99 117 0
104 121 0
99 116 0
115 132 0
92 108 0
108 126 0
105 121 0
101 117 0
102 118 0
101 117 0
98 113 0
109 125 0
99 115 0
75 91 0
112 126 0
102 117 0
101 116 0
108 123 0
104 118 0
97 111 0
110 124 0
98 115 0
99 114 0
100 115 0
110 125 0
117 133 0
108 124 0
107 122 0
103 117 0
115 130 0
114 130 0
114 130 0
99 114 0
106 120 0
99 114 0
110 124 0
105 120 0
111 125 0
99 114 0
109 126 0
112 128 0
121 135 0
109 125 0
116 133 0
118 133 0
119 134 0
114 128 0
112 126 0
107 122 0
114 128 0
117 132 0
117 131 0
111 123 0
112 123 0
127 144 0
120 132 0
116 130 0
117 131 0
118 133 0
118 130 0
135 150 0
109 124 0
119 132 0
129 142 0
111 125 0
126 139 0
118 129 0
120 132 0
131 145 0
134 149 0
123 134 0
124 138 0
130 145 0
124 136 0
124 136 0
122 134 0
120 130 0
122 134 0
121 132 0
122 131 0
121 133 0
127 137 0
127 138 0
113 124 0
121 131 0
118 125 0
123 132 0
127 136 0
119 126 0
125 134 0
124 129 0
115 121 0
125 130 0
129 135 0
121 126 0
114 119 0
125 129 0
115 120 0
116 119 0
110 113 0
118 120 0
117 124 0
114 118 0
110 112 0
104 105 0
104 104 0
112 112 0
103 102 0
94 90 0
112 109 0
92 92 0
99 94 0
106 106 0
105 104 0
89 87 0
88 83 0
92 85 0
89 86 0
73 64 0
84 79 0
85 77 0
63 55 0
78 71 0
68 60 0
77 68 0
73 63 0
90 80 0
81 72 0
83 72 0
98 85 0
94 85 0
88 77 0
94 85 0
94 83 0
98 88 0
98 90 11
100 93 0
99 88 0
101 91 0
104 95 0
103 95 0
105 96 0
103 94 0
100 90 0
106 98 11
106 97 11
99 89 0
106 97 0
121 113 16
106 98 0
109 102 11
106 97 11
104 94 11
97 90 11
110 101 0
113 106 11
121 113 11
106 99 19
108 99 11
108 102 11
113 105 16
110 103 16
120 109 25
108 101 19
114 104 19
120 111 19
119 109 19
115 106 22
107 98 0
115 106 19
113 105 32
115 108 22
113 104 34
123 114 19
120 112 22
104 96 16
115 108 28
104 95 19
115 108 32
116 110 25
118 111 16
107 101 25
120 113 32
121 113 34
112 106 28
115 108 36
114 106 22
116 108 32
113 106 30
118 110 36
109 102 28
115 107 37
106 99 28
111 105 28
121 113 37
95 88 19
113 105 32
113 115 22
134 141 22
149 162 16
161 177 11
166 183 0
170 188 0
166 185 0
166 185 0
167 186 0
169 189 0
169 188 0
169 186 0
168 187 0
168 186 0
173 196 0
174 197 0
174 197 0
174 197 0
173 195 0
175 198 0
169 193 0
172 196 0
170 194 0
172 195 0
172 195 0
171 194 0
173 196 0
173 196 0
175 197 0
172 195 0
175 197 0
174 196 0
174 195 0
176 198 0
172 194 0
174 195 0
175 196 0
174 196 0
175 196 0
173 194 0
176 197 0
175 196 0
173 194 0
175 197 0
177 198 0
176 197 0
176 197 0
172 193 0
173 194 0
172 193 0
169 190 0
175 196 0
175 196 0
176 196 0
171 192 0
176 197 0
174 195 0
176 196 0
174 195 0
168 188 0
167 187 0
172 192 0
171 192 0
169 190 0
167 187 0
173 193 0
173 194 0
169 190 0
168 188 0
173 193 0
168 188 0
169 189 0
168 188 0
168 188 0
169 189 0
169 187 0
167 186 0
166 187 0
171 191 0
168 188 0
162 182 0
166 187 0
168 188 0
169 188 0
170 190 0
163 183 0
162 182 0
164 184 0
169 188 0
168 188 0
162 182 0
167 186 0
168 188 0
156 175 0
166 186 0
164 184 0
165 184 0
167 186 0
155 174 0
163 184 0
155 174 0
165 183 0
158 178 0
155 175 0
159 179 0
158 177 0
156 175 0
158 177 0
156 175 0
157 178 0
162 182 0
155 175 0
154 174 0
157 176 0
161 179 0
160 180 0
162 182 0
160 180 0
147 167 0
155 175 0
162 180 0
152 172 0
158 178 0
152 172 0
154 173 0
169 188 0
157 177 0
157 176 0
152 172 0
153 173 0
154 174 0
154 173 0
157 177 0
153 174 0
152 172 0
152 173 0
149 170 0
151 170 0
153 174 0
147 167 0
147 169 0
140 162 0
145 166 0
150 170 0
150 170 0
150 170 0
149 170 0
154 174 0
144 165 0
149 170 0
140 161 0
148 169 0
135 155 0
141 162 0
142 164 0
153 174 0
138 159 0
147 168 0
133 153 0
142 163 0
140 161 0
138 159 0
143 164 0
136 156 0
145 166 0
143 164 0
142 162 0
134 154 0
138 159 0
139 159 0
139 160 0
132 152 0
137 158 0
132 153 0
131 151 0
141 161 0
136 156 0
134 154 0
133 154 0
120 140 0
120 140 0
136 156 0
137 156 0
118 138 0
121 142 0
117 136 0
121 140 0
123 141 0
130 150 0
118 136 0
120 139 0
127 146 0
109 128 0
111 128 0
116 135 0
108 125 0
115 133 0
113 130 0
115 134 0
117 136 0
111 130 0
111 128 0
99 117 0
106 123 0
106 122 0
96 113 0
104 120 0
115 132 0
103 121 0
96 112 0
110 127 0
101 115 0
107 123 0
115 132 0
99 115 0
108 124 0
111 128 0
103 118 0
94 110 0
95 111 0
93 107 0
99 114 0
89 104 0
105 119 0
107 122 0
110 124 0
99 115 0
115 131 0
103 120 0
107 122 0
116 131 0
103 117 0
112 128 0
96 111 0
110 124 0
107 122 0
92 106 0
109 125 0
114 130 0
102 118 0
119 134 0
113 129 0
109 123 0
107 122 0
115 131 0
108 120 0
119 135 0
121 136 0
122 137 0
116 130 0
104 118 0
104 118 0
114 130 0
127 142 0
117 134 0
112 127 0
124 139 0
122 133 0
125 140 0
125 140 0
119 133 0
123 136 0
128 144 0
130 145 0
122 136 0
125 140 0
128 141 0
118 130 0
110 122 0
125 139 0
123 136 0
128 141 0
117 129 0
118 129 0
125 138 0
122 135 0
123 135 0
124 135 0
117 129 0
129 141 0
134 147 0
122 136 0
120 131 0
128 140 0
126 137 0
116 126 0
118 128 0
126 137 0
125 135 0
124 135 0
122 133 0
126 136 0
127 135 0
113 122 0
124 127 0
122 128 0
130 136 0
120 127 0
113 118 0
118 126 0
113 116 0
122 129 0
114 115 0
117 119 0
118 120 0
107 111 0
115 116 0
112 113 0
110 112 0
111 114 0
105 106 0
110 112 0
105 106 0
103 101 0
104 105 0
103 103 0
110 105 0
94 91 0
99 93 0
91 89 0
97 93 0
89 85 0
94 87 0
87 81 0
90 83 0
82 77 0
78 75 0
81 71 0
88 82 0
77 68 0
83 76 0
81 72 0
85 74 0
78 69 0
82 71 11
97 86 0
80 69 11
83 73 0
93 82 0
89 77 0
99 89 0
95 85 11
79 70 0
91 80 0
101 91 0
86 77 0
99 91 0
103 94 0
97 88 0
91 81 0
103 93 0
101 94 16
92 85 0
104 95 16
113 103 22
104 96 0
103 95 0
108 100 11
98 90 11
92 86 19
85 77 0
110 103 11
98 91 19
115 106 25
100 93 11
111 101 16
105 97 16
118 110 16
115 106 19
113 107 16
103 95 22
105 98 16
112 104 19
107 101 22
110 102 11
107 99 22
113 106 19
117 109 25
104 98 16
115 106 25
110 104 25
120 113 30
116 108 19
114 105 22
110 102 25
108 101 22
120 112 19
114 108 25
111 104 28
123 114 32
109 102 32
114 107 34
114 105 25
114 108 30
111 103 34
101 95 19
121 119 30
131 135 28
150 161 19
156 172 0
165 180 0
167 184 0
163 180 0
168 186 0
161 179 0
160 177 0
164 181 0
167 186 0
166 184 0
169 189 0
165 182 0
167 186 0
166 185 0
170 191 0
173 196 0
174 197 0
175 198 0
171 194 0
172 196 0
175 197 0
173 196 0
174 196 0
173 196 0
174 197 0
174 196 0
176 198 0
172 195 0
172 195 0
175 198 0
173 195 0
175 198 0
172 194 0
173 196 0
175 197 0
174 195 0
172 194 0
175 196 0
176 197 0
173 195 0
174 195 0
176 197 0
173 194 0
174 195 0
171 191 0
175 195 0
173 193 0
174 195 0
174 194 0
173 194 0
175 196 0
176 196 0
173 194 0
175 196 0
171 191 0
173 193 0
175 194 0
173 193 0
172 193 0
167 188 0
172 193 0
175 196 0
174 195 0
170 190 0
174 194 0
177 198 0
171 191 0
173 192 0
173 192 0
175 195 0
169 190 0
171 192 0
166 186 0
170 191 0
168 189 0
166 186 0
172 191 0
169 189 0
166 187 0
168 187 0
171 191 0
167 188 0
171 190 0
169 188 0
170 190 0
166 185 0
162 182 0
169 189 0
169 188 0
168 188 0
169 188 0
163 182 0
166 185 0
156 175 0
160 179 0
159 178 0
163 183 0
158 178 0
162 181 0
163 182 0
158 178 0
154 173 0
163 183 0
162 181 0
157 178 0
161 181 0
162 182 0
154 174 0
159 178 0
148 169 0
162 181 0
161 180 0
162 181 0
152 172 0
160 179 0
150 170 0
157 176 0
160 179 0
150 169 0
158 179 0
150 170 0
156 175 0
159 179 0
155 175 0
151 170 0
158 178 0
148 169 0
154 174 0
150 170 0
145 165 0
158 178 0
154 174 0
153 173 0
150 171 0
158 178 0
148 168 0
149 169 0
145 165 0
148 168 0
140 160 0
155 176 0
143 164 0
149 170 0
153 173 0
145 167 0
154 175 0
156 177 0
154 175 0
146 166 0
149 169 0
151 172 0
147 169 0
152 173 0
144 166 0
140 162 0
146 166 0
144 166 0
142 164 0
157 177 0
136 156 0
140 161 0
139 159 0
138 159 0
145 165 0
149 169 0
135 155 0
129 150 0
141 161 0
134 154 0
138 159 0
142 163 0
142 162 0
142 162 0
138 159 0
136 156 0
132 153 0
136 156 0
130 151 0
132 152 0
127 147 0
128 148 0
123 143 0
131 150 0
122 142 0
126 146 0
124 143 0
123 142 0
128 148 0
123 143 0
132 151 0
110 129 0
114 133 0
111 130 0
112 130 0
116 134 0
124 143 0
124 143 0
117 135 0
116 134 0
114 131 0
114 133 0
109 126 0
126 143 0
104 123 0
121 139 0
109 127 0
107 125 0
111 128 0
114 133 0
105 120 0
106 123 0
114 132 0
117 135 0
96 113 0
114 130 0
109 126 0
93 110 0
105 121 0
108 123 0
105 122 0
105 120 0
109 124 0
111 128 0
112 127 0
103 120 0
100 116 0
95 110 0
118 132 0
96 111 0
111 126 0
114 132 0
106 122 0
109 124 0
106 123 0
110 124 0
116 131 0
119 135 0
118 134 0
121 138 0
116 131 0
107 122 0
119 134 0
108 124 0
118 136 0
109 125 0
120 137 0
125 141 0
99 113 0
119 134 0
119 136 0
114 129 0
122 135 0
123 138 0
116 132 0
130 146 0
115 131 0
128 144 0
116 132 0
125 141 0
120 135 0
123 138 0
137 153 0
121 136 0
131 145 0
122 137 0
120 135 0
126 140 0
129 142 0
125 139 0
115 128 0
131 142 0
119 135 0
120 133 0
124 135 0
128 141 0
117 131 0
123 139 0
121 133 0
128 142 0
130 143 0
119 132 0
130 144 0
127 135 0
134 148 0
121 133 0
119 130 0
110 116 0
118 127 0
121 130 0
127 140 0
126 135 0
135 145 0
132 141 0
123 131 0
122 128 0
104 113 0
125 132 0
123 133 0
119 127 0
109 114 0
120 125 0
120 127 0
120 123 0
106 113 0
116 121 0
121 125 0
108 112 0
112 116 0
113 119 0
118 122 0
112 112 0
113 111 0
114 115 0
107 106 0
100 99 0
112 115 0
113 114 0
103 102 0
97 93 0
106 105 0
92 90 0
97 92 0
101 97 0
102 101 0
99 97 0
89 85 0
93 86 0
88 80 0
90 84 0
77 70 0
93 88 0
80 73 0
86 78 0
94 87 0
86 79 0
82 72 0
81 72 0
91 82 0
84 72 11
79 69 0
93 82 11
88 79 0
89 78 11
97 85 0
90 80 0
90 81 0
93 84 11
97 88 0
100 91 11
91 83 0
99 90 0
90 81 11
102 93 0
99 90 11
106 94 22
106 97 16
110 100 16
105 97 0
104 96 0
106 98 11
104 97 0
110 102 16
103 94 16
99 91 19
109 101 22
106 98 22
101 94 16
110 102 16
108 97 25
109 101 19
107 99 16
111 104 0
112 105 19
102 92 16
99 92 25
108 100 19
112 102 11
111 103 25
99 92 0
112 106 25
117 111 28
122 114 22
103 94 19
106 98 16
111 105 28
117 109 25
109 100 34
104 96 28
109 102 32
107 100 22
108 100 19
108 100 25
117 112 28
129 132 16
130 135 19
142 150 16
153 164 16
161 174 0
163 178 0
167 184 0
164 181 0
164 182 0
164 177 0
168 186 0
161 178 0
165 182 0
166 184 0
168 186 0
161 180 0
167 188 0
168 185 0
164 181 0
165 183 0
169 187 0
170 190 0
175 198 0
173 196 0
175 197 0
175 198 0
174 196 0
174 196 0
173 196 0
172 196 0
175 198 0
174 197 0
172 195 0
174 196 0
174 196 0
175 197 0
174 196 0
171 194 0
176 198 0
172 194 0
173 195 0
172 195 0
173 195 0
172 194 0
176 197 0
175 197 0
175 196 0
176 198 0
173 194 0
175 196 0
176 197 0
173 194 0
175 196 0
176 196 0
173 193 0
178 198 0
174 195 0
172 191 0
172 192 0
175 195 0
176 196 0
172 193 0
174 194 0
173 193 0
173 194 0
174 193 0
173 194 0
171 191 0
172 193 0
172 193 0
171 191 0
172 192 0
175 195 0
173 193 0
168 187 0
169 189 0
174 194 0
166 186 0
168 188 0
172 192 0
171 191 0
170 190 0
169 188 0
170 190 0
168 188 0
166 186 0
169 188 0
169 189 0
171 190 0
170 189 0
168 186 0
164 185 0
168 188 0
169 189 0
159 179 0
169 189 0
162 182 0
161 180 0
164 185 0
163 184 0
159 179 0
158 176 0
163 182 0
163 181 0
160 180 0
161 182 0
160 179 0
162 181 0
164 184 0
161 180 0
170 189 0
164 184 0
160 179 0
163 183 0
154 174 0
154 172 0
159 178 0
162 180 0
156 176 0
159 178 0
164 182 0
155 174 0
153 173 0
153 173 0
164 184 0
152 172 0
154 173 0
152 171 0
148 169 0
149 169 0
158 178 0
154 174 0
161 182 0
149 169 0
156 176 0
157 177 0
152 172 0
158 177 0
161 181 0
152 173 0
152 173 0
149 170 0
157 177 0
158 178 0
148 170 0
151 171 0
148 168 0
149 171 0
143 163 0
152 172 0
142 163 0
145 166 0
144 166 0
153 174 0
148 168 0
156 177 0
153 174 0
137 159 0
147 168 0
137 158 0
147 168 0
148 168 0
140 161 0
144 165 0
138 159 0
140 160 0
133 154 0
138 159 0
149 170 0
140 160 0
146 167 0
141 161 0
143 163 0
144 165 0
134 156 0
131 151 0
140 162 0
144 164 0
134 154 0
127 146 0
140 161 0
133 153 0
130 149 0
135 155 0
128 149 0
130 150 0
142 162 0
121 140 0
139 159 0
118 138 0
131 151 0
121 141 0
132 153 0
124 144 0
126 146 0
127 146 0
123 142 0
129 149 0
121 141 0
103 122 0
114 133 0
123 141 0
119 137 0
116 135 0
114 135 0
116 133 0
119 136 0
116 134 0
115 133 0
117 136 0
113 129 0
110 129 0
113 130 0
105 121 0
103 121 0
122 139 0
102 119 0
101 121 0
117 134 0
115 132 0
115 133 0
106 125 0
113 131 0
117 133 0
107 124 0
116 132 0
116 134 0
97 112 0
119 137 0
107 124 0
124 142 0
103 120 0
110 128 0
117 134 0
111 128 0
110 126 0
111 126 0
116 131 0
104 119 0
121 137 0
104 121 0
117 134 0
113 130 0
113 128 0
118 133 0
114 132 0
133 150 0
113 129 0
113 130 0
113 129 0
120 134 0
110 127 0
118 134 0
115 130 0
115 130 0
118 134 0
118 133 0
124 142 0
123 137 0
118 133 0
123 140 0
119 134 0
115 129 0
123 140 0
125 142 0
114 129 0
115 130 0
132 148 0
115 129 0
120 135 0
137 151 0
115 128 0
126 140 0
128 144 0
133 148 0
120 136 0
120 136 0
129 143 0
131 146 0
121 135 0
121 134 0
123 137 0
131 144 0
122 137 0
132 147 0
129 142 0
132 145 0
117 130 0
114 127 0
129 139 0
126 138 0
119 131 0
128 139 0
121 134 0
127 138 0
125 138 0
125 135 0
111 119 0
132 143 0
124 134 0
128 138 0
120 130 0
120 128 0
118 126 0
122 131 0
128 135 0
118 125 0
117 127 0
127 135 0
125 131 0
127 133 0
116 120 0
124 128 0
121 121 0
130 136 0
117 123 0
122 128 0
124 125 0
113 116 0
112 112 0
109 110 0
102 104 0
117 118 0
120 120 0
115 116 0
117 115 0
110 108 0
109 109 0
105 105 0
101 101 0
117 114 0
102 96 0
104 103 0
95 87 0
99 92 0
88 82 0
95 90 0
105 100 0
93 84 0
89 83 0
98 89 0
108 102 0
70 62 0
97 92 0
96 93 0
91 83 0
92 85 0
95 91 0
94 86 0
91 83 0
87 77 11
87 76 0
93 83 11
100 90 0
84 75 0
84 76 11
90 81 0
101 90 0
98 89 0
95 83 11
96 88 11
96 87 0
96 86 0
93 84 11
95 84 0
97 87 0
105 95 11
104 94 16
99 90 19
109 100 16
95 86 11
91 83 16
101 94 0
101 92 11
109 101 11
111 100 11
111 102 19
110 101 22
103 93 19
95 88 11
103 95 19
105 96 22
109 99 25
98 90 16
103 96 19
98 91 19
94 86 16
98 91 25
99 90 19
101 95 19
111 103 30
108 98 32
105 97 19
110 107 28
115 114 25
127 128 11
134 138 19
140 151 0
156 166 11
158 172 0
161 173 0
162 178 0
156 168 0
158 172 0
156 171 0
162 178 0
157 172 0
165 181 0
160 174 0
160 176 0
167 184 0
163 180 0
164 183 0
168 186 0
164 182 0
163 179 0
166 182 0
165 179 0
169 188 0
166 183 0
167 186 0
165 184 0
175 197 0
169 192 0
174 197 0
174 197 0
174 197 0
174 197 0
172 196 0
173 196 0
171 194 0
173 196 0
172 195 0
174 197 0
174 196 0
171 194 0
171 193 0
173 195 0
175 198 0
171 193 0
174 195 0
174 196 0
172 193 0
175 197 0
174 195 0
173 196 0
175 197 0
170 192 0
172 194 0
176 197 0
173 195 0
173 195 0
171 193 0
175 196 0
170 192 0
171 191 0
175 196 0
175 195 0
175 195 0
171 191 0
172 192 0
174 195 0
176 196 0
174 194 0
176 196 0
174 194 0
173 192 0
175 196 0
172 192 0
171 191 0
173 193 0
169 189 0
169 189 0
167 187 0
167 187 0
170 190 0
170 190 0
174 194 0
171 190 0
168 188 0
169 189 0
172 192 0
165 185 0
171 190 0
171 190 0
167 186 0
162 182 0
169 189 0
167 186 0
164 185 0
168 187 0
167 187 0
163 183 0
163 183 0
162 181 0
169 188 0
167 186 0
161 180 0
164 184 0
163 183 0
162 182 0
160 179 0
164 183 0
164 183 0
162 181 0
158 177 0
160 180 0
158 178 0
159 179 0
165 185 0
164 183 0
157 177 0
164 184 0
163 181 0
157 176 0
158 177 0
160 179 0
160 180 0
156 175 0
154 173 0
147 166 0
161 181 0
161 180 0
157 176 0
152 170 0
147 165 0
161 181 0
157 177 0
155 176 0
155 175 0
160 181 0
155 175 0
159 179 0
148 167 0
155 174 0
156 176 0
150 170 0
150 171 0
149 170 0
148 167 0
149 171 0
143 164 0
150 171 0
157 179 0
146 167 0
159 180 0
156 177 0
150 172 0
144 165 0
148 169 0
139 160 0
148 168 0
150 171 0
145 166 0
155 176 0
148 169 0
140 161 0
143 164 0
147 169 0
146 166 0
147 168 0
146 168 0
144 165 0
145 166 0
149 170 0
142 164 0
143 164 0
143 164 0
138 160 0
144 165 0
144 166 0
144 164 0
136 156 0
140 162 0
136 157 0
143 163 0
141 162 0
138 159 0
134 154 0
142 163 0
129 149 0
136 157 0
127 147 0
140 160 0
123 144 0
136 155 0
133 153 0
133 153 0
137 157 0
125 145 0
132 153 0
135 155 0
137 157 0
127 146 0
122 142 0
125 143 0
126 145 0
122 140 0
132 151 0
133 153 0
125 143 0
126 145 0
127 146 0
134 153 0
121 139 0
120 139 0
121 139 0
116 135 0
118 137 0
112 131 0
120 139 0
124 142 0
122 141 0
117 133 0
116 135 0
116 134 0
120 136 0
103 121 0
112 130 0
116 134 0
118 136 0
124 141 0
120 136 0
117 135 0
112 128 0
113 130 0
114 131 0
119 136 0
102 121 0
111 128 0
108 126 0
122 138 0
118 134 0
112 129 0
122 140 0
116 132 0
111 128 0
119 134 0
121 136 0
118 135 0
113 129 0
114 131 0
107 124 0
113 130 0
120 137 0
104 121 0
113 128 0
119 136 0
113 128 0
132 149 0
123 139 0
110 128 0
122 138 0
122 138 0
116 131 0
124 140 0
103 117 0
121 137 0
121 137 0
118 135 0
122 136 0
125 140 0
132 148 0
125 141 0
123 137 0
118 135 0
122 138 0
117 130 0
119 134 0
129 145 0
127 144 0
117 130 0
123 136 0
121 137 0
121 136 0
126 140 0
120 135 0
124 138 0
123 138 0
129 145 0
123 138 0
127 142 0
126 141 0
126 140 0
134 147 0
131 146 0
116 126 0
124 136 0
128 141 0
125 138 0
129 141 0
135 149 0
130 144 0
132 144 0
133 147 0
131 143 0
133 145 0
134 146 0
134 145 0
127 138 0
124 133 0
124 135 0
119 129 0
125 136 0
122 129 0
126 136 0
115 121 0
118 126 0
116 123 0
121 130 0
119 124 0
120 125 0
114 123 0
118 124 0
113 119 0
128 133 0
118 123 0
114 116 0
117 120 0
115 116 0
111 114 0
115 115 0
108 111 0
113 117 0
123 129 0
117 120 0
105 106 0
118 119 0
113 111 0
115 112 0
107 107 0
113 111 0
112 109 0
106 105 0
93 89 0
105 103 0
104 99 0
104 101 0
93 87 0
104 103 0
109 106 0
88 86 0
90 82 0
102 98 0
98 92 0
90 85 0
94 90 0
93 90 0
102 98 0
108 104 0
94 89 0
99 93 0
98 91 0
99 95 0
93 86 0
103 97 0
87 78 0
81 72 11
86 74 11
88 78 0
88 77 11
101 92 16
87 76 0
94 86 11
102 91 0
93 83 16
91 81 0
102 93 16
102 92 16
97 86 11
108 97 19
103 92 16
99 90 19
94 84 11
102 92 22
92 84 11
88 79 11
95 87 16
95 85 11
104 94 19
97 89 11
93 85 25
96 89 16
106 97 11
98 90 16
124 118 34
110 109 16
128 127 0
121 123 16
133 135 25
138 143 16
148 153 11
157 167 11
158 172 0
156 165 0
156 166 0
160 171 0
156 170 0
156 169 0
153 164 0
159 172 0
159 170 0
157 171 0
158 171 0
160 174 0
166 179 0
162 176 0
165 180 0
165 179 0
160 174 0
165 182 0
157 173 0
163 179 0
163 178 0
163 180 0
166 182 0
163 178 0
167 185 0
164 179 0
161 179 0
168 186 0
164 181 0
175 198 0
174 196 0
171 194 0
172 195 0
173 196 0
174 197 0
173 197 0
174 196 0
174 197 0
174 197 0
173 196 0
174 196 0
173 196 0
175 198 0
173 196 0
173 195 0
169 192 0
175 196 0
175 197 0
173 195 0
175 196 0
172 193 0
175 196 0
176 197 0
173 195 0
175 195 0
177 198 0
176 198 0
176 197 0
173 195 0
172 194 0
172 192 0
174 195 0
177 196 0
173 193 0
174 195 0
176 195 0
177 197 0
173 194 0
177 197 0
175 195 0
175 196 0
173 194 0
166 187 0
170 190 0
175 195 0
174 194 0
168 188 0
174 193 0
175 194 0
175 195 0
173 194 0
165 184 0
167 187 0
173 193 0
165 185 0
169 189 0
164 184 0
161 181 0
164 185 0
166 186 0
173 192 0
170 189 0
167 187 0
163 183 0
170 190 0
161 181 0
169 188 0
168 188 0
166 186 0
172 190 0
164 183 0
169 188 0
160 181 0
163 182 0
161 180 0
171 190 0
155 175 0
162 181 0
168 187 0
164 183 0
165 184 0
163 183 0
158 178 0
161 181 0
162 181 0
161 181 0
162 182 0
159 178 0
160 179 0
155 174 0
160 181 0
165 185 0
159 179 0
162 181 0
161 181 0
159 179 0
163 182 0
159 179 0
154 175 0
156 175 0
164 183 0
153 174 0
162 181 0
158 177 0
154 174 0
152 172 0
158 179 0
159 178 0
156 176 0
153 173 0
156 177 0
158 179 0
154 174 0
152 172 0
150 171 0
154 175 0
158 179 0
158 178 0
149 171 0
154 175 0
144 165 0
146 166 0
155 176 0
150 171 0
150 171 0
149 171 0
152 173 0
152 173 0
148 169 0
152 173 0
144 166 0
149 171 0
149 170 0
151 172 0
150 171 0
147 169 0
149 171 0
145 166 0
156 178 0
141 161 0
132 152 0
131 152 0
150 171 0
147 169 0
146 167 0
138 158 0
141 162 0
137 158 0
148 168 0
135 157 0
134 155 0
132 153 0
138 158 0
142 163 0
138 159 0
128 149 0
136 158 0
136 158 0
135 156 0
130 150 0
121 141 0
141 161 0
142 163 0
123 142 0
132 153 0
136 157 0
134 154 0
127 147 0
123 141 0
122 142 0
131 150 0
122 142 0
135 154 0
132 153 0
124 143 0
130 149 0
120 140 0
115 134 0
134 153 0
118 137 0
117 135 0
122 140 0
117 135 0
126 144 0
127 145 0
124 144 0
110 128 0
118 135 0
127 146 0
128 146 0
127 148 0
123 141 0
125 142 0
123 142 0
107 123 0
117 134 0
118 137 0
115 133 0
112 129 0
115 132 0
110 127 0
112 129 0
123 141 0
115 133 0
112 127 0
109 126 0
110 128 0
117 135 0
121 141 0
124 142 0
132 151 0
126 142 0
120 137 0
117 135 0
119 136 0
126 144 0
119 135 0
116 134 0
120 138 0
116 132 0
109 127 0
111 127 0
124 141 0
122 139 0
122 140 0
112 127 0
112 128 0
112 128 0
129 145 0
123 140 0
133 152 0
135 152 0
120 136 0
111 125 0
123 140 0
117 134 0
133 149 0
125 142 0
121 135 0
113 128 0
135 153 0
126 143 0
123 138 0
117 132 0
127 143 0
120 132 0
126 140 0
130 147 0
119 133 0
128 142 0
119 135 0
123 138 0
122 138 0
123 138 0
126 143 0
122 137 0
123 137 0
121 135 0
127 142 0
123 135 0
131 146 0
139 155 0
125 137 0
128 140 0
131 145 0
133 147 0
129 139 0
119 132 0
132 143 0
131 146 0
132 144 0
125 139 0
134 146 0
123 136 0
119 130 0
136 150 0
124 135 0
137 147 0
131 142 0
129 142 0
124 136 0
133 144 0
126 136 0
117 124 0
129 141 0
123 131 0
129 137 0
126 134 0
129 137 0
122 128 0
125 131 0
129 135 0
122 129 0
122 129 0
118 122 0
118 124 0
125 131 0
116 123 0
117 119 0
125 132 0
117 120 0
105 110 0
114 116 0
128 130 0
113 111 0
115 114 0
112 112 0
108 109 0
111 111 0
113 109 0
109 106 0
110 110 0
111 109 0
109 105 0
99 95 0
110 106 0
109 106 0
102 100 0
97 95 0
102 99 0
113 110 0
98 92 0
114 108 0
103 100 0
98 89 0
95 94 0
106 102 0
108 103 0
105 101 0
103 100 0
101 93 0
104 100 0
105 98 0
98 93 0
99 90 0
98 89 0
109 106 0
105 100 0
121 115 0
118 114 11
102 96 0
124 120 0
105 98 0
105 102 0
113 113 0
116 110 11
113 114 0
109 105 0
112 106 11
121 121 11
112 109 0
128 126 16
133 133 0
123 123 0
122 121 0
128 131 0
127 128 11
137 139 11
130 131 0
137 140 11
143 148 0
145 151 0
155 163 0
148 155 0
158 167 0
149 155 0
156 164 0
153 162 0
147 156 0
156 167 0
152 160 0
150 160 0
157 166 0
151 159 0
153 166 0
158 170 0
157 165 0
157 167 0
162 174 0
158 172 0
158 171 0
162 176 0
166 179 0
163 177 0
161 172 0
158 172 0
165 182 0
155 169 0
162 176 0
166 180 0
165 182 0
167 183 0
158 175 0
167 185 0
165 184 0
164 180 0
164 180 0
164 181 0
162 179 0
173 196 0
172 194 0
172 194 0
175 196 0
173 195 0
173 194 0
170 193 0
174 196 0
173 196 0
174 196 0
177 198 0
174 196 0
174 195 0
175 197 0
175 197 0
175 197 0
175 197 0
176 197 0
175 196 0
175 197 0
174 195 0
174 195 0
173 194 0
173 195 0
172 194 0
176 197 0
176 197 0
174 196 0
175 196 0
173 194 0
177 196 0
173 195 0
170 191 0
173 194 0
172 192 0
175 195 0
177 197 0
175 195 0
178 198 0
175 195 0
175 195 0
176 196 0
176 195 0
172 192 0
174 194 0
175 195 0
171 190 0
172 192 0
175 194 0
175 194 0
168 188 0
171 191 0
172 191 0
170 191 0
170 190 0
168 189 0
169 189 0
171 190 0
172 192 0
169 189 0
169 188 0
169 189 0
167 187 0
170 190 0
164 184 0
166 186 0
165 185 0
165 184 0
168 187 0
166 185 0
161 182 0
164 183 0
166 184 0
164 185 0
167 186 0
167 187 0
165 184 0
170 189 0
165 184 0
163 183 0
164 184 0
160 179 0
165 185 0
167 186 0
164 182 0
164 182 0
163 181 0
154 174 0
161 181 0
158 178 0
163 183 0
164 184 0
159 179 0
152 172 0
161 181 0
162 180 0
164 184 0
165 185 0
162 182 0
152 172 0
153 172 0
158 178 0
154 174 0
153 173 0
156 177 0
158 178 0
159 179 0
159 180 0
152 172 0
154 176 0
156 176 0
161 181 0
156 177 0
155 175 0
153 172 0
147 169 0
157 179 0
141 162 0
144 166 0
155 176 0
138 160 0
150 171 0
142 163 0
157 178 0
154 175 0
151 170 0
146 167 0
156 178 0
144 165 0
152 173 0
151 172 0
146 168 0
148 170 0
149 170 0
152 172 0
151 171 0
147 168 0
146 168 0
148 169 0
143 164 0
154 175 0
148 170 0
138 158 0
141 163 0
148 169 0
145 166 0
144 166 0
130 152 0
151 172 0
125 145 0
134 155 0
130 151 0
137 157 0
144 164 0
143 165 0
133 154 0
141 162 0
146 167 0
130 150 0
128 147 0
141 163 0
136 157 0
131 152 0
130 151 0
126 146 0
132 152 0
128 148 0
129 147 0
126 145 0
136 156 0
133 153 0
132 151 0
127 147 0
127 147 0
126 145 0
128 147 0
140 160 0
134 154 0
137 156 0
116 136 0
131 148 0
123 143 0
125 143 0
123 142 0
125 144 0
113 132 0
125 144 0
125 144 0
118 136 0
117 136 0
119 137 0
124 143 0
123 141 0
118 137 0
121 141 0
116 136 0
112 131 0
117 134 0
124 141 0
116 133 0
115 134 0
121 138 0
114 132 0
126 144 0
113 131 0
121 140 0
107 123 0
117 134 0
122 141 0
120 138 0
119 136 0
120 137 0
112 129 0
122 138 0
121 138 0
112 129 0
125 141 0
120 135 0
119 136 0
123 140 0
127 144 0
112 128 0
124 139 0
115 133 0
127 144 0
109 126 0
123 140 0
126 142 0
115 130 0
121 138 0
111 125 0
121 138 0
113 129 0
121 138 0
126 141 0
134 152 0
125 142 0
122 138 0
120 136 0
128 146 0
125 142 0
125 140 0
111 127 0
132 148 0
122 136 0
121 135 0
128 142 0
126 142 0
129 145 0
140 156 0
133 148 0
126 141 0
127 141 0
132 148 0
132 147 0
120 132 0
129 142 0
127 141 0
135 149 0
124 138 0
122 136 0
135 151 0
128 141 0
131 145 0
126 139 0
134 148 0
132 144 0
130 145 0
132 146 0
125 136 0
126 140 0
136 149 0
137 152 0
133 143 0
129 141 0
123 136 0
132 143 0
134 146 0
131 141 0
124 135 0
133 146 0
122 130 0
126 135 0
116 125 0
128 138 0
129 139 0
123 133 0
129 139 0
130 138 0
127 137 0
122 128 0
123 134 0
123 131 0
122 131 0
127 135 0
122 127 0
124 131 0
121 127 0
128 135 0
123 129 0
120 126 0
126 131 0
123 127 0
112 112 0
108 109 0
108 107 0
114 117 0
118 118 0
110 111 0
123 125 0
112 113 0
130 131 0
104 105 0
105 103 0
118 121 0
113 112 0
113 109 0
108 105 0
118 115 0
110 105 0
109 106 0
105 102 0
108 105 0
104 98 0
92 87 0
105 97 0
106 103 0
105 100 0
107 101 0
107 100 0
108 105 0
111 105 0
104 99 0
122 118 0
109 104 0
103 96 0
115 112 0
116 112 0
110 107 0
114 110 0
122 119 0
116 115 0
127 125 0
114 111 0
121 121 0
119 117 0
132 132 0
120 115 0
125 125 0
131 132 0
131 133 0
134 134 0
126 126 0
143 148 0
141 144 0
147 149 0
139 142 0
139 142 0
139 141 0
142 146 0
141 144 0
153 159 0
143 149 0
145 148 0
152 161 0
146 151 0
150 157 0
156 164 0
147 156 0
147 155 0
155 164 0
152 158 0
154 165 0
150 160 0
153 162 0
156 164 0
154 165 0
160 172 0
156 166 0
160 173 0
156 168 0
158 172 0
154 167 0
160 173 0
160 173 0
159 171 0
163 178 0
160 172 0
156 170 0
163 176 0
161 176 0
156 171 0
160 176 0
163 180 0
163 178 0
163 179 0
166 182 0
165 180 0
164 179 0
161 176 0
171 194 0
172 196 0
172 195 0
175 197 0
174 197 0
175 198 0
172 195 0
173 195 0
175 197 0
177 199 0
173 195 0
175 197 0
176 198 0
174 195 0
176 197 0
172 194 0
173 196 0
174 196 0
175 197 0
177 199 0
175 196 0
176 197 0
176 196 0
177 198 0
175 196 0
172 194 0
176 197 0
174 195 0
179 199 0
175 196 0
173 193 0
175 197 0
175 195 0
174 195 0
175 196 0
173 193 0
175 194 0
169 189 0
175 195 0
174 194 0
176 195 0
172 192 0
172 193 0
170 189 0
175 195 0
173 192 0
173 193 0
176 195 0
172 193 0
172 191 0
173 192 0
168 189 0
173 192 0
173 192 0
170 190 0
171 190 0
173 193 0
165 186 0
163 183 0
168 187 0
169 188 0
167 186 0
165 184 0
166 185 0
165 185 0
171 191 0
165 185 0
169 189 0
167 186 0
166 185 0
165 184 0
163 183 0
166 185 0
166 185 0
165 184 0
163 183 0
168 188 0
163 182 0
162 182 0
163 183 0
165 184 0
156 176 0
159 179 0
164 185 0
167 186 0
167 187 0
160 180 0
167 186 0
159 178 0
162 182 0
159 178 0
162 181 0
165 184 0
163 183 0
159 179 0
168 187 0
164 183 0
162 181 0
156 177 0
160 181 0
153 172 0
163 183 0
150 168 0
157 177 0
156 176 0
148 168 0
153 173 0
153 173 0
151 171 0
161 181 0
164 184 0
158 178 0
155 175 0
153 174 0
149 170 0
153 174 0
150 171 0
153 173 0
142 162 0
143 165 0
150 171 0
150 172 0
150 169 0
143 164 0
154 174 0
144 165 0
153 174 0
159 180 0
146 168 0
149 171 0
150 172 0
145 165 0
150 171 0
143 164 0
150 171 0
156 178 0
147 168 0
146 168 0
139 160 0
146 167 0
142 164 0
142 163 0
146 167 0
144 165 0
140 161 0
139 161 0
154 174 0
142 163 0
141 163 0
136 156 0
142 163 0
146 167 0
136 156 0
144 165 0
139 159 0
134 155 0
140 161 0
139 160 0
142 162 0
134 155 0
149 170 0
139 159 0
130 151 0
140 161 0
133 154 0
136 156 0
141 161 0
138 158 0
139 159 0
130 151 0
137 158 0
135 154 0
134 154 0
141 160 0
134 154 0
126 146 0
124 143 0
122 140 0
130 148 0
125 144 0
135 154 0
126 145 0
117 137 0
122 141 0
132 152 0
129 147 0
130 150 0
115 134 0
118 138 0
120 139 0
132 151 0
125 144 0
120 138 0
123 142 0
110 129 0
126 145 0
111 130 0
110 129 0
114 132 0
128 146 0
122 140 0
115 134 0
124 142 0
119 137 0
126 144 0
118 135 0
112 129 0
121 136 0
133 152 0
120 139 0
119 138 0
127 145 0
124 141 0
127 146 0
125 143 0
125 142 0
122 138 0
125 142 0
124 141 0
114 132 0
126 143 0
125 144 0
120 136 0
131 148 0
118 133 0
122 140 0
118 136 0
123 140 0
124 142 0
122 140 0
129 147 0
119 138 0
134 152 0
123 141 0
122 138 0
128 144 0
113 128 0
123 140 0
120 137 0
129 146 0
122 136 0
136 153 0
121 138 0
130 146 0
135 152 0
122 139 0
131 149 0
128 143 0
126 143 0
123 139 0
128 146 0
134 149 0
126 142 0
134 148 0
143 160 0
131 147 0
119 135 0
124 137 0
127 145 0
133 145 0
126 141 0
130 147 0
133 147 0
140 153 0
132 148 0
133 148 0
132 147 0
127 136 0
130 145 0
127 140 0
129 144 0
131 144 0
134 148 0
133 146 0
133 147 0
124 136 0
128 141 0
136 148 0
126 140 0
132 141 0
138 151 0
122 131 0
141 152 0
135 146 0
137 148 0
127 138 0
131 139 0
124 134 0
113 119 0
133 144 0
121 129 0
133 143 0
131 140 0
125 131 0
127 130 0
135 144 0
126 134 0
126 131 0
130 136 0
116 122 0
129 134 0
123 126 0
120 123 0
110 113 0
128 131 0
116 120 0
121 125 0
117 119 0
120 122 0
119 124 0
123 127 0
121 122 0
116 116 0
102 102 0
111 111 0
112 111 0
111 111 0
112 115 0
113 109 0
110 109 0
112 108 0
119 119 0
123 124 0
116 118 0
109 105 0
100 95 0
109 105 0
116 114 0
115 112 0
109 105 0
112 110 0
113 108 0
119 118 0
101 96 0
107 102 0
109 104 0
115 114 0
120 116 0
104 98 0
118 112 0
125 124 0
123 119 0
123 120 0
119 115 0
125 124 0
119 116 0
127 125 0
133 132 0
122 122 0
127 125 0
132 133 0
128 125 0
135 136 0
132 135 0
136 136 0
143 145 0
140 142 0
138 140 0
148 151 0
139 142 0
137 137 0
142 147 0
147 154 0
147 153 0
143 147 0
148 154 0
150 156 0
154 162 0
148 154 0
152 157 0
144 150 0
155 163 0
152 163 0
151 158 0
151 162 0
142 151 0
154 164 0
148 155 0
160 172 0
163 174 0
158 170 0
155 168 0
157 167 0
155 168 0
161 173 0
161 175 0
158 169 0
163 176 0
159 168 0
155 168 0
159 173 0
163 177 0
162 176 0
158 171 0
160 175 0
161 176 0
159 174 0
155 170 0
166 182 0
164 180 0
176 198 0
172 195 0
174 197 0
171 194 0
174 196 0
173 195 0
172 194 0
172 194 0
177 198 0
174 196 0
174 196 0
174 196 0
173 195 0
175 197 0
176 197 0
174 195 0
170 192 0
173 195 0
176 197 0
176 197 0
174 196 0
174 195 0
176 197 0
175 196 0
171 193 0
176 196 0
172 194 0
175 196 0
176 197 0
175 197 0
177 198 0
173 194 0
174 194 0
174 195 0
169 189 0
174 194 0
174 195 0
173 194 0
175 194 0
174 193 0
172 193 0
170 190 0
174 194 0
173 192 0
176 195 0
173 193 0
172 191 0
171 191 0
168 188 0
173 193 0
169 189 0
170 190 0
171 191 0
172 192 0
167 186 0
169 188 0
167 187 0
165 186 0
172 192 0
170 190 0
167 186 0
169 190 0
167 186 0
169 188 0
170 190 0
161 181 0
166 186 0
169 189 0
166 184 0
170 188 0
164 184 0
163 182 0
164 184 0
169 188 0
168 188 0
170 189 0
167 186 0
161 181 0
161 180 0
163 183 0
165 186 0
165 185 0
166 186 0
166 185 0
163 183 0
164 183 0
168 188 0
159 179 0
162 182 0
166 186 0
160 181 0
160 181 0
167 188 0
158 178 0
151 170 0
160 181 0
163 182 0
150 171 0
160 180 0
155 176 0
154 175 0
156 175 0
153 172 0
154 173 0
160 179 0
154 174 0
152 173 0
154 175 0
159 179 0
159 178 0
159 179 0
151 173 0
153 174 0
151 171 0
142 163 0
151 172 0
151 172 0
151 172 0
155 176 0
157 178 0
152 174 0
147 168 0
153 173 0
155 176 0
150 171 0
136 158 0
150 172 0
151 172 0
152 173 0
155 176 0
149 170 0
141 162 0
150 172 0
151 173 0
149 170 0
158 179 0
145 167 0
149 171 0
146 168 0
146 168 0
145 166 0
139 160 0
142 163 0
150 172 0
142 163 0
143 164 0
152 173 0
143 164 0
149 172 0
149 170 0
141 162 0
140 161 0
143 164 0
147 167 0
141 162 0
131 152 0
134 156 0
126 147 0
136 158 0
143 164 0
140 161 0
143 164 0
140 161 0
130 150 0
134 154 0
127 148 0
133 152 0
134 154 0
124 145 0
142 163 0
142 164 0
135 154 0
134 153 0
120 141 0
124 145 0
143 164 0
122 142 0
127 148 0
131 151 0
131 151 0
133 153 0
126 146 0
131 151 0
136 155 0
121 141 0
113 133 0
129 149 0
117 137 0
123 141 0
128 146 0
123 142 0
122 140 0
122 140 0
130 149 0
124 144 0
118 137 0
130 149 0
135 154 0
131 149 0
117 135 0
130 147 0
119 137 0
121 139 0
125 142 0
111 129 0
116 133 0
111 129 0
134 153 0
124 141 0
126 143 0
124 143 0
117 135 0
117 134 0
119 137 0
122 139 0
131 150 0
122 140 0
120 138 0
117 134 0
115 133 0
122 141 0
114 130 0
121 139 0
121 138 0
127 144 0
126 142 0
117 135 0
127 143 0
123 140 0
121 138 0
125 141 0
133 151 0
127 146 0
122 139 0
134 151 0
112 127 0
125 142 0
124 142 0
122 140 0
127 144 0
113 131 0
128 143 0
132 150 0
129 145 0
123 139 0
138 157 0
127 143 0
133 150 0
128 145 0
133 150 0
124 140 0
143 162 0
130 148 0
134 150 0
121 136 0
133 149 0
134 149 0
130 145 0
128 143 0
128 143 0
133 147 0
133 147 0
136 151 0
123 141 0
127 142 0
129 139 0
132 149 0
130 147 0
134 150 0
130 144 0
130 146 0
134 147 0
139 153 0
127 141 0
133 145 0
127 140 0
124 136 0
131 143 0
128 141 0
133 147 0
128 141 0
130 141 0
138 152 0
132 145 0
123 134 0
136 147 0
136 147 0
117 130 0
142 155 0
130 140 0
131 141 0
131 141 0
135 143 0
130 140 0
123 128 0
131 141 0
139 150 0
124 132 0
124 131 0
126 135 0
134 138 0
118 122 0
118 119 0
114 117 0
119 121 0
133 141 0
120 124 0
126 129 0
131 132 0
123 126 0
121 121 0
111 114 0
110 109 0
120 121 0
113 113 0
113 115 0
124 128 0
116 116 0
124 125 0
112 113 0
121 122 0
121 120 0
120 120 0
122 120 0
110 108 0
121 119 0
116 114 0
111 109 0
127 125 0
116 112 0
121 117 0
117 114 0
120 118 0
122 120 0
113 110 0
119 115 0
120 118 0
116 113 0
117 115 0
121 119 0
109 105 0
118 114 0
117 112 0
124 122 0
120 117 0
117 115 0
120 118 0
126 126 0
141 140 0
121 120 0
123 125 0
126 123 0
124 123 0
129 126 0
140 141 0
130 131 0
136 137 0
136 139 0
140 143 0
141 145 0
140 145 0
149 155 0
137 141 0
149 156 0
142 148 0
139 141 0
141 148 0
149 156 0
149 155 0
149 154 0
157 165 0
142 148 0
146 153 0
150 157 0
148 154 0
151 160 0
154 160 0
155 161 0
155 165 0
148 155 0
145 155 0
151 162 0
162 173 0
152 163 0
158 170 0
164 177 0
156 167 0
163 178 0
160 173 0
159 171 0
159 174 0
160 175 0
161 176 0
162 175 0
159 173 0
162 176 0
165 181 0
163 178 0
165 180 0
165 180 0
175 197 0
173 196 0
174 197 0
171 193 0
175 197 0
176 198 0
171 193 0
172 195 0
175 197 0
175 196 0
173 194 0
174 197 0
173 195 0
175 196 0
175 197 0
175 197 0
174 196 0
173 194 0
176 198 0
176 197 0
173 194 0
172 194 0
177 198 0
175 196 0
176 197 0
175 196 0
177 197 0
178 198 0
176 197 0
176 197 0
171 191 0
173 194 0
177 197 0
173 193 0
173 193 0
175 196 0
175 195 0
173 193 0
170 191 0
175 194 0
171 192 0
175 195 0
173 194 0
172 191 0
171 191 0
170 190 0
173 193 0
171 190 0
174 193 0
171 190 0
173 193 0
172 193 0
170 190 0
172 191 0
166 186 0
173 193 0
172 191 0
170 190 0
164 184 0
167 186 0
172 191 0
167 188 0
165 185 0
172 192 0
167 188 0
169 189 0
164 184 0
168 188 0
168 188 0
166 184 0
168 187 0
168 187 0
166 186 0
171 191 0
166 187 0
170 190 0
164 184 0
170 189 0
162 181 0
164 184 0
165 185 0
165 184 0
163 183 0
166 187 0
156 176 0
166 187 0
162 182 0
158 178 0
155 176 0
161 181 0
166 186 0
157 176 0
158 178 0
162 183 0
165 185 0
152 172 0
159 180 0
159 178 0
158 178 0
152 173 0
150 169 0
157 178 0
158 178 0
154 174 0
151 170 0
151 171 0
151 171 0
154 175 0
164 185 0
154 174 0
153 174 0
152 173 0
150 172 0
156 177 0
157 179 0
155 176 0
156 176 0
155 177 0
158 179 0
149 170 0
152 173 0
151 173 0
155 177 0
148 169 0
154 175 0
156 177 0
151 172 0
150 171 0
142 164 0
148 171 0
146 168 0
148 168 0
149 169 0
147 168 0
150 173 0
149 171 0
150 171 0
143 163 0
147 168 0
141 163 0
141 164 0
135 157 0
145 167 0
143 165 0
149 171 0
146 169 0
142 163 0
151 172 0
138 160 0
148 169 0
137 159 0
149 169 0
145 166 0
147 169 0
140 162 0
141 162 0
137 159 0
136 157 0
144 165 0
131 151 0
137 158 0
143 164 0
128 149 0
129 150 0
137 158 0
142 161 0
131 151 0
134 155 0
127 147 0
136 155 0
135 155 0
133 155 0
124 145 0
132 153 0
141 161 0
132 153 0
123 143 0
130 150 0
122 143 0
136 157 0
126 146 0
134 152 0
125 144 0
130 150 0
117 136 0
128 148 0
126 147 0
128 148 0
125 145 0
136 155 0
133 153 0
124 144 0
127 146 0
113 133 0
116 135 0
128 148 0
138 158 0
127 148 0
121 140 0
120 138 0
124 142 0
134 153 0
126 145 0
123 141 0
124 143 0
116 135 0
129 147 0
120 138 0
125 145 0
131 149 0
116 135 0
123 141 0
113 132 0
132 151 0
118 135 0
122 138 0
123 141 0
129 146 0
127 144 0
124 142 0
129 147 0
115 133 0
136 154 0
126 143 0
130 149 0
131 149 0
121 138 0
114 132 0
112 131 0
121 139 0
118 135 0
126 144 0
122 138 0
126 142 0
136 151 0
139 157 0
128 145 0
126 143 0
130 148 0
135 152 0
134 151 0
133 148 0
128 145 0
129 147 0
134 151 0
128 146 0
134 152 0
125 142 0
133 148 0
120 139 0
130 149 0
130 145 0
134 151 0
125 141 0
135 152 0
134 151 0
139 156 0
129 145 0
138 154 0
126 140 0
141 157 0
130 144 0
139 154 0
129 143 0
138 154 0
127 145 0
144 159 0
131 145 0
129 143 0
133 148 0
134 149 0
127 139 0
120 133 0
132 146 0
125 135 0
126 140 0
126 142 0
129 144 0
128 140 0
135 149 0
127 139 0
131 142 0
137 150 0
135 147 0
129 141 0
133 145 0
130 142 0
128 138 0
128 137 0
134 145 0
131 141 0
129 139 0
122 130 0
120 132 0
126 133 0
136 142 0
132 140 0
123 132 0
129 138 0
126 135 0
122 131 0
126 134 0
127 134 0
135 141 0
120 126 0
132 140 0
121 128 0
115 121 0
115 117 0
121 124 0
128 132 0
130 131 0
123 127 0
109 110 0
128 131 0
115 117 0
120 123 0
116 118 0
126 125 0
119 122 0
115 113 0
122 124 0
116 116 0
111 111 0
110 109 0
111 110 0
125 123 0
112 106 0
124 122 0
123 125 0
113 112 0
115 113 0
122 122 0
124 124 0
125 127 0
122 123 0
125 125 0
110 106 0
112 113 0
128 128 0
126 125 0
125 122 0
120 120 0
119 115 0
120 119 0
130 126 0
136 137 0
123 121 0
118 116 0
128 125 0
124 126 0
131 131 0
133 136 0
131 130 0
131 130 0
132 134 0
135 139 0
130 127 0
137 138 0
142 145 0
135 137 0
133 134 0
139 140 0
147 153 0
147 150 0
145 150 0
145 152 0
148 154 0
146 150 0
150 156 0
140 144 0
149 155 0
149 155 0
147 153 0
147 154 0
142 149 0
150 158 0
148 157 0
157 166 0
155 165 0
159 170 0
159 170 0
153 163 0
157 168 0
158 169 0
156 168 0
156 167 0
152 161 0
153 163 0
160 172 0
157 169 0
158 172 0
160 172 0
166 182 0
158 171 0
160 175 0
164 178 0
159 174 0
160 175 0
162 175 0
175 197 0
172 194 0
175 197 0
175 197 0
172 194 0
175 196 0
172 194 0
171 193 0
173 195 0
174 195 0
173 194 0
175 196 0
175 196 0
175 196 0
174 195 0
176 196 0
174 195 0
176 198 0
174 195 0
173 194 0
173 194 0
173 194 0
173 194 0
177 197 0
172 193 0
174 195 0
175 195 0
177 198 0
175 195 0
175 195 0
173 193 0
171 192 0
176 196 0
172 192 0
172 193 0
173 193 0
172 192 0
173 193 0
171 190 0
170 190 0
173 193 0
172 191 0
177 196 0
171 190 0
172 191 0
172 192 0
167 188 0
173 193 0
169 189 0
169 189 0
170 190 0
168 189 0
167 187 0
170 190 0
172 192 0
166 186 0
173 193 0
170 190 0
165 185 0
169 189 0
165 186 0
167 187 0
170 189 0
171 191 0
167 188 0
167 187 0
170 189 0
159 178 0
168 187 0
173 192 0
170 189 0
165 184 0
171 191 0
166 187 0
164 184 0
168 188 0
169 188 0
166 186 0
167 187 0
162 182 0
162 182 0
166 186 0
160 180 0
159 178 0
163 183 0
170 190 0
169 189 0
161 181 0
164 185 0
166 186 0
165 184 0
163 182 0
162 182 0
158 177 0
164 184 0
166 186 0
151 171 0
161 182 0
161 181 0
156 176 0
163 184 0
154 175 0
155 175 0
159 179 0
160 180 0
157 179 0
159 180 0
155 176 0
162 183 0
156 177 0
156 177 0
155 177 0
157 178 0
155 176 0
156 178 0
151 173 0
153 174 0
154 175 0
153 174 0
148 170 0
149 170 0
148 168 0
157 178 0
154 177 0
149 170 0
154 177 0
150 170 0
155 178 0
149 170 0
146 167 0
156 177 0
151 173 0
152 174 0
148 169 0
149 172 0
152 174 0
145 167 0
141 163 0
155 177 0
150 172 0
145 165 0
145 166 0
141 164 0
144 167 0
151 172 0
149 171 0
141 162 0
145 166 0
142 164 0
150 172 0
149 170 0
143 165 0
145 166 0
140 162 0
143 164 0
144 165 0
133 154 0
146 167 0
129 150 0
140 161 0
144 164 0
128 149 0
139 160 0
141 162 0
144 165 0
148 169 0
133 153 0
129 148 0
135 157 0
135 155 0
130 151 0
131 151 0
134 155 0
125 146 0
133 153 0
141 162 0
134 154 0
130 150 0
127 146 0
124 144 0
131 151 0
122 142 0
132 150 0
133 153 0
132 151 0
131 150 0
131 152 0
130 149 0
125 145 0
123 143 0
134 153 0
122 142 0
140 160 0
122 139 0
123 141 0
120 140 0
124 143 0
123 143 0
123 142 0
129 150 0
114 133 0
127 147 0
121 138 0
127 146 0
135 155 0
124 142 0
131 151 0
125 145 0
121 139 0
129 148 0
132 152 0
118 135 0
120 138 0
125 144 0
121 139 0
118 136 0
132 151 0
123 142 0
128 145 0
124 142 0
123 142 0
125 142 0
127 146 0
127 146 0
122 141 0
124 143 0
130 149 0
124 141 0
125 143 0
136 153 0
133 151 0
124 140 0
121 140 0
131 149 0
123 141 0
133 150 0
125 143 0
124 142 0
128 145 0
129 146 0
126 142 0
131 146 0
132 148 0
130 147 0
127 146 0
131 148 0
131 149 0
133 150 0
130 149 0
135 151 0
132 149 0
142 160 0
133 149 0
141 156 0
129 147 0
132 149 0
124 140 0
129 146 0
132 148 0
132 148 0
134 149 0
136 150 0
140 155 0
138 155 0
136 152 0
135 150 0
130 144 0
131 145 0
131 146 0
142 160 0
130 143 0
133 148 0
123 136 0
139 154 0
136 146 0
133 147 0
128 141 0
132 145 0
131 144 0
128 141 0
132 144 0
134 147 0
143 153 0
128 139 0
131 144 0
140 152 0
130 143 0
132 142 0
136 145 0
124 134 0
138 147 0
119 129 0
136 145 0
132 140 0
129 137 0
139 150 0
130 137 0
131 142 0
136 147 0
132 139 0
125 132 0
126 135 0
122 130 0
136 142 0
128 136 0
131 138 0
122 126 0
135 140 0
127 133 0
141 144 0
131 136 0
132 140 0
125 130 0
132 136 0
125 129 0
124 126 0
130 132 0
117 121 0
119 120 0
118 118 0
126 129 0
134 132 0
123 126 0
120 122 0
125 127 0
119 121 0
120 120 0
116 116 0
117 117 0
110 111 0
114 114 0
129 129 0
110 107 0
122 122 0
115 114 0
123 121 0
125 124 0
130 131 0
116 115 0
122 121 0
126 126 0
124 122 0
123 120 0
127 128 0
138 136 0
135 130 0
130 129 0
129 127 0
127 126 0
126 124 0
127 128 0
134 132 0
128 127 0
137 138 0
133 131 0
120 118 0
133 133 0
135 135 0
145 149 0
137 140 0
135 137 0
144 147 0
144 147 0
138 137 0
144 147 0
140 144 0
146 151 0
144 148 0
145 153 0
145 153 0
151 158 0
147 154 0
146 152 0
153 160 0
142 151 0
154 164 0
155 163 0
161 171 0
142 152 0
152 160 0
159 169 0
151 161 0
147 157 0
154 164 0
155 166 0
153 165 0
161 171 0
161 173 0
153 164 0
164 178 0
160 172 0
157 167 0
155 167 0
158 170 0
165 180 0
159 173 0
166 182 0
166 182 0
161 177 0
163 180 0
172 195 0
175 197 0
173 196 0
175 197 0
177 199 0
174 195 0
176 197 0
173 194 0
173 195 0
175 197 0
167 188 0
175 196 0
176 198 0
174 195 0
173 194 0
174 196 0
171 193 0
174 195 0
175 195 0
173 194 0
172 193 0
178 198 0
176 196 0
174 195 0
174 194 0
175 196 0
175 195 0
174 194 0
174 195 0
177 197 0
174 194 0
174 194 0
173 192 0
177 197 0
173 193 0
175 195 0
175 196 0
172 191 0
172 193 0
174 194 0
175 193 0
172 191 0
174 194 0
175 194 0
172 191 0
170 191 0
169 189 0
171 191 0
170 190 0
173 192 0
169 190 0
171 190 0
172 191 0
167 187 0
166 186 0
168 188 0
171 190 0
166 185 0
164 184 0
167 186 0
168 188 0
168 188 0
168 187 0
169 188 0
167 188 0
166 186 0
172 192 0
164 183 0
165 184 0
168 188 0
167 187 0
166 186 0
166 184 0
167 188 0
168 188 0
159 180 0
161 182 0
167 186 0
168 188 0
163 184 0
160 179 0
167 186 0
156 177 0
160 181 0
167 187 0
164 183 0
163 182 0
156 176 0
166 185 0
162 183 0
162 182 0
161 182 0
164 184 0
157 178 0
157 177 0
159 179 0
163 184 0
159 179 0
164 185 0
157 178 0
155 176 0
156 177 0
154 176 0
159 179 0
160 181 0
146 166 0
158 179 0
151 173 0
152 174 0
161 182 0
153 174 0
151 171 0
152 174 0
155 175 0
161 182 0
151 172 0
156 178 0
157 179 0
162 183 0
156 178 0
157 179 0
151 173 0
152 173 0
149 170 0
159 180 0
152 173 0
151 173 0
155 178 0
144 166 0
153 174 0
145 167 0
158 181 0
156 178 0
155 175 0
146 168 0
153 175 0
150 171 0
144 165 0
141 161 0
135 157 0
147 168 0
149 172 0
149 171 0
145 167 0
146 168 0
150 172 0
150 171 0
141 162 0
140 161 0
138 160 0
134 155 0
143 164 0
145 167 0
140 161 0
150 172 0
144 165 0
137 158 0
140 162 0
147 169 0
143 165 0
139 161 0
143 164 0
132 154 0
145 166 0
141 163 0
130 151 0
133 153 0
134 154 0
143 164 0
133 154 0
134 156 0
145 166 0
129 150 0
139 159 0
137 158 0
133 154 0
130 151 0
130 151 0
133 154 0
138 159 0
127 147 0
134 152 0
134 153 0
131 151 0
124 143 0
128 148 0
132 152 0
132 150 0
137 158 0
131 152 0
119 140 0
131 150 0
133 153 0
131 151 0
138 159 0
131 150 0
117 136 0
126 146 0
126 145 0
123 142 0
134 153 0
123 142 0
121 141 0
126 143 0
124 143 0
129 146 0
124 142 0
125 144 0
132 150 0
134 152 0
128 148 0
122 142 0
124 142 0
130 149 0
134 154 0
112 128 0
133 152 0
136 156 0
129 148 0
125 146 0
132 152 0
135 157 0
124 143 0
124 142 0
134 152 0
119 138 0
123 140 0
122 138 0
127 145 0
128 146 0
129 148 0
124 144 0
124 141 0
124 144 0
128 145 0
129 148 0
125 143 0
124 141 0
133 150 0
134 151 0
129 146 0
129 147 0
132 150 0
132 148 0
128 144 0
134 152 0
128 145 0
140 158 0
134 149 0
132 151 0
128 144 0
134 151 0
131 147 0
123 140 0
136 151 0
125 141 0
128 143 0
142 157 0
136 152 0
134 151 0
137 153 0
142 156 0
133 149 0
139 155 0
136 151 0
130 147 0
142 157 0
137 154 0
134 149 0
128 143 0
139 155 0
129 141 0
121 135 0
137 150 0
135 150 0
135 148 0
138 153 0
137 152 0
140 153 0
126 139 0
135 149 0
129 143 0
136 149 0
133 144 0
130 143 0
122 134 0
128 137 0
131 145 0
130 141 0
132 142 0
143 155 0
135 146 0
127 138 0
136 145 0
134 144 0
134 143 0
123 132 0
136 143 0
126 133 0
143 151 0
121 128 0
125 131 0
128 135 0
138 147 0
123 128 0
131 137 0
131 139 0
125 133 0
123 129 0
132 139 0
132 141 0
133 138 0
131 136 0
126 132 0
120 123 0
131 138 0
129 134 0
115 117 0
128 133 0
127 128 0
117 118 0
121 122 0
121 122 0
124 127 0
126 128 0
126 126 0
124 127 0
126 129 0
120 120 0
124 123 0
117 116 0
124 124 0
124 124 0
135 136 0
137 139 0
120 118 0
122 119 0
122 121 0
126 127 0
119 116 0
133 133 0
119 116 0
128 129 0
125 126 0
120 118 0
140 141 0
132 132 0
124 123 0
123 121 0
137 141 0
127 129 0
128 128 0
128 127 0
141 143 0
125 126 0
136 137 0
138 139 0
134 134 0
146 149 0
140 141 0
134 135 0
132 134 0
137 137 0
134 138 0
139 143 0
134 137 0
139 139 0
140 144 0
145 149 0
146 151 0
146 153 0
149 156 0
150 157 0
153 161 0
151 158 0
150 156 0
147 153 0
152 161 0
154 161 0
150 157 0
153 162 0
155 164 0
158 166 0
148 158 0
153 163 0
158 169 0
154 162 0
150 160 0
165 177 0
160 170 0
164 178 0
151 160 0
161 173 0
164 176 0
157 168 0
159 171 0
163 179 0
157 172 0
159 173 0
157 171 0
174 195 0
172 193 0
176 197 0
172 194 0
173 195 0
171 193 0
176 198 0
174 196 0
174 197 0
177 198 0
172 194 0
175 196 0
174 195 0
173 195 0
175 195 0
175 196 0
175 196 0
176 197 0
174 195 0
177 198 0
172 193 0
175 196 0
174 195 0
177 198 0
173 194 0
179 198 0
176 197 0
176 195 0
174 194 0
172 194 0
173 194 0
177 197 0
175 195 0
174 194 0
171 194 0
172 192 0
171 191 0
172 192 0
172 192 0
175 195 0
173 194 0
172 192 0
172 192 0
171 191 0
169 189 0
174 193 0
171 192 0
175 194 0
170 190 0
169 189 0
171 191 0
172 192 0
167 187 0
169 189 0
167 188 0
168 187 0
170 190 0
168 188 0
172 192 0
170 190 0
164 184 0
170 191 0
167 188 0
167 187 0
168 187 0
167 187 0
165 184 0
168 188 0
169 189 0
168 188 0
170 190 0
165 185 0
169 189 0
168 188 0
157 177 0
167 187 0
169 189 0
162 182 0
166 185 0
164 183 0
162 183 0
164 184 0
161 180 0
162 183 0
167 187 0
167 187 0
158 178 0
162 183 0
159 179 0
156 176 0
164 184 0
161 181 0
156 175 0
157 177 0
157 177 0
159 179 0
157 177 0
158 179 0
156 177 0
155 176 0
153 173 0
161 183 0
161 182 0
164 185 0
160 180 0
150 171 0
159 180 0
156 177 0
157 178 0
154 174 0
153 175 0
157 178 0
150 171 0
154 176 0
157 178 0
157 178 0
154 176 0
153 174 0
157 178 0
148 170 0
152 173 0
147 170 0
152 173 0
152 174 0
158 181 0
159 181 0
153 175 0
149 171 0
148 169 0
149 170 0
143 165 0
156 177 0
150 172 0
146 167 0
149 172 0
144 166 0
149 171 0
146 168 0
146 168 0
141 163 0
145 166 0
147 170 0
146 169 0
141 162 0
140 162 0
152 175 0
148 170 0
149 171 0
139 161 0
148 169 0
145 168 0
144 165 0
144 165 0
138 159 0
150 171 0
137 157 0
133 154 0
143 165 0
141 163 0
144 166 0
142 164 0
131 152 0
145 167 0
141 162 0
144 165 0
142 163 0
132 153 0
146 167 0
139 159 0
132 153 0
136 156 0
129 150 0
143 164 0
135 156 0
132 153 0
137 157 0
128 148 0
123 143 0
143 164 0
143 162 0
147 167 0
130 151 0
142 162 0
138 159 0
127 146 0
131 150 0
121 140 0
127 148 0
124 143 0
135 156 0
131 151 0
129 148 0
132 151 0
125 145 0
136 155 0
130 150 0
132 152 0
122 141 0
121 140 0
139 160 0
139 158 0
127 147 0
127 146 0
130 149 0
124 142 0
129 148 0
125 144 0
128 146 0
130 149 0
132 151 0
127 145 0
127 148 0
131 148 0
134 153 0
132 150 0
127 146 0
127 145 0
125 143 0
125 143 0
134 154 0
136 153 0
137 155 0
135 153 0
133 149 0
126 144 0
131 148 0
129 150 0
130 151 0
135 151 0
123 140 0
134 151 0
126 144 0
135 151 0
142 161 0
130 150 0
132 151 0
133 151 0
134 152 0
135 154 0
134 152 0
137 154 0
135 153 0
136 152 0
126 143 0
127 145 0
133 149 0
122 138 0
137 156 0
137 156 0
138 157 0
134 150 0
138 154 0
127 146 0
134 149 0
130 148 0
134 150 0
134 151 0
142 161 0
134 149 0
138 155 0
137 155 0
135 150 0
131 147 0
136 153 0
144 162 0
134 148 0
131 146 0
131 147 0
132 150 0
129 144 0
137 152 0
132 148 0
133 148 0
141 155 0
132 146 0
137 150 0
130 146 0
139 152 0
128 141 0
139 153 0
141 155 0
133 145 0
130 142 0
129 142 0
133 143 0
127 141 0
135 148 0
130 141 0
139 152 0
127 137 0
123 135 0
130 141 0
133 144 0
135 146 0
130 139 0
137 149 0
133 146 0
133 145 0
132 143 0
130 138 0
129 137 0
128 136 0
128 137 0
136 147 0
130 138 0
133 141 0
129 138 0
133 139 0
135 141 0
133 139 0
127 134 0
132 138 0
128 134 0
134 141 0
118 122 0
135 142 0
127 130 0
141 147 0
133 136 0
117 121 0
126 132 0
128 134 0
129 132 0
125 129 0
133 135 0
133 133 0
122 125 0
129 129 0
128 129 0
125 127 0
129 130 0
128 128 0
119 118 0
131 134 0
133 134 0
125 126 0
119 120 0
130 129 0
134 135 0
124 125 0
123 123 0
128 128 0
118 116 0
130 131 0
124 123 0
139 140 0
128 130 0
130 129 0
128 127 0
130 131 0
131 132 0
134 135 0
134 137 0
131 131 0
131 134 0
141 145 0
134 134 0
125 126 0
142 144 0
123 123 0
141 146 0
138 142 0
142 147 0
139 141 0
140 144 0
138 142 0
148 153 0
146 151 0
146 150 0
144 150 0
141 147 0
142 145 0
154 162 0
149 156 0
152 159 0
150 157 0
150 158 0
153 164 0
154 162 0
152 159 0
155 161 0
155 164 0
149 157 0
154 162 0
155 166 0
161 172 0
154 165 0
149 159 0
160 173 0
158 170 0
160 171 0
161 176 0
161 173 0
163 177 0
160 171 0
160 174 0
158 171 0
158 172 0
158 171 0
157 170 0
172 194 0
175 197 0
172 195 0
177 198 0
174 196 0
175 197 0
177 198 0
176 198 0
178 199 0
173 195 0
176 198 0
176 198 0
179 199 0
174 196 0
174 195 0
172 194 0
176 197 0
174 195 0
174 195 0
174 195 0
173 195 0
176 197 0
175 195 0
174 195 0
173 193 0
175 196 0
176 196 0
172 192 0
172 192 0
175 196 0
172 192 0
173 192 0
172 193 0
174 194 0
173 194 0
173 193 0
172 192 0
169 190 0
173 192 0
174 194 0
173 193 0
169 189 0
171 191 0
175 194 0
168 187 0
175 195 0
171 192 0
176 196 0
171 191 0
169 189 0
171 191 0
172 191 0
169 190 0
170 190 0
170 190 0
173 192 0
168 186 0
168 187 0
168 188 0
170 190 0
169 190 0
165 184 0
165 186 0
169 189 0
164 185 0
170 190 0
168 188 0
165 185 0
167 187 0
167 187 0
170 190 0
171 190 0
164 184 0
164 185 0
167 188 0
169 189 0
165 185 0
168 188 0
168 189 0
160 180 0
166 186 0
161 181 0
165 185 0
162 183 0
159 179 0
162 183 0
165 185 0
166 186 0
162 182 0
162 182 0
166 186 0
164 184 0
161 182 0
159 179 0
160 181 0
161 181 0
156 178 0
156 177 0
158 179 0
160 181 0
151 172 0
158 178 0
157 178 0
156 178 0
154 175 0
164 184 0
149 171 0
158 179 0
164 184 0
150 171 0
152 172 0
148 170 0
149 170 0
158 179 0
155 176 0
152 175 0
146 167 0
150 171 0
156 178 0
151 172 0
150 173 0
151 173 0
148 170 0
152 175 0
151 174 0
151 172 0
150 173 0
157 178 0
151 172 0
145 167 0
146 167 0
155 176 0
144 165 0
151 173 0
148 169 0
156 177 0
150 171 0
151 172 0
142 165 0
152 174 0
144 166 0
148 169 0
140 161 0
137 159 0
144 167 0
143 164 0
141 162 0
141 162 0
151 173 0
142 163 0
144 166 0
148 170 0
135 157 0
126 147 0
137 159 0
147 169 0
139 161 0
141 163 0
137 158 0
139 161 0
142 164 0
143 165 0
140 162 0
146 167 0
144 164 0
132 154 0
137 158 0
141 162 0
148 169 0
139 161 0
139 161 0
140 161 0
132 153 0
138 160 0
136 157 0
135 155 0
125 145 0
140 161 0
139 159 0
138 159 0
132 152 0
143 163 0
125 147 0
133 153 0
137 156 0
136 156 0
139 160 0
134 154 0
135 156 0
141 160 0
124 145 0
141 161 0
128 148 0
142 162 0
135 156 0
128 148 0
136 155 0
129 147 0
135 155 0
131 151 0
134 154 0
118 138 0
124 143 0
130 149 0
129 148 0
126 145 0
132 152 0
117 136 0
133 153 0
125 146 0
139 157 0
126 145 0
127 145 0
127 146 0
123 141 0
137 155 0
140 159 0
127 144 0
133 151 0
127 148 0
131 151 0
130 149 0
130 148 0
120 138 0
129 147 0
133 152 0
123 140 0
130 147 0
134 152 0
139 158 0
132 151 0
129 148 0
135 152 0
127 146 0
139 158 0
130 147 0
143 162 0
137 155 0
128 145 0
130 147 0
140 160 0
126 143 0
124 141 0
136 152 0
134 151 0
142 161 0
127 143 0
132 149 0
146 164 0
132 148 0
137 154 0
135 154 0
140 156 0
139 156 0
137 152 0
140 156 0
140 159 0
129 147 0
133 148 0
139 155 0
138 155 0
139 156 0
144 162 0
135 153 0
142 157 0
125 140 0
141 158 0
142 160 0
135 148 0
141 157 0
138 155 0
143 156 0
130 142 0
127 143 0
136 152 0
134 150 0
137 151 0
146 162 0
138 154 0
137 153 0
139 154 0
142 155 0
133 147 0
136 150 0
137 151 0
130 143 0
134 147 0
138 151 0
130 141 0
138 151 0
132 142 0
136 149 0
135 149 0
135 147 0
138 149 0
135 144 0
141 152 0
143 158 0
139 152 0
137 150 0
134 142 0
136 144 0
134 142 0
127 136 0
131 141 0
143 153 0
134 143 0
133 142 0
132 140 0
133 140 0
128 134 0
121 128 0
135 140 0
139 145 0
136 143 0
135 142 0
131 138 0
130 134 0
129 133 0
138 143 0
125 128 0
135 140 0
124 128 0
135 141 0
131 135 0
119 123 0
128 131 0
126 127 0
127 129 0
129 130 0
127 130 0
124 127 0
122 125 0
122 124 0
128 127 0
132 134 0
128 127 0
128 129 0
122 122 0
134 133 0
140 143 0
134 137 0
127 130 0
127 127 0
128 130 0
122 122 0
136 137 0
136 141 0
129 132 0
132 134 0
132 134 0
122 121 0
124 123 0
144 146 0
125 127 0
137 139 0
137 137 0
134 134 0
140 142 0
139 142 0
146 150 0
139 141 0
135 136 0
142 145 0
149 154 0
146 151 0
141 145 0
142 144 0
148 153 0
150 154 0
154 160 0
141 146 0
145 152 0
153 160 0
145 152 0
143 150 0
148 153 0
142 148 0
145 153 0
147 153 0
147 155 0
153 160 0
156 167 0
149 157 0
152 162 0
153 164 0
151 162 0
155 161 0
151 161 0
153 164 0
155 167 0
148 158 0
156 167 0
156 169 0
159 171 0
159 170 0
163 176 0
158 169 0
156 167 0
158 170 0
177 198 0
174 196 0
175 197 0
174 195 0
175 196 0
174 195 0
177 198 0
175 197 0
175 196 0
178 198 0
178 198 0
177 198 0
174 195 0
172 194 0
174 195 0
173 193 0
177 198 0
178 197 0
174 194 0
176 198 0
178 198 0
172 193 0
175 195 0
176 196 0
176 196 0
175 195 0
173 193 0
175 195 0
175 195 0
173 192 0
172 192 0
173 193 0
170 190 0
173 193 0
167 188 0
172 193 0
176 196 0
172 193 0
171 191 0
172 192 0
170 190 0
175 194 0
168 189 0
174 194 0
169 190 0
172 191 0
171 191 0
170 191 0
172 191 0
172 192 0
170 190 0
172 192 0
172 192 0
171 190 0
167 187 0
171 192 0
176 195 0
170 190 0
168 188 0
172 192 0
168 187 0
168 189 0
165 185 0
173 192 0
171 190 0
170 190 0
164 184 0
162 183 0
169 188 0
168 187 0
167 187 0
166 187 0
162 181 0
168 188 0
170 190 0
162 182 0
165 185 0
166 186 0
168 188 0
167 187 0
165 185 0
164 185 0
160 180 0
160 180 0
159 180 0
157 177 0
165 186 0
168 188 0
163 182 0
162 182 0
163 184 0
159 180 0
152 173 0
150 171 0
161 181 0
155 177 0
158 180 0
159 181 0
160 182 0
159 180 0
164 185 0
157 178 0
162 183 0
160 181 0
156 177 0
153 174 0
160 182 0
160 181 0
154 176 0
152 174 0
153 175 0
153 174 0
156 177 0
149 170 0
157 179 0
154 176 0
158 180 0
155 177 0
158 180 0
150 172 0
155 177 0
153 175 0
154 176 0
151 173 0
155 177 0
151 173 0
151 172 0
154 176 0
145 166 0
158 180 0
153 175 0
150 172 0
153 175 0
152 174 0
146 166 0
139 160 0
149 171 0
156 177 0
149 173 0
142 163 0
155 177 0
135 157 0
150 170 0
148 169 0
155 176 0
143 165 0
142 163 0
139 160 0
141 162 0
143 165 0
148 169 0
144 165 0
143 165 0
142 163 0
142 164 0
143 165 0
142 163 0
143 165 0
141 163 0
140 161 0
149 170 0
141 161 0
138 159 0
134 155 0
137 160 0
134 155 0
142 162 0
143 163 0
143 163 0
143 164 0
136 157 0
123 144 0
138 159 0
138 159 0
132 154 0
136 157 0
134 155 0
139 158 0
137 157 0
134 156 0
139 161 0
138 157 0
137 157 0
130 151 0
135 155 0
139 160 0
129 147 0
140 161 0
133 153 0
135 153 0
127 147 0
128 147 0
129 149 0
143 164 0
131 151 0
130 152 0
126 146 0
127 146 0
127 147 0
130 150 0
129 147 0
139 160 0
127 148 0
135 155 0
127 147 0
138 157 0
130 150 0
134 153 0
140 159 0
131 151 0
137 156 0
136 155 0
129 149 0
121 141 0
133 152 0
131 150 0
137 157 0
130 149 0
129 149 0
132 151 0
122 140 0
133 153 0
123 142 0
139 160 0
123 142 0
125 143 0
135 152 0
123 140 0
138 158 0
135 152 0
127 145 0
138 156 0
131 150 0
124 143 0
129 147 0
125 143 0
128 144 0
127 144 0
132 152 0
145 165 0
140 158 0
136 154 0
126 143 0
133 152 0
137 154 0
130 148 0
134 153 0
139 155 0
140 157 0
140 157 0
142 161 0
133 152 0
128 144 0
132 149 0
136 154 0
141 159 0
127 144 0
125 144 0
134 151 0
142 158 0
140 158 0
144 160 0
134 151 0
132 149 0
134 151 0
131 149 0
130 148 0
141 156 0
131 146 0
138 156 0
130 144 0
134 150 0
144 161 0
140 155 0
137 150 0
136 149 0
144 158 0
135 149 0
137 152 0
139 154 0
134 149 0
135 149 0
132 144 0
141 157 0
132 146 0
139 154 0
134 147 0
141 153 0
142 157 0
135 148 0
143 157 0
138 151 0
141 156 0
133 143 0
136 148 0
141 152 0
133 147 0
134 143 0
143 157 0
136 146 0
133 145 0
138 145 0
132 140 0
133 142 0
124 135 0
138 148 0
138 150 0
133 142 0
134 142 0
140 147 0
128 136 0
132 138 0
128 139 0
138 148 0
133 141 0
141 147 0
129 136 0
133 137 0
129 136 0
137 142 0
118 119 0
139 143 0
132 137 0
129 136 0
126 128 0
130 137 0
124 130 0
125 130 0
129 133 0
136 142 0
137 139 0
126 128 0
127 128 0
135 138 0
135 137 0
138 141 0
126 127 0
138 138 0
136 139 0
130 134 0
140 144 0
134 136 0
130 132 0
118 119 0
135 138 0
134 132 0
133 136 0
132 135 0
134 133 0
125 126 0
133 136 0
134 135 0
128 128 0
136 140 0
126 126 0
132 135 0
138 143 0
143 147 0
141 145 0
137 140 0
139 141 0
145 150 0
146 149 0
134 137 0
150 153 0
138 141 0
141 146 0
143 147 0
148 153 0
145 151 0
146 152 0
146 148 0
152 159 0
148 153 0
144 152 0
151 158 0
148 157 0
143 151 0
152 161 0
150 157 0
151 157 0
143 151 0
152 161 0
152 159 0
156 166 0
155 163 0
153 160 0
154 163 0
159 170 0
155 164 0
157 167 0
150 159 0
152 161 0
159 168 0
154 165 0
156 166 0
152 164 0
163 173 0
161 173 0
154 166 0
176 198 0
175 196 0
174 195 0
172 193 0
174 196 0
172 194 0
174 195 0
176 196 0
177 198 0
174 195 0
179 200 0
177 197 0
174 195 0
174 195 0
174 195 0
174 194 0
176 196 0
174 194 0
172 193 0
173 193 0
175 196 0
175 196 0
174 195 0
176 197 0
171 191 0
175 195 0
173 194 0
175 195 0
175 194 0
173 193 0
170 190 0
174 194 0
174 195 0
171 192 0
168 189 0
172 193 0
172 192 0
176 196 0
171 191 0
173 193 0
175 194 0
169 189 0
172 191 0
171 191 0
172 192 0
175 195 0
174 194 0
172 192 0
171 192 0
167 187 0
174 194 0
173 192 0
169 189 0
169 189 0
167 186 0
168 188 0
170 189 0
171 191 0
168 189 0
169 188 0
169 188 0
169 188 0
169 189 0
171 191 0
166 186 0
168 189 0
169 189 0
172 192 0
168 188 0
162 182 0
162 182 0
166 187 0
169 190 0
164 183 0
164 184 0
169 189 0
168 190 0
165 185 0
162 182 0
159 180 0
159 181 0
160 180 0
168 190 0
165 186 0
166 186 0
162 183 0
166 185 0
161 182 0
160 180 0
157 178 0
161 182 0
165 185 0
161 181 0
162 182 0
163 185 0
154 176 0
153 174 0
155 177 0
159 180 0
160 180 0
154 175 0
157 177 0
159 181 0
164 184 0
155 176 0
163 184 0
154 175 0
151 173 0
151 172 0
155 176 0
154 176 0
149 170 0
157 179 0
159 181 0
151 173 0
159 180 0
150 172 0
149 171 0
150 172 0
154 176 0
155 177 0
151 173 0
157 179 0
151 173 0
152 174 0
154 175 0
147 169 0
147 168 0
156 178 0
153 176 0
148 169 0
156 178 0
144 166 0
155 177 0
150 172 0
148 170 0
151 173 0
143 165 0
148 169 0
141 162 0
147 169 0
148 170 0
147 168 0
149 171 0
146 168 0
150 172 0
144 166 0
139 161 0
142 162 0
141 163 0
134 156 0
145 166 0
150 172 0
144 165 0
146 167 0
143 165 0
150 172 0
148 170 0
141 164 0
135 156 0
157 179 0
141 161 0
144 165 0
141 162 0
141 162 0
132 153 0
138 159 0
133 154 0
142 163 0
143 164 0
134 155 0
139 159 0
136 158 0
145 167 0
128 148 0
149 170 0
138 159 0
138 161 0
138 158 0
137 158 0
132 151 0
132 154 0
127 148 0
129 149 0
128 148 0
136 156 0
128 149 0
132 153 0
132 154 0
133 153 0
133 153 0
123 143 0
128 149 0
139 159 0
123 143 0
133 152 0
132 153 0
137 157 0
126 145 0
134 154 0
136 156 0
128 148 0
140 160 0
131 152 0
131 150 0
127 145 0
136 156 0
139 159 0
127 147 0
121 140 0
138 157 0
134 153 0
135 154 0
131 150 0
132 149 0
134 153 0
131 148 0
133 153 0
128 148 0
135 154 0
135 154 0
125 142 0
134 153 0
125 145 0
123 143 0
142 160 0
139 158 0
129 147 0
128 147 0
128 148 0
133 152 0
125 144 0
136 154 0
134 154 0
127 145 0
140 159 0
135 153 0
127 145 0
129 147 0
140 158 0
140 158 0
134 153 0
121 140 0
129 147 0
126 143 0
131 150 0
122 138 0
135 152 0
123 140 0
143 161 0
135 152 0
135 153 0
143 161 0
138 157 0
134 152 0
138 156 0
138 157 0
141 158 0
134 151 0
128 145 0
141 158 0
141 156 0
139 156 0
139 155 0
144 162 0
141 157 0
139 156 0
127 141 0
145 160 0
138 156 0
130 146 0
140 155 0
139 156 0
139 155 0
136 150 0
141 157 0
132 146 0
145 160 0
139 153 0
141 155 0
139 155 0
139 153 0
134 147 0
130 142 0
140 154 0
137 153 0
137 151 0
140 153 0
134 148 0
145 160 0
144 158 0
134 146 0
135 147 0
136 148 0
138 150 0
134 143 0
131 139 0
143 158 0
140 154 0
137 147 0
140 151 0
135 144 0
134 144 0
132 142 0
140 151 0
137 148 0
128 136 0
137 146 0
140 151 0
138 148 0
134 140 0
133 143 0
126 134 0
143 152 0
139 149 0
135 141 0
136 146 0
141 148 0
134 140 0
130 137 0
140 145 0
132 139 0
140 147 0
139 147 0
125 129 0
138 143 0
136 143 0
140 146 0
131 136 0
136 140 0
134 140 0
136 142 0
127 132 0
138 140 0
131 135 0
138 140 0
138 141 0
127 129 0
131 132 0
140 146 0
133 134 0
130 133 0
138 142 0
129 128 0
135 140 0
137 140 0
126 128 0
129 130 0
129 128 0
132 134 0
132 134 0
134 139 0
130 133 0
135 138 0
137 139 0
136 138 0
129 127 0
143 147 0
147 153 0
138 140 0
133 137 0
144 147 0
136 138 0
142 145 0
134 139 0
148 155 0
139 140 0
133 135 0
145 148 0
137 143 0
146 151 0
147 152 0
138 146 0
150 158 0
148 154 0
146 150 0
147 151 0
148 155 0
151 159 0
151 159 0
145 153 0
150 157 0
153 160 0
154 164 0
146 154 0
147 156 0
150 155 0
157 169 0
155 164 0
155 166 0
154 165 0
153 163 0
157 170 0
156 167 0
153 163 0
161 173 0
159 171 0
155 167 0
158 171 0
154 169 0
172 195 0
172 194 0
175 196 0
176 197 0
176 197 0
172 194 0
176 197 0
175 196 0
172 192 0
172 194 0
171 193 0
174 195 0
174 195 0
174 196 0
176 197 0
177 197 0
173 193 0
174 194 0
178 198 0
173 194 0
175 196 0
176 197 0
178 198 0
177 198 0
177 197 0
174 195 0
171 191 0
171 191 0
176 195 0
173 194 0
174 195 0
174 193 0
173 192 0
173 193 0
172 192 0
177 197 0
168 188 0
169 189 0
170 191 0
175 196 0
173 193 0
173 194 0
174 195 0
172 192 0
169 189 0
176 196 0
169 189 0
170 191 0
173 193 0
167 187 0
171 192 0
167 189 0
169 189 0
168 188 0
174 193 0
170 191 0
172 192 0
170 191 0
168 188 0
172 192 0
166 186 0
165 186 0
168 188 0
168 188 0
165 185 0
175 194 0
169 189 0
169 190 0
164 185 0
163 184 0
168 189 0
167 187 0
167 187 0
163 184 0
166 186 0
162 182 0
159 179 0
166 187 0
161 182 0
172 192 0
160 181 0
156 176 0
162 183 0
163 182 0
160 180 0
162 182 0
162 183 0
149 169 0
158 178 0
157 178 0
159 180 0
160 180 0
162 182 0
162 183 0
160 182 0
153 174 0
162 183 0
154 175 0
154 175 0
156 176 0
153 174 0
147 168 0
153 175 0
158 180 0
154 175 0
161 184 0
155 177 0
151 174 0
155 176 0
154 175 0
149 171 0
152 175 0
155 175 0
154 174 0
158 180 0
153 174 0
155 177 0
153 175 0
153 173 0
146 168 0
149 172 0
154 176 0
158 178 0
152 174 0
147 170 0
148 170 0
142 163 0
163 186 0
148 170 0
158 181 0
152 175 0
143 165 0
147 168 0
154 175 0
148 171 0
152 174 0
154 175 0
149 170 0
148 170 0
156 177 0
155 177 0
150 171 0
144 165 0
146 167 0
141 163 0
144 165 0
152 174 0
139 160 0
150 172 0
142 164 0
150 172 0
148 169 0
145 167 0
139 160 0
150 172 0
147 168 0
143 165 0
142 164 0
135 156 0
149 170 0
140 162 0
146 169 0
144 166 0
151 173 0
143 164 0
142 163 0
147 169 0
137 159 0
139 159 0
140 160 0
139 161 0
141 163 0
134 156 0
137 159 0
147 169 0
145 166 0
140 160 0
141 162 0
142 162 0
134 155 0
129 150 0
144 165 0
138 159 0
143 165 0
141 162 0
128 150 0
130 151 0
132 151 0
139 159 0
139 160 0
136 155 0
136 155 0
137 158 0
138 159 0
138 159 0
144 166 0
131 151 0
134 154 0
126 146 0
121 140 0
132 154 0
136 155 0
137 159 0
127 147 0
127 148 0
135 155 0
132 152 0
128 148 0
134 154 0
123 141 0
132 150 0
137 157 0
137 157 0
132 151 0
140 159 0
138 156 0
134 152 0
137 156 0
132 152 0
137 156 0
142 162 0
138 159 0
140 159 0
125 145 0
132 152 0
134 155 0
138 156 0
139 158 0
133 151 0
142 162 0
136 154 0
133 152 0
141 160 0
136 155 0
143 161 0
145 163 0
132 150 0
124 145 0
131 149 0
145 164 0
127 145 0
140 159 0
136 155 0
122 138 0
141 161 0
137 155 0
136 154 0
138 156 0
141 159 0
144 161 0
137 153 0
138 157 0
131 147 0
142 159 0
137 156 0
139 158 0
138 154 0
138 155 0
143 160 0
130 147 0
140 157 0
143 158 0
136 152 0
150 166 0
137 155 0
137 154 0
144 159 0
132 149 0
139 158 0
135 153 0
135 151 0
136 153 0
141 157 0
132 148 0
132 147 0
143 160 0
138 155 0
133 149 0
142 158 0
143 161 0
148 165 0
135 149 0
133 149 0
144 158 0
141 155 0
138 153 0
129 142 0
137 148 0
123 134 0
132 143 0
136 150 0
142 155 0
143 154 0
142 156 0
138 150 0
136 148 0
131 145 0
126 138 0
147 161 0
139 151 0
137 148 0
139 151 0
140 152 0
141 153 0
146 155 0
137 148 0
141 152 0
138 149 0
137 145 0
131 141 0
136 148 0
133 144 0
136 147 0
132 143 0
135 142 0
134 141 0
135 141 0
136 143 0
123 129 0
139 146 0
132 139 0
136 141 0
140 149 0
139 145 0
129 134 0
132 137 0
142 148 0
129 134 0
128 134 0
135 139 0
135 142 0
143 151 0
131 138 0
134 139 0
136 138 0
137 142 0
126 127 0
129 132 0
145 151 0
138 142 0
136 142 0
132 132 0
139 146 0
130 133 0
130 131 0
144 148 0
128 129 0
140 143 0
134 141 0
134 138 0
144 148 0
136 139 0
137 139 0
133 137 0
128 132 0
140 143 0
134 136 0
139 143 0
136 140 0
137 138 0
144 148 0
144 149 0
137 140 0
138 144 0
127 129 0
142 147 0
142 147 0
146 153 0
138 138 0
153 160 0
140 144 0
143 151 0
145 154 0
148 153 0
147 155 0
147 152 0
143 150 0
153 160 0
152 160 0
152 160 0
146 151 0
152 160 0
149 155 0
155 164 0
152 160 0
151 158 0
150 158 0
152 161 0
157 166 0
157 165 0
153 165 0
151 159 0
154 164 0
159 168 0
153 162 0
159 170 0
151 161 0
151 163 0
154 163 0
159 170 0
174 196 0
174 195 0
172 194 0
176 198 0
174 196 0
177 198 0
174 196 0
174 196 0
174 195 0
173 194 0
174 195 0
175 196 0
174 196 0
175 196 0
175 196 0
176 196 0
174 195 0
173 194 0
174 195 0
173 193 0
178 198 0
175 195 0
170 190 0
172 193 0
177 197 0
174 195 0
177 197 0
171 191 0
171 191 0
175 196 0
171 192 0
179 198 0
174 194 0
171 191 0
173 193 0
175 195 0
174 194 0
174 194 0
169 189 0
169 190 0
172 192 0
173 194 0
172 192 0
168 188 0
171 192 0
173 194 0
167 186 0
170 190 0
174 194 0
171 190 0
168 188 0
174 194 0
167 187 0
173 192 0
167 186 0
165 185 0
165 185 0
175 195 0
168 188 0
173 194 0
169 188 0
166 186 0
168 188 0
170 190 0
170 189 0
158 178 0
168 189 0
163 183 0
168 188 0
170 190 0
163 184 0
165 184 0
167 187 0
165 186 0
163 183 0
166 186 0
167 188 0
163 184 0
160 180 0
166 187 0
161 181 0
159 181 0
163 183 0
165 186 0
157 177 0
165 186 0
162 182 0
165 185 0
157 178 0
161 182 0
163 184 0
155 177 0
159 180 0
161 182 0
159 181 0
154 175 0
156 177 0
164 185 0
161 182 0
156 177 0
157 179 0
156 177 0
165 186 0
160 181 0
161 182 0
161 184 0
154 176 0
158 180 0
158 181 0
159 180 0
154 176 0
156 177 0
153 175 0
148 169 0
158 181 0
152 175 0
149 170 0
152 174 0
154 177 0
152 173 0
158 181 0
160 182 0
147 170 0
154 176 0
146 168 0
150 171 0
149 170 0
148 169 0
147 169 0
142 164 0
151 172 0
157 179 0
156 178 0
149 171 0
151 173 0
153 175 0
144 166 0
149 172 0
145 166 0
142 163 0
144 167 0
151 171 0
145 165 0
150 172 0
151 173 0
141 163 0
147 170 0
149 171 0
147 169 0
145 167 0
152 174 0
144 166 0
147 169 0
142 164 0
141 163 0
153 175 0
149 171 0
142 164 0
151 174 0
147 168 0
143 163 0
133 154 0
136 158 0
143 164 0
147 169 0
143 165 0
143 164 0
145 166 0
143 165 0
130 152 0
155 176 0
140 163 0
135 156 0
134 152 0
141 162 0
128 149 0
141 163 0
136 158 0
129 150 0
138 158 0
139 159 0
134 155 0
132 152 0
138 159 0
144 165 0
143 165 0
134 154 0
140 161 0
130 150 0
142 161 0
124 144 0
134 155 0
144 164 0
135 156 0
134 152 0
133 152 0
138 159 0
142 163 0
131 151 0
126 146 0
138 158 0
127 148 0
136 157 0
140 159 0
131 151 0
135 154 0
135 155 0
135 155 0
141 160 0
135 157 0
144 163 0
144 164 0
132 152 0
131 149 0
132 152 0
136 155 0
134 156 0
127 146 0
139 158 0
133 153 0
133 152 0
138 157 0
134 154 0
129 146 0
129 149 0
135 155 0
139 157 0
134 154 0
129 148 0
135 153 0
140 159 0
140 159 0
134 152 0
127 147 0
136 155 0
135 153 0
128 147 0
129 148 0
137 156 0
138 157 0
134 150 0
137 156 0
138 157 0
135 152 0
132 148 0
136 155 0
141 159 0
140 159 0
146 165 0
141 161 0
140 157 0
142 158 0
152 169 0
132 150 0
138 155 0
135 151 0
142 162 0
139 157 0
136 155 0
137 153 0
142 160 0
135 151 0
137 156 0
136 153 0
141 159 0
142 159 0
144 161 0
142 159 0
140 155 0
140 154 0
137 153 0
138 157 0
129 145 0
132 146 0
140 155 0
139 155 0
145 162 0
143 159 0
138 155 0
128 146 0
144 160 0
135 149 0
136 151 0
140 155 0
129 142 0
146 161 0
146 161 0
122 134 0
138 151 0
139 154 0
145 159 0
152 164 0
142 155 0
142 155 0
144 155 0
133 148 0
136 150 0
137 150 0
129 142 0
135 146 0
137 147 0
135 149 0
144 158 0
142 155 0
143 156 0
140 151 0
132 142 0
139 150 0
147 157 0
134 141 0
132 142 0
138 150 0
141 151 0
139 150 0
141 150 0
131 139 0
138 147 0
141 150 0
140 148 0
135 144 0
136 144 0
138 146 0
136 143 0
140 148 0
134 143 0
142 147 0
131 137 0
135 143 0
129 134 0
146 152 0
144 152 0
136 142 0
135 139 0
136 142 0
130 136 0
137 142 0
131 133 0
137 144 0
132 137 0
130 134 0
130 135 0
135 137 0
127 130 0
138 141 0
137 141 0
137 138 0
136 139 0
129 130 0
136 142 0
135 138 0
137 141 0
143 151 0
144 150 0
140 144 0
135 138 0
138 140 0
147 153 0
141 145 0
131 133 0
144 149 0
143 150 0
140 146 0
145 151 0
150 155 0
140 146 0
139 142 0
143 147 0
140 144 0
148 152 0
141 145 0
148 156 0
144 151 0
154 160 0
141 147 0
149 155 0
144 148 0
149 156 0
145 153 0
146 149 0
145 153 0
149 158 0
144 150 0
148 158 0
155 162 0
149 157 0
146 155 0
143 149 0
157 168 0
146 152 0
148 155 0
151 159 0
151 158 0
152 159 0
147 154 0
153 165 0
159 167 0
153 163 0
159 171 0
157 168 0
159 171 0
175 197 0
172 194 0
176 198 0
173 194 0
173 195 0
177 198 0
173 195 0
174 195 0
175 196 0
170 191 0
177 196 0
173 195 0
176 197 0
172 194 0
176 197 0
178 198 0
174 195 0
173 194 0
176 196 0
175 195 0
171 192 0
177 198 0
173 193 0
174 194 0
174 195 0
172 193 0
176 196 0
174 193 0
175 195 0
174 195 0
177 197 0
173 194 0
173 193 0
174 194 0
173 194 0
172 192 0
175 195 0
175 195 0
173 192 0
174 194 0
175 195 0
168 188 0
169 190 0
172 193 0
170 191 0
171 191 0
174 194 0
172 192 0
165 185 0
173 193 0
169 189 0
170 190 0
170 191 0
167 187 0
171 191 0
171 191 0
164 185 0
171 192 0
169 189 0
168 189 0
165 185 0
172 192 0
165 185 0
162 183 0
163 183 0
164 184 0
169 190 0
170 191 0
161 181 0
167 188 0
169 190 0
164 184 0
158 178 0
164 184 0
162 182 0
163 185 0
161 182 0
163 184 0
163 183 0
155 176 0
162 182 0
165 186 0
160 179 0
160 179 0
159 180 0
161 182 0
160 180 0
160 181 0
164 186 0
163 184 0
157 178 0
169 189 0
156 178 0
160 181 0
160 181 0
164 185 0
152 174 0
161 182 0
156 178 0
161 182 0
163 185 0
164 185 0
157 178 0
159 181 0
161 184 0
154 176 0
157 179 0
161 183 0
152 173 0
155 176 0
158 180 0
150 172 0
151 173 0
154 176 0
157 178 0
153 175 0
156 178 0
161 183 0
157 179 0
163 185 0
155 177 0
153 175 0
155 177 0
154 175 0
156 178 0
146 168 0
149 171 0
159 181 0
146 168 0
152 174 0
155 176 0
152 174 0
154 176 0
152 174 0
151 173 0
141 163 0
145 167 0
143 164 0
149 171 0
145 168 0
148 169 0
148 170 0
151 173 0
147 169 0
149 169 0
150 172 0
150 173 0
137 158 0
143 164 0
146 167 0
145 167 0
145 167 0
140 161 0
145 166 0
143 165 0
149 171 0
157 178 0
140 161 0
152 174 0
152 175 0
150 171 0
147 168 0
150 172 0
145 167 0
143 163 0
144 166 0
151 173 0
144 165 0
143 165 0
145 167 0
145 167 0
144 166 0
134 155 0
138 160 0
145 167 0
140 163 0
135 155 0
138 159 0
144 164 0
145 166 0
128 148 0
128 149 0
142 162 0
133 155 0
144 164 0
143 164 0
137 158 0
132 153 0
132 152 0
146 167 0
143 164 0
140 160 0
138 157 0
134 156 0
136 157 0
137 157 0
135 155 0
132 152 0
142 163 0
124 144 0
141 159 0
137 156 0
130 152 0
123 142 0
140 160 0
138 157 0
142 163 0
140 161 0
134 155 0
131 151 0
133 153 0
129 151 0
134 155 0
137 157 0
143 162 0
131 150 0
138 158 0
134 153 0
138 158 0
133 151 0
133 153 0
138 159 0
132 152 0
128 147 0
137 157 0
145 166 0
135 155 0
132 153 0
130 149 0
141 162 0
130 149 0
132 152 0
125 143 0
139 159 0
129 147 0
141 158 0
135 153 0
130 147 0
135 153 0
140 159 0
142 162 0
140 159 0
131 149 0
135 154 0
132 149 0
139 158 0
135 154 0
142 162 0
140 157 0
133 152 0
139 157 0
139 156 0
136 154 0
134 151 0
142 160 0
138 157 0
139 158 0
134 151 0
133 152 0
149 165 0
140 157 0
131 147 0
140 158 0
134 151 0
134 150 0
135 152 0
144 162 0
137 154 0
137 154 0
135 153 0
136 153 0
141 157 0
139 157 0
141 157 0
151 168 0
142 157 0
131 147 0
141 158 0
138 155 0
138 153 0
142 158 0
143 156 0
143 158 0
140 156 0
137 152 0
138 152 0
139 155 0
136 147 0
134 149 0
131 147 0
146 161 0
141 155 0
137 147 0
139 152 0
142 157 0
123 135 0
132 147 0
144 157 0
144 157 0
148 162 0
140 154 0
144 158 0
130 143 0
133 147 0
147 161 0
140 151 0
138 150 0
133 141 0
131 142 0
137 148 0
130 142 0
135 146 0
131 142 0
135 145 0
139 148 0
142 151 0
144 157 0
145 154 0
144 154 0
146 156 0
135 144 0
138 146 0
139 148 0
138 143 0
132 138 0
138 144 0
134 141 0
141 149 0
145 154 0
139 145 0
137 141 0
144 151 0
139 145 0
141 147 0
145 151 0
139 145 0
146 156 0
135 140 0
141 147 0
135 141 0
133 137 0
136 142 0
146 150 0
142 147 0
140 146 0
134 139 0
134 138 0
142 148 0
140 142 0
131 136 0
140 147 0
133 136 0
134 137 0
138 142 0
139 141 0
135 139 0
132 134 0
145 150 0
143 147 0
141 146 0
137 142 0
152 156 0
141 146 0
139 143 0
136 141 0
148 153 0
141 147 0
146 152 0
144 149 0
134 141 0
140 144 0
143 148 0
140 144 0
146 153 0
152 157 0
159 168 0
146 153 0
143 151 0
151 158 0
151 157 0
151 154 0
143 150 0
150 156 0
153 163 0
150 158 0
149 158 0
149 158 0
149 157 0
155 164 0
150 157 0
153 161 0
155 165 0
155 165 0
154 163 0
149 156 0
155 164 0
150 160 0
162 171 0
161 173 0
159 172 0
177 198 0
173 194 0
173 194 0
173 195 0
172 194 0
173 195 0
177 197 0
177 198 0
172 193 0
174 195 0
172 193 0
172 193 0
177 198 0
172 193 0
175 196 0
173 194 0
172 193 0
174 195 0
174 194 0
175 195 0
175 196 0
173 194 0
172 192 0
176 197 0
172 193 0
174 194 0
176 196 0
168 189 0
174 194 0
175 195 0
171 191 0
174 194 0
176 197 0
177 196 0
176 196 0
174 194 0
173 193 0
171 191 0
172 192 0
171 191 0
173 193 0
172 192 0
170 190 0
171 190 0
170 190 0
170 190 0
171 191 0
163 186 0
174 193 0
171 191 0
175 196 0
170 190 0
167 187 0
166 186 0
166 186 0
168 188 0
169 189 0
167 187 0
169 188 0
173 194 0
170 191 0
169 189 0
163 184 0
167 187 0
169 189 0
171 192 0
162 182 0
154 174 0
165 186 0
167 188 0
174 194 0
166 186 0
168 189 0
164 185 0
162 183 0
166 186 0
163 184 0
163 184 0
168 189 0
166 186 0
159 180 0
164 185 0
166 188 0
163 184 0
168 189 0
159 180 0
155 176 0
162 183 0
164 184 0
160 181 0
160 182 0
155 177 0
156 177 0
152 174 0
156 178 0
160 181 0
156 177 0
157 178 0
158 179 0
160 182 0
154 176 0
160 181 0
155 177 0
159 182 0
158 178 0
157 179 0
159 181 0
148 168 0
148 170 0
155 177 0
157 178 0
150 172 0
156 179 0
157 180 0
147 169 0
152 175 0
162 183 0
158 179 0
151 173 0
147 169 0
156 178 0
148 170 0
151 175 0
154 176 0
143 165 0
144 165 0
160 182 0
148 171 0
152 175 0
146 169 0
149 170 0
158 180 0
150 171 0
153 174 0
144 166 0
150 174 0
150 172 0
157 179 0
150 171 0
146 167 0
148 170 0
154 177 0
159 181 0
152 174 0
150 172 0
150 172 0
144 166 0
149 171 0
158 180 0
142 164 0
140 161 0
141 163 0
156 177 0
149 172 0
143 164 0
141 163 0
146 167 0
144 166 0
144 167 0
151 172 0
143 164 0
143 165 0
137 157 0
143 164 0
147 169 0
149 170 0
148 168 0
147 168 0
147 168 0
140 161 0
145 166 0
134 156 0
136 157 0
145 166 0
149 170 0
140 160 0
137 158 0
137 157 0
144 166 0
142 163 0
146 167 0
141 162 0
142 164 0
129 150 0
136 158 0
137 158 0
130 150 0
144 165 0
135 156 0
138 160 0
139 159 0
135 157 0
140 162 0
134 155 0
153 175 0
134 155 0
137 158 0
137 157 0
136 155 0
131 152 0
138 160 0
132 151 0
124 144 0
137 158 0
137 158 0
128 148 0
136 156 0
140 160 0
130 149 0
130 150 0
136 158 0
143 163 0
137 157 0
130 150 0
131 151 0
145 166 0
141 162 0
139 159 0
141 160 0
139 158 0
133 153 0
137 155 0
140 161 0
139 158 0
138 158 0
135 155 0
134 155 0
140 159 0
138 157 0
139 159 0
140 159 0
142 161 0
135 153 0
142 161 0
121 141 0
136 156 0
144 162 0
135 154 0
135 155 0
136 155 0
140 158 0
130 149 0
139 159 0
135 154 0
136 155 0
144 164 0
136 153 0
142 161 0
143 162 0
133 151 0
141 159 0
148 167 0
146 166 0
148 167 0
129 147 0
143 162 0
136 155 0
137 153 0
137 154 0
138 155 0
142 157 0
145 161 0
140 159 0
135 151 0
138 153 0
142 159 0
138 155 0
143 161 0
138 153 0
141 160 0
141 158 0
135 153 0
146 162 0
140 154 0
138 154 0
141 157 0
142 157 0
149 166 0
146 164 0
143 160 0
142 156 0
148 164 0
135 150 0
141 157 0
147 162 0
134 149 0
129 141 0
146 164 0
140 156 0
144 159 0
134 150 0
148 165 0
139 152 0
143 158 0
133 149 0
143 160 0
136 150 0
136 150 0
133 144 0
148 161 0
136 147 0
136 149 0
139 150 0
131 141 0
139 151 0
135 147 0
140 152 0
137 150 0
141 152 0
136 149 0
138 148 0
141 153 0
132 145 0
138 144 0
128 137 0
138 151 0
136 144 0
138 146 0
137 147 0
146 158 0
130 138 0
137 142 0
143 153 0
141 148 0
143 152 0
144 152 0
128 135 0
130 137 0
142 149 0
142 149 0
143 151 0
140 148 0
142 150 0
139 148 0
141 144 0
136 143 0
138 144 0
138 145 0
136 142 0
133 140 0
140 146 0
138 144 0
145 153 0
143 150 0
137 143 0
138 143 0
141 147 0
135 141 0
149 158 0
136 139 0
146 152 0
141 144 0
136 142 0
138 142 0
144 149 0
145 152 0
142 146 0
138 142 0
139 148 0
138 144 0
147 152 0
146 150 0
141 145 0
142 148 0
136 138 0
147 149 0
147 154 0
145 152 0
140 145 0
150 155 0
134 135 0
142 147 0
147 150 0
144 151 0
154 161 0
151 158 0
152 159 0
145 152 0
149 155 0
149 157 0
148 153 0
149 154 0
153 160 0
152 158 0
150 159 0
150 159 0
158 168 0
153 163 0
146 152 0
150 160 0
157 168 0
154 163 0
149 158 0
144 151 0
151 160 0
156 167 0
151 159 0
155 164 0
160 172 0
152 163 0
175 196 0
175 197 0
175 196 0
174 195 0
174 195 0
174 196 0
175 196 0
173 194 0
176 197 0
173 194 0
173 194 0
172 194 0
175 196 0
173 194 0
174 195 0
176 197 0
173 194 0
175 195 0
174 196 0
177 198 0
171 191 0
177 198 0
173 194 0
174 195 0
174 195 0
175 196 0
171 191 0
174 195 0
170 191 0
175 195 0
173 192 0
172 192 0
173 193 0
170 190 0
173 193 0
171 192 0
173 193 0
171 191 0
170 191 0
174 194 0
170 190 0
174 194 0
173 193 0
171 191 0
171 191 0
165 185 0
173 194 0
167 188 0
167 187 0
174 194 0
169 191 0
166 187 0
169 189 0
166 187 0
172 192 0
171 190 0
170 191 0
170 190 0
168 188 0
167 188 0
172 192 0
165 185 0
167 188 0
171 192 0
170 190 0
166 186 0
165 185 0
170 190 0
171 192 0
166 186 0
164 184 0
169 189 0
169 190 0
159 180 0
166 186 0
161 182 0
160 181 0
165 185 0
164 185 0
162 183 0
165 187 0
158 179 0
160 181 0
165 185 0
155 176 0
160 181 0
164 184 0
156 176 0
158 180 0
156 176 0
157 179 0
161 183 0
163 184 0
158 179 0
165 187 0
162 183 0
157 179 0
155 177 0
156 178 0
145 167 0
161 184 0
162 183 0
162 184 0
157 179 0
151 173 0
151 173 0
163 184 0
156 178 0
152 175 0
148 171 0
152 174 0
151 174 0
148 171 0
163 185 0
159 180 0
155 177 0
151 173 0
153 175 0
153 175 0
152 174 0
152 174 0
150 173 0
155 177 0
152 174 0
153 175 0
154 176 0
156 177 0
154 176 0
149 171 0
146 169 0
153 175 0
151 173 0
151 173 0
149 171 0
151 173 0
152 173 0
148 170 0
152 174 0
152 173 0
144 166 0
152 175 0
150 172 0
153 176 0
155 177 0
155 177 0
143 165 0
142 164 0
150 172 0
140 162 0
149 171 0
149 173 0
153 174 0
146 168 0
150 172 0
146 168 0
150 173 0
146 169 0
148 170 0
148 170 0
141 162 0
152 174 0
146 167 0
152 174 0
142 164 0
151 173 0
148 171 0
143 165 0
130 151 0
138 160 0
147 168 0
147 168 0
137 158 0
140 160 0
148 169 0
144 166 0
142 162 0
141 162 0
138 159 0
143 165 0
131 151 0
143 164 0
135 156 0
133 154 0
131 154 0
138 158 0
144 165 0
133 154 0
134 155 0
131 152 0
140 162 0
142 163 0
144 166 0
144 166 0
137 159 0
127 149 0
123 143 0
134 153 0
130 151 0
137 156 0
145 165 0
138 159 0
132 153 0
142 164 0
140 161 0
144 165 0
141 161 0
142 162 0
145 166 0
130 150 0
138 158 0
134 155 0
141 161 0
135 155 0
135 154 0
123 142 0
134 155 0
125 146 0
143 162 0
137 157 0
127 148 0
143 163 0
141 161 0
142 162 0
142 162 0
135 154 0
146 166 0
136 156 0
136 157 0
136 156 0
135 155 0
131 148 0
143 161 0
137 156 0
141 160 0
141 159 0
133 151 0
140 160 0
133 152 0
147 166 0
130 150 0
129 149 0
149 169 0
135 154 0
139 158 0
136 154 0
149 169 0
146 166 0
131 150 0
146 164 0
148 166 0
142 161 0
135 153 0
142 159 0
137 154 0
132 150 0
149 168 0
136 155 0
145 162 0
132 149 0
143 161 0
142 159 0
147 164 0
135 152 0
137 156 0
135 151 0
143 160 0
133 148 0
137 152 0
133 150 0
145 162 0
146 162 0
143 161 0
138 153 0
149 167 0
140 156 0
136 153 0
140 157 0
138 154 0
139 155 0
153 168 0
138 154 0
139 155 0
144 160 0
141 156 0
143 159 0
140 159 0
140 154 0
148 165 0
141 155 0
143 157 0
130 145 0
136 149 0
137 151 0
146 160 0
140 153 0
150 164 0
136 148 0
140 154 0
140 153 0
149 164 0
142 155 0
132 145 0
146 160 0
142 154 0
142 154 0
141 151 0
152 167 0
136 147 0
140 153 0
142 156 0
142 152 0
138 151 0
137 148 0
133 142 0
135 145 0
141 152 0
137 145 0
133 144 0
140 150 0
135 143 0
137 146 0
140 152 0
138 146 0
134 140 0
135 145 0
128 135 0
138 146 0
137 145 0
134 142 0
138 150 0
137 143 0
137 143 0
138 145 0
142 150 0
148 156 0
138 144 0
137 143 0
140 146 0
135 142 0
147 155 0
139 145 0
145 151 0
144 149 0
137 148 0
144 152 0
146 150 0
140 145 0
143 148 0
146 155 0
138 142 0
139 143 0
139 146 0
137 140 0
139 143 0
140 146 0
141 149 0
139 146 0
140 144 0
141 145 0
140 145 0
145 148 0
146 150 0
149 156 0
137 138 0
139 144 0
139 144 0
146 153 0
147 154 0
145 151 0
145 150 0
145 150 0
145 154 0
144 148 0
153 160 0
145 150 0
143 147 0
148 153 0
149 155 0
151 157 0
145 150 0
156 165 0
148 155 0
150 156 0
145 153 0
147 153 0
148 157 0
152 160 0
150 155 0
150 161 0
152 162 0
151 159 0
154 163 0
151 163 0
152 160 0
157 168 0
160 172 0
158 168 0
157 168 0
161 174 0
159 171 0
174 195 0
175 197 0
170 190 0
175 196 0
170 191 0
173 194 0
174 195 0
174 195 0
171 192 0
172 193 0
172 193 0
174 196 0
173 195 0
176 197 0
172 194 0
174 195 0
175 196 0
175 196 0
171 192 0
175 195 0
172 192 0
175 194 0
176 195 0
174 194 0
173 194 0
174 195 0
176 196 0
173 193 0
171 191 0
171 192 0
172 191 0
171 190 0
172 192 0
173 193 0
170 191 0
170 190 0
172 192 0
174 194 0
170 190 0
167 188 0
167 188 0
169 189 0
172 192 0
170 191 0
174 193 0
171 192 0
166 187 0
173 193 0
169 189 0
167 188 0
172 191 0
168 189 0
171 191 0
169 189 0
170 190 0
171 191 0
170 191 0
172 192 0
169 190 0
168 189 0
167 187 0
167 188 0
167 187 0
165 185 0
164 184 0
168 189 0
163 185 0
161 182 0
168 189 0
170 191 0
161 182 0
163 184 0
162 183 0
167 188 0
158 179 0
169 189 0
164 185 0
164 186 0
160 181 0
164 185 0
162 183 0
160 182 0
162 183 0
163 184 0
158 180 0
164 186 0
159 180 0
159 181 0
161 182 0
162 184 0
155 176 0
157 179 0
160 182 0
157 179 0
156 178 0
160 182 0
159 181 0
154 176 0
162 185 0
151 174 0
159 181 0
160 181 0
154 175 0
155 177 0
157 180 0
157 178 0
155 178 0
161 184 0
151 174 0
150 172 0
156 177 0
164 186 0
155 177 0
156 178 0
162 183 0
158 180 0
152 173 0
155 178 0
150 172 0
160 183 0
155 178 0
147 170 0
147 170 0
157 179 0
153 174 0
159 181 0
149 172 0
150 171 0
151 173 0
157 179 0
151 173 0
152 175 0
147 170 0
151 173 0
153 174 0
154 177 0
154 176 0
146 169 0
155 178 0
150 171 0
150 173 0
150 171 0
147 170 0
145 168 0
147 169 0
151 173 0
149 171 0
141 164 0
144 166 0
148 170 0
146 169 0
151 172 0
143 165 0
141 162 0
150 171 0
147 169 0
140 162 0
147 169 0
142 164 0
152 174 0
139 162 0
141 163 0
136 157 0
143 165 0
141 162 0
146 168 0
140 162 0
147 169 0
140 161 0
146 168 0
147 167 0
139 160 0
146 167 0
141 161 0
142 162 0
136 157 0
140 162 0
155 178 0
142 162 0
138 161 0
148 169 0
139 161 0
138 158 0
132 152 0
139 160 0
149 171 0
150 171 0
134 155 0
132 154 0
142 162 0
143 165 0
131 152 0
139 160 0
138 158 0
135 155 0
141 163 0
133 154 0
145 164 0
141 162 0
146 167 0
129 150 0
141 162 0
138 159 0
140 160 0
132 152 0
139 160 0
145 165 0
136 155 0
131 152 0
138 158 0
143 164 0
140 161 0
136 156 0
139 161 0
133 153 0
145 166 0
134 154 0
136 155 0
138 159 0
138 157 0
129 149 0
130 150 0
143 161 0
132 152 0
138 157 0
135 156 0
139 158 0
133 153 0
138 159 0
137 155 0
136 156 0
141 161 0
139 158 0
138 156 0
130 148 0
137 155 0
136 155 0
144 163 0
132 153 0
137 157 0
133 152 0
146 165 0
141 160 0
138 157 0
143 162 0
137 156 0
138 157 0
140 160 0
154 173 0
143 163 0
138 157 0
147 166 0
145 164 0
145 166 0
137 156 0
134 151 0
134 151 0
143 160 0
141 158 0
139 158 0
137 155 0
136 154 0
135 152 0
146 165 0
142 158 0
143 162 0
139 156 0
143 159 0
142 162 0
137 153 0
145 161 0
139 156 0
146 164 0
132 148 0
139 152 0
148 165 0
140 158 0
138 154 0
132 148 0
141 158 0
137 150 0
143 161 0
140 155 0
143 157 0
138 153 0
152 169 0
127 140 0
149 165 0
142 158 0
141 156 0
138 155 0
154 170 0
139 155 0
138 155 0
148 163 0
129 142 0
143 158 0
148 162 0
137 150 0
151 167 0
137 149 0
134 149 0
139 152 0
148 163 0
150 165 0
148 163 0
147 160 0
143 156 0
142 153 0
140 151 0
143 156 0
145 159 0
130 140 0
138 148 0
136 146 0
135 146 0
133 143 0
145 155 0
139 148 0
139 150 0
140 153 0
135 145 0
144 156 0
138 149 0
143 155 0
151 164 0
141 152 0
142 151 0
147 157 0
142 148 0
135 144 0
148 158 0
145 151 0
131 138 0
141 150 0
146 156 0
137 143 0
139 146 0
142 151 0
144 154 0
138 147 0
138 143 0
146 153 0
143 151 0
140 146 0
146 152 0
139 146 0
142 148 0
133 136 0
139 146 0
140 147 0
142 149 0
138 144 0
137 143 0
143 148 0
140 144 0
146 152 0
142 147 0
138 143 0
150 156 0
145 150 0
146 152 0
138 141 0
146 154 0
149 157 0
143 149 0
149 157 0
153 159 0
143 149 0
145 152 0
150 157 0
141 146 0
145 151 0
151 159 0
153 159 0
145 152 0
141 148 0
151 157 0
148 157 0
148 154 0
154 161 0
144 152 0
155 165 0
145 153 0
145 152 0
145 154 0
151 160 0
149 158 0
153 163 0
149 156 0
155 163 0
153 162 0
154 162 0
155 165 0
153 163 0
157 168 0
154 166 0
152 162 0
154 165 0
151 163 0
172 193 0
173 194 0
174 195 0
177 198 0
177 199 0
172 193 0
173 195 0
171 192 0
177 198 0
176 197 0
174 196 0
171 193 0
174 195 0
173 194 0
173 195 0
170 190 0
172 192 0
174 195 0
173 193 0
169 190 0
173 194 0
171 191 0
174 195 0
175 195 0
169 190 0
177 198 0
175 195 0
173 194 0
171 191 0
172 193 0
174 195 0
170 190 0
172 192 0
172 193 0
169 190 0
172 193 0
169 190 0
170 191 0
175 196 0
171 191 0
172 193 0
174 195 0
173 194 0
167 188 0
170 191 0
170 190 0
166 186 0
171 191 0
174 194 0
171 191 0
174 194 0
167 188 0
171 191 0
166 186 0
172 191 0
171 191 0
170 191 0
166 187 0
170 191 0
166 187 0
167 188 0
167 187 0
167 189 0
167 188 0
166 187 0
168 188 0
163 184 0
162 184 0
165 186 0
167 187 0
156 177 0
159 180 0
165 186 0
162 182 0
155 176 0
163 185 0
161 183 0
160 183 0
161 183 0
160 181 0
162 182 0
158 179 0
162 184 0
158 180 0
152 174 0
162 184 0
159 181 0
161 182 0
161 182 0
155 177 0
153 175 0
160 181 0
159 180 0
161 182 0
164 186 0
152 174 0
150 171 0
164 186 0
156 178 0
159 181 0
155 178 0
156 177 0
167 188 0
162 183 0
161 184 0
158 180 0
160 183 0
161 183 0
159 182 0
154 176 0
150 172 0
161 183 0
157 179 0
149 171 0
155 178 0
153 175 0
151 173 0
156 178 0
155 176 0
154 176 0
156 180 0
157 179 0
152 175 0
152 174 0
157 179 0
159 180 0
151 173 0
156 179 0
153 176 0
151 174 0
154 177 0
150 172 0
147 169 0
144 166 0
152 174 0
142 163 0
157 180 0
148 171 0
153 175 0
143 166 0
154 174 0
145 165 0
147 169 0
147 170 0
147 170 0
147 169 0
150 172 0
150 173 0
146 168 0
149 172 0
146 168 0
152 174 0
144 166 0
143 166 0
151 173 0
152 174 0
145 167 0
146 168 0
156 178 0
150 171 0
134 155 0
150 171 0
142 164 0
150 170 0
138 158 0
143 166 0
143 164 0
150 172 0
145 166 0
140 162 0
145 166 0
140 161 0
144 166 0
148 170 0
138 159 0
146 167 0
144 165 0
144 165 0
148 169 0
142 161 0
147 169 0
142 163 0
140 163 0
131 152 0
146 167 0
148 169 0
137 158 0
137 157 0
141 162 0
138 159 0
129 150 0
145 166 0
143 164 0
142 163 0
131 154 0
135 156 0
142 163 0
141 162 0
148 168 0
143 164 0
146 166 0
139 160 0
141 162 0
143 165 0
140 161 0
142 162 0
128 148 0
143 162 0
139 159 0
144 166 0
141 160 0
141 161 0
143 163 0
138 159 0
144 164 0
136 155 0
124 144 0
140 160 0
141 161 0
133 154 0
140 159 0
141 159 0
140 159 0
132 152 0
139 159 0
141 161 0
138 160 0
134 152 0
133 151 0
133 153 0
144 164 0
141 161 0
141 162 0
137 158 0
140 161 0
136 155 0
128 148 0
128 147 0
140 159 0
140 160 0
138 158 0
144 164 0
140 160 0
143 161 0
143 162 0
138 156 0
128 145 0
134 153 0
140 158 0
145 165 0
144 163 0
142 160 0
131 149 0
142 161 0
152 169 0
142 161 0
141 161 0
140 160 0
142 161 0
137 155 0
131 150 0
137 156 0
140 159 0
151 169 0
138 157 0
139 157 0
145 163 0
132 148 0
137 156 0
157 176 0
142 162 0
143 162 0
146 164 0
137 155 0
143 161 0
139 157 0
151 170 0
138 155 0
142 159 0
142 159 0
152 170 0
147 164 0
139 155 0
146 162 0
143 160 0
145 162 0
151 169 0
136 150 0
140 153 0
145 160 0
145 159 0
150 167 0
138 154 0
145 161 0
149 163 0
139 156 0
139 151 0
145 159 0
146 160 0
137 152 0
139 155 0
144 158 0
147 163 0
149 163 0
142 155 0
142 154 0
152 166 0
144 158 0
150 161 0
143 157 0
139 149 0
144 158 0
146 158 0
145 158 0
130 142 0
136 148 0
142 151 0
144 159 0
147 159 0
145 155 0
141 155 0
150 160 0
129 140 0
144 155 0
137 146 0
148 161 0
141 150 0
141 150 0
144 156 0
138 148 0
133 142 0
143 153 0
142 151 0
136 142 0
142 152 0
147 156 0
144 153 0
139 149 0
130 138 0
145 151 0
144 153 0
138 149 0
135 142 0
137 144 0
146 152 0
144 152 0
148 155 0
143 150 0
139 145 0
139 144 0
138 144 0
139 146 0
150 157 0
144 152 0
138 147 0
151 159 0
147 156 0
143 149 0
150 158 0
140 145 0
143 153 0
139 144 0
144 152 0
148 155 0
146 153 0
145 151 0
142 149 0
143 146 0
147 153 0
147 155 0
147 157 0
140 147 0
142 146 0
145 151 0
153 163 0
146 152 0
147 155 0
151 161 0
153 160 0
141 149 0
156 165 0
146 152 0
142 151 0
157 166 0
154 164 0
155 164 0
152 161 0
141 143 0
150 156 0
155 164 0
152 159 0
147 155 0
158 168 0
146 155 0
150 158 0
154 163 0
151 160 0
152 160 0
154 163 0
164 176 0
174 195 0
175 197 0
174 195 0
174 195 0
171 192 0
173 194 0
174 196 0
175 197 0
169 191 0
175 196 0
174 195 0
174 194 0
173 194 0
176 197 0
175 195 0
174 195 0
173 194 0
171 192 0
175 196 0
172 193 0
171 192 0
170 190 0
173 194 0
175 196 0
178 198 0
175 196 0
172 193 0
172 192 0
171 192 0
172 193 0
170 190 0
170 190 0
170 190 0
171 191 0
171 191 0
170 191 0
175 196 0
169 190 0
171 192 0
163 183 0
167 187 0
173 193 0
170 191 0
172 193 0
173 193 0
165 186 0
168 188 0
174 194 0
169 188 0
173 194 0
165 185 0
166 187 0
175 195 0
166 187 0
171 191 0
169 189 0
170 191 0
171 191 0
161 182 0
167 188 0
166 186 0
167 188 0
159 180 0
165 186 0
167 189 0
166 187 0
165 185 0
167 188 0
164 185 0
160 181 0
162 183 0
158 179 0
160 180 0
159 181 0
169 190 0
163 184 0
166 187 0
162 184 0
159 181 0
161 182 0
162 183 0
160 181 0
160 182 0
167 188 0
159 182 0
157 178 0
155 176 0
156 177 0
153 176 0
162 184 0
161 182 0
157 179 0
159 180 0
158 179 0
163 184 0
165 186 0
163 185 0
156 179 0
153 175 0
157 179 0
156 178 0
154 177 0
159 182 0
148 170 0
159 180 0
148 169 0
154 177 0
159 180 0
156 178 0
155 177 0
150 172 0
159 181 0
155 176 0
158 180 0
161 182 0
159 182 0
159 181 0
147 170 0
153 175 0
156 177 0
154 176 0
147 169 0
154 176 0
160 182 0
153 174 0
157 179 0
154 176 0
152 175 0
148 171 0
154 177 0
156 178 0
150 173 0
153 175 0
151 174 0
146 169 0
152 173 0
145 166 0
155 177 0
148 171 0
148 169 0
157 179 0
154 176 0
150 172 0
150 171 0
147 168 0
154 175 0
139 161 0
151 173 0
146 168 0
148 170 0
154 177 0
144 166 0
151 173 0
151 173 0
150 173 0
148 170 0
147 169 0
144 166 0
147 169 0
145 168 0
150 172 0
148 170 0
146 168 0
153 176 0
144 165 0
139 161 0
144 165 0
150 172 0
144 166 0
147 168 0
147 169 0
148 170 0
140 161 0
143 165 0
142 164 0
149 170 0
136 157 0
146 167 0
150 172 0
145 164 0
133 154 0
141 163 0
141 163 0
142 163 0
146 168 0
146 168 0
142 164 0
143 164 0
146 167 0
144 165 0
141 160 0
137 157 0
142 164 0
149 170 0
147 168 0
138 159 0
139 161 0
146 166 0
142 162 0
142 162 0
140 162 0
144 165 0
131 150 0
138 159 0
134 153 0
132 153 0
143 163 0
143 164 0
140 161 0
142 163 0
134 156 0
134 155 0
142 163 0
136 156 0
140 160 0
139 159 0
133 152 0
142 162 0
142 161 0
145 166 0
138 157 0
127 147 0
133 152 0
136 154 0
133 152 0
141 162 0
150 170 0
138 156 0
132 152 0
141 161 0
136 157 0
140 160 0
145 165 0
139 157 0
143 161 0
139 156 0
140 158 0
139 159 0
147 167 0
139 157 0
147 165 0
144 165 0
138 156 0
147 165 0
144 162 0
145 163 0
142 162 0
149 169 0
140 161 0
144 163 0
154 174 0
152 172 0
133 152 0
142 162 0
137 156 0
141 159 0
136 156 0
139 159 0
142 162 0
143 161 0
140 158 0
145 160 0
143 160 0
139 158 0
136 155 0
145 161 0
142 160 0
140 157 0
143 163 0
141 159 0
139 156 0
139 156 0
140 155 0
141 160 0
135 152 0
145 162 0
152 169 0
137 154 0
148 164 0
136 153 0
133 149 0
137 152 0
147 165 0
141 157 0
140 157 0
144 160 0
148 166 0
146 163 0
147 165 0
139 157 0
144 160 0
136 152 0
143 159 0
145 162 0
141 156 0
145 162 0
148 164 0
134 148 0
143 157 0
139 154 0
141 155 0
144 161 0
147 162 0
143 158 0
146 161 0
144 158 0
139 152 0
142 154 0
138 152 0
135 148 0
143 157 0
136 148 0
145 158 0
136 149 0
142 156 0
138 149 0
147 159 0
146 158 0
148 159 0
146 160 0
145 154 0
131 141 0
139 150 0
142 149 0
142 150 0
137 149 0
147 159 0
138 147 0
139 147 0
137 146 0
143 154 0
142 154 0
139 150 0
135 142 0
139 146 0
138 148 0
136 147 0
148 157 0
140 145 0
139 150 0
136 145 0
149 159 0
146 157 0
145 155 0
143 150 0
137 146 0
144 152 0
151 158 0
140 150 0
137 147 0
137 145 0
147 157 0
141 149 0
145 154 0
146 150 0
140 145 0
144 150 0
144 151 0
146 155 0
137 144 0
143 150 0
138 143 0
142 147 0
148 155 0
144 150 0
147 153 0
148 155 0
147 152 0
144 151 0
142 149 0
142 145 0
146 152 0
144 154 0
143 148 0
144 151 0
149 157 0
145 151 0
141 145 0
153 164 0
153 160 0
144 151 0
150 159 0
149 159 0
159 168 0
151 161 0
145 151 0
148 159 0
148 152 0
156 167 0
155 164 0
146 154 0
158 167 0
157 166 0
147 153 0
162 172 0
153 163 0
156 167 0
155 164 0
158 168 0
154 165 0
175 195 0
175 195 0
175 197 0
173 194 0
170 191 0
174 195 0
172 192 0
177 198 0
170 192 0
170 192 0
175 195 0
173 194 0
174 195 0
175 196 0
175 197 0
177 197 0
175 195 0
174 194 0
172 194 0
171 193 0
175 196 0
171 193 0
173 193 0
175 195 0
173 194 0
171 192 0
173 194 0
172 193 0
174 194 0
168 188 0
173 194 0
171 192 0
174 194 0
174 195 0
166 187 0
171 190 0
169 189 0
174 195 0
166 187 0
170 191 0
172 192 0
175 194 0
173 193 0
168 190 0
171 191 0
171 192 0
173 194 0
175 196 0
167 188 0
173 193 0
171 192 0
165 187 0
173 194 0
168 188 0
170 190 0
166 188 0
170 190 0
168 189 0
164 185 0
164 185 0
166 188 0
166 187 0
166 187 0
166 188 0
167 188 0
160 180 0
162 182 0
168 188 0
168 189 0
166 187 0
166 187 0
163 185 0
162 183 0
166 188 0
166 188 0
159 180 0
162 184 0
165 187 0
160 181 0
162 184 0
159 181 0
163 184 0
162 184 0
164 186 0
155 176 0
156 178 0
154 176 0
160 181 0
161 184 0
159 181 0
163 184 0
160 181 0
155 176 0
163 185 0
162 184 0
157 179 0
160 182 0
159 180 0
159 181 0
157 179 0
156 178 0
163 186 0
159 181 0
162 184 0
151 172 0
154 177 0
160 181 0
155 177 0
156 179 0
159 181 0
161 182 0
161 183 0
147 169 0
153 175 0
160 183 0
153 176 0
157 180 0
154 176 0
154 177 0
151 173 0
151 173 0
159 181 0
150 171 0
159 182 0
151 173 0
154 176 0
152 174 0
149 171 0
152 174 0
152 174 0
147 170 0
155 178 0
158 181 0
148 170 0
143 164 0
150 172 0
152 175 0
157 179 0
149 170 0
147 169 0
153 175 0
159 180 0
140 163 0
152 174 0
159 183 0
146 169 0
149 170 0
144 165 0
144 167 0
151 175 0
146 169 0
149 172 0
155 176 0
142 163 0
145 165 0
146 168 0
147 169 0
152 174 0
149 170 0
150 172 0
141 162 0
147 168 0
140 161 0
140 162 0
146 168 0
149 171 0
151 175 0
145 166 0
145 167 0
153 174 0
143 164 0
143 164 0
141 162 0
143 165 0
143 165 0
153 176 0
144 165 0
142 163 0
136 159 0
142 163 0
140 161 0
147 168 0
141 162 0
148 170 0
146 167 0
143 163 0
150 172 0
145 167 0
142 164 0
141 161 0
143 164 0
150 171 0
146 167 0
148 169 0
146 167 0
151 172 0
138 160 0
150 172 0
143 165 0
144 165 0
139 160 0
131 153 0
144 165 0
139 160 0
134 155 0
144 164 0
146 165 0
139 159 0
148 170 0
142 164 0
136 157 0
132 153 0
136 157 0
138 158 0
146 166 0
136 157 0
145 166 0
145 166 0
139 158 0
136 155 0
137 156 0
139 160 0
143 164 0
134 155 0
150 169 0
133 153 0
136 154 0
136 155 0
136 156 0
153 175 0
140 159 0
140 159 0
138 158 0
146 166 0
145 165 0
131 152 0
146 164 0
146 167 0
144 165 0
137 156 0
139 159 0
149 168 0
150 169 0
136 156 0
140 160 0
143 161 0
141 160 0
145 165 0
141 159 0
137 154 0
143 162 0
143 162 0
141 160 0
140 158 0
151 170 0
148 166 0
146 164 0
142 162 0
136 156 0
138 158 0
140 159 0
148 168 0
150 168 0
139 158 0
147 166 0
145 164 0
150 169 0
138 156 0
139 157 0
150 166 0
145 163 0
149 167 0
139 157 0
140 157 0
135 152 0
140 157 0
146 162 0
144 162 0
151 168 0
137 155 0
146 164 0
144 163 0
141 159 0
149 165 0
136 153 0
144 160 0
148 166 0
145 161 0
138 153 0
141 156 0
137 153 0
140 156 0
151 169 0
140 154 0
141 156 0
149 167 0
152 168 0
142 158 0
150 168 0
140 155 0
147 161 0
143 159 0
147 161 0
152 169 0
144 159 0
136 150 0
143 155 0
142 157 0
149 163 0
142 156 0
144 158 0
139 151 0
149 163 0
144 155 0
136 149 0
142 154 0
141 153 0
137 149 0
140 153 0
143 153 0
142 154 0
147 158 0
145 157 0
150 160 0
147 158 0
149 161 0
142 155 0
149 161 0
149 159 0
141 152 0
135 146 0
143 153 0
142 152 0
143 152 0
145 156 0
149 160 0
140 149 0
142 153 0
140 149 0
141 149 0
138 145 0
139 148 0
147 158 0
146 157 0
149 159 0
151 162 0
149 159 0
147 155 0
147 155 0
139 145 0
148 157 0
146 152 0
152 159 0
139 144 0
141 148 0
143 151 0
142 148 0
150 158 0
143 150 0
142 151 0
145 153 0
148 154 0
140 146 0
150 158 0
142 151 0
144 150 0
147 155 0
149 155 0
149 156 0
146 155 0
143 149 0
150 155 0
153 163 0
152 158 0
145 150 0
147 154 0
147 154 0
149 157 0
150 156 0
145 149 0
150 158 0
147 155 0
149 157 0
143 148 0
153 163 0
158 166 0
152 161 0
160 172 0
159 170 0
144 153 0
153 162 0
151 161 0
159 169 0
151 158 0
158 167 0
152 162 0
158 170 0
155 166 0
155 163 0
156 168 0
175 196 0
173 194 0
173 195 0
175 196 0
177 198 0
177 197 0
176 198 0
176 197 0
172 193 0
172 194 0
170 191 0
174 195 0
172 193 0
173 193 0
174 194 0
175 196 0
173 193 0
174 195 0
169 191 0
173 194 0
169 189 0
175 196 0
172 192 0
169 190 0
173 193 0
173 193 0
168 189 0
174 195 0
173 194 0
167 188 0
170 191 0
171 192 0
174 195 0
175 196 0
172 192 0
171 190 0
173 195 0
172 193 0
170 191 0
172 193 0
169 189 0
171 192 0
171 193 0
169 189 0
169 189 0
166 187 0
163 183 0
164 185 0
170 191 0
169 190 0
165 185 0
164 184 0
168 190 0
171 192 0
169 190 0
165 185 0
168 189 0
170 190 0
170 189 0
165 186 0
162 184 0
167 189 0
165 186 0
169 190 0
158 180 0
164 186 0
168 189 0
164 186 0
164 186 0
168 189 0
158 179 0
163 185 0
163 184 0
160 182 0
168 189 0
164 186 0
161 182 0
161 182 0
164 184 0
164 184 0
163 185 0
160 181 0
159 181 0
167 188 0
160 182 0
161 183 0
150 172 0
163 184 0
160 181 0
159 182 0
164 187 0
160 183 0
161 183 0
156 178 0
155 179 0
159 183 0
158 180 0
160 182 0
158 180 0
156 178 0
158 180 0
162 184 0
161 182 0
158 180 0
152 173 0
155 177 0
164 187 0
158 180 0
156 178 0
157 179 0
150 171 0
159 179 0
154 176 0
151 173 0
153 175 0
149 170 0
158 181 0
161 183 0
159 181 0
151 173 0
151 173 0
159 182 0
155 178 0
149 171 0
159 182 0
156 179 0
158 179 0
150 172 0
144 166 0
153 175 0
156 179 0
146 169 0
155 178 0
152 173 0
147 170 0
150 172 0
148 170 0
152 174 0
155 177 0
145 166 0
148 171 0
144 167 0
152 173 0
149 171 0
155 177 0
148 170 0
146 168 0
154 176 0
140 163 0
145 167 0
143 164 0
155 177 0
141 164 0
143 165 0
150 173 0
150 173 0
151 173 0
147 169 0
142 164 0
156 177 0
159 182 0
154 177 0
137 159 0
144 166 0
150 171 0
145 166 0
143 165 0
138 160 0
143 165 0
151 173 0
149 171 0
146 169 0
150 172 0
143 164 0
143 164 0
143 165 0
150 172 0
141 162 0
145 167 0
141 163 0
140 161 0
143 164 0
145 166 0
135 155 0
133 155 0
152 173 0
151 172 0
153 174 0
146 166 0
141 162 0
148 168 0
137 158 0
140 161 0
137 158 0
137 156 0
145 167 0
147 167 0
141 162 0
139 160 0
145 166 0
142 161 0
145 166 0
144 165 0
139 159 0
136 157 0
149 171 0
140 161 0
138 159 0
141 163 0
130 150 0
143 164 0
142 163 0
124 145 0
146 167 0
136 157 0
148 169 0
143 165 0
140 161 0
145 165 0
138 158 0
146 166 0
135 154 0
143 164 0
145 165 0
144 162 0
138 158 0
142 162 0
144 164 0
142 163 0
133 154 0
147 168 0
139 157 0
145 165 0
138 157 0
140 159 0
146 166 0
144 164 0
142 161 0
150 170 0
148 167 0
138 160 0
144 164 0
141 160 0
149 169 0
136 155 0
143 163 0
138 157 0
140 161 0
144 162 0
139 159 0
143 159 0
153 171 0
147 167 0
146 164 0
141 160 0
142 161 0
146 165 0
140 158 0
151 167 0
146 167 0
139 158 0
145 164 0
143 161 0
145 166 0
138 159 0
143 160 0
147 166 0
129 148 0
150 169 0
138 155 0
141 158 0
143 161 0
143 161 0
148 166 0
141 158 0
148 166 0
145 162 0
139 157 0
140 157 0
142 159 0
144 161 0
144 159 0
143 161 0
141 157 0
144 161 0
150 167 0
145 162 0
143 159 0
146 162 0
142 159 0
143 159 0
143 159 0
143 158 0
149 166 0
142 158 0
138 154 0
144 159 0
151 165 0
142 157 0
140 155 0
138 153 0
137 153 0
142 156 0
133 149 0
145 161 0
143 158 0
148 162 0
154 171 0
141 152 0
151 167 0
143 156 0
147 162 0
143 156 0
149 163 0
134 147 0
148 161 0
139 153 0
140 154 0
141 152 0
144 159 0
146 157 0
144 155 0
141 152 0
145 156 0
148 159 0
141 153 0
142 153 0
140 151 0
140 152 0
141 153 0
143 154 0
144 155 0
138 147 0
140 154 0
147 158 0
139 149 0
146 158 0
143 152 0
139 147 0
146 156 0
146 154 0
133 142 0
144 151 0
151 163 0
133 138 0
147 155 0
142 151 0
140 146 0
146 156 0
135 140 0
144 153 0
143 155 0
139 147 0
145 154 0
144 152 0
146 156 0
146 154 0
144 153 0
150 160 0
153 162 0
143 153 0
141 146 0
147 156 0
146 154 0
144 151 0
144 152 0
145 154 0
150 158 0
148 153 0
137 140 0
148 155 0
143 150 0
151 158 0
143 151 0
148 156 0
144 149 0
149 158 0
151 158 0
149 158 0
150 156 0
155 163 0
149 157 0
152 160 0
153 163 0
150 161 0
153 163 0
152 159 0
147 152 0
144 150 0
157 167 0
153 163 0
152 160 0
152 162 0
150 159 0
148 159 0
151 159 0
152 162 0
155 167 0
154 163 0
158 167 0
175 197 0
175 195 0
176 197 0
174 194 0
174 196 0
174 196 0
171 192 0
174 194 0
169 190 0
176 197 0
171 192 0
172 193 0
171 192 0
175 195 0
173 194 0
173 193 0
174 195 0
176 196 0
175 196 0
175 197 0
176 196 0
172 193 0
178 199 0
174 194 0
167 188 0
173 193 0
171 191 0
171 191 0
167 189 0
173 194 0
170 191 0
174 195 0
172 193 0
175 195 0
172 193 0
171 192 0
172 192 0
170 191 0
167 188 0
171 192 0
175 196 0
162 183 0
168 188 0
171 192 0
170 190 0
171 192 0
170 191 0
170 192 0
169 191 0
164 185 0
165 185 0
167 188 0
169 190 0
169 190 0
167 187 0
169 190 0
170 191 0
169 191 0
172 192 0
160 182 0
170 191 0
167 189 0
172 193 0
165 186 0
170 192 0
166 187 0
164 186 0
163 184 0
166 186 0
164 186 0
164 186 0
158 179 0
167 189 0
160 182 0
165 187 0
163 185 0
161 183 0
163 185 0
164 185 0
161 183 0
168 190 0
162 184 0
163 184 0
155 176 0
157 178 0
161 183 0
162 183 0
162 184 0
153 175 0
160 182 0
154 177 0
157 181 0
156 179 0
165 186 0
158 181 0
160 182 0
157 179 0
148 169 0
160 182 0
158 179 0
160 182 0
154 176 0
158 180 0
155 177 0
162 184 0
152 175 0
160 182 0
161 183 0
157 180 0
150 172 0
160 182 0
165 188 0
149 171 0
156 178 0
158 181 0
159 182 0
160 183 0
150 172 0
158 181 0
147 170 0
158 180 0
150 172 0
151 173 0
156 178 0
152 174 0
161 183 0
149 172 0
159 181 0
158 180 0
149 173 0
149 171 0
156 178 0
154 177 0
154 176 0
158 181 0
155 178 0
144 166 0
155 177 0
154 177 0
147 169 0
154 177 0
154 177 0
154 175 0
151 174 0
146 167 0
148 170 0
146 168 0
146 168 0
146 169 0
152 175 0
147 169 0
141 163 0
153 175 0
145 167 0
142 165 0
151 172 0
146 168 0
151 174 0
149 172 0
148 169 0
149 170 0
149 171 0
144 166 0
141 163 0
136 157 0
150 173 0
147 169 0
147 168 0
146 168 0
145 167 0
146 167 0
151 174 0
142 163 0
144 165 0
153 174 0
131 153 0
142 163 0
147 167 0
143 164 0
152 174 0
149 171 0
139 161 0
139 161 0
146 167 0
135 157 0
145 165 0
153 175 0
142 161 0
150 172 0
144 164 0
146 167 0
143 164 0
148 170 0
149 170 0
142 164 0
141 161 0
145 165 0
143 164 0
142 165 0
143 163 0
147 166 0
153 176 0
147 169 0
146 167 0
143 166 0
138 159 0
142 163 0
145 164 0
142 163 0
142 163 0
143 164 0
143 163 0
145 165 0
137 157 0
140 161 0
143 164 0
141 162 0
133 154 0
140 160 0
137 157 0
130 150 0
142 162 0
145 164 0
132 152 0
144 164 0
143 164 0
143 164 0
144 165 0
138 157 0
149 171 0
134 154 0
138 159 0
139 159 0
142 162 0
135 155 0
132 151 0
139 159 0
135 153 0
143 161 0
137 155 0
142 161 0
138 158 0
144 164 0
136 156 0
141 161 0
147 169 0
141 160 0
141 161 0
136 155 0
145 165 0
143 162 0
142 161 0
145 164 0
138 158 0
144 163 0
146 163 0
145 164 0
144 161 0
139 158 0
148 165 0
140 159 0
140 157 0
149 169 0
149 168 0
144 161 0
145 164 0
138 156 0
140 157 0
143 161 0
145 164 0
145 163 0
135 153 0
137 156 0
148 165 0
143 161 0
141 157 0
145 163 0
140 156 0
143 161 0
146 163 0
147 164 0
154 171 0
152 171 0
144 161 0
148 165 0
152 169 0
146 162 0
146 165 0
149 165 0
147 164 0
140 156 0
151 168 0
143 160 0
148 165 0
145 161 0
140 156 0
149 166 0
144 161 0
146 162 0
147 164 0
145 157 0
139 153 0
145 161 0
150 165 0
142 156 0
149 163 0
148 162 0
147 160 0
150 164 0
146 161 0
149 166 0
151 166 0
134 148 0
145 158 0
145 157 0
129 139 0
144 156 0
147 162 0
146 158 0
155 170 0
148 162 0
148 161 0
146 160 0
149 163 0
143 157 0
148 160 0
142 152 0
143 154 0
144 156 0
136 148 0
140 148 0
146 154 0
148 156 0
143 155 0
140 151 0
143 152 0
146 154 0
139 147 0
137 146 0
143 152 0
147 158 0
135 147 0
145 156 0
139 150 0
151 162 0
143 150 0
144 152 0
134 141 0
147 156 0
145 153 0
150 158 0
143 151 0
150 159 0
148 161 0
145 155 0
143 154 0
155 167 0
151 160 0
143 150 0
138 143 0
146 153 0
150 158 0
145 152 0
139 146 0
141 149 0
145 155 0
145 153 0
146 155 0
148 155 0
147 157 0
144 150 0
141 147 0
149 157 0
146 154 0
143 150 0
153 160 0
147 152 0
147 155 0
139 145 0
152 162 0
146 153 0
150 158 0
149 154 0
148 156 0
155 165 0
156 166 0
155 163 0
156 164 0
146 155 0
158 170 0
145 153 0
155 165 0
157 166 0
154 165 0
160 172 0
153 165 0
158 168 0
155 166 0
153 164 0
152 161 0
175 196 0
175 197 0
172 194 0
176 197 0
174 195 0
174 195 0
175 196 0
174 195 0
174 195 0
175 196 0
176 197 0
173 193 0
171 192 0
175 196 0
174 195 0
172 193 0
170 192 0
170 191 0
172 193 0
172 193 0
173 195 0
172 192 0
172 194 0
175 195 0
174 194 0
165 186 0
168 189 0
175 195 0
170 190 0
171 192 0
173 194 0
168 188 0
169 189 0
171 192 0
172 194 0
170 191 0
168 189 0
169 190 0
173 194 0
168 190 0
172 194 0
171 193 0
171 192 0
170 191 0
166 187 0
165 186 0
169 190 0
166 186 0
171 193 0
167 188 0
164 186 0
170 190 0
170 191 0
167 189 0
167 188 0
168 188 0
165 186 0
166 187 0
169 190 0
166 188 0
162 184 0
167 188 0
165 187 0
165 187 0
166 186 0
162 184 0
162 183 0
160 182 0
161 182 0
162 182 0
166 188 0
159 182 0
163 183 0
159 180 0
156 178 0
160 182 0
156 178 0
161 183 0
159 181 0
158 179 0
161 183 0
160 181 0
159 180 0
166 189 0
167 189 0
153 175 0
163 185 0
156 178 0
160 183 0
160 182 0
157 180 0
154 176 0
157 179 0
156 179 0
155 176 0
162 183 0
159 181 0
161 182 0
162 185 0
161 184 0
151 173 0
157 179 0
165 186 0
164 186 0
154 177 0
158 181 0
155 177 0
150 172 0
158 180 0
156 178 0
164 186 0
156 179 0
156 178 0
157 180 0
148 170 0
155 177 0
151 174 0
153 176 0
156 178 0
158 181 0
154 177 0
152 174 0
154 176 0
164 186 0
153 175 0
156 178 0
157 180 0
153 175 0
149 170 0
149 172 0
158 180 0
155 177 0
146 168 0
156 179 0
155 178 0
150 171 0
152 175 0
148 170 0
157 180 0
151 174 0
144 167 0
147 169 0
145 168 0
143 165 0
152 174 0
152 173 0
152 175 0
153 175 0
157 178 0
148 170 0
151 172 0
146 168 0
152 174 0
149 171 0
155 177 0
148 170 0
152 175 0
149 171 0
142 164 0
149 171 0
139 160 0
141 163 0
152 174 0
145 166 0
144 166 0
152 174 0
142 163 0
142 165 0
149 171 0
147 170 0
148 170 0
143 165 0
145 166 0
149 172 0
147 168 0
146 168 0
148 169 0
147 169 0
148 169 0
147 169 0
149 170 0
147 169 0
138 159 0
142 164 0
146 168 0
142 164 0
142 163 0
135 156 0
142 164 0
134 154 0
151 173 0
144 164 0
130 151 0
146 167 0
139 159 0
148 170 0
146 166 0
139 158 0
140 160 0
146 168 0
142 163 0
145 166 0
145 165 0
148 169 0
146 167 0
147 168 0
148 169 0
146 166 0
143 164 0
148 168 0
146 167 0
140 160 0
140 161 0
139 160 0
140 162 0
145 166 0
142 163 0
137 157 0
147 167 0
150 171 0
140 160 0
135 156 0
142 163 0
150 171 0
138 159 0
139 159 0
141 162 0
143 164 0
147 167 0
139 158 0
145 166 0
149 169 0
140 161 0
143 163 0
144 164 0
137 156 0
145 166 0
149 171 0
135 156 0
140 159 0
148 169 0
142 161 0
143 164 0
142 163 0
152 171 0
138 157 0
148 168 0
136 154 0
142 162 0
151 170 0
130 149 0
141 161 0
142 160 0
150 168 0
135 154 0
141 159 0
149 167 0
139 160 0
145 163 0
137 155 0
137 154 0
142 161 0
138 157 0
149 170 0
142 161 0
151 169 0
139 156 0
140 159 0
149 166 0
147 164 0
140 158 0
140 157 0
140 157 0
140 158 0
142 158 0
147 165 0
146 164 0
150 168 0
139 158 0
145 162 0
145 161 0
147 166 0
140 158 0
140 158 0
145 162 0
148 167 0
150 168 0
144 160 0
147 164 0
144 160 0
151 168 0
145 162 0
148 164 0
149 166 0
149 165 0
146 164 0
152 169 0
150 166 0
152 169 0
146 162 0
144 160 0
151 165 0
154 169 0
145 160 0
140 152 0
137 150 0
146 161 0
140 155 0
146 163 0
144 159 0
150 167 0
146 162 0
149 166 0
145 158 0
144 158 0
137 152 0
147 162 0
152 167 0
144 157 0
145 159 0
143 155 0
133 145 0
145 156 0
141 153 0
139 151 0
140 152 0
148 161 0
148 159 0
142 152 0
138 152 0
148 160 0
145 155 0
146 158 0
141 153 0
138 147 0
149 162 0
144 155 0
148 157 0
146 157 0
143 153 0
150 162 0
140 150 0
145 155 0
147 158 0
147 156 0
144 154 0
150 159 0
144 154 0
146 156 0
153 163 0
142 150 0
146 154 0
144 154 0
142 152 0
146 157 0
143 152 0
139 147 0
139 145 0
148 155 0
145 155 0
143 152 0
147 155 0
143 150 0
146 155 0
140 148 0
152 163 0
155 162 0
143 150 0
145 153 0
143 148 0
149 156 0
146 153 0
147 157 0
155 165 0
150 159 0
147 152 0
148 155 0
150 158 0
146 155 0
149 159 0
150 159 0
151 159 0
154 164 0
148 157 0
152 162 0
147 156 0
152 160 0
153 163 0
150 159 0
154 162 0
153 162 0
156 168 0
161 170 0
158 167 0
151 159 0
153 162 0
156 166 0
151 164 0
155 167 0
150 162 0
174 195 0
175 196 0
173 194 0
171 192 0
171 192 0
174 196 0
174 194 0
174 194 0
174 194 0
174 195 0
172 193 0
170 192 0
173 194 0
171 193 0
173 194 0
174 195 0
174 195 0
171 192 0
172 194 0
171 193 0
169 191 0
169 190 0
169 189 0
172 193 0
168 188 0
172 193 0
175 195 0
170 190 0
171 192 0
167 188 0
167 189 0
165 186 0
169 191 0
172 193 0
165 186 0
173 194 0
169 191 0
168 190 0
166 187 0
170 191 0
165 185 0
168 189 0
165 185 0
173 194 0
165 187 0
169 190 0
172 193 0
169 189 0
170 191 0
171 192 0
167 189 0
168 188 0
167 188 0
170 191 0
168 189 0
168 188 0
165 188 0
170 192 0
165 186 0
165 186 0
167 188 0
165 187 0
166 187 0
161 183 0
163 184 0
163 185 0
163 185 0
166 187 0
160 182 0
166 188 0
161 182 0
165 187 0
162 184 0
163 185 0
159 181 0
165 187 0
163 185 0
155 176 0
164 185 0
163 185 0
161 182 0
161 182 0
162 184 0
155 177 0
158 181 0
160 182 0
153 175 0
162 184 0
163 185 0
163 185 0
163 186 0
159 181 0
166 187 0
165 187 0
153 175 0
154 175 0
155 177 0
155 177 0
158 180 0
157 180 0
163 185 0
157 180 0
160 183 0
155 178 0
159 181 0
163 185 0
161 183 0
154 176 0
158 180 0
161 183 0
150 173 0
149 171 0
158 179 0
155 177 0
160 183 0
157 179 0
156 178 0
154 178 0
151 172 0
154 177 0
155 177 0
152 175 0
160 183 0
148 170 0
148 171 0
151 174 0
152 174 0
152 175 0
159 182 0
150 172 0
153 174 0
150 172 0
148 170 0
155 178 0
152 174 0
155 177 0
159 181 0
153 176 0
155 177 0
152 174 0
155 178 0
156 179 0
151 173 0
155 177 0
154 176 0
146 168 0
151 174 0
157 179 0
146 167 0
153 174 0
152 173 0
147 169 0
142 164 0
152 173 0
148 172 0
151 173 0
151 173 0
148 170 0
140 161 0
141 164 0
154 175 0
143 166 0
144 166 0
149 171 0
151 173 0
145 166 0
153 175 0
146 167 0
149 171 0
147 169 0
151 173 0
143 165 0
147 168 0
148 170 0
157 180 0
149 171 0
141 162 0
151 172 0
152 173 0
155 176 0
141 163 0
144 166 0
138 159 0
148 169 0
146 169 0
135 157 0
150 172 0
150 172 0
138 158 0
145 165 0
147 169 0
140 162 0
143 165 0
146 167 0
152 173 0
144 166 0
142 163 0
144 167 0
141 161 0
147 168 0
143 164 0
139 159 0
145 166 0
137 158 0
144 165 0
138 158 0
144 165 0
145 166 0
135 156 0
139 161 0
139 160 0
147 170 0
134 155 0
133 153 0
137 157 0
141 163 0
139 160 0
138 159 0
143 163 0
146 166 0
144 163 0
145 164 0
147 167 0
138 159 0
148 170 0
144 164 0
146 165 0
153 174 0
142 163 0
150 169 0
151 170 0
144 163 0
143 162 0
142 162 0
146 166 0
145 166 0
153 173 0
143 163 0
147 169 0
141 160 0
141 161 0
150 170 0
139 160 0
141 161 0
154 173 0
142 163 0
150 170 0
144 163 0
137 156 0
149 168 0
142 163 0
138 157 0
144 162 0
144 163 0
145 167 0
139 157 0
144 164 0
143 161 0
144 163 0
142 160 0
148 166 0
147 166 0
146 165 0
147 165 0
147 166 0
143 161 0
142 159 0
149 168 0
150 170 0
145 164 0
148 168 0
149 167 0
138 157 0
152 170 0
141 159 0
135 153 0
142 161 0
147 165 0
144 160 0
146 165 0
156 173 0
151 170 0
146 163 0
151 171 0
150 165 0
150 168 0
145 163 0
145 162 0
142 159 0
143 160 0
145 162 0
149 168 0
145 161 0
146 164 0
150 168 0
142 160 0
142 159 0
145 162 0
145 161 0
143 160 0
145 161 0
144 158 0
132 147 0
134 149 0
148 165 0
142 158 0
141 156 0
151 167 0
142 157 0
141 155 0
141 156 0
149 166 0
148 163 0
149 166 0
146 161 0
151 167 0
148 161 0
139 152 0
147 160 0
144 159 0
142 156 0
141 153 0
146 158 0
148 162 0
147 159 0
138 148 0
140 153 0
138 150 0
149 162 0
152 165 0
151 166 0
145 158 0
149 161 0
147 159 0
142 151 0
143 153 0
142 151 0
139 150 0
136 148 0
141 153 0
148 161 0
143 154 0
142 152 0
150 162 0
141 152 0
138 147 0
141 150 0
144 153 0
140 151 0
138 148 0
148 157 0
143 153 0
143 153 0
148 156 0
154 163 0
143 153 0
151 160 0
145 151 0
143 151 0
150 160 0
149 159 0
143 154 0
148 156 0
140 148 0
149 159 0
143 151 0
138 145 0
151 161 0
154 164 0
146 153 0
151 161 0
149 157 0
139 148 0
151 161 0
145 154 0
146 154 0
150 161 0
150 156 0
147 155 0
158 167 0
154 164 0
148 157 0
153 161 0
151 160 0
148 158 0
152 162 0
149 158 0
156 165 0
155 162 0
145 152 0
155 165 0
155 168 0
151 161 0
153 162 0
150 159 0
155 163 0
152 160 0
158 168 0
155 166 0
156 166 0
174 195 0
172 194 0
172 193 0
175 195 0
169 190 0
172 193 0
173 193 0
172 193 0
171 193 0
173 194 0
174 195 0
175 196 0
174 195 0
172 194 0
170 191 0
174 195 0
173 193 0
174 195 0
173 194 0
173 194 0
171 193 0
173 193 0
173 193 0
167 189 0
172 193 0
171 192 0
169 191 0
169 191 0
169 190 0
168 188 0
168 188 0
168 189 0
166 187 0
172 193 0
170 191 0
167 188 0
167 188 0
172 193 0
170 190 0
171 192 0
165 186 0
168 188 0
165 186 0
172 193 0
169 190 0
166 188 0
164 185 0
169 190 0
170 191 0
169 191 0
171 192 0
167 188 0
160 181 0
167 188 0
167 188 0
168 190 0
166 188 0
168 188 0
162 183 0
165 187 0
158 180 0
166 187 0
167 189 0
168 189 0
166 189 0
164 186 0
161 183 0
163 184 0
165 187 0
165 188 0
160 183 0
160 182 0
164 185 0
163 185 0
159 181 0
167 189 0
162 184 0
162 184 0
162 185 0
163 186 0
162 184 0
155 177 0
168 189 0
164 187 0
159 182 0
156 179 0
160 182 0
161 184 0
158 180 0
155 177 0
161 183 0
158 180 0
158 179 0
161 183 0
162 185 0
162 184 0
162 184 0
154 177 0
158 180 0
162 184 0
159 180 0
161 184 0
163 185 0
155 178 0
157 180 0
159 181 0
158 180 0
160 182 0
155 178 0
157 180 0
153 174 0
161 185 0
156 179 0
153 175 0
160 182 0
160 182 0
153 175 0
156 178 0
153 175 0
155 177 0
157 180 0
161 184 0
161 184 0
153 176 0
154 176 0
158 180 0
153 176 0
152 174 0
156 178 0
157 177 0
152 175 0
151 174 0
150 173 0
153 175 0
152 174 0
160 183 0
149 172 0
154 177 0
145 167 0
156 178 0
142 164 0
157 179 0
148 170 0
151 172 0
151 172 0
155 178 0
155 178 0
150 174 0
157 180 0
148 170 0
151 173 0
154 176 0
145 168 0
150 172 0
149 171 0
151 173 0
154 176 0
148 170 0
147 169 0
143 165 0
146 167 0
148 169 0
153 174 0
158 181 0
146 166 0
148 169 0
153 175 0
149 171 0
148 170 0
148 171 0
150 171 0
147 169 0
154 176 0
146 167 0
141 162 0
157 179 0
136 158 0
153 175 0
151 173 0
150 171 0
144 166 0
147 168 0
142 165 0
146 166 0
148 170 0
147 169 0
143 164 0
144 165 0
144 166 0
142 162 0
150 171 0
144 166 0
150 173 0
150 172 0
137 158 0
144 166 0
141 163 0
144 163 0
147 167 0
139 160 0
142 164 0
145 167 0
146 168 0
141 163 0
140 161 0
145 166 0
144 165 0
146 167 0
145 167 0
139 160 0
149 172 0
137 159 0
146 166 0
144 164 0
139 160 0
147 167 0
144 165 0
146 166 0
147 167 0
151 172 0
139 161 0
142 163 0
151 171 0
132 153 0
147 167 0
137 156 0
150 171 0
155 175 0
143 162 0
141 161 0
133 153 0
140 160 0
146 166 0
150 170 0
143 163 0
139 157 0
149 170 0
143 164 0
137 158 0
141 161 0
144 163 0
135 155 0
145 165 0
146 165 0
142 161 0
143 162 0
149 170 0
148 168 0
146 166 0
143 162 0
138 157 0
151 172 0
143 163 0
146 165 0
146 167 0
134 154 0
149 168 0
140 159 0
144 163 0
149 166 0
142 160 0
143 164 0
144 163 0
143 161 0
148 167 0
146 165 0
147 165 0
157 175 0
139 159 0
148 166 0
148 169 0
147 166 0
137 154 0
145 162 0
150 168 0
146 163 0
147 167 0
151 169 0
153 171 0
152 170 0
156 174 0
149 167 0
149 169 0
145 163 0
156 177 0
150 167 0
142 160 0
151 169 0
148 167 0
144 160 0
139 156 0
149 166 0
146 164 0
146 162 0
144 161 0
151 167 0
151 169 0
150 166 0
151 167 0
135 151 0
151 169 0
145 159 0
139 156 0
146 161 0
151 166 0
148 165 0
146 162 0
139 153 0
143 157 0
143 159 0
141 159 0
135 148 0
143 158 0
147 163 0
133 147 0
144 156 0
140 153 0
145 160 0
155 171 0
147 161 0
150 166 0
148 161 0
145 159 0
137 147 0
144 158 0
148 162 0
149 164 0
143 157 0
143 156 0
147 163 0
146 158 0
142 158 0
139 150 0
138 149 0
144 156 0
151 164 0
148 158 0
150 162 0
144 156 0
144 153 0
146 156 0
146 157 0
145 156 0
145 154 0
146 155 0
143 154 0
139 149 0
149 161 0
152 163 0
143 152 0
149 158 0
142 150 0
138 145 0
150 163 0
150 161 0
141 154 0
145 152 0
148 160 0
146 155 0
146 154 0
147 156 0
147 157 0
142 150 0
148 157 0
144 151 0
140 148 0
151 161 0
151 162 0
146 153 0
155 166 0
145 156 0
148 158 0
139 147 0
149 158 0
141 148 0
151 157 0
151 162 0
156 164 0
149 158 0
148 159 0
146 157 0
148 157 0
152 164 0
149 157 0
150 158 0
157 166 0
153 165 0
153 163 0
151 160 0
146 154 0
156 167 0
151 162 0
150 160 0
145 154 0
150 158 0
154 165 0
153 162 0
157 169 0
156 168 0
151 162 0
172 194 0
174 195 0
175 196 0
172 194 0
169 191 0
171 194 0
173 194 0
176 198 0
175 197 0
175 196 0
170 191 0
173 194 0
172 193 0
172 193 0
172 193 0
173 194 0
170 191 0
173 194 0
165 187 0
171 192 0
173 194 0
168 190 0
173 194 0
175 196 0
162 182 0
169 190 0
171 191 0
174 195 0
175 195 0
169 191 0
170 192 0
169 191 0
170 191 0
171 192 0
168 189 0
169 191 0
167 190 0
166 187 0
171 191 0
169 190 0
167 188 0
164 186 0
167 189 0
167 188 0
170 191 0
165 187 0
171 191 0
164 185 0
169 191 0
167 188 0
172 193 0
170 192 0
169 189 0
169 191 0
167 189 0
157 179 0
166 187 0
160 181 0
159 181 0
160 182 0
164 187 0
167 189 0
167 188 0
166 189 0
165 185 0
163 184 0
162 183 0
159 180 0
167 188 0
158 180 0
163 184 0
165 187 0
166 189 0
161 183 0
165 187 0
163 185 0
161 183 0
163 184 0
164 186 0
158 180 0
162 186 0
161 182 0
163 186 0
154 176 0
162 186 0
156 178 0
164 187 0
163 186 0
164 186 0
161 182 0
156 179 0
154 177 0
161 184 0
160 182 0
156 179 0
154 176 0
160 183 0
154 176 0
154 177 0
159 180 0
160 182 0
160 182 0
155 178 0
159 181 0
150 173 0
153 175 0
157 180 0
156 178 0
149 171 0
158 180 0
153 175 0
154 177 0
149 170 0
151 173 0
154 176 0
159 181 0
157 180 0
158 180 0
159 183 0
163 186 0
160 183 0
159 182 0
153 175 0
154 178 0
157 179 0
149 173 0
154 178 0
156 179 0
154 176 0
162 184 0
155 177 0
150 172 0
147 170 0
147 170 0
154 176 0
150 172 0
155 178 0
153 176 0
145 167 0
155 177 0
154 177 0
149 171 0
147 169 0
155 176 0
145 168 0
149 172 0
145 168 0
158 180 0
150 171 0
151 174 0
154 177 0
149 169 0
149 169 0
152 174 0
145 167 0
146 169 0
136 158 0
152 175 0
145 168 0
144 165 0
147 170 0
148 169 0
148 170 0
149 171 0
148 170 0
147 169 0
152 174 0
144 166 0
141 163 0
138 160 0
146 166 0
141 163 0
153 175 0
149 171 0
155 178 0
150 173 0
145 166 0
141 163 0
145 166 0
151 173 0
152 173 0
153 175 0
148 169 0
151 173 0
148 170 0
152 173 0
151 172 0
144 166 0
147 169 0
147 169 0
143 164 0
153 175 0
140 162 0
150 170 0
147 169 0
145 166 0
147 168 0
144 165 0
146 167 0
139 161 0
149 171 0
150 170 0
155 176 0
146 167 0
154 175 0
141 161 0
150 171 0
149 171 0
141 163 0
144 165 0
149 169 0
143 165 0
147 166 0
138 161 0
148 169 0
139 162 0
145 166 0
140 162 0
136 156 0
145 166 0
147 168 0
151 170 0
145 166 0
144 164 0
140 161 0
138 158 0
147 166 0
144 163 0
139 160 0
149 170 0
144 167 0
142 162 0
152 173 0
146 166 0
147 167 0
136 156 0
135 155 0
148 168 0
148 166 0
150 171 0
146 167 0
144 165 0
144 164 0
142 162 0
153 172 0
140 160 0
150 169 0
143 164 0
148 169 0
151 172 0
144 165 0
145 164 0
141 162 0
152 172 0
143 162 0
147 167 0
147 167 0
143 163 0
149 167 0
141 159 0
141 160 0
139 159 0
150 169 0
139 159 0
152 170 0
138 157 0
132 148 0
145 164 0
146 166 0
140 159 0
142 160 0
145 162 0
143 161 0
150 169 0
153 172 0
138 155 0
154 174 0
144 162 0
140 157 0
147 163 0
148 167 0
147 163 0
146 164 0
152 170 0
138 156 0
146 162 0
142 159 0
146 164 0
149 166 0
141 159 0
151 169 0
145 161 0
145 162 0
141 160 0
148 167 0
155 174 0
145 163 0
149 167 0
155 172 0
142 158 0
148 165 0
154 173 0
152 170 0
157 176 0
147 164 0
140 155 0
155 170 0
145 160 0
147 164 0
148 167 0
145 159 0
145 160 0
148 164 0
144 159 0
148 164 0
150 166 0
151 165 0
149 163 0
143 156 0
145 161 0
147 161 0
156 172 0
146 163 0
147 163 0
147 159 0
144 157 0
147 158 0
145 161 0
152 165 0
149 163 0
140 155 0
152 165 0
151 164 0
144 157 0
147 158 0
148 160 0
151 162 0
149 162 0
147 159 0
149 162 0
147 159 0
140 152 0
148 160 0
149 161 0
147 163 0
148 160 0
141 151 0
141 152 0
145 156 0
152 165 0
145 156 0
146 158 0
155 164 0
147 157 0
150 162 0
155 168 0
138 149 0
151 163 0
152 163 0
150 161 0
138 145 0
144 153 0
149 159 0
148 158 0
143 152 0
148 159 0
148 157 0
152 164 0
146 153 0
152 163 0
150 161 0
149 161 0
159 170 0
148 155 0
151 160 0
156 167 0
148 158 0
151 162 0
153 163 0
154 163 0
151 159 0
156 166 0
148 160 0
153 163 0
150 161 0
152 163 0
152 163 0
146 153 0
155 165 0
145 153 0
147 156 0
149 160 0
153 164 0
149 158 0
144 153 0
150 159 0
155 168 0
154 164 0
151 161 0
159 171 0
170 191 0
171 192 0
174 195 0
172 194 0
170 191 0
174 195 0
174 196 0
168 189 0
173 195 0
173 194 0
173 194 0
175 196 0
173 194 0
174 194 0
170 192 0
172 193 0
174 195 0
171 192 0
171 192 0
167 189 0
168 190 0
168 189 0
169 190 0
170 191 0
169 191 0
169 190 0
165 186 0
171 192 0
173 195 0
173 194 0
172 193 0
169 190 0
166 187 0
166 188 0
172 194 0
162 182 0
166 188 0
169 189 0
170 191 0
170 191 0
163 185 0
168 189 0
170 191 0
167 187 0
169 190 0
167 188 0
171 192 0
171 192 0
169 191 0
164 185 0
166 187 0
170 192 0
162 183 0
166 187 0
167 188 0
168 189 0
164 186 0
171 193 0
162 184 0
162 184 0
162 184 0
163 184 0
165 187 0
161 183 0
168 190 0
166 188 0
156 178 0
157 179 0
158 180 0
155 178 0
160 184 0
161 182 0
159 182 0
163 184 0
161 183 0
164 187 0
161 183 0
161 184 0
161 184 0
154 177 0
159 181 0
160 182 0
161 183 0
163 185 0
160 182 0
162 184 0
165 186 0
158 181 0
150 173 0
159 181 0
161 182 0
163 186 0
159 182 0
159 182 0
156 179 0
157 181 0
160 181 0
158 180 0
160 182 0
159 181 0
155 178 0
157 179 0
155 177 0
156 178 0
155 178 0
162 185 0
152 175 0
153 175 0
150 172 0
157 179 0
157 179 0
159 181 0
156 178 0
159 181 0
154 176 0
155 177 0
155 178 0
160 182 0
160 183 0
155 178 0
159 182 0
156 178 0
155 178 0
156 178 0
154 175 0
159 181 0
157 180 0
150 173 0
159 182 0
149 172 0
154 175 0
152 175 0
151 174 0
151 174 0
158 181 0
157 180 0
155 179 0
150 174 0
153 175 0
154 177 0
154 176 0
151 172 0
152 174 0
151 173 0
148 170 0
146 168 0
151 172 0
147 169 0
154 176 0
154 176 0
154 177 0
154 177 0
146 168 0
149 171 0
150 171 0
149 170 0
148 171 0
154 175 0
155 176 0
151 173 0
151 173 0
149 171 0
159 181 0
156 177 0
152 174 0
149 170 0
139 161 0
152 173 0
147 168 0
149 172 0
147 169 0
144 165 0
149 171 0
152 175 0
149 169 0
150 171 0
141 163 0
148 169 0
146 168 0
141 163 0
150 173 0
148 169 0
141 163 0
141 163 0
136 159 0
139 160 0
147 170 0
136 155 0
144 165 0
151 173 0
147 168 0
144 166 0
148 168 0
145 166 0
148 169 0
145 165 0
140 161 0
140 160 0
147 169 0
147 166 0
140 161 0
157 178 0
146 168 0
142 164 0
147 168 0
150 171 0
138 160 0
133 153 0
147 169 0
143 163 0
147 169 0
145 166 0
151 173 0
139 159 0
137 158 0
150 171 0
144 165 0
143 163 0
137 157 0
148 169 0
153 174 0
141 163 0
151 171 0
135 153 0
143 164 0
144 164 0
135 154 0
138 159 0
140 161 0
140 161 0
143 165 0
136 157 0
142 161 0
141 160 0
150 169 0
142 163 0
140 162 0
147 166 0
138 158 0
138 158 0
148 169 0
149 169 0
148 168 0
143 162 0
138 158 0
142 162 0
151 172 0
145 165 0
141 159 0
148 170 0
138 157 0
142 160 0
142 161 0
153 174 0
143 163 0
146 166 0
142 161 0
145 164 0
147 167 0
143 161 0
143 163 0
144 163 0
151 169 0
150 168 0
145 164 0
151 170 0
151 171 0
146 166 0
145 164 0
154 175 0
151 171 0
143 160 0
147 165 0
142 160 0
144 162 0
148 167 0
145 163 0
151 171 0
146 165 0
155 174 0
146 165 0
155 175 0
140 158 0
142 160 0
147 164 0
146 163 0
141 158 0
144 162 0
141 157 0
154 170 0
150 168 0
145 162 0
154 171 0
152 171 0
149 163 0
149 167 0
146 164 0
141 157 0
146 165 0
147 164 0
152 171 0
145 162 0
150 167 0
144 162 0
146 161 0
141 157 0
141 158 0
151 166 0
149 166 0
144 159 0
144 158 0
145 159 0
145 164 0
146 163 0
144 158 0
145 158 0
141 155 0
139 152 0
151 167 0
145 161 0
149 164 0
154 166 0
149 166 0
152 167 0
150 166 0
146 160 0
153 167 0
148 160 0
142 155 0
149 162 0
146 158 0
139 152 0
147 158 0
148 161 0
146 157 0
150 164 0
142 151 0
147 158 0
143 153 0
150 166 0
136 146 0
152 164 0
150 163 0
143 155 0
150 162 0
148 160 0
148 158 0
155 168 0
148 158 0
147 160 0
140 149 0
147 160 0
147 160 0
151 163 0
149 158 0
151 165 0
152 164 0
152 163 0
147 157 0
144 157 0
149 157 0
149 160 0
152 163 0
156 169 0
150 163 0
148 157 0
143 152 0
149 160 0
152 162 0
144 154 0
154 164 0
148 157 0
141 151 0
150 161 0
148 158 0
149 159 0
148 156 0
150 162 0
157 168 0
154 162 0
145 153 0
148 155 0
154 164 0
151 160 0
154 165 0
151 162 0
145 155 0
156 165 0
150 162 0
156 164 0
156 166 0
151 161 0
151 160 0
152 161 0
153 165 0
154 166 0
156 168 0
152 162 0
156 169 0
154 163 0
173 195 0
171 193 0
168 190 0
175 196 0
172 194 0
171 193 0
172 194 0
173 195 0
173 194 0
170 192 0
168 189 0
172 193 0
171 193 0
171 192 0
172 193 0
175 196 0
167 190 0
169 191 0
172 193 0
171 192 0
174 196 0
172 193 0
167 188 0
172 194 0
170 192 0
171 192 0
172 193 0
173 193 0
164 185 0
168 189 0
170 191 0
167 189 0
175 196 0
170 192 0
170 192 0
167 188 0
170 191 0
169 191 0
164 184 0
169 191 0
171 191 0
169 190 0
166 187 0
166 188 0
168 190 0
166 188 0
164 185 0
165 186 0
167 188 0
168 189 0
170 191 0
167 188 0
168 189 0
164 186 0
167 188 0
162 184 0
164 186 0
170 191 0
166 188 0
162 185 0
164 187 0
166 188 0
164 185 0
162 184 0
163 185 0
163 185 0
157 179 0
163 186 0
159 182 0
163 185 0
162 184 0
159 181 0
167 189 0
161 183 0
162 185 0
158 180 0
160 182 0
159 182 0
166 188 0
161 183 0
165 189 0
158 180 0
159 181 0
161 183 0
162 184 0
158 181 0
164 186 0
152 175 0
159 180 0
161 184 0
161 184 0
157 179 0
158 181 0
157 178 0
160 183 0
162 185 0
158 181 0
159 182 0
161 183 0
154 176 0
159 183 0
158 180 0
162 185 0
160 183 0
157 179 0
155 177 0
160 183 0
161 184 0
161 184 0
158 180 0
160 183 0
150 172 0
159 182 0
155 178 0
155 178 0
162 185 0
157 179 0
159 181 0
158 180 0
150 173 0
156 180 0
159 182 0
160 182 0
152 175 0
152 175 0
158 182 0
157 179 0
161 185 0
149 171 0
156 179 0
150 172 0
148 172 0
160 183 0
160 183 0
149 171 0
151 173 0
158 181 0
147 171 0
152 174 0
157 179 0
158 181 0
155 177 0
152 174 0
152 173 0
148 170 0
154 176 0
149 171 0
145 168 0
157 180 0
152 173 0
152 174 0
152 174 0
149 172 0
152 175 0
150 173 0
145 166 0
150 171 0
150 171 0
146 168 0
156 177 0
141 164 0
146 168 0
153 175 0
145 167 0
150 171 0
149 171 0
146 167 0
151 173 0
152 174 0
148 171 0
148 169 0
150 173 0
155 177 0
151 173 0
150 172 0
151 174 0
147 170 0
149 171 0
154 176 0
148 170 0
156 176 0
148 169 0
145 167 0
148 169 0
151 173 0
151 170 0
143 163 0
142 166 0
151 173 0
151 171 0
147 168 0
153 174 0
151 172 0
147 169 0
145 167 0
150 172 0
146 167 0
146 167 0
146 167 0
146 166 0
147 167 0
147 168 0
143 163 0
144 166 0
148 168 0
141 163 0
142 164 0
152 172 0
147 169 0
139 160 0
146 168 0
145 165 0
138 159 0
142 162 0
154 177 0
135 155 0
150 171 0
136 156 0
149 171 0
141 163 0
151 172 0
138 157 0
145 165 0
151 171 0
147 167 0
143 164 0
151 171 0
140 160 0
144 165 0
147 166 0
149 170 0
146 166 0
141 161 0
141 160 0
150 171 0
149 170 0
148 169 0
147 168 0
147 167 0
146 166 0
142 163 0
139 159 0
149 170 0
147 167 0
148 167 0
154 175 0
145 165 0
147 166 0
144 162 0
139 160 0
145 165 0
147 168 0
146 165 0
144 165 0
147 167 0
140 159 0
138 158 0
142 164 0
149 169 0
143 163 0
158 179 0
144 164 0
154 173 0
142 161 0
152 172 0
141 159 0
146 166 0
146 165 0
149 168 0
152 173 0
141 159 0
144 163 0
153 172 0
142 160 0
149 167 0
145 164 0
135 155 0
143 160 0
153 172 0
133 150 0
153 172 0
142 158 0
145 163 0
143 160 0
145 162 0
153 170 0
144 162 0
146 163 0
146 163 0
155 171 0
143 160 0
152 171 0
150 168 0
148 167 0
150 170 0
150 168 0
150 167 0
148 164 0
148 164 0
151 170 0
149 166 0
145 160 0
145 162 0
150 165 0
142 155 0
144 161 0
145 162 0
139 152 0
148 165 0
146 160 0
147 163 0
144 160 0
146 161 0
145 158 0
139 155 0
153 166 0
145 161 0
151 167 0
157 175 0
154 170 0
150 165 0
149 163 0
148 161 0
151 165 0
148 165 0
156 171 0
149 163 0
147 162 0
153 169 0
146 159 0
152 167 0
146 163 0
146 159 0
153 168 0
148 160 0
153 167 0
146 160 0
148 161 0
150 162 0
142 158 0
150 163 0
150 163 0
148 161 0
150 163 0
152 165 0
149 161 0
139 150 0
145 157 0
151 162 0
154 167 0
149 162 0
145 155 0
150 165 0
152 163 0
140 151 0
151 165 0
146 158 0
147 157 0
144 154 0
142 152 0
155 168 0
154 166 0
153 164 0
154 166 0
151 164 0
150 163 0
137 146 0
148 156 0
146 155 0
145 152 0
147 158 0
152 164 0
146 156 0
153 163 0
159 171 0
152 163 0
150 159 0
152 166 0
149 160 0
151 163 0
149 158 0
157 167 0
145 155 0
153 163 0
156 168 0
154 165 0
154 165 0
151 160 0
144 154 0
150 159 0
157 168 0
153 160 0
153 166 0
155 166 0
159 171 0
158 168 0
154 165 0
149 158 0
151 161 0
158 171 0
171 192 0
168 190 0
173 194 0
169 192 0
173 194 0
173 195 0
172 194 0
173 196 0
171 192 0
174 195 0
172 193 0
170 191 0
173 194 0
173 195 0
172 194 0
167 188 0
177 197 0
169 190 0
172 193 0
172 194 0
173 195 0
166 187 0
171 193 0
168 190 0
169 192 0
168 190 0
168 188 0
167 189 0
171 192 0
167 188 0
171 191 0
169 190 0
169 189 0
171 192 0
163 185 0
172 194 0
166 187 0
169 191 0
168 189 0
165 186 0
165 187 0
173 194 0
167 188 0
164 185 0
170 191 0
165 185 0
169 191 0
167 188 0
166 187 0
166 188 0
162 185 0
163 184 0
168 189 0
169 190 0
163 185 0
166 188 0
155 177 0
166 188 0
161 184 0
163 185 0
156 178 0
162 184 0
165 186 0
167 189 0
158 180 0
162 184 0
159 181 0
162 184 0
163 185 0
162 184 0
166 187 0
159 181 0
164 186 0
160 182 0
156 178 0
157 180 0
164 186 0
165 187 0
158 180 0
156 178 0
158 180 0
157 179 0
160 182 0
154 176 0
158 181 0
153 175 0
167 189 0
164 186 0
164 187 0
156 178 0
163 185 0
160 184 0
156 179 0
159 181 0
155 178 0
160 181 0
158 181 0
157 181 0
157 179 0
164 187 0
152 174 0
154 175 0
160 183 0
161 183 0
156 179 0
160 182 0
149 173 0
156 178 0
158 181 0
150 173 0
157 180 0
155 178 0
153 175 0
155 178 0
157 179 0
159 181 0
150 173 0
152 174 0
157 180 0
154 177 0
159 182 0
161 184 0
159 181 0
162 185 0
153 176 0
159 182 0
156 178 0
146 168 0
156 179 0
155 177 0
149 171 0
153 177 0
159 181 0
148 170 0
158 181 0
157 179 0
153 175 0
155 177 0
157 180 0
149 171 0
149 172 0
148 171 0
160 184 0
150 172 0
157 178 0
147 170 0
155 178 0
160 183 0
147 169 0
152 175 0
149 171 0
148 170 0
148 170 0
155 177 0
150 172 0
142 165 0
157 180 0
151 172 0
151 173 0
158 180 0
146 168 0
151 174 0
145 169 0
149 171 0
151 173 0
149 171 0
151 173 0
144 166 0
147 169 0
149 170 0
149 171 0
147 169 0
148 170 0
145 166 0
147 168 0
148 170 0
143 163 0
157 180 0
137 159 0
149 171 0
146 167 0
151 173 0
149 171 0
147 169 0
151 173 0
142 161 0
147 169 0
148 170 0
147 167 0
149 170 0
143 165 0
145 167 0
146 167 0
150 172 0
146 167 0
151 172 0
147 168 0
139 159 0
153 175 0
146 167 0
143 165 0
148 170 0
146 168 0
145 167 0
136 157 0
148 170 0
141 162 0
144 166 0
145 167 0
143 165 0
152 173 0
146 166 0
144 165 0
147 166 0
141 161 0
146 167 0
144 165 0
145 168 0
148 169 0
141 162 0
146 167 0
144 165 0
150 171 0
150 171 0
149 169 0
139 161 0
143 163 0
150 170 0
141 161 0
138 158 0
149 170 0
148 169 0
148 169 0
143 163 0
151 173 0
152 170 0
151 172 0
148 169 0
144 165 0
147 167 0
148 167 0
145 165 0
142 161 0
140 160 0
136 155 0
138 158 0
156 175 0
148 169 0
142 163 0
153 173 0
150 171 0
146 165 0
152 170 0
150 172 0
149 169 0
151 171 0
144 163 0
155 175 0
138 158 0
149 167 0
133 153 0
146 164 0
151 173 0
145 164 0
143 162 0
152 171 0
153 173 0
148 168 0
145 164 0
149 166 0
147 165 0
144 163 0
149 168 0
149 168 0
148 168 0
156 175 0
145 164 0
140 159 0
147 165 0
151 170 0
152 171 0
154 173 0
145 163 0
145 164 0
148 167 0
147 164 0
142 161 0
142 159 0
151 168 0
149 165 0
145 164 0
148 166 0
148 166 0
148 165 0
145 164 0
147 163 0
148 166 0
147 164 0
147 164 0
148 166 0
144 162 0
149 164 0
150 166 0
150 167 0
148 167 0
149 165 0
148 166 0
154 170 0
144 157 0
141 157 0
148 163 0
146 161 0
146 159 0
145 160 0
149 168 0
141 156 0
142 158 0
153 170 0
155 168 0
153 168 0
156 172 0
149 164 0
144 157 0
139 153 0
151 167 0
149 165 0
153 169 0
148 164 0
151 166 0
153 167 0
145 160 0
146 161 0
149 163 0
153 168 0
156 171 0
148 163 0
145 156 0
146 159 0
142 155 0
150 162 0
140 151 0
150 163 0
151 164 0
144 158 0
150 161 0
147 160 0
145 158 0
148 162 0
153 167 0
150 164 0
144 156 0
148 163 0
150 161 0
146 157 0
140 151 0
150 162 0
153 166 0
153 167 0
148 160 0
148 159 0
152 165 0
146 157 0
147 157 0
156 166 0
153 163 0
153 166 0
150 158 0
151 163 0
150 160 0
147 156 0
153 166 0
148 158 0
159 170 0
147 156 0
146 159 0
143 152 0
142 151 0
149 159 0
159 171 0
152 163 0
147 157 0
149 158 0
149 160 0
147 157 0
153 163 0
148 158 0
154 166 0
157 167 0
143 153 0
144 153 0
150 162 0
153 164 0
154 166 0
156 167 0
152 163 0
150 162 0
159 171 0
154 166 0
159 172 0
151 161 0
176 197 0
171 192 0
169 191 0
171 191 0
175 196 0
175 197 0
173 195 0
171 193 0
173 194 0
173 195 0
169 192 0
168 191 0
171 193 0
173 194 0
169 191 0
170 192 0
176 197 0
172 192 0
169 191 0
173 195 0
171 192 0
168 189 0
173 195 0
170 192 0
167 188 0
169 191 0
168 189 0
167 189 0
171 192 0
170 192 0
169 190 0
169 190 0
168 188 0
174 195 0
166 187 0
165 187 0
172 193 0
168 189 0
170 190 0
166 187 0
166 188 0
168 189 0
167 189 0
167 189 0
167 189 0
165 188 0
168 190 0
170 192 0
160 182 0
165 186 0
165 186 0
161 182 0
160 182 0
165 187 0
164 185 0
166 189 0
166 188 0
164 185 0
163 185 0
155 178 0
163 185 0
162 183 0
160 182 0
164 186 0
164 186 0
160 181 0
155 177 0
164 186 0
158 180 0
160 183 0
158 179 0
163 186 0
161 182 0
157 179 0
166 188 0
163 185 0
163 184 0
159 182 0
158 181 0
164 187 0
160 184 0
151 174 0
156 178 0
162 184 0
161 183 0
162 184 0
164 186 0
168 190 0
154 177 0
156 177 0
153 175 0
154 177 0
159 181 0
151 174 0
155 178 0
159 181 0
157 179 0
160 183 0
157 179 0
155 177 0
160 182 0
156 178 0
155 179 0
155 179 0
156 179 0
159 182 0
159 181 0
151 174 0
152 174 0
158 181 0
162 185 0
153 176 0
152 173 0
157 180 0
165 188 0
155 178 0
155 176 0
148 171 0
153 176 0
157 181 0
152 175 0
158 180 0
150 172 0
159 182 0
158 180 0
157 179 0
152 175 0
155 178 0
154 177 0
150 172 0
151 174 0
150 174 0
152 175 0
152 175 0
145 168 0
147 170 0
156 178 0
157 179 0
145 166 0
155 177 0
157 179 0
148 170 0
155 178 0
162 183 0
149 170 0
154 177 0
155 177 0
151 174 0
148 171 0
155 176 0
153 176 0
155 177 0
151 173 0
152 175 0
147 170 0
150 174 0
150 173 0
156 178 0
153 175 0
147 169 0
147 168 0
154 177 0
148 171 0
151 173 0
148 172 0
141 162 0
155 178 0
153 175 0
148 171 0
150 172 0
146 167 0
155 177 0
148 170 0
149 170 0
150 172 0
145 168 0
151 173 0
141 162 0
149 171 0
147 169 0
143 163 0
146 168 0
144 166 0
152 174 0
145 167 0
148 171 0
142 162 0
148 169 0
139 161 0
149 172 0
149 171 0
156 177 0
156 179 0
153 175 0
140 159 0
140 160 0
148 170 0
148 169 0
149 170 0
147 167 0
155 176 0
148 169 0
152 173 0
141 162 0
151 173 0
148 168 0
147 169 0
147 168 0
145 166 0
141 162 0
141 162 0
151 173 0
144 165 0
149 170 0
147 168 0
148 169 0
146 167 0
152 174 0
140 161 0
140 160 0
146 167 0
144 166 0
141 162 0
145 165 0
140 160 0
150 171 0
140 159 0
153 174 0
141 160 0
144 164 0
138 159 0
146 166 0
144 165 0
146 166 0
150 171 0
147 169 0
141 161 0
143 163 0
142 163 0
141 162 0
141 161 0
144 164 0
149 169 0
155 177 0
143 164 0
155 176 0
145 165 0
139 157 0
144 164 0
145 166 0
148 168 0
141 162 0
142 164 0
146 166 0
146 165 0
156 176 0
141 162 0
142 162 0
144 164 0
149 169 0
140 158 0
149 168 0
149 169 0
139 158 0
146 164 0
155 173 0
133 153 0
147 167 0
147 167 0
144 162 0
137 155 0
148 167 0
149 169 0
144 163 0
149 168 0
145 164 0
148 167 0
144 163 0
148 167 0
140 158 0
142 160 0
152 170 0
150 168 0
149 168 0
150 169 0
147 166 0
147 165 0
146 163 0
149 170 0
155 173 0
138 153 0
148 166 0
153 173 0
140 158 0
143 162 0
143 160 0
144 162 0
151 170 0
147 165 0
151 169 0
150 168 0
150 166 0
150 166 0
153 169 0
145 162 0
150 168 0
151 168 0
152 168 0
146 163 0
151 168 0
150 165 0
150 165 0
144 160 0
146 161 0
142 158 0
152 169 0
150 168 0
142 158 0
149 166 0
150 167 0
140 154 0
148 161 0
143 160 0
143 158 0
150 166 0
144 159 0
149 165 0
153 167 0
144 158 0
142 155 0
148 161 0
147 163 0
149 164 0
155 170 0
146 159 0
152 168 0
154 170 0
145 159 0
145 159 0
146 157 0
145 159 0
143 158 0
152 168 0
151 165 0
148 162 0
148 160 0
137 149 0
150 165 0
145 158 0
154 167 0
147 158 0
154 168 0
147 157 0
148 161 0
153 167 0
148 159 0
145 156 0
155 168 0
154 166 0
148 163 0
151 163 0
152 163 0
154 166 0
151 161 0
144 154 0
146 157 0
149 162 0
149 162 0
150 163 0
147 157 0
154 166 0
152 164 0
150 163 0
148 159 0
148 156 0
144 152 0
149 159 0
158 171 0
159 171 0
152 164 0
152 166 0
154 162 0
152 162 0
149 160 0
151 162 0
156 169 0
156 168 0
153 163 0
152 163 0
156 168 0
150 160 0
156 169 0
142 150 0
155 166 0
152 160 0
155 166 0
151 163 0
150 161 0
159 171 0
154 166 0
174 195 0
170 191 0
171 194 0
171 193 0
175 196 0
167 189 0
172 193 0
165 187 0
170 191 0
169 191 0
173 194 0
174 195 0
172 193 0
168 190 0
171 192 0
176 197 0
171 192 0
170 191 0
167 188 0
166 187 0
168 190 0
168 189 0
175 196 0
168 189 0
173 194 0
172 193 0
172 193 0
170 191 0
172 193 0
167 189 0
165 188 0
167 189 0
166 187 0
166 187 0
171 191 0
168 189 0
167 188 0
171 193 0
167 189 0
171 194 0
173 195 0
167 189 0
171 192 0
161 183 0
167 189 0
171 194 0
167 188 0
163 184 0
165 187 0
164 186 0
170 192 0
169 191 0
163 185 0
162 184 0
160 182 0
164 185 0
161 184 0
165 187 0
160 182 0
169 190 0
158 181 0
166 188 0
154 177 0
156 178 0
165 188 0
164 187 0
164 186 0
163 186 0
165 187 0
164 186 0
161 183 0
158 180 0
161 184 0
165 188 0
161 184 0
164 186 0
149 173 0
160 183 0
167 189 0
162 184 0
158 182 0
160 182 0
164 186 0
164 185 0
162 185 0
161 183 0
162 185 0
161 182 0
154 177 0
155 177 0
156 178 0
165 186 0
159 182 0
157 180 0
157 180 0
158 180 0
147 170 0
158 180 0
158 180 0
157 179 0
152 174 0
159 181 0
160 183 0
153 176 0
159 182 0
154 177 0
156 179 0
159 182 0
158 180 0
154 177 0
160 182 0
149 171 0
151 173 0
159 182 0
156 177 0
147 170 0
153 175 0
148 171 0
150 173 0
158 181 0
146 169 0
163 185 0
158 180 0
156 179 0
157 181 0
155 176 0
157 180 0
153 176 0
155 177 0
147 169 0
151 173 0
157 180 0
153 175 0
148 170 0
152 174 0
156 178 0
157 180 0
145 168 0
152 174 0
156 178 0
157 179 0
154 177 0
149 172 0
155 177 0
160 182 0
152 175 0
154 177 0
153 174 0
153 176 0
152 173 0
149 172 0
153 176 0
152 175 0
153 175 0
153 175 0
155 178 0
150 173 0
147 170 0
156 177 0
156 179 0
158 180 0
149 172 0
154 177 0
151 173 0
142 165 0
144 167 0
145 168 0
148 171 0
155 178 0
147 170 0
149 170 0
156 177 0
156 179 0
154 177 0
153 175 0
142 164 0
147 169 0
142 165 0
151 172 0
153 174 0
150 172 0
150 172 0
146 168 0
152 174 0
138 160 0
149 170 0
152 173 0
150 172 0
146 167 0
147 170 0
155 178 0
151 173 0
149 171 0
149 171 0
145 168 0
143 163 0
147 168 0
143 164 0
139 161 0
151 173 0
138 160 0
147 168 0
145 165 0
148 170 0
142 165 0
144 165 0
149 171 0
144 165 0
149 170 0
150 172 0
143 162 0
151 173 0
144 165 0
144 165 0
147 168 0
146 166 0
150 171 0
144 165 0
150 172 0
147 167 0
150 171 0
142 162 0
138 157 0
151 173 0
139 160 0
148 168 0
144 167 0
144 167 0
140 159 0
145 164 0
149 170 0
144 165 0
142 161 0
149 168 0
145 165 0
148 169 0
146 167 0
149 171 0
147 167 0
155 178 0
151 171 0
150 171 0
147 164 0
150 171 0
144 162 0
144 165 0
146 167 0
148 170 0
147 165 0
142 161 0
149 168 0
144 162 0
155 175 0
146 167 0
147 165 0
140 160 0
154 174 0
142 161 0
149 169 0
149 169 0
148 168 0
147 165 0
148 166 0
151 170 0
149 167 0
153 173 0
139 158 0
144 163 0
156 175 0
145 164 0
148 167 0
147 164 0
155 174 0
144 162 0
151 172 0
141 159 0
155 174 0
144 163 0
146 164 0
139 157 0
148 168 0
150 167 0
144 164 0
152 171 0
151 170 0
149 167 0
147 166 0
151 170 0
138 157 0
155 174 0
141 159 0
151 170 0
149 167 0
151 170 0
149 166 0
141 157 0
153 170 0
150 167 0
158 177 0
157 175 0
149 168 0
149 169 0
143 160 0
142 161 0
156 175 0
143 158 0
143 159 0
148 163 0
149 166 0
149 166 0
146 161 0
149 165 0
151 171 0
144 158 0
153 171 0
145 157 0
153 170 0
153 170 0
145 162 0
154 169 0
155 171 0
146 163 0
156 172 0
144 160 0
152 167 0
154 168 0
142 157 0
151 167 0
151 167 0
148 162 0
148 162 0
159 175 0
153 170 0
151 167 0
145 160 0
145 161 0
152 166 0
154 167 0
149 163 0
143 157 0
157 172 0
151 164 0
146 161 0
141 153 0
149 164 0
143 157 0
139 151 0
142 155 0
141 155 0
148 163 0
146 158 0
148 162 0
158 174 0
150 160 0
151 162 0
144 157 0
146 158 0
153 167 0
148 160 0
148 161 0
150 164 0
147 159 0
147 159 0
153 164 0
150 161 0
141 151 0
150 162 0
154 165 0
149 159 0
150 162 0
152 165 0
151 162 0
158 170 0
143 153 0
158 170 0
154 166 0
150 161 0
153 164 0
150 161 0
148 158 0
154 167 0
155 164 0
156 167 0
147 155 0
151 161 0
153 163 0
149 159 0
151 161 0
152 165 0
146 158 0
155 166 0
152 162 0
150 161 0
150 161 0
158 170 0
153 161 0
155 167 0
153 163 0
156 167 0
154 166 0
176 197 0
174 195 0
171 192 0
171 192 0
174 196 0
172 193 0
168 190 0
171 192 0
173 195 0
167 189 0
173 194 0
170 191 0
169 191 0
172 193 0
171 192 0
170 192 0
170 192 0
168 189 0
172 193 0
173 195 0
162 184 0
166 188 0
170 192 0
169 190 0
171 193 0
172 194 0
165 187 0
172 194 0
171 192 0
169 191 0
169 191 0
169 190 0
169 190 0
166 188 0
166 187 0
169 191 0
167 187 0
163 186 0
164 185 0
162 183 0
165 187 0
161 184 0
169 190 0
167 189 0
167 189 0
166 188 0
167 188 0
166 188 0
168 188 0
160 182 0
165 187 0
164 186 0
166 188 0
165 188 0
162 184 0
168 189 0
168 191 0
162 185 0
166 188 0
160 182 0
162 185 0
164 185 0
162 184 0
169 192 0
165 188 0
167 189 0
165 187 0
164 187 0
165 187 0
160 182 0
163 186 0
164 187 0
164 186 0
165 186 0
162 185 0
160 183 0
159 181 0
163 185 0
162 185 0
164 185 0
162 184 0
167 190 0
162 185 0
157 179 0
158 181 0
157 180 0
157 180 0
157 180 0
158 180 0
161 185 0
160 183 0
164 188 0
158 181 0
160 182 0
158 181 0
160 182 0
158 182 0
165 187 0
160 183 0
159 183 0
162 184 0
156 179 0
157 180 0
160 182 0
155 177 0
155 178 0
158 181 0
153 175 0
158 181 0
159 181 0
152 174 0
155 178 0
150 172 0
154 176 0
155 178 0
161 184 0
153 176 0
156 180 0
158 181 0
156 180 0
158 181 0
158 180 0
157 180 0
162 183 0
154 177 0
156 179 0
155 178 0
156 178 0
152 175 0
156 178 0
153 176 0
152 175 0
153 175 0
154 175 0
159 182 0
151 174 0
155 178 0
156 179 0
158 181 0
156 178 0
149 172 0
152 174 0
154 175 0
155 177 0
154 178 0
150 173 0
152 175 0
150 172 0
142 162 0
146 167 0
148 170 0
150 172 0
153 175 0
155 177 0
153 175 0
151 173 0
149 171 0
156 178 0
154 176 0
149 171 0
150 172 0
158 180 0
153 175 0
160 181 0
158 179 0
147 169 0
145 166 0
152 173 0
156 179 0
153 176 0
151 174 0
155 178 0
158 181 0
147 170 0
152 174 0
151 172 0
153 176 0
153 174 0
147 169 0
151 172 0
148 169 0
152 174 0
152 174 0
142 163 0
155 177 0
144 165 0
141 164 0
151 173 0
140 161 0
146 167 0
144 166 0
143 165 0
149 171 0
145 168 0
149 171 0
146 167 0
157 178 0
150 171 0
154 175 0
152 173 0
143 162 0
138 159 0
155 175 0
145 165 0
149 170 0
141 162 0
152 171 0
148 169 0
149 171 0
148 170 0
145 167 0
151 172 0
146 166 0
145 166 0
149 172 0
152 173 0
148 170 0
150 170 0
144 165 0
147 168 0
144 165 0
145 165 0
147 168 0
142 161 0
140 161 0
139 160 0
148 169 0
150 170 0
142 161 0
159 180 0
141 162 0
148 170 0
139 161 0
149 169 0
148 168 0
150 171 0
149 168 0
149 169 0
148 168 0
142 161 0
144 164 0
143 164 0
152 174 0
148 169 0
148 168 0
140 159 0
141 161 0
145 164 0
148 168 0
143 162 0
141 160 0
143 163 0
147 167 0
144 164 0
142 162 0
150 170 0
150 170 0
145 166 0
144 164 0
149 168 0
147 167 0
156 177 0
141 159 0
144 163 0
144 163 0
146 166 0
148 167 0
148 169 0
149 168 0
152 173 0
150 169 0
147 167 0
150 170 0
143 164 0
151 170 0
149 167 0
152 171 0
149 168 0
151 168 0
150 168 0
143 163 0
145 165 0
148 167 0
149 169 0
148 166 0
151 169 0
148 167 0
147 165 0
155 175 0
152 170 0
148 165 0
147 166 0
148 167 0
147 166 0
152 173 0
150 169 0
146 163 0
152 171 0
147 164 0
137 154 0
149 166 0
149 168 0
153 170 0
150 168 0
155 172 0
149 166 0
148 165 0
149 165 0
150 167 0
146 162 0
149 165 0
155 172 0
147 165 0
156 173 0
149 166 0
151 167 0
152 169 0
153 169 0
142 157 0
140 154 0
149 165 0
149 165 0
152 168 0
154 169 0
142 158 0
147 162 0
145 159 0
144 159 0
148 164 0
150 166 0
144 159 0
143 157 0
144 159 0
154 169 0
150 165 0
146 162 0
152 167 0
144 158 0
149 165 0
147 162 0
149 162 0
151 162 0
154 167 0
144 158 0
151 169 0
143 154 0
150 162 0
151 163 0
150 165 0
147 160 0
143 156 0
151 164 0
152 165 0
155 168 0
153 167 0
146 156 0
151 164 0
148 160 0
148 158 0
148 161 0
144 156 0
146 157 0
156 169 0
154 166 0
147 159 0
145 155 0
145 155 0
150 162 0
153 166 0
155 167 0
147 160 0
157 169 0
145 157 0
152 164 0
154 161 0
157 169 0
157 170 0
148 159 0
152 163 0
154 166 0
149 161 0
144 154 0
151 161 0
150 159 0
153 163 0
154 165 0
150 159 0
148 159 0
157 165 0
158 168 0
148 157 0
157 169 0
164 174 0
156 168 0
156 170 0
148 157 0
151 162 0
148 158 0
156 168 0
152 166 0
171 193 0
172 195 0
172 193 0
170 192 0
171 193 0
171 192 0
170 192 0
172 193 0
173 194 0
174 196 0
172 193 0
175 196 0
174 195 0
175 196 0
171 192 0
170 192 0
172 193 0
169 191 0
168 189 0
172 193 0
169 189 0
170 191 0
171 192 0
166 188 0
167 188 0
174 195 0
168 189 0
169 191 0
167 189 0
169 191 0
167 189 0
162 184 0
165 186 0
170 192 0
169 191 0
166 188 0
166 188 0
171 193 0
167 189 0
166 188 0
165 186 0
169 191 0
166 188 0
167 190 0
168 190 0
164 185 0
164 186 0
161 184 0
165 187 0
165 186 0
162 184 0
161 182 0
166 188 0
160 181 0
164 186 0
157 180 0
163 186 0
170 192 0
164 186 0
163 185 0
162 184 0
165 187 0
161 183 0
163 185 0
159 182 0
163 185 0
164 186 0
160 181 0
156 176 0
163 185 0
160 182 0
163 185 0
157 180 0
168 189 0
163 185 0
162 183 0
159 181 0
161 183 0
161 183 0
159 182 0
157 179 0
166 188 0
159 181 0
161 183 0
161 184 0
159 183 0
160 183 0
160 182 0
155 178 0
162 184 0
159 181 0
158 180 0
163 185 0
163 186 0
160 182 0
158 180 0
160 184 0
161 183 0
157 178 0
158 181 0
161 183 0
161 184 0
156 179 0
163 186 0
164 186 0
166 189 0
159 182 0
151 174 0
155 178 0
158 181 0
155 177 0
155 176 0
156 178 0
149 171 0
154 176 0
161 183 0
153 176 0
150 172 0
147 169 0
160 182 0
162 184 0
152 175 0
151 174 0
160 181 0
152 176 0
153 175 0
157 180 0
156 179 0
156 179 0
154 176 0
158 180 0
154 176 0
154 176 0
147 170 0
157 181 0
148 170 0
153 174 0
156 178 0
158 181 0
157 179 0
146 169 0
152 175 0
160 182 0
151 173 0
145 168 0
155 177 0
145 167 0
156 179 0
151 174 0
151 174 0
152 173 0
160 183 0
149 171 0
155 177 0
153 175 0
160 182 0
149 170 0
155 177 0
152 174 0
149 171 0
153 175 0
156 179 0
151 173 0
146 169 0
153 175 0
150 172 0
153 176 0
144 166 0
156 178 0
155 178 0
151 173 0
152 174 0
159 181 0
149 170 0
158 180 0
143 164 0
148 170 0
152 174 0
149 171 0
151 173 0
151 173 0
145 166 0
151 172 0
157 178 0
138 160 0
152 173 0
157 179 0
146 166 0
148 170 0
143 164 0
150 172 0
144 166 0
146 167 0
148 170 0
146 167 0
141 160 0
152 174 0
151 173 0
150 171 0
146 167 0
144 165 0
143 164 0
152 174 0
150 171 0
147 171 0
145 166 0
138 160 0
145 165 0
149 170 0
149 169 0
148 170 0
148 169 0
152 173 0
139 160 0
153 175 0
148 169 0
150 172 0
147 169 0
153 174 0
152 173 0
145 165 0
151 171 0
150 170 0
143 164 0
143 164 0
146 166 0
151 173 0
147 167 0
146 168 0
143 162 0
145 166 0
155 176 0
146 167 0
149 169 0
146 167 0
151 173 0
149 169 0
145 167 0
142 162 0
151 172 0
140 161 0
145 164 0
148 168 0
144 164 0
153 173 0
148 169 0
148 169 0
153 173 0
143 162 0
153 174 0
149 169 0
141 161 0
142 162 0
155 176 0
148 168 0
144 165 0
150 168 0
146 166 0
147 167 0
151 172 0
145 166 0
151 171 0
152 171 0
145 166 0
150 169 0
141 162 0
152 172 0
148 168 0
148 168 0
154 173 0
152 171 0
146 165 0
144 164 0
150 170 0
141 160 0
155 175 0
151 171 0
148 167 0
151 168 0
152 173 0
152 171 0
152 173 0
148 168 0
150 170 0
147 165 0
148 167 0
149 167 0
153 171 0
152 172 0
146 164 0
146 165 0
149 167 0
138 154 0
144 161 0
147 165 0
146 165 0
153 172 0
155 175 0
145 163 0
149 167 0
151 169 0
146 163 0
140 158 0
150 166 0
149 168 0
150 165 0
153 171 0
155 173 0
144 162 0
147 166 0
153 169 0
146 162 0
154 172 0
143 162 0
150 168 0
152 168 0
149 165 0
146 162 0
152 167 0
152 170 0
154 169 0
152 170 0
152 168 0
149 163 0
148 162 0
151 166 0
153 169 0
152 169 0
152 171 0
147 160 0
149 167 0
152 170 0
141 154 0
146 160 0
145 159 0
153 170 0
153 167 0
152 166 0
146 160 0
149 161 0
148 163 0
151 167 0
147 160 0
151 166 0
150 166 0
156 171 0
152 166 0
150 163 0
147 159 0
158 173 0
144 157 0
151 164 0
151 164 0
151 165 0
152 166 0
148 160 0
146 160 0
154 167 0
155 171 0
150 163 0
153 168 0
157 170 0
148 163 0
150 163 0
154 168 0
148 161 0
153 164 0
153 167 0
152 164 0
152 164 0
149 162 0
150 161 0
146 160 0
155 168 0
154 167 0
144 156 0
147 160 0
145 155 0
147 157 0
151 163 0
155 168 0
153 165 0
156 167 0
150 164 0
156 168 0
151 162 0
155 167 0
154 166 0
153 166 0
158 169 0
153 166 0
154 166 0
150 160 0
153 167 0
153 166 0
154 166 0
151 165 0
156 166 0
152 164 0
151 161 0
172 193 0
167 188 0
172 193 0
172 193 0
171 193 0
172 193 0
168 190 0
172 194 0
171 192 0
169 190 0
168 190 0
172 194 0
169 192 0
172 192 0
173 195 0
171 192 0
169 190 0
169 190 0
166 188 0
170 192 0
170 190 0
170 192 0
166 189 0
174 195 0
169 190 0
167 189 0
166 189 0
167 190 0
168 190 0
162 183 0
167 189 0
163 184 0
166 187 0
166 187 0
162 184 0
170 192 0
169 191 0
164 186 0
164 184 0
162 185 0
168 190 0
172 195 0
168 190 0
165 186 0
163 186 0
166 189 0
168 190 0
168 190 0
160 182 0
165 187 0
163 186 0
165 187 0
162 183 0
161 182 0
157 179 0
163 185 0
158 180 0
167 190 0
165 186 0
159 182 0
162 184 0
163 185 0
165 187 0
157 179 0
161 183 0
165 188 0
164 186 0
167 188 0
163 184 0
166 188 0
164 187 0
161 185 0
166 189 0
155 178 0
165 188 0
160 183 0
161 184 0
165 188 0
155 177 0
163 185 0
156 179 0
156 178 0
161 183 0
162 185 0
159 181 0
154 176 0
165 188 0
163 187 0
161 183 0
160 182 0
158 181 0
159 182 0
160 183 0
160 182 0
167 189 0
156 179 0
158 180 0
160 182 0
157 179 0
156 178 0
157 181 0
158 180 0
158 181 0
160 183 0
157 180 0
162 184 0
158 182 0
164 186 0
160 182 0
158 180 0
158 181 0
159 183 0
152 175 0
152 174 0
159 182 0
159 181 0
156 180 0
159 181 0
158 181 0
158 182 0
149 171 0
156 179 0
158 179 0
153 175 0
158 181 0
156 178 0
158 181 0
149 171 0
159 181 0
152 174 0
147 169 0
154 176 0
161 184 0
161 183 0
152 175 0
157 179 0
156 179 0
157 179 0
154 176 0
150 173 0
151 174 0
149 171 0
148 170 0
148 171 0
150 173 0
155 178 0
148 170 0
149 171 0
157 180 0
148 171 0
150 174 0
152 174 0
155 177 0
156 179 0
145 167 0
157 179 0
158 180 0
160 182 0
151 174 0
145 167 0
149 170 0
154 176 0
144 166 0
155 177 0
153 175 0
148 170 0
155 178 0
148 170 0
153 175 0
142 164 0
150 173 0
152 173 0
148 171 0
147 169 0
148 169 0
148 170 0
150 172 0
157 179 0
156 178 0
152 174 0
147 169 0
151 173 0
153 175 0
147 168 0
147 169 0
156 177 0
149 170 0
146 167 0
143 166 0
151 172 0
149 170 0
149 170 0
147 169 0
151 172 0
153 174 0
155 177 0
149 171 0
153 175 0
142 164 0
147 168 0
150 172 0
146 168 0
147 168 0
153 175 0
153 175 0
154 176 0
146 166 0
149 171 0
149 171 0
150 170 0
154 176 0
155 176 0
141 162 0
146 167 0
156 176 0
153 174 0
148 170 0
151 172 0
144 164 0
148 170 0
146 165 0
139 160 0
155 176 0
148 168 0
155 177 0
144 165 0
152 173 0
148 168 0
149 169 0
144 165 0
145 167 0
148 170 0
147 167 0
146 166 0
142 162 0
147 167 0
147 167 0
147 167 0
145 165 0
146 166 0
152 173 0
149 169 0
149 169 0
150 170 0
141 160 0
151 172 0
146 167 0
149 170 0
144 165 0
152 171 0
147 168 0
147 167 0
151 171 0
148 170 0
146 166 0
154 174 0
147 169 0
144 164 0
153 171 0
143 163 0
139 159 0
146 164 0
151 171 0
147 167 0
150 170 0
153 171 0
150 171 0
147 165 0
145 165 0
155 176 0
155 176 0
154 174 0
149 168 0
153 172 0
147 166 0
144 163 0
154 174 0
143 161 0
155 175 0
142 161 0
157 177 0
150 169 0
150 169 0
144 160 0
140 157 0
144 164 0
152 171 0
151 171 0
153 172 0
142 159 0
149 166 0
152 172 0
152 170 0
149 168 0
145 164 0
157 175 0
147 164 0
146 165 0
151 170 0
147 163 0
155 174 0
150 168 0
147 164 0
148 163 0
142 160 0
147 163 0
153 171 0
151 168 0
148 165 0
149 168 0
148 166 0
145 160 0
149 165 0
146 163 0
150 168 0
148 165 0
143 159 0
148 163 0
151 169 0
155 172 0
152 169 0
151 169 0
151 167 0
153 168 0
154 173 0
147 162 0
151 165 0
152 167 0
148 161 0
151 166 0
147 161 0
150 164 0
146 162 0
150 166 0
153 170 0
146 162 0
147 163 0
150 162 0
156 170 0
144 157 0
138 153 0
148 161 0
147 160 0
155 170 0
155 170 0
152 168 0
154 169 0
150 164 0
155 170 0
153 169 0
148 165 0
150 161 0
158 171 0
145 158 0
156 171 0
148 162 0
152 165 0
157 173 0
150 164 0
156 170 0
154 167 0
146 157 0
154 166 0
149 162 0
151 164 0
156 170 0
153 165 0
149 161 0
147 158 0
145 156 0
147 158 0
150 163 0
149 159 0
146 158 0
153 167 0
148 162 0
154 167 0
149 162 0
159 171 0
153 168 0
146 161 0
147 161 0
151 163 0
157 170 0
153 166 0
155 165 0
150 162 0
158 171 0
151 161 0
154 164 0
154 168 0
157 169 0
152 165 0
158 171 0
156 169 0
156 167 0
156 168 0
160 174 0
148 159 0
150 162 0
173 195 0
173 194 0
174 195 0
169 191 0
170 192 0
171 193 0
173 195 0
172 194 0
169 190 0
174 195 0
171 193 0
171 192 0
172 194 0
169 191 0
176 197 0
173 194 0
167 189 0
163 185 0
174 195 0
168 190 0
168 190 0
172 194 0
166 188 0
165 188 0
169 191 0
171 193 0
168 190 0
170 191 0
169 191 0
167 189 0
168 189 0
162 183 0
169 191 0
167 190 0
166 188 0
163 185 0
167 189 0
165 189 0
165 187 0
168 190 0
163 185 0
164 185 0
168 190 0
162 184 0
163 185 0
164 186 0
166 188 0
162 184 0
167 188 0
168 190 0
168 191 0
169 191 0
169 191 0
163 186 0
160 183 0
164 185 0
167 188 0
158 181 0
166 189 0
165 187 0
161 183 0
161 183 0
164 186 0
162 185 0
161 183 0
164 187 0
156 178 0
159 182 0
165 188 0
158 180 0
164 186 0
165 187 0
167 189 0
168 190 0
167 189 0
163 185 0
161 184 0
163 186 0
160 183 0
158 182 0
159 182 0
163 186 0
161 183 0
161 184 0
158 181 0
161 183 0
163 185 0
164 186 0
157 180 0
157 180 0
158 181 0
158 180 0
159 180 0
161 183 0
148 171 0
156 180 0
156 179 0
159 183 0
160 182 0
154 177 0
159 183 0
152 176 0
158 180 0
157 180 0
160 184 0
157 180 0
159 182 0
156 179 0
159 182 0
158 181 0
160 183 0
156 179 0
156 179 0
165 188 0
155 177 0
151 173 0
154 175 0
164 186 0
161 183 0
159 182 0
155 177 0
156 178 0
161 184 0
162 184 0
152 174 0
156 179 0
159 180 0
154 177 0
149 170 0
160 183 0
156 178 0
155 178 0
151 174 0
156 178 0
158 181 0
148 171 0
154 176 0
157 180 0
157 179 0
148 171 0
152 175 0
144 166 0
154 177 0
151 174 0
153 175 0
156 178 0
154 178 0
159 182 0
154 177 0
158 180 0
154 177 0
149 172 0
159 181 0
157 180 0
146 169 0
155 178 0
151 173 0
151 175 0
155 177 0
150 173 0
152 174 0
153 175 0
149 171 0
149 170 0
150 172 0
149 171 0
149 172 0
151 173 0
151 173 0
142 165 0
157 179 0
152 174 0
155 177 0
151 174 0
144 165 0
147 168 0
151 173 0
153 174 0
157 179 0
153 176 0
146 169 0
151 173 0
154 175 0
149 170 0
145 166 0
147 170 0
148 169 0
151 172 0
147 169 0
146 167 0
145 165 0
153 175 0
152 174 0
143 164 0
160 182 0
143 163 0
150 173 0
149 171 0
148 170 0
156 179 0
141 163 0
139 160 0
152 173 0
152 173 0
146 167 0
157 179 0
150 172 0
149 170 0
147 167 0
148 170 0
148 169 0
143 165 0
144 165 0
155 175 0
145 167 0
154 174 0
145 167 0
149 172 0
145 165 0
150 172 0
151 172 0
141 161 0
149 171 0
151 172 0
151 171 0
146 168 0
150 171 0
149 169 0
137 157 0
149 170 0
146 167 0
150 171 0
148 168 0
142 163 0
151 170 0
149 171 0
149 172 0
153 175 0
155 176 0
156 176 0
146 167 0
149 171 0
150 171 0
152 174 0
137 158 0
153 174 0
153 172 0
151 170 0
147 168 0
156 174 0
149 169 0
144 164 0
145 167 0
147 166 0
155 176 0
151 171 0
150 171 0
151 170 0
149 170 0
148 168 0
141 162 0
151 169 0
149 168 0
146 166 0
151 171 0
143 162 0
145 166 0
153 174 0
148 168 0
144 164 0
149 169 0
149 168 0
152 171 0
149 167 0
151 170 0
151 172 0
147 166 0
153 172 0
149 169 0
153 172 0
154 174 0
142 160 0
151 170 0
150 168 0
156 173 0
144 163 0
152 170 0
154 174 0
148 167 0
153 171 0
144 163 0
145 165 0
145 165 0
153 170 0
153 172 0
144 163 0
153 172 0
149 167 0
154 171 0
144 161 0
150 168 0
152 170 0
154 172 0
153 170 0
150 168 0
146 165 0
139 157 0
149 168 0
151 170 0
151 168 0
153 171 0
148 166 0
149 165 0
144 161 0
150 166 0
155 173 0
154 172 0
149 169 0
153 171 0
150 167 0
147 163 0
153 169 0
151 168 0
148 165 0
150 167 0
149 165 0
140 154 0
147 161 0
146 160 0
149 165 0
153 170 0
152 170 0
146 161 0
155 171 0
148 165 0
148 165 0
152 166 0
151 167 0
152 165 0
148 163 0
153 168 0
147 160 0
152 167 0
152 167 0
155 171 0
149 164 0
149 164 0
148 161 0
154 171 0
152 168 0
152 167 0
155 171 0
154 168 0
150 163 0
156 170 0
149 164 0
157 171 0
149 163 0
145 158 0
149 163 0
155 169 0
153 164 0
158 170 0
150 164 0
153 163 0
150 162 0
151 165 0
160 174 0
158 171 0
149 164 0
149 162 0
143 154 0
151 163 0
152 167 0
156 167 0
156 170 0
157 169 0
157 168 0
153 166 0
153 165 0
150 163 0
152 162 0
150 163 0
151 161 0
151 165 0
144 156 0
150 160 0
151 163 0
157 170 0
155 166 0
153 165 0
160 172 0
152 163 0
151 161 0
154 167 0
156 169 0
157 172 0
147 157 0
152 164 0
161 174 0
173 195 0
168 189 0
175 198 0
167 189 0
168 190 0
167 189 0
172 193 0
168 190 0
171 193 0
167 189 0
169 191 0
170 191 0
169 192 0
169 191 0
168 190 0
172 193 0
175 196 0
165 187 0
165 188 0
170 192 0
169 191 0
166 188 0
167 189 0
166 188 0
173 195 0
166 187 0
168 190 0
170 191 0
164 185 0
169 191 0
170 191 0
164 185 0
169 191 0
160 181 0
165 187 0
165 187 0
163 186 0
166 186 0
171 193 0
170 192 0
163 185 0
169 191 0
164 186 0
166 188 0
158 180 0
164 186 0
168 190 0
166 188 0
165 186 0
165 187 0
160 182 0
163 184 0
165 186 0
160 182 0
165 187 0
160 183 0
162 185 0
165 188 0
165 187 0
167 189 0
157 179 0
164 187 0
162 185 0
166 188 0
164 187 0
162 184 0
163 186 0
167 189 0
157 178 0
166 186 0
160 182 0
162 185 0
160 183 0
164 187 0
160 182 0
161 183 0
162 185 0
161 184 0
165 189 0
161 184 0
164 187 0
162 185 0
159 181 0
159 181 0
162 185 0
158 180 0
158 181 0
154 176 0
159 183 0
160 183 0
151 174 0
159 182 0
161 183 0
158 181 0
155 176 0
159 181 0
158 181 0
158 180 0
165 188 0
160 183 0
163 186 0
152 175 0
158 182 0
155 178 0
158 180 0
154 177 0
158 180 0
154 177 0
159 183 0
158 181 0
160 182 0
158 181 0
154 177 0
157 179 0
162 185 0
161 183 0
158 182 0
152 174 0
161 183 0
147 170 0
150 172 0
159 183 0
160 182 0
155 176 0
159 181 0
147 170 0
153 176 0
160 182 0
153 176 0
156 179 0
149 172 0
154 176 0
158 181 0
158 181 0
154 177 0
154 177 0
158 180 0
157 179 0
146 169 0
149 171 0
153 174 0
150 173 0
148 171 0
156 179 0
153 175 0
155 178 0
152 174 0
157 180 0
152 174 0
149 173 0
150 172 0
150 172 0
152 174 0
150 174 0
150 172 0
154 176 0
155 177 0
152 175 0
153 175 0
156 178 0
150 173 0
151 174 0
148 170 0
152 175 0
151 174 0
153 174 0
146 167 0
157 180 0
159 180 0
150 172 0
146 168 0
150 173 0
147 169 0
147 170 0
151 174 0
157 179 0
149 170 0
153 176 0
153 174 0
156 178 0
149 171 0
148 170 0
153 176 0
152 175 0
149 170 0
152 174 0
143 165 0
145 165 0
157 179 0
150 172 0
147 169 0
152 174 0
147 169 0
149 171 0
140 162 0
150 172 0
151 172 0
150 172 0
152 173 0
149 171 0
150 170 0
147 168 0
150 171 0
149 171 0
145 167 0
144 166 0
152 175 0
145 165 0
147 169 0
149 170 0
147 168 0
155 178 0
151 172 0
144 166 0
150 173 0
149 169 0
146 166 0
142 164 0
145 167 0
133 154 0
149 170 0
149 170 0
156 176 0
145 168 0
157 178 0
147 167 0
148 170 0
155 177 0
140 160 0
148 167 0
145 167 0
149 170 0
143 164 0
148 169 0
156 177 0
148 165 0
151 172 0
150 171 0
149 170 0
147 168 0
148 169 0
143 163 0
151 173 0
143 163 0
149 170 0
151 173 0
151 172 0
143 164 0
140 160 0
148 167 0
148 170 0
146 167 0
148 168 0
146 166 0
144 165 0
149 170 0
147 167 0
153 174 0
148 168 0
147 167 0
145 164 0
158 179 0
150 170 0
148 169 0
146 168 0
143 162 0
146 166 0
153 173 0
147 169 0
148 167 0
147 168 0
150 171 0
150 170 0
153 171 0
153 174 0
154 173 0
144 162 0
147 166 0
151 170 0
152 172 0
148 168 0
155 175 0
155 174 0
150 169 0
150 168 0
147 166 0
154 175 0
147 165 0
151 170 0
153 173 0
152 168 0
139 157 0
148 165 0
155 175 0
153 172 0
156 175 0
142 162 0
150 167 0
145 163 0
143 162 0
148 167 0
156 176 0
156 175 0
151 168 0
149 166 0
147 162 0
149 166 0
151 168 0
152 172 0
144 161 0
157 177 0
150 166 0
152 171 0
148 165 0
157 175 0
154 171 0
150 168 0
148 165 0
149 166 0
155 172 0
155 171 0
151 169 0
142 161 0
150 166 0
151 168 0
151 169 0
147 159 0
155 175 0
147 161 0
158 174 0
150 166 0
145 162 0
144 161 0
151 168 0
147 163 0
152 166 0
147 165 0
149 164 0
148 162 0
154 170 0
155 171 0
152 167 0
153 169 0
153 168 0
153 169 0
147 162 0
152 167 0
149 164 0
152 169 0
148 161 0
155 171 0
150 165 0
147 159 0
155 169 0
147 162 0
152 165 0
151 165 0
149 162 0
147 159 0
154 170 0
152 166 0
158 170 0
149 164 0
150 163 0
151 164 0
150 164 0
152 168 0
153 166 0
152 165 0
153 166 0
154 169 0
148 162 0
153 166 0
154 167 0
152 165 0
152 166 0
148 159 0
152 163 0
150 163 0
156 171 0
148 162 0
154 167 0
152 168 0
157 169 0
154 168 0
158 171 0
152 165 0
154 166 0
155 168 0
149 163 0
157 170 0
151 165 0
160 172 0
154 168 0
151 162 0
157 168 0
157 171 0
159 173 0
154 165 0
151 163 0
170 192 0
175 196 0
168 190 0
168 191 0
170 191 0
168 190 0
173 194 0
169 192 0
171 194 0
168 190 0
169 191 0
171 193 0
168 189 0
165 187 0
174 196 0
168 190 0
164 186 0
166 189 0
171 193 0
173 195 0
171 193 0
167 189 0
168 190 0
168 190 0
168 190 0
171 193 0
168 190 0
168 190 0
164 186 0
166 186 0
161 182 0
172 193 0
169 191 0
170 192 0
165 187 0
167 189 0
165 188 0
165 187 0
162 185 0
165 186 0
168 189 0
165 186 0
169 192 0
164 187 0
164 186 0
164 186 0
165 187 0
163 185 0
165 187 0
167 189 0
162 184 0
163 186 0
163 185 0
164 186 0
163 185 0
158 180 0
164 185 0
167 189 0
163 185 0
164 185 0
159 180 0
162 184 0
164 187 0
161 184 0
166 189 0
159 183 0
155 178 0
159 182 0
159 182 0
161 183 0
165 187 0
167 191 0
163 185 0
153 175 0
167 188 0
158 180 0
159 181 0
159 180 0
167 190 0
158 180 0
160 183 0
157 181 0
163 186 0
162 185 0
163 186 0
155 177 0
168 191 0
155 179 0
153 175 0
161 184 0
156 180 0
163 186 0
161 184 0
161 183 0
164 187 0
158 182 0
155 178 0
163 185 0
159 181 0
157 180 0
161 183 0
160 182 0
161 183 0
159 182 0
157 180 0
155 177 0
160 183 0
161 183 0
156 178 0
161 184 0
158 181 0
157 179 0
160 183 0
159 181 0
154 177 0
158 181 0
149 172 0
158 180 0
160 182 0
161 184 0
155 178 0
158 181 0
165 187 0
163 186 0
158 181 0
154 177 0
159 182 0
155 178 0
155 178 0
155 178 0
150 172 0
157 180 0
152 175 0
154 177 0
163 186 0
151 175 0
161 184 0
155 178 0
155 177 0
153 177 0
152 173 0
150 173 0
155 178 0
157 180 0
159 181 0
154 176 0
155 178 0
151 174 0
150 172 0
154 176 0
155 177 0
157 180 0
149 171 0
159 182 0
153 176 0
150 172 0
154 176 0
148 171 0
148 170 0
150 174 0
152 173 0
151 173 0
156 178 0
152 173 0
157 179 0
153 175 0
160 183 0
144 166 0
154 176 0
150 172 0
155 178 0
156 177 0
149 171 0
149 171 0
150 173 0
157 180 0
152 174 0
151 174 0
154 175 0
145 168 0
150 172 0
147 169 0
150 172 0
150 172 0
158 179 0
146 169 0
153 176 0
149 171 0
152 174 0
148 169 0
147 171 0
151 174 0
145 166 0
149 170 0
150 172 0
148 169 0
143 164 0
150 172 0
155 177 0
156 177 0
152 175 0
148 168 0
157 180 0
151 172 0
145 165 0
143 164 0
155 177 0
149 170 0
152 173 0
142 164 0
150 172 0
152 173 0
150 172 0
150 172 0
152 175 0
155 177 0
148 170 0
148 168 0
150 170 0
148 169 0
143 163 0
147 168 0
157 178 0
148 170 0
141 162 0
142 163 0
148 170 0
149 169 0
158 181 0
145 166 0
148 168 0
149 171 0
146 168 0
145 166 0
146 167 0
149 168 0
144 164 0
151 173 0
144 164 0
158 178 0
159 178 0
150 171 0
145 164 0
140 161 0
146 166 0
153 174 0
154 174 0
146 166 0
146 168 0
152 174 0
153 174 0
155 174 0
145 164 0
147 167 0
152 173 0
155 177 0
139 159 0
147 168 0
150 170 0
152 172 0
153 173 0
146 165 0
157 177 0
152 172 0
149 168 0
149 169 0
152 174 0
152 173 0
148 169 0
145 163 0
147 165 0
150 170 0
153 174 0
155 176 0
149 169 0
153 172 0
151 172 0
143 163 0
141 159 0
150 171 0
149 168 0
154 172 0
154 173 0
154 174 0
154 175 0
146 167 0
153 172 0
161 181 0
145 164 0
149 168 0
148 166 0
149 168 0
144 160 0
147 166 0
154 174 0
149 168 0
147 163 0
155 175 0
153 172 0
145 162 0
149 165 0
149 166 0
150 168 0
148 168 0
154 174 0
150 167 0
140 156 0
156 174 0
148 167 0
151 169 0
139 156 0
156 173 0
155 174 0
152 172 0
145 161 0
150 169 0
154 172 0
156 175 0
150 168 0
154 169 0
148 165 0
156 177 0
144 161 0
150 164 0
153 171 0
153 170 0
151 167 0
158 175 0
148 166 0
152 169 0
151 169 0
150 167 0
149 163 0
156 173 0
151 167 0
156 172 0
142 160 0
148 162 0
148 165 0
152 166 0
149 163 0
151 167 0
159 175 0
146 160 0
140 153 0
156 170 0
149 163 0
158 174 0
152 166 0
149 164 0
152 166 0
146 159 0
154 169 0
148 163 0
147 161 0
147 162 0
153 166 0
151 164 0
153 167 0
154 168 0
158 174 0
150 164 0
146 160 0
150 165 0
149 160 0
153 167 0
151 167 0
155 168 0
155 171 0
149 161 0
155 170 0
153 166 0
151 165 0
152 164 0
150 165 0
158 172 0
160 175 0
157 170 0
151 162 0
151 164 0
146 159 0
156 169 0
154 165 0
149 162 0
161 175 0
152 163 0
150 161 0
157 171 0
152 164 0
155 171 0
154 166 0
155 168 0
153 165 0
151 161 0
147 158 0
154 166 0
155 166 0
152 163 0
156 168 0
151 162 0
165 187 0
170 191 0
171 192 0
171 194 0
170 192 0
174 195 0
169 191 0
167 189 0
170 191 0
170 193 0
172 194 0
170 192 0
167 189 0
166 189 0
169 191 0
169 191 0
162 185 0
168 189 0
168 189 0
168 189 0
171 192 0
169 190 0
166 187 0
168 190 0
169 191 0
167 189 0
164 187 0
163 186 0
164 185 0
162 184 0
166 187 0
165 188 0
165 187 0
164 185 0
160 182 0
172 193 0
167 190 0
167 188 0
172 194 0
168 190 0
165 187 0
162 184 0
163 185 0
163 186 0
162 185 0
165 187 0
160 182 0
169 191 0
160 184 0
165 187 0
168 190 0
160 182 0
167 189 0
160 182 0
164 187 0
161 183 0
165 188 0
166 189 0
166 188 0
159 182 0
159 182 0
161 184 0
162 184 0
160 181 0
166 189 0
164 187 0
168 190 0
161 183 0
154 177 0
162 185 0
154 177 0
164 187 0
158 180 0
161 183 0
160 182 0
160 181 0
165 187 0
162 183 0
159 182 0
163 185 0
161 184 0
158 180 0
167 191 0
155 177 0
161 184 0
164 187 0
163 186 0
159 181 0
157 180 0
164 186 0
160 182 0
162 185 0
156 179 0
158 181 0
159 182 0
153 175 0
157 179 0
155 177 0
157 179 0
165 188 0
156 178 0
151 173 0
155 178 0
158 182 0
160 184 0
162 185 0
155 178 0
153 177 0
156 178 0
155 178 0
156 180 0
155 179 0
157 180 0
157 180 0
163 186 0
156 178 0
157 180 0
154 177 0
161 183 0
153 175 0
154 177 0
154 177 0
158 181 0
152 175 0
158 181 0
152 174 0
156 179 0
158 180 0
157 180 0
156 178 0
155 177 0
158 180 0
155 177 0
159 182 0
158 180 0
155 178 0
158 181 0
154 176 0
154 176 0
160 183 0
163 185 0
150 173 0
161 183 0
152 174 0
157 181 0
155 177 0
148 170 0
150 173 0
156 177 0
152 175 0
157 180 0
154 176 0
159 182 0
150 171 0
153 175 0
143 165 0
152 176 0
153 175 0
152 175 0
155 178 0
144 166 0
144 166 0
150 172 0
160 182 0
143 166 0
150 172 0
149 172 0
152 174 0
149 171 0
153 175 0
148 170 0
144 166 0
154 176 0
152 174 0
146 168 0
155 177 0
152 174 0
150 172 0
150 173 0
150 172 0
147 168 0
145 168 0
151 173 0
142 165 0
148 170 0
157 178 0
152 174 0
156 177 0
150 172 0
152 174 0
150 173 0
153 175 0
149 170 0
149 169 0
143 163 0
140 162 0
153 174 0
155 177 0
154 175 0
160 181 0
143 164 0
150 171 0
150 170 0
153 175 0
153 175 0
154 174 0
152 174 0
148 169 0
148 170 0
152 174 0
149 170 0
156 177 0
145 167 0
155 177 0
151 173 0
148 170 0
143 165 0
148 169 0
148 170 0
151 172 0
148 170 0
148 168 0
154 176 0
151 170 0
149 170 0
151 171 0
142 163 0
147 168 0
150 169 0
150 172 0
154 177 0
156 177 0
144 166 0
150 171 0
151 172 0
147 166 0
153 174 0
148 168 0
148 168 0
150 170 0
155 175 0
150 170 0
154 173 0
148 167 0
149 170 0
148 169 0
145 166 0
152 173 0
145 165 0
151 172 0
146 167 0
151 173 0
154 175 0
146 166 0
147 168 0
153 174 0
157 179 0
148 166 0
150 171 0
147 169 0
155 175 0
143 163 0
155 176 0
146 166 0
141 161 0
159 180 0
140 160 0
146 165 0
145 164 0
144 163 0
150 169 0
152 173 0
148 167 0
150 171 0
149 169 0
147 166 0
151 171 0
147 167 0
152 172 0
150 170 0
151 171 0
154 174 0
159 180 0
153 174 0
153 173 0
148 167 0
155 175 0
156 175 0
147 167 0
149 169 0
149 168 0
149 167 0
153 172 0
154 175 0
151 168 0
157 177 0
155 173 0
153 171 0
156 176 0
157 177 0
154 173 0
148 168 0
138 155 0
143 161 0
145 161 0
153 170 0
150 169 0
153 172 0
152 169 0
158 177 0
153 173 0
148 168 0
154 172 0
143 160 0
152 170 0
152 172 0
156 175 0
159 177 0
153 169 0
157 174 0
151 168 0
152 170 0
152 168 0
154 171 0
150 168 0
151 170 0
152 169 0
151 169 0
151 169 0
149 167 0
156 172 0
148 164 0
146 161 0
157 175 0
150 163 0
147 165 0
156 172 0
148 163 0
157 174 0
151 166 0
156 172 0
149 163 0
152 168 0
147 163 0
153 167 0
155 170 0
152 169 0
151 165 0
155 170 0
149 162 0
152 168 0
150 163 0
151 166 0
147 162 0
152 167 0
148 161 0
150 165 0
159 174 0
151 165 0
157 171 0
150 165 0
158 174 0
146 159 0
150 164 0
158 171 0
154 167 0
153 167 0
150 165 0
147 160 0
150 166 0
154 166 0
158 169 0
152 165 0
147 159 0
154 170 0
157 170 0
154 169 0
156 171 0
148 161 0
151 165 0
156 169 0
151 164 0
147 159 0
163 177 0
153 165 0
156 167 0
149 161 0
156 170 0
150 162 0
149 161 0
159 174 0
151 163 0
154 165 0
145 157 0
150 161 0
154 165 0
158 172 0
151 163 0
154 170 0
160 173 0
170 192 0
171 193 0
172 193 0
175 196 0
169 191 0
170 192 0
175 196 0
172 193 0
166 188 0
169 190 0
168 190 0
170 192 0
172 194 0
167 189 0
167 190 0
166 188 0
168 190 0
167 189 0
168 189 0
166 187 0
168 189 0
168 190 0
171 193 0
167 189 0
168 190 0
168 191 0
168 190 0
164 186 0
169 190 0
160 182 0
166 189 0
165 187 0
163 186 0
165 188 0
166 189 0
167 189 0
166 189 0
165 187 0
167 189 0
165 187 0
167 189 0
165 187 0
163 185 0
161 183 0
166 187 0
161 183 0
163 185 0
160 182 0
163 185 0
162 184 0
166 188 0
167 190 0
163 186 0
166 188 0
159 181 0
158 181 0
164 187 0
162 185 0
163 187 0
163 185 0
166 189 0
160 181 0
162 186 0
159 182 0
157 180 0
159 182 0
163 185 0
163 186 0
163 186 0
163 186 0
161 184 0
155 178 0
160 183 0
161 184 0
161 184 0
157 181 0
157 179 0
164 187 0
167 189 0
159 182 0
157 179 0
156 178 0
165 188 0
157 179 0
160 182 0
160 183 0
160 181 0
161 183 0
157 180 0
159 182 0
158 181 0
157 179 0
162 185 0
163 185 0
162 184 0
161 184 0
155 178 0
161 183 0
162 184 0
162 186 0
164 186 0
155 177 0
155 178 0
156 179 0
162 182 0
160 182 0
160 182 0
164 186 0
151 174 0
157 180 0
155 178 0
162 185 0
158 180 0
158 181 0
160 182 0
156 179 0
153 176 0
158 181 0
157 181 0
157 180 0
155 177 0
156 179 0
160 182 0
158 181 0
157 180 0
153 176 0
153 177 0
154 178 0
153 176 0
153 176 0
151 174 0
160 182 0
156 178 0
159 182 0
159 180 0
161 184 0
158 180 0
158 181 0
161 184 0
155 177 0
154 177 0
151 174 0
147 169 0
152 175 0
158 179 0
153 176 0
155 176 0
156 179 0
153 176 0
152 174 0
154 177 0
156 178 0
159 181 0
151 173 0
151 174 0
150 173 0
153 176 0
160 182 0
158 181 0
151 174 0
152 175 0
150 172 0
159 182 0
157 180 0
146 168 0
154 176 0
158 180 0
156 179 0
151 175 0
151 173 0
151 174 0
149 172 0
152 174 0
156 178 0
146 167 0
149 172 0
152 174 0
144 166 0
150 173 0
147 168 0
151 172 0
146 168 0
143 165 0
144 167 0
150 173 0
163 185 0
151 173 0
145 165 0
144 166 0
152 174 0
151 173 0
148 170 0
153 173 0
153 176 0
157 179 0
153 174 0
143 164 0
152 173 0
149 171 0
151 173 0
156 179 0
153 174 0
146 166 0
154 176 0
151 172 0
149 171 0
151 172 0
148 169 0
156 178 0
149 171 0
147 169 0
149 170 0
154 174 0
153 175 0
151 173 0
155 178 0
151 173 0
158 180 0
137 159 0
150 171 0
149 171 0
151 173 0
148 166 0
151 171 0
151 172 0
147 169 0
146 168 0
149 169 0
153 174 0
152 174 0
157 179 0
154 175 0
156 177 0
139 160 0
152 172 0
150 171 0
148 168 0
152 172 0
152 173 0
148 170 0
150 170 0
156 176 0
155 176 0
148 170 0
148 169 0
155 176 0
152 174 0
151 172 0
150 172 0
151 171 0
151 171 0
150 171 0
157 178 0
148 168 0
151 173 0
141 159 0
145 166 0
140 160 0
150 170 0
153 173 0
147 167 0
151 171 0
145 165 0
145 165 0
158 178 0
151 170 0
154 175 0
152 173 0
146 165 0
154 174 0
152 173 0
152 171 0
157 177 0
150 170 0
152 171 0
148 169 0
151 170 0
144 164 0
147 167 0
158 179 0
147 166 0
146 166 0
154 174 0
154 174 0
149 166 0
156 176 0
152 172 0
146 163 0
153 172 0
147 164 0
149 168 0
159 179 0
149 169 0
151 172 0
150 166 0
152 173 0
154 174 0
157 176 0
158 178 0
154 173 0
151 170 0
150 169 0
147 164 0
147 167 0
148 166 0
146 166 0
154 173 0
148 167 0
145 163 0
149 168 0
152 172 0
154 170 0
160 180 0
151 169 0
151 169 0
153 171 0
156 174 0
153 170 0
151 168 0
156 174 0
150 168 0
153 172 0
149 167 0
153 171 0
162 180 0
153 170 0
157 175 0
153 169 0
152 172 0
152 168 0
154 170 0
153 166 0
151 167 0
150 168 0
158 175 0
156 171 0
158 176 0
157 173 0
155 171 0
145 162 0
149 165 0
154 169 0
160 177 0
152 171 0
153 169 0
154 168 0
149 163 0
142 154 0
153 169 0
156 174 0
149 166 0
152 168 0
151 166 0
151 167 0
152 167 0
155 170 0
157 170 0
152 167 0
149 164 0
155 169 0
149 161 0
148 163 0
152 168 0
152 167 0
152 169 0
153 168 0
148 162 0
155 172 0
149 163 0
154 168 0
150 164 0
146 159 0
156 172 0
148 161 0
151 164 0
158 175 0
148 162 0
147 158 0
153 164 0
151 167 0
147 159 0
149 162 0
157 169 0
153 167 0
148 159 0
150 164 0
151 165 0
155 166 0
153 168 0
154 166 0
156 169 0
156 168 0
147 156 0
152 166 0
153 166 0
157 172 0
159 174 0
155 167 0
148 160 0
152 167 0
171 193 0
173 195 0
168 191 0
170 192 0
167 189 0
171 192 0
168 190 0
169 192 0
169 192 0
169 191 0
169 191 0
168 189 0
171 194 0
168 189 0
168 190 0
166 187 0
170 192 0
164 186 0
169 191 0
167 189 0
170 191 0
170 193 0
169 191 0
168 189 0
171 193 0
168 190 0
168 190 0
166 188 0
165 186 0
168 190 0
163 186 0
168 189 0
164 187 0
174 194 0
165 188 0
170 192 0
165 186 0
165 188 0
163 185 0
161 182 0
165 187 0
167 189 0
165 188 0
160 182 0
164 186 0
165 187 0
165 186 0
166 189 0
167 190 0
159 182 0
162 184 0
164 186 0
166 188 0
157 179 0
160 183 0
163 185 0
165 187 0
160 181 0
156 178 0
161 183 0
161 183 0
159 183 0
167 189 0
162 184 0
162 185 0
160 183 0
163 186 0
166 188 0
165 188 0
160 183 0
162 185 0
160 182 0
160 183 0
157 180 0
153 176 0
157 180 0
163 185 0
154 176 0
168 190 0
162 185 0
166 189 0
161 184 0
158 181 0
159 181 0
161 183 0
153 176 0
156 180 0
158 180 0
159 182 0
165 188 0
159 182 0
157 180 0
156 180 0
164 187 0
160 183 0
167 189 0
165 188 0
154 176 0
163 186 0
162 183 0
152 174 0
158 180 0
155 179 0
154 178 0
155 179 0
158 182 0
154 176 0
155 178 0
159 182 0
163 186 0
152 175 0
156 179 0
153 176 0
160 182 0
161 184 0
155 177 0
163 186 0
150 174 0
161 183 0
164 187 0
160 183 0
154 177 0
152 174 0
161 183 0
158 181 0
159 182 0
159 182 0
151 173 0
156 179 0
159 183 0
151 174 0
152 175 0
155 177 0
156 179 0
161 183 0
160 183 0
161 183 0
157 178 0
155 177 0
159 181 0
158 181 0
155 177 0
152 175 0
153 175 0
150 172 0
151 173 0
157 180 0
159 182 0
152 174 0
157 179 0
145 168 0
154 178 0
149 171 0
156 179 0
160 182 0
151 172 0
153 175 0
156 179 0
153 175 0
155 178 0
157 179 0
151 173 0
152 174 0
148 169 0
152 175 0
151 173 0
143 166 0
152 176 0
152 174 0
152 174 0
159 181 0
149 171 0
152 175 0
152 174 0
154 177 0
150 173 0
148 169 0
153 174 0
147 168 0
157 179 0
150 172 0
156 179 0
149 170 0
144 165 0
147 169 0
145 167 0
147 168 0
143 164 0
155 177 0
154 174 0
150 172 0
152 174 0
153 175 0
148 169 0
153 174 0
148 171 0
145 164 0
154 177 0
155 177 0
154 174 0
151 173 0
153 176 0
157 179 0
150 172 0
151 172 0
152 175 0
156 177 0
148 171 0
154 175 0
150 172 0
143 164 0
149 171 0
156 177 0
143 166 0
153 175 0
149 170 0
151 171 0
152 174 0
153 175 0
145 164 0
151 171 0
147 168 0
144 166 0
149 170 0
150 171 0
154 176 0
149 170 0
149 170 0
152 173 0
144 164 0
149 169 0
154 175 0
150 171 0
153 172 0
151 171 0
147 167 0
145 165 0
154 174 0
149 171 0
149 170 0
155 176 0
143 163 0
149 170 0
151 173 0
151 172 0
146 166 0
147 167 0
151 172 0
144 165 0
150 170 0
156 177 0
150 170 0
153 174 0
150 171 0
151 172 0
154 175 0
149 169 0
153 174 0
153 175 0
149 170 0
152 173 0
148 168 0
145 164 0
144 165 0
155 175 0
147 168 0
153 172 0
148 166 0
153 173 0
143 162 0
143 162 0
150 168 0
159 179 0
154 174 0
151 171 0
153 173 0
147 168 0
149 170 0
148 167 0
154 174 0
149 167 0
153 174 0
148 168 0
148 166 0
140 160 0
151 169 0
151 170 0
143 162 0
154 174 0
153 170 0
150 170 0
155 173 0
153 172 0
150 169 0
150 167 0
148 167 0
148 168 0
155 174 0
147 166 0
151 169 0
150 169 0
152 171 0
153 174 0
152 171 0
154 173 0
149 166 0
146 164 0
147 165 0
151 167 0
150 169 0
151 169 0
148 165 0
154 174 0
154 174 0
158 177 0
153 173 0
160 179 0
156 174 0
147 163 0
156 173 0
146 164 0
153 171 0
152 169 0
162 180 0
149 166 0
148 164 0
148 164 0
157 175 0
153 170 0
154 172 0
156 173 0
150 165 0
160 179 0
148 162 0
150 167 0
153 171 0
155 173 0
156 173 0
147 164 0
157 174 0
154 169 0
147 162 0
151 169 0
151 167 0
151 167 0
144 159 0
155 174 0
158 176 0
154 171 0
153 168 0
145 159 0
159 175 0
145 159 0
157 172 0
149 164 0
153 169 0
150 165 0
151 167 0
144 158 0
152 166 0
151 166 0
144 159 0
151 166 0
143 157 0
149 162 0
153 166 0
158 173 0
153 169 0
152 166 0
150 163 0
157 171 0
149 160 0
152 164 0
149 162 0
152 166 0
153 166 0
153 167 0
150 164 0
150 164 0
153 164 0
150 162 0
154 168 0
155 168 0
158 173 0
162 176 0
153 168 0
153 168 0
156 171 0
155 166 0
159 173 0
158 171 0
151 164 0
156 170 0
157 168 0
158 173 0
159 173 0
150 164 0
156 171 0
161 173 0
156 170 0
171 193 0
170 191 0
171 193 0
170 192 0
171 193 0
168 191 0
168 191 0
168 191 0
167 189 0
171 192 0
171 194 0
168 190 0
166 188 0
171 193 0
167 189 0
168 190 0
166 188 0
169 192 0
167 189 0
170 193 0
168 190 0
172 193 0
164 187 0
162 184 0
166 189 0
168 192 0
167 189 0
161 183 0
164 185 0
165 188 0
170 193 0
164 187 0
167 190 0
169 191 0
170 193 0
159 182 0
165 188 0
163 185 0
163 186 0
167 191 0
163 185 0
166 188 0
161 184 0
164 187 0
162 185 0
159 182 0
165 188 0
166 189 0
167 189 0
170 193 0
163 185 0
156 178 0
167 189 0
168 191 0
163 185 0
161 183 0
164 187 0
166 189 0
167 190 0
162 184 0
156 178 0
161 184 0
159 182 0
161 184 0
165 188 0
164 187 0
161 184 0
162 184 0
159 181 0
160 183 0
158 180 0
163 186 0
154 177 0
157 180 0
165 188 0
154 177 0
164 187 0
162 185 0
157 180 0
163 185 0
158 182 0
157 179 0
161 183 0
157 180 0
159 182 0
157 180 0
166 188 0
163 186 0
168 191 0
154 178 0
159 183 0
155 178 0
159 181 0
162 185 0
159 181 0
160 182 0
155 178 0
161 185 0
152 175 0
164 186 0
159 181 0
158 181 0
162 184 0
155 177 0
153 176 0
158 180 0
160 183 0
156 180 0
154 178 0
161 184 0
155 178 0
157 180 0
157 180 0
157 179 0
156 179 0
152 175 0
160 182 0
158 181 0
157 180 0
159 182 0
158 180 0
161 183 0
160 183 0
159 182 0
159 180 0
156 179 0
158 180 0
151 172 0
155 178 0
159 182 0
152 174 0
157 180 0
156 177 0
156 178 0
156 179 0
157 180 0
152 174 0
154 178 0
153 175 0
158 181 0
154 177 0
152 176 0
149 173 0
154 176 0
154 178 0
146 169 0
153 175 0
156 179 0
153 174 0
150 172 0
152 174 0
157 180 0
159 182 0
156 177 0
149 172 0
152 173 0
156 179 0
153 176 0
152 174 0
152 176 0
155 177 0
154 176 0
147 168 0
155 178 0
153 176 0
148 170 0
154 176 0
160 183 0
147 169 0
155 178 0
152 175 0
159 181 0
155 177 0
156 179 0
150 172 0
156 178 0
144 166 0
154 176 0
148 170 0
151 173 0
156 179 0
150 172 0
150 172 0
152 174 0
145 168 0
155 177 0
158 180 0
154 176 0
146 168 0
150 171 0
160 181 0
152 175 0
158 180 0
153 174 0
147 167 0
145 168 0
149 170 0
148 170 0
151 173 0
152 174 0
148 170 0
149 172 0
142 163 0
151 173 0
146 167 0
144 164 0
145 165 0
147 169 0
152 175 0
149 170 0
153 175 0
148 170 0
152 173 0
150 170 0
145 166 0
147 168 0
149 170 0
147 169 0
153 174 0
146 166 0
151 172 0
150 172 0
149 169 0
149 172 0
153 175 0
152 173 0
158 179 0
154 176 0
158 180 0
156 176 0
148 168 0
152 172 0
141 163 0
145 166 0
156 177 0
141 162 0
140 162 0
146 167 0
156 176 0
148 170 0
150 171 0
148 167 0
154 175 0
154 176 0
152 173 0
153 173 0
155 177 0
156 177 0
149 169 0
153 173 0
154 175 0
155 174 0
153 174 0
150 171 0
148 167 0
153 174 0
152 173 0
150 170 0
149 170 0
154 175 0
157 177 0
146 168 0
154 174 0
152 172 0
152 171 0
144 163 0
146 167 0
150 172 0
157 176 0
147 165 0
145 163 0
151 170 0
141 160 0
146 167 0
150 171 0
150 170 0
155 175 0
156 175 0
150 169 0
148 168 0
147 168 0
153 173 0
146 163 0
154 174 0
150 171 0
152 174 0
154 173 0
147 166 0
153 172 0
154 173 0
158 176 0
149 168 0
144 163 0
155 173 0
154 174 0
155 173 0
152 169 0
146 165 0
154 173 0
155 174 0
149 167 0
145 164 0
154 173 0
155 174 0
149 169 0
157 177 0
154 173 0
149 167 0
141 160 0
147 167 0
152 171 0
151 169 0
147 165 0
154 172 0
148 166 0
148 164 0
156 175 0
158 176 0
153 171 0
155 174 0
149 166 0
151 168 0
155 170 0
150 165 0
147 163 0
148 167 0
143 160 0
154 172 0
151 167 0
146 162 0
151 168 0
153 171 0
159 176 0
145 160 0
153 171 0
152 168 0
157 174 0
159 176 0
155 172 0
151 166 0
158 175 0
153 168 0
154 172 0
151 167 0
145 159 0
148 164 0
156 171 0
150 165 0
147 164 0
158 175 0
156 171 0
157 174 0
153 169 0
153 168 0
151 167 0
144 162 0
152 167 0
156 175 0
158 172 0
151 165 0
151 164 0
151 167 0
146 161 0
151 166 0
144 157 0
153 169 0
156 169 0
152 166 0
143 157 0
151 165 0
153 168 0
156 170 0
152 166 0
155 172 0
157 171 0
150 165 0
149 163 0
146 160 0
154 167 0
155 166 0
154 167 0
159 174 0
151 164 0
150 163 0
157 171 0
152 167 0
152 166 0
156 172 0
158 174 0
151 163 0
157 169 0
149 162 0
151 164 0
151 163 0
149 162 0
160 174 0
152 163 0
154 169 0
162 177 0
152 166 0
171 193 0
169 192 0
172 193 0
171 193 0
165 188 0
165 187 0
172 194 0
166 189 0
165 187 0
171 193 0
165 188 0
162 184 0
168 190 0
165 187 0
170 194 0
168 190 0
163 185 0
166 188 0
167 189 0
169 191 0
166 189 0
165 187 0
168 190 0
164 186 0
169 192 0
169 190 0
169 192 0
161 182 0
167 190 0
162 185 0
164 187 0
167 190 0
160 183 0
167 190 0
164 186 0
163 185 0
166 188 0
165 186 0
166 188 0
169 192 0
168 190 0
166 188 0
166 188 0
166 189 0
167 190 0
166 189 0
166 189 0
168 191 0
164 187 0
161 182 0
161 183 0
161 184 0
164 188 0
162 185 0
163 186 0
164 186 0
160 182 0
161 184 0
160 183 0
156 179 0
160 183 0
158 180 0
164 187 0
166 189 0
166 189 0
164 187 0
159 181 0
164 187 0
165 187 0
165 188 0
163 185 0
165 187 0
161 185 0
166 189 0
162 184 0
159 182 0
157 179 0
156 179 0
160 183 0
159 181 0
157 179 0
160 182 0
157 179 0
160 183 0
157 180 0
160 183 0
159 181 0
156 179 0
155 178 0
159 182 0
163 185 0
162 185 0
161 184 0
164 188 0
158 180 0
165 187 0
152 173 0
154 177 0
157 179 0
154 177 0
161 184 0
156 179 0
153 176 0
163 185 0
158 180 0
154 178 0
158 181 0
157 180 0
159 182 0
148 172 0
154 177 0
158 181 0
166 187 0
161 183 0
158 180 0
157 179 0
152 175 0
157 179 0
164 187 0
154 177 0
160 183 0
155 177 0
154 177 0
154 177 0
157 180 0
153 175 0
156 179 0
161 183 0
160 181 0
155 177 0
154 176 0
159 181 0
155 178 0
155 177 0
156 178 0
164 186 0
152 174 0
152 174 0
152 175 0
151 175 0
153 175 0
159 181 0
151 175 0
153 176 0
152 174 0
157 179 0
151 173 0
150 173 0
157 180 0
155 177 0
150 173 0
155 177 0
158 181 0
160 183 0
155 177 0
151 173 0
155 178 0
156 178 0
156 177 0
153 177 0
159 182 0
156 177 0
157 180 0
150 173 0
152 174 0
157 179 0
155 177 0
156 178 0
158 179 0
157 180 0
154 174 0
153 175 0
150 171 0
153 173 0
141 162 0
151 174 0
149 171 0
148 171 0
154 176 0
147 170 0
154 175 0
157 181 0
153 176 0
158 181 0
159 181 0
149 170 0
153 175 0
156 178 0
149 170 0
146 169 0
153 174 0
151 172 0
153 175 0
155 177 0
151 174 0
159 183 0
146 167 0
155 176 0
154 176 0
144 167 0
145 168 0
153 174 0
146 168 0
154 175 0
148 169 0
147 167 0
153 175 0
147 167 0
145 166 0
149 172 0
153 175 0
151 172 0
150 171 0
155 177 0
152 173 0
150 173 0
148 170 0
148 170 0
151 172 0
156 177 0
152 174 0
151 173 0
157 179 0
149 170 0
141 162 0
144 166 0
159 181 0
152 173 0
144 164 0
155 174 0
153 174 0
152 174 0
145 167 0
150 173 0
148 169 0
153 173 0
142 164 0
154 176 0
151 171 0
150 172 0
148 168 0
152 173 0
151 170 0
148 170 0
157 179 0
155 175 0
143 163 0
155 176 0
149 169 0
149 170 0
144 165 0
149 169 0
145 168 0
152 173 0
152 173 0
149 169 0
150 171 0
154 174 0
157 178 0
147 169 0
155 176 0
150 170 0
152 173 0
154 172 0
152 173 0
142 162 0
146 164 0
154 174 0
140 160 0
154 174 0
148 167 0
152 172 0
152 172 0
149 171 0
149 170 0
155 175 0
148 167 0
158 177 0
147 167 0
151 172 0
158 179 0
151 173 0
155 176 0
149 169 0
152 172 0
148 169 0
153 174 0
150 170 0
157 177 0
145 163 0
149 168 0
158 179 0
153 173 0
151 169 0
147 165 0
153 172 0
156 175 0
146 164 0
158 177 0
153 172 0
152 171 0
155 174 0
153 171 0
155 171 0
157 176 0
151 170 0
150 170 0
157 176 0
152 170 0
158 177 0
163 182 0
155 177 0
155 175 0
149 167 0
151 170 0
151 170 0
152 170 0
156 173 0
152 167 0
150 168 0
148 164 0
150 169 0
152 171 0
152 167 0
156 174 0
154 172 0
151 171 0
149 167 0
150 167 0
154 173 0
145 163 0
151 167 0
148 163 0
143 159 0
153 170 0
147 164 0
150 165 0
152 169 0
153 171 0
155 173 0
157 172 0
146 161 0
151 168 0
154 170 0
160 177 0
152 166 0
154 170 0
151 165 0
151 166 0
152 168 0
143 160 0
151 167 0
154 169 0
150 167 0
151 167 0
152 167 0
143 160 0
154 171 0
162 179 0
153 169 0
148 162 0
153 168 0
153 170 0
153 169 0
155 171 0
158 176 0
151 166 0
142 157 0
148 161 0
156 172 0
148 165 0
156 169 0
159 176 0
156 170 0
149 165 0
143 156 0
148 159 0
148 163 0
157 172 0
154 169 0
153 166 0
158 173 0
158 171 0
156 170 0
151 166 0
155 171 0
152 165 0
153 168 0
159 174 0
156 169 0
153 166 0
156 169 0
150 163 0
158 174 0
157 172 0
151 164 0
154 166 0
160 174 0
154 168 0
158 172 0
168 191 0
172 195 0
169 191 0
170 191 0
170 192 0
165 188 0
166 188 0
165 187 0
165 187 0
170 192 0
172 193 0
169 191 0
167 190 0
168 191 0
171 192 0
167 189 0
170 192 0
167 189 0
164 187 0
166 189 0
167 190 0
170 192 0
163 185 0
166 189 0
164 186 0
162 184 0
168 191 0
164 187 0
163 186 0
166 189 0
167 189 0
166 188 0
166 189 0
161 184 0
161 184 0
166 189 0
167 189 0
167 189 0
162 184 0
162 185 0
167 189 0
166 187 0
168 190 0
161 183 0
159 182 0
167 190 0
164 187 0
164 187 0
168 189 0
158 181 0
163 185 0
158 180 0
161 183 0
161 184 0
166 189 0
163 186 0
162 184 0
165 188 0
163 186 0
162 184 0
164 186 0
166 188 0
158 181 0
154 176 0
157 180 0
162 185 0
166 190 0
164 187 0
160 183 0
166 189 0
161 184 0
158 182 0
167 190 0
157 180 0
165 187 0
160 183 0
162 185 0
160 183 0
162 185 0
161 183 0
161 184 0
153 175 0
163 185 0
156 179 0
161 185 0
159 182 0
164 187 0
156 179 0
161 184 0
159 182 0
162 185 0
159 181 0
158 182 0
160 183 0
155 179 0
161 184 0
156 177 0
160 183 0
160 183 0
162 185 0
161 185 0
160 184 0
156 180 0
153 176 0
158 180 0
153 176 0
160 183 0
160 182 0
160 184 0
153 175 0
154 176 0
166 189 0
158 180 0
157 180 0
155 178 0
157 180 0
153 175 0
154 177 0
150 173 0
154 176 0
153 175 0
157 180 0
153 176 0
157 179 0
154 177 0
159 182 0
160 183 0
155 178 0
157 179 0
152 173 0
159 182 0
155 178 0
146 168 0
156 178 0
162 184 0
159 183 0
154 177 0
161 183 0
157 179 0
153 176 0
152 173 0
160 183 0
161 183 0
156 179 0
157 180 0
160 182 0
155 177 0
158 181 0
154 177 0
160 183 0
152 175 0
150 173 0
155 177 0
159 182 0
152 173 0
155 178 0
155 177 0
158 181 0
151 174 0
157 181 0
155 178 0
155 177 0
159 179 0
153 176 0
155 177 0
154 175 0
147 169 0
157 180 0
157 179 0
149 171 0
157 180 0
155 177 0
155 177 0
149 171 0
148 171 0
149 171 0
152 175 0
154 176 0
147 169 0
153 175 0
149 171 0
155 177 0
151 173 0
152 176 0
146 169 0
150 171 0
157 179 0
149 171 0
150 171 0
149 171 0
152 174 0
153 175 0
159 180 0
153 177 0
151 173 0
148 170 0
152 174 0
146 167 0
147 168 0
150 172 0
147 169 0
159 182 0
155 176 0
151 173 0
153 176 0
142 163 0
151 172 0
150 172 0
150 172 0
149 171 0
153 176 0
147 168 0
153 174 0
150 171 0
148 169 0
149 170 0
150 172 0
154 174 0
155 177 0
150 171 0
151 172 0
154 174 0
156 178 0
148 170 0
156 178 0
142 163 0
148 170 0
147 169 0
153 174 0
150 172 0
149 170 0
145 166 0
157 179 0
153 173 0
146 167 0
147 167 0
150 171 0
156 178 0
150 171 0
154 177 0
147 169 0
150 171 0
157 178 0
150 172 0
152 174 0
151 172 0
154 175 0
151 173 0
149 170 0
141 161 0
156 176 0
150 169 0
150 171 0
148 169 0
149 168 0
158 179 0
156 178 0
145 164 0
150 171 0
154 173 0
153 172 0
156 177 0
155 175 0
159 178 0
152 173 0
149 169 0
156 178 0
161 183 0
150 170 0
153 173 0
151 171 0
145 167 0
149 169 0
149 168 0
155 174 0
158 179 0
151 171 0
150 171 0
152 173 0
149 167 0
148 169 0
157 177 0
148 169 0
154 173 0
151 172 0
142 161 0
149 167 0
146 166 0
155 175 0
144 164 0
141 161 0
154 173 0
142 161 0
151 170 0
149 168 0
153 173 0
146 164 0
146 165 0
152 171 0
157 178 0
149 168 0
148 168 0
150 170 0
148 165 0
151 170 0
154 172 0
153 171 0
148 165 0
150 167 0
149 167 0
154 173 0
158 177 0
146 164 0
154 174 0
156 176 0
154 171 0
152 170 0
152 170 0
150 167 0
146 165 0
154 171 0
159 174 0
155 173 0
157 175 0
153 171 0
150 167 0
150 167 0
148 165 0
148 165 0
150 169 0
157 176 0
149 165 0
142 159 0
151 168 0
158 176 0
153 170 0
152 171 0
157 173 0
145 161 0
150 166 0
148 166 0
153 171 0
151 168 0
150 167 0
150 166 0
152 166 0
157 174 0
151 168 0
155 173 0
148 165 0
155 170 0
154 171 0
156 173 0
159 175 0
153 168 0
154 169 0
150 163 0
147 163 0
155 171 0
155 171 0
155 171 0
145 159 0
151 164 0
151 167 0
147 162 0
153 168 0
153 169 0
152 167 0
158 175 0
157 173 0
142 156 0
151 166 0
155 170 0
152 165 0
150 166 0
155 169 0
156 171 0
155 168 0
155 170 0
149 163 0
154 167 0
160 173 0
154 169 0
152 167 0
153 166 0
147 161 0
154 169 0
165 181 0
161 174 0
152 165 0
153 168 0
154 165 0
150 164 0
155 171 0
158 171 0
154 169 0
159 174 0
152 165 0
156 173 0
154 166 0
172 194 0
174 196 0
170 192 0
172 194 0
171 192 0
165 188 0
171 193 0
168 189 0
166 188 0
169 191 0
169 191 0
168 190 0
168 191 0
171 194 0
168 190 0
169 191 0
168 191 0
168 190 0
166 188 0
164 187 0
169 192 0
164 186 0
168 190 0
168 189 0
170 193 0
171 193 0
165 188 0
166 189 0
162 184 0
167 190 0
166 188 0
166 189 0
166 188 0
164 188 0
168 190 0
167 190 0
164 186 0
167 190 0
163 185 0
164 187 0
164 187 0
161 183 0
163 185 0
166 188 0
164 186 0
166 188 0
166 187 0
165 187 0
159 182 0
161 183 0
163 185 0
158 181 0
165 188 0
162 185 0
162 184 0
158 181 0
168 190 0
162 185 0
162 184 0
159 182 0
156 178 0
158 180 0
165 186 0
155 178 0
163 187 0
164 187 0
163 185 0
158 182 0
160 182 0
161 184 0
161 184 0
156 178 0
164 187 0
156 177 0
161 184 0
167 189 0
163 187 0
156 180 0
154 176 0
161 185 0
160 183 0
159 183 0
160 183 0
162 186 0
160 183 0
157 180 0
165 188 0
163 185 0
163 186 0
159 182 0
154 177 0
163 186 0
163 186 0
155 178 0
155 177 0
159 181 0
168 190 0
162 184 0
158 181 0
161 184 0
152 175 0
157 180 0
161 183 0
160 183 0
153 175 0
157 179 0
155 178 0
156 180 0
159 181 0
159 182 0
158 181 0
162 185 0
159 183 0
156 179 0
157 180 0
157 181 0
154 177 0
164 188 0
161 184 0
158 181 0
153 174 0
158 181 0
156 179 0
159 182 0
150 173 0
158 181 0
158 182 0
156 179 0
153 176 0
152 174 0
160 183 0
160 182 0
152 175 0
158 181 0
157 179 0
151 173 0
158 180 0
156 179 0
150 172 0
150 172 0
151 173 0
155 178 0
152 174 0
151 173 0
154 176 0
159 181 0
154 176 0
160 183 0
158 181 0
151 174 0
154 176 0
149 171 0
155 177 0
156 177 0
148 171 0
159 182 0
153 176 0
147 169 0
152 173 0
146 167 0
153 176 0
153 175 0
153 175 0
156 179 0
145 168 0
154 176 0
153 175 0
155 178 0
155 179 0
158 179 0
148 171 0
152 175 0
156 178 0
158 180 0
157 179 0
153 174 0
146 168 0
150 171 0
150 173 0
152 173 0
152 174 0
151 173 0
155 177 0
159 181 0
150 172 0
156 179 0
154 177 0
160 182 0
152 173 0
151 174 0
154 176 0
152 174 0
160 182 0
147 169 0
155 177 0
154 176 0
154 176 0
144 165 0
152 175 0
158 180 0
149 171 0
148 171 0
155 178 0
156 179 0
150 171 0
147 168 0
146 168 0
149 171 0
151 173 0
153 174 0
148 170 0
159 181 0
159 182 0
155 177 0
155 177 0
149 170 0
153 174 0
152 172 0
145 166 0
153 174 0
150 172 0
160 181 0
150 171 0
148 170 0
151 173 0
145 166 0
150 172 0
143 163 0
147 166 0
151 173 0
146 168 0
147 168 0
151 173 0
151 173 0
142 163 0
153 174 0
148 169 0
149 169 0
145 164 0
152 172 0
147 168 0
155 176 0
148 170 0
152 174 0
154 177 0
145 167 0
141 162 0
149 170 0
147 168 0
147 167 0
159 181 0
147 167 0
150 172 0
152 175 0
156 177 0
149 168 0
155 175 0
147 166 0
148 167 0
146 166 0
152 174 0
146 167 0
150 171 0
151 173 0
142 161 0
146 166 0
149 170 0
147 166 0
151 171 0
151 171 0
153 173 0
155 175 0
155 175 0
156 176 0
149 170 0
151 170 0
152 172 0
151 171 0
155 176 0
160 181 0
148 168 0
150 171 0
155 174 0
156 176 0
146 166 0
158 178 0
154 173 0
152 170 0
152 173 0
147 166 0
154 174 0
152 170 0
151 169 0
152 171 0
149 169 0
149 168 0
158 178 0
151 170 0
154 173 0
154 174 0
153 173 0
158 177 0
156 175 0
155 175 0
141 159 0
150 168 0
152 173 0
145 165 0
154 172 0
159 178 0
154 174 0
143 160 0
155 174 0
154 173 0
153 173 0
149 169 0
158 176 0
159 178 0
153 171 0
157 175 0
155 171 0
147 166 0
146 164 0
149 167 0
155 174 0
147 165 0
146 163 0
156 173 0
148 165 0
153 171 0
158 174 0
156 176 0
156 173 0
157 174 0
151 166 0
150 168 0
150 166 0
155 174 0
152 171 0
156 173 0
149 165 0
154 171 0
152 168 0
156 174 0
142 158 0
149 165 0
151 166 0
154 169 0
150 165 0
152 166 0
152 167 0
152 167 0
149 166 0
152 168 0
153 169 0
158 174 0
156 173 0
155 170 0
153 166 0
157 172 0
154 169 0
156 174 0
148 165 0
153 170 0
149 164 0
150 166 0
153 168 0
153 169 0
152 165 0
152 170 0
151 165 0
153 168 0
158 176 0
148 163 0
152 167 0
159 175 0
159 175 0
150 165 0
155 169 0
153 166 0
156 171 0
162 180 0
154 168 0
156 172 0
154 169 0
154 167 0
147 162 0
148 163 0
159 174 0
148 161 0
149 162 0
148 160 0
150 165 0
158 172 0
154 168 0
162 176 0
153 165 0
161 174 0
159 173 0
150 163 0
171 193 0
169 191 0
163 186 0
169 191 0
164 186 0
169 191 0
167 189 0
165 187 0
169 190 0
166 188 0
166 188 0
170 191 0
163 185 0
166 187 0
164 186 0
173 196 0
166 188 0
171 194 0
170 192 0
165 187 0
158 180 0
165 188 0
162 185 0
165 188 0
168 190 0
161 184 0
164 186 0
168 189 0
167 189 0
163 186 0
165 188 0
165 187 0
158 181 0
166 188 0
165 187 0
163 185 0
161 183 0
167 190 0
166 188 0
164 185 0
163 186 0
164 186 0
162 184 0
164 186 0
166 189 0
166 188 0
169 191 0
168 190 0
164 187 0
160 183 0
167 189 0
161 184 0
158 181 0
165 187 0
162 184 0
161 184 0
169 192 0
162 185 0
159 181 0
162 184 0
159 183 0
163 185 0
160 182 0
162 185 0
160 183 0
163 185 0
160 184 0
162 185 0
165 188 0
165 188 0
158 181 0
156 179 0
160 184 0
163 186 0
161 183 0
160 182 0
161 184 0
157 180 0
161 184 0
158 181 0
156 178 0
160 183 0
159 182 0
164 187 0
157 180 0
156 178 0
161 184 0
153 176 0
160 183 0
162 185 0
156 180 0
158 180 0
165 188 0
156 179 0
164 187 0
154 178 0
161 184 0
156 178 0
161 185 0
159 183 0
162 185 0
165 188 0
158 181 0
157 180 0
157 180 0
162 185 0
155 179 0
156 179 0
154 177 0
154 177 0
157 180 0
160 183 0
162 184 0
155 178 0
161 185 0
158 180 0
159 182 0
156 180 0
157 179 0
164 186 0
151 174 0
159 181 0
155 177 0
158 180 0
158 180 0
161 183 0
158 181 0
160 183 0
152 175 0
155 178 0
157 180 0
153 175 0
155 177 0
156 177 0
154 177 0
163 187 0
158 180 0
154 176 0
158 181 0
159 181 0
156 178 0
156 180 0
160 182 0
160 182 0
151 175 0
145 167 0
148 171 0
160 183 0
153 176 0
155 178 0
155 178 0
155 176 0
155 179 0
162 185 0
157 180 0
154 176 0
152 175 0
147 170 0
157 180 0
160 182 0
153 174 0
146 167 0
152 174 0
160 182 0
155 177 0
150 172 0
154 177 0
153 175 0
158 180 0
154 177 0
147 169 0
159 181 0
153 175 0
152 173 0
153 175 0
155 176 0
155 177 0
148 171 0
143 165 0
150 172 0
155 176 0
159 181 0
153 177 0
152 174 0
150 173 0
160 182 0
150 172 0
151 171 0
146 168 0
152 175 0
149 170 0
154 175 0
157 179 0
152 173 0
159 181 0
149 170 0
148 170 0
152 172 0
153 176 0
157 179 0
149 170 0
156 178 0
149 170 0
144 165 0
152 175 0
147 169 0
157 179 0
158 180 0
148 170 0
145 165 0
151 171 0
148 169 0
150 170 0
158 181 0
150 171 0
154 176 0
150 172 0
150 170 0
153 175 0
147 168 0
154 175 0
150 171 0
153 174 0
152 173 0
153 175 0
155 177 0
154 175 0
157 178 0
156 177 0
143 166 0
153 174 0
152 174 0
152 173 0
157 179 0
150 172 0
155 176 0
150 171 0
155 177 0
154 176 0
150 170 0
150 171 0
152 174 0
153 174 0
150 170 0
154 176 0
157 179 0
155 176 0
150 172 0
157 179 0
148 169 0
153 173 0
153 175 0
141 163 0
151 171 0
156 176 0
159 180 0
152 173 0
151 171 0
155 176 0
153 174 0
155 176 0
152 174 0
157 177 0
152 173 0
158 177 0
155 176 0
153 173 0
152 174 0
149 170 0
148 168 0
151 172 0
147 167 0
149 170 0
154 175 0
152 173 0
153 173 0
158 180 0
152 171 0
155 176 0
153 173 0
158 179 0
148 169 0
146 164 0
152 171 0
158 178 0
155 175 0
156 176 0
150 169 0
151 171 0
152 171 0
155 176 0
159 178 0
151 171 0
153 174 0
151 170 0
155 174 0
151 170 0
148 168 0
154 173 0
151 172 0
152 170 0
147 162 0
155 173 0
151 169 0
157 177 0
154 173 0
154 175 0
150 170 0
157 175 0
150 167 0
155 172 0
145 164 0
156 174 0
154 173 0
150 168 0
156 173 0
151 169 0
151 169 0
149 169 0
157 176 0
153 171 0
150 169 0
147 163 0
157 175 0
151 168 0
160 178 0
147 165 0
147 165 0
149 167 0
152 170 0
154 171 0
156 172 0
147 163 0
157 173 0
155 176 0
157 174 0
159 176 0
158 177 0
156 174 0
148 166 0
154 170 0
155 174 0
155 174 0
153 171 0
150 168 0
148 164 0
155 174 0
156 172 0
154 173 0
154 172 0
153 168 0
155 172 0
156 172 0
147 164 0
153 168 0
149 164 0
152 169 0
150 168 0
149 165 0
160 176 0
155 169 0
153 167 0
158 176 0
151 167 0
156 171 0
156 170 0
156 171 0
157 171 0
151 167 0
155 170 0
154 172 0
155 171 0
160 177 0
155 170 0
156 173 0
157 172 0
156 172 0
153 169 0
153 167 0
151 166 0
148 163 0
159 174 0
152 166 0
162 178 0
156 172 0
155 170 0
156 172 0
157 171 0
160 174 0
155 170 0
156 173 0
155 171 0
152 165 0
157 168 0
158 171 0
155 167 0
145 154 0
152 167 0
158 174 0
154 169 0
167 190 0
171 194 0
169 192 0
165 188 0
171 194 0
168 191 0
165 187 0
166 188 0
169 191 0
167 190 0
168 190 0
164 185 0
169 191 0
162 185 0
167 190 0
166 188 0
164 185 0
165 188 0
169 191 0
166 188 0
167 189 0
162 185 0
166 187 0
162 185 0
164 187 0
165 188 0
166 188 0
164 187 0
164 185 0
167 189 0
165 187 0
169 192 0
168 190 0
156 178 0
171 194 0
165 188 0
159 182 0
166 189 0
164 186 0
169 191 0
162 185 0
159 183 0
164 187 0
164 186 0
160 182 0
163 186 0
162 185 0
163 186 0
164 187 0
162 185 0
162 186 0
164 187 0
163 185 0
162 185 0
163 186 0
157 179 0
165 188 0
163 186 0
155 178 0
159 181 0
163 186 0
164 187 0
163 186 0
156 178 0
163 185 0
162 185 0
163 185 0
162 185 0
163 186 0
166 189 0
161 183 0
158 180 0
161 184 0
158 181 0
161 184 0
162 185 0
157 180 0
162 185 0
162 184 0
166 189 0
157 179 0
161 183 0
164 186 0
157 179 0
156 179 0
159 182 0
158 181 0
159 181 0
161 184 0
160 182 0
156 179 0
159 183 0
159 181 0
161 184 0
161 185 0
161 184 0
155 178 0
160 182 0
159 181 0
160 183 0
158 181 0
156 180 0
159 182 0
162 185 0
154 177 0
154 176 0
159 183 0
160 183 0
157 180 0
160 184 0
160 183 0
155 178 0
157 181 0
156 178 0
155 178 0
159 182 0
154 177 0
164 186 0
149 171 0
158 180 0
158 181 0
153 175 0
154 177 0
157 180 0
158 181 0
157 180 0
157 180 0
157 180 0
158 181 0
154 177 0
157 179 0
158 181 0
157 180 0
157 180 0
155 177 0
150 172 0
158 181 0
155 178 0
154 177 0
157 180 0
156 178 0
157 179 0
155 177 0
155 178 0
153 176 0
151 174 0
156 179 0
155 177 0
152 175 0
151 175 0
155 178 0
155 177 0
156 178 0
161 184 0
160 182 0
152 175 0
156 179 0
156 178 0
155 178 0
158 180 0
160 182 0
151 175 0
157 179 0
152 174 0
157 180 0
158 181 0
152 176 0
157 180 0
160 183 0
154 176 0
152 173 0
155 179 0
158 180 0
154 175 0
155 177 0
159 181 0
159 181 0
151 172 0
151 173 0
156 180 0
155 177 0
151 174 0
157 180 0
150 172 0
151 172 0
157 179 0
154 176 0
155 178 0
158 181 0
154 176 0
156 176 0
161 183 0
152 174 0
153 175 0
153 176 0
150 171 0
150 170 0
158 179 0
158 181 0
146 168 0
151 173 0
150 171 0
146 167 0
153 176 0
150 171 0
155 179 0
155 177 0
151 172 0
152 173 0
147 169 0
151 174 0
152 173 0
156 178 0
147 169 0
146 166 0
152 174 0
155 175 0
152 173 0
150 172 0
156 179 0
151 172 0
148 171 0
144 165 0
146 167 0
156 178 0
154 177 0
153 174 0
146 167 0
152 173 0
144 164 0
156 176 0
147 169 0
148 168 0
149 171 0
146 168 0
142 162 0
151 173 0
155 177 0
148 167 0
146 167 0
157 178 0
152 173 0
151 173 0
149 172 0
154 175 0
146 166 0
156 177 0
152 174 0
153 175 0
154 174 0
152 173 0
147 169 0
148 170 0
149 170 0
150 171 0
149 169 0
153 176 0
154 176 0
153 174 0
153 175 0
153 174 0
158 178 0
152 174 0
149 170 0
153 174 0
150 169 0
147 166 0
159 181 0
149 171 0
150 169 0
146 166 0
159 179 0
150 170 0
155 175 0
144 165 0
154 175 0
156 177 0
152 172 0
151 171 0
150 170 0
154 174 0
150 171 0
152 174 0
150 169 0
156 177 0
159 180 0
142 162 0
149 168 0
149 169 0
148 168 0
151 169 0
152 172 0
151 172 0
149 168 0
152 171 0
152 170 0
145 165 0
144 162 0
151 170 0
151 170 0
153 170 0
156 176 0
157 178 0
148 167 0
151 171 0
154 175 0
160 180 0
149 167 0
156 174 0
151 170 0
146 165 0
152 170 0
150 168 0
156 175 0
151 169 0
154 171 0
159 180 0
154 172 0
144 164 0
147 163 0
152 172 0
155 173 0
151 170 0
156 176 0
150 169 0
150 168 0
149 165 0
156 174 0
154 173 0
157 176 0
154 172 0
155 172 0
148 163 0
155 172 0
156 175 0
156 171 0
152 171 0
156 174 0
151 169 0
147 165 0
155 173 0
152 170 0
149 167 0
157 175 0
150 164 0
148 165 0
155 173 0
153 168 0
154 173 0
146 162 0
152 168 0
158 174 0
157 173 0
156 175 0
154 173 0
152 170 0
156 171 0
148 164 0
149 165 0
148 167 0
147 164 0
157 175 0
155 173 0
159 175 0
152 169 0
153 168 0
156 171 0
157 174 0
158 176 0
149 165 0
159 177 0
149 165 0
159 175 0
155 169 0
157 174 0
155 171 0
154 170 0
156 170 0
155 171 0
153 168 0
149 163 0
148 160 0
155 168 0
155 172 0
153 168 0
152 166 0
156 171 0
161 176 0
157 171 0
158 174 0
154 168 0
153 166 0
152 167 0
162 176 0
152 167 0
155 168 0
156 170 0
156 172 0
161 175 0
158 172 0
171 193 0
166 187 0
170 191 0
165 188 0
166 188 0
166 189 0
167 188 0
168 190 0
168 189 0
169 191 0
166 188 0
166 188 0
165 188 0
168 190 0
169 191 0
164 186 0
169 191 0
171 195 0
168 191 0
166 188 0
167 191 0
163 186 0
167 189 0
165 188 0
167 189 0
162 184 0
163 185 0
169 192 0
159 182 0
167 190 0
168 190 0
167 190 0
159 182 0
156 179 0
163 185 0
167 190 0
166 189 0
168 190 0
162 185 0
166 189 0
163 185 0
169 191 0
165 188 0
170 193 0
168 190 0
161 184 0
165 188 0
166 188 0
164 188 0
162 185 0
163 186 0
162 185 0
161 184 0
160 182 0
166 189 0
165 189 0
159 182 0
160 183 0
162 186 0
164 187 0
154 177 0
166 189 0
165 188 0
163 185 0
165 188 0
166 189 0
164 187 0
158 180 0
163 185 0
161 185 0
161 183 0
163 185 0
162 185 0
163 186 0
158 180 0
155 177 0
163 186 0
158 181 0
155 178 0
160 182 0
161 183 0
163 186 0
156 179 0
162 186 0
159 182 0
164 188 0
159 182 0
160 183 0
157 180 0
161 185 0
163 187 0
164 187 0
162 185 0
153 177 0
156 178 0
154 177 0
156 179 0
152 174 0
160 182 0
162 186 0
162 186 0
166 189 0
159 181 0
161 184 0
158 180 0
152 175 0
159 183 0
162 184 0
160 182 0
152 174 0
160 183 0
161 182 0
160 183 0
162 185 0
159 181 0
158 181 0
156 178 0
154 177 0
157 178 0
161 183 0
161 183 0
157 180 0
155 178 0
157 180 0
163 186 0
160 182 0
157 181 0
159 181 0
158 182 0
148 171 0
156 178 0
151 174 0
160 182 0
155 178 0
162 185 0
161 183 0
153 175 0
158 181 0
156 178 0
162 184 0
152 174 0
156 179 0
152 174 0
153 175 0
153 176 0
152 174 0
153 175 0
156 178 0
158 180 0
155 177 0
158 180 0
150 171 0
159 181 0
157 180 0
157 178 0
156 178 0
156 178 0
151 174 0
149 171 0
150 174 0
157 178 0
158 181 0
160 182 0
150 172 0
146 168 0
156 180 0
154 176 0
153 176 0
156 179 0
152 174 0
155 178 0
155 177 0
156 178 0
159 181 0
157 178 0
151 173 0
157 180 0
157 179 0
150 172 0
153 174 0
157 178 0
155 177 0
151 173 0
154 176 0
156 176 0
156 177 0
152 173 0
149 170 0
152 173 0
152 174 0
150 170 0
157 179 0
146 168 0
150 171 0
155 177 0
149 171 0
155 177 0
148 169 0
156 178 0
150 173 0
153 175 0
149 170 0
153 175 0
162 185 0
154 177 0
156 178 0
151 173 0
153 176 0
155 179 0
147 169 0
152 173 0
156 178 0
156 177 0
149 170 0
148 171 0
151 172 0
149 171 0
150 172 0
146 167 0
151 173 0
154 175 0
149 170 0
156 178 0
148 169 0
148 170 0
159 182 0
148 169 0
144 164 0
151 171 0
152 174 0
154 174 0
148 168 0
157 178 0
155 178 0
153 174 0
155 178 0
146 166 0
150 171 0
143 164 0
153 174 0
159 181 0
153 174 0
145 166 0
156 177 0
151 171 0
154 175 0
155 175 0
149 171 0
150 171 0
152 172 0
151 172 0
150 169 0
155 176 0
152 174 0
154 176 0
160 181 0
148 169 0
149 169 0
154 175 0
148 167 0
149 170 0
153 174 0
158 180 0
153 172 0
151 172 0
152 173 0
152 172 0
153 174 0
151 167 0
160 180 0
146 166 0
154 173 0
161 181 0
151 172 0
149 168 0
143 163 0
151 171 0
152 174 0
153 174 0
153 173 0
156 174 0
148 168 0
154 175 0
148 168 0
156 177 0
148 167 0
159 179 0
155 174 0
149 168 0
156 176 0
155 175 0
158 176 0
153 174 0
149 169 0
157 177 0
154 173 0
159 180 0
153 171 0
144 164 0
154 173 0
153 173 0
151 170 0
151 170 0
152 171 0
152 171 0
155 174 0
148 164 0
149 167 0
148 167 0
152 172 0
154 173 0
153 168 0
152 172 0
157 177 0
147 165 0
148 169 0
147 165 0
146 163 0
153 173 0
149 168 0
156 175 0
156 173 0
149 168 0
149 168 0
151 168 0
157 174 0
153 172 0
161 181 0
156 174 0
149 166 0
149 166 0
151 169 0
144 161 0
155 175 0
157 176 0
149 167 0
149 163 0
154 171 0
152 168 0
156 175 0
144 159 0
159 177 0
160 178 0
159 174 0
149 166 0
156 173 0
151 169 0
153 171 0
154 171 0
154 172 0
156 172 0
150 165 0
157 173 0
152 167 0
158 175 0
159 176 0
152 166 0
151 168 0
155 175 0
149 165 0
153 170 0
151 167 0
155 169 0
157 173 0
155 171 0
155 172 0
153 170 0
163 182 0
148 163 0
160 177 0
156 170 0
155 170 0
150 163 0
153 169 0
161 178 0
150 166 0
154 171 0
156 170 0
157 173 0
157 172 0
154 168 0
154 170 0
150 163 0
148 161 0
157 172 0
155 169 0
158 172 0
160 175 0
159 175 0
154 169 0
151 166 0
154 167 0
160 175 0
158 172 0
158 172 0
152 168 0
156 172 0
157 172 0
152 166 0
159 175 0
168 191 0
172 193 0
167 189 0
167 190 0
170 192 0
166 188 0
171 193 0
166 188 0
167 190 0
165 187 0
169 192 0
167 189 0
169 191 0
164 186 0
171 194 0
170 193 0
168 191 0
163 186 0
165 188 0
166 188 0
162 184 0
169 191 0
171 192 0
169 191 0
170 192 0
169 190 0
162 184 0
161 184 0
165 188 0
164 186 0
167 189 0
164 187 0
164 187 0
162 185 0
167 189 0
168 190 0
166 188 0
168 191 0
162 184 0
164 187 0
164 185 0
163 187 0
166 188 0
166 188 0
163 186 0
161 183 0
163 186 0
164 186 0
164 187 0
160 182 0
164 187 0
161 185 0
163 185 0
164 187 0
159 181 0
160 184 0
167 190 0
162 186 0
160 182 0
161 184 0
157 180 0
161 184 0
159 182 0
163 186 0
163 186 0
167 190 0
163 186 0
158 181 0
162 184 0
158 181 0
158 181 0
157 180 0
161 184 0
162 185 0
158 181 0
162 185 0
160 183 0
159 182 0
163 186 0
162 186 0
158 181 0
158 181 0
162 185 0
151 174 0
165 188 0
165 188 0
163 185 0
162 186 0
155 178 0
153 176 0
160 183 0
159 182 0
162 184 0
155 177 0
158 181 0
161 185 0
160 183 0
161 185 0
164 188 0
157 179 0
159 182 0
162 186 0
161 184 0
155 178 0
163 185 0
159 181 0
164 187 0
162 184 0
156 178 0
154 176 0
154 177 0
156 180 0
156 180 0
154 177 0
156 179 0
158 180 0
157 180 0
156 178 0
162 185 0
158 181 0
156 179 0
159 182 0
156 178 0
154 178 0
156 178 0
150 172 0
157 180 0
154 178 0
159 183 0
160 183 0
162 185 0
156 177 0
157 181 0
160 182 0
158 181 0
153 176 0
158 182 0
152 175 0
160 182 0
163 187 0
154 176 0
153 176 0
157 179 0
158 181 0
159 183 0
158 181 0
153 175 0
147 170 0
155 178 0
158 180 0
154 176 0
159 182 0
155 176 0
150 173 0
152 175 0
158 181 0
156 179 0
155 177 0
153 176 0
158 180 0
156 179 0
152 175 0
162 185 0
154 177 0
156 179 0
160 181 0
149 173 0
154 178 0
144 167 0
163 186 0
154 176 0
159 181 0
158 181 0
154 176 0
157 179 0
150 172 0
153 175 0
146 167 0
154 176 0
150 171 0
159 181 0
158 181 0
150 171 0
151 173 0
155 177 0
157 179 0
158 180 0
152 173 0
152 173 0
157 180 0
152 174 0
154 177 0
149 171 0
154 175 0
158 181 0
156 178 0
152 174 0
153 175 0
154 176 0
153 174 0
157 178 0
151 173 0
149 171 0
146 168 0
146 169 0
148 170 0
155 176 0
151 172 0
155 177 0
156 178 0
158 179 0
146 167 0
157 179 0
150 172 0
158 180 0
143 165 0
158 180 0
149 172 0
155 177 0
154 177 0
151 172 0
145 167 0
157 178 0
155 177 0
137 158 0
141 161 0
152 174 0
156 179 0
157 178 0
153 174 0
149 171 0
149 169 0
152 175 0
153 174 0
157 179 0
155 176 0
154 175 0
152 172 0
157 179 0
157 178 0
152 174 0
153 175 0
156 179 0
151 171 0
148 169 0
150 171 0
147 166 0
153 176 0
153 175 0
145 165 0
147 169 0
148 168 0
148 169 0
145 165 0
157 177 0
151 173 0
151 173 0
146 167 0
144 164 0
158 181 0
154 176 0
150 170 0
150 170 0
159 180 0
153 175 0
152 173 0
159 181 0
154 174 0
153 175 0
157 177 0
145 165 0
150 171 0
156 178 0
154 175 0
151 171 0
159 180 0
162 183 0
145 165 0
148 169 0
161 182 0
153 171 0
152 171 0
158 179 0
156 175 0
148 170 0
155 175 0
151 170 0
149 170 0
154 174 0
156 175 0
148 168 0
158 177 0
153 171 0
148 168 0
155 176 0
156 175 0
150 170 0
160 181 0
155 175 0
154 174 0
152 170 0
155 176 0
152 172 0
145 162 0
149 169 0
161 180 0
150 171 0
153 173 0
160 179 0
159 179 0
156 176 0
152 169 0
150 169 0
145 163 0
152 170 0
159 179 0
153 171 0
160 180 0
150 169 0
155 173 0
153 171 0
152 170 0
161 179 0
149 166 0
159 179 0
155 175 0
144 164 0
148 165 0
157 176 0
151 167 0
158 178 0
156 174 0
153 171 0
149 167 0
158 175 0
151 168 0
152 168 0
154 171 0
156 175 0
151 166 0
147 163 0
153 170 0
144 160 0
157 174 0
152 170 0
152 169 0
159 176 0
153 171 0
158 176 0
156 174 0
149 165 0
158 174 0
154 171 0
154 171 0
153 168 0
157 173 0
147 164 0
156 175 0
155 172 0
155 173 0
149 166 0
147 163 0
148 163 0
157 175 0
158 175 0
161 176 0
159 177 0
156 173 0
152 170 0
156 173 0
148 164 0
153 168 0
150 167 0
159 175 0
155 171 0
162 178 0
149 163 0
161 174 0
153 169 0
157 174 0
162 179 0
160 176 0
154 168 0
153 168 0
153 169 0
157 173 0
152 167 0
159 176 0
154 168 0
155 170 0
157 173 0
163 180 0
156 171 0
158 172 0
157 172 0
154 168 0
152 167 0
158 174 0
156 170 0
152 166 0
